/* XPM */
static char *_b2b2079316b4993cf69200b4cdf3c7dkZYFYLFOpQ9JRJn4[] = {
/* columns rows colors chars-per-pixel */
"512 512 242 2 ",
"   c #080D12",
".  c #0C1216",
"X  c #0D141A",
"o  c #0D1819",
"O  c #12161B",
"+  c #14191D",
"@  c #181C1F",
"#  c #111116",
"$  c #06090E",
"%  c #151C22",
"&  c #1A1E22",
"*  c #191E27",
"=  c #0E1820",
"-  c #1C2125",
";  c #1D242A",
":  c #1B262A",
">  c #1F2B32",
",  c #202427",
"<  c #21262B",
"1  c #24292D",
"2  c #282C2F",
"3  c #252C32",
"4  c #2A2E33",
"5  c #262A35",
"6  c #263136",
"7  c #2C3236",
"8  c #2D343A",
"9  c #2F383D",
"0  c #27323A",
"q  c #303437",
"w  c #31363B",
"e  c #33393E",
"r  c #383C3F",
"t  c #211D29",
"y  c #2E3941",
"u  c #2F3740",
"i  c #353C42",
"p  c #393E44",
"a  c #373D46",
"s  c #374146",
"d  c #3A4146",
"f  c #364149",
"g  c #3C444A",
"h  c #3F484E",
"j  c #3F4750",
"k  c #3E4951",
"l  c #41464D",
"z  c #42494E",
"x  c #48474E",
"c  c #444C53",
"v  c #494E55",
"b  c #484F58",
"n  c #434B55",
"m  c #465156",
"M  c #495156",
"N  c #465159",
"B  c #4C545B",
"V  c #4E595E",
"C  c #51565D",
"Z  c #51595E",
"A  c #504F56",
"S  c #4E5961",
"D  c #4C5661",
"F  c #505760",
"G  c #545D63",
"H  c #595E65",
"J  c #545E69",
"K  c #5A5F69",
"L  c #556165",
"P  c #596166",
"I  c #576268",
"U  c #5B646B",
"Y  c #5D696E",
"T  c #57696C",
"R  c #5C6671",
"E  c #5E6A71",
"W  c #5F7378",
"Q  c #62666D",
"!  c #60696F",
"~  c #636C73",
"^  c #696E75",
"/  c #666F78",
"(  c #656B76",
")  c #667176",
"_  c #697177",
"`  c #667279",
"'  c #6B757B",
"]  c #6E797E",
"[  c #69797B",
"{  c #71767D",
"}  c #71797F",
"|  c #35403F",
" . c #6E7781",
".. c #6E7981",
"X. c #677A86",
"o. c #737D83",
"O. c #787E85",
"+. c #767F88",
"@. c #767B86",
"#. c #768186",
"$. c #798187",
"%. c #768189",
"&. c #7B848B",
"*. c #7E898E",
"=. c #77888E",
"-. c #7C8691",
";. c #7E8A91",
":. c #7F8E99",
">. c #7E9094",
",. c #7F9198",
"<. c #81868D",
"1. c #81898E",
"2. c #808790",
"3. c #838D93",
"4. c #898E95",
"5. c #848E99",
"6. c #888F98",
"7. c #869196",
"8. c #899196",
"9. c #869299",
"0. c #8B959B",
"q. c #8D999E",
"w. c #86989E",
"e. c #91969D",
"r. c #91999E",
"t. c #959A9A",
"y. c #8C96A1",
"u. c #8D9BA2",
"i. c #8798A1",
"p. c #9197A2",
"a. c #939DA3",
"s. c #999EA4",
"d. c #939EA8",
"f. c #999FA9",
"g. c #8FA1A6",
"h. c #8FA0A8",
"j. c #94A1A6",
"k. c #99A1A6",
"l. c #95A3AA",
"z. c #9BA4AB",
"x. c #96A8AC",
"c. c #9DA9AE",
"v. c #9CA6B1",
"b. c #9EABB2",
"n. c #9BABB5",
"m. c #9EB0B4",
"M. c #A1A6AD",
"N. c #A1A9AE",
"B. c #A3A7A8",
"V. c #A1A7B2",
"C. c #A3ACB3",
"Z. c #A9AEB4",
"A. c #A6AFB8",
"S. c #AAAEB9",
"D. c #A5B1B6",
"F. c #A9B1B6",
"G. c #A5B2BA",
"H. c #AEB7BE",
"J. c #ABB4BB",
"K. c #ADB9BE",
"L. c #A7B8BD",
"P. c #B1B6BC",
"I. c #B0B8BF",
"U. c #B2B9BE",
"Y. c #B8BCBE",
"T. c #B1B5B6",
"R. c #ADB7C1",
"E. c #ADBAC2",
"W. c #AAB8C5",
"Q. c #B2B7C1",
"!. c #B3BCC3",
"~. c #B9BEC4",
"^. c #B3BEC8",
"/. c #BABFC9",
"(. c #B4C1C6",
"). c #BAC2C6",
"_. c #B5C2C9",
"`. c #BCC4CB",
"'. c #BEC9CE",
"]. c #B7C9CC",
"[. c #BECAD1",
"{. c #BCC6D0",
"}. c #AFC0C8",
"|. c #C1C6CC",
" X c #C2CACE",
".X c #C9CCCE",
"XX c #C2C6C6",
"oX c #C1C7D0",
"OX c #C4CDD3",
"+X c #C9CED4",
"@X c #C9CFD8",
"#X c #C3CED9",
"$X c #C6D1D6",
"%X c #CAD1D5",
"&X c #C6D2D9",
"*X c #CDD4DA",
"=X c #CED9DC",
"-X c #CBD8DB",
";X c #D1D4D6",
":X c #D1D6DB",
">X c #D3D9DD",
",X c #D9DCDE",
"<X c #D6D8D9",
"1X c #CBD0D0",
"2X c #E1DEDE",
"3X c #DBE1DE",
"4X c #CED9E1",
"5X c #D6DCE1",
"6X c #D9DEE2",
"7X c #D4DBE5",
"8X c #C5CFE0",
"9X c #E2DFE3",
"0X c #D6E0E2",
"qX c #DCE2E5",
"wX c #DEE4E9",
"eX c #DEE7E9",
"rX c #DCE9F1",
"tX c #E1E4E7",
"yX c #E2E8E6",
"uX c #E2E6E9",
"iX c #E5EAEC",
"pX c #E9ECEE",
"aX c #E9E6E7",
"sX c #EDF1EF",
"dX c #F1F1EF",
"fX c #E5EBF1",
"gX c #EBEEF1",
"hX c #E7EBF6",
"jX c #F0EFF2",
"kX c #EDF1F2",
"lX c #EDF4F9",
"zX c #E9F5FA",
"xX c #F2F4F4",
"cX c #F5F8F7",
"vX c #F9FAF6",
"bX c #F3F6F9",
"nX c #F5FAFA",
"mX c #FAFCFC",
"MX c #F8F6F7",
"NX c #F1EAE8",
"BX c #E4E1DF",
"VX c #B8C1BF",
/* pixels */
"' ' ..o...o...' ' Y g b ~ ' I I ' o.o.' ....~ S k g j n N B G U U G B b B S G I U U U U E E ~ ~ ~ ~ ` ` / / / / ' ' ' ' ' ' ' ' $.a.z.] L ' &.&.$.&.*.*.*.*.-.-.3.3.3.3.2.o.o.$.w.u.u.u.a.j.l.z.c.c.v.v.c.c.b.b.c.c.c.c.c.c.V.V.A.5.G ;.F.!.H.F.H.z.' &.I.!.!.Z.[ W j.Z.C.C.N.N.N.N.C.Z.9.b c.c.a.a.j.5.X.w.J.H.Y.Y.Y.Y.F.&.J l.P.F.F.J.J.F.F.G.J.J.J.J.F.J.H.H.H.H.I.I.I.I.I.I.H.H.H.H.I.I.!.!.!.!.!.!.!.!.!.!.!.J.p.z.H.H.I.I.H.I.F.z.' N.F.F.H.H.H.H.H.H.H.H.P.P.P.P.H.P.I.I.I.I.I.I.!.I.J.F.C.N.N.C.F.F.F.F.F.F.F.F.Z.Z.F.c.N.F.F.F.F.F.F.F.J.J.H.H.H.H.H.H.H.H.H.H.J.J.J.J.J.H.H.J.H.H.J.J.J.J.J.J.J.J.F.Z.Z.F.V.2.7.Z.H.H.H.!.!.H.z.9.C.H.H.H.H.H.H.H.H.H.!.!.!.!.I.!.!.!.!.!.!.I.I.I.I.I.I.I.I.I.I.I.I.I.I.I.I.I.J.I.H.J.c.U ! a.H.H.H.H.J.H.k.o.] a.C.V.J.!.~ _ F.F.F.F.F.F.F.F.!.C.B B 0.a.z.G.a.U a.H.R.J.G.Z.k.o.S a.H.J.F.F.F.F.Z.Z.Z.Z.Z.C.N.N.N.N.c.c.c.c.z.k.c.c.q.=.%.3.9.9.7.7.3.3.3.3.3.2.-.&.&.&...S G %.5.-.5.&.o.' / / ~ ~ / / / / ~ ! Y Y U U U H H H H P P J J F B M z g h h h h n d i y j U ' / ' ` E T S Y Y F 6 i U ~ ) ) ' ' ' ' ' ' ",
"' ' ..o...o...' ' G g U ` ' ' ~ ~ ..+.o...o.' E F k g k n N F I Y U F N I I I I L L I I I I U U U U U U R R R R ~ ~ ~ ~ ~ ~ ~ ~ ' $.7.#.J I ] #.&.$.&.*.*.*.*.*.*.3.3.3.3.#.o.#.9.y.u.u.a.a.j.l.z.z.c.c.c.c.c.c.c.c.c.c.V.V.C.C.J.z.' / z.!.!.I.H.H.7.] p.P.~.J.9.S %.Z.Z.C.C.D.N.Z.D.F.c.F 3.Z.z.k.Z.v.%...z.!.!.Y.Y.Y.F.0.I -.J.F.F.J.J.J.F.F.F.F.F.F.F.F.J.J.H.H.H.H.H.H.H.H.H.H.H.H.H.H.I.I.I.I.!.!.!.!.!.I.!.J.s.k.J.J.H.H.H.H.F.N.o.k.F.F.H.H.H.H.H.H.H.H.P.P.P.P.H.H.H.H.I.I.I.I.!.I.J.F.F.C.C.F.F.F.F.F.F.F.F.F.Z.Z.F.c.c.F.F.F.F.F.F.F.F.F.J.J.J.J.H.J.J.J.J.J.J.J.J.J.J.J.J.J.J.J.J.J.J.J.J.J.J.J.F.Z.Z.F.V.3.k.H.H.H.J.H.H.J.k.q.D.H.H.H.H.H.H.H.H.H.!.!.!.!.I.I.!.!.!.!.I.H.H.H.H.H.H.H.H.H.H.H.H.H.H.H.H.H.H.J.P.I.3.N $.c.H.H.H.H.!.H.9.' 9.C.Z.C.F.c.G z.Z.Z.Z.Z.F.F.F.F.J.o.n ' k.a.c.C.o. .J.F.G.F.F.Z.0.B =.R.H.J.F.F.F.F.Z.Z.C.Z.Z.C.N.N.c.c.c.c.c.c.z.j.k.a.3.=.*.7.9.9.7.7.3.5.5.5.2.2.-.&.%.' n k ..-.3.7.2...' ` ~ ~ ~ ~ ~ ~ ~ ~ Y U U U U U U H H H P H F F Z B N M b c n n j j g i i n U ~ ' ~ ' ` ~ Y U E Y G b 0 B ~ ) ) ' ' ' ' ' ' ",
"' ' ..o...o...' ~ n N ' / ~ ..~ E ' %.%.o.o.o...' G j i g k N S U U U Y ~ ~ E E ~ ~ ~ ~ E ~ ) ) ~ ~ ~ ` ` ` ` ` ' ' ' ' ] ] ..o.#.#.$.&.] L L ] #.&.$.&.&.&.&.&.*.*.2.3.3.*.#.+.=.9.u.u.a.a.j.j.z.z.z.z.z.z.c.c.V.V.V.V.V.V.C.C.F.G.0.E &.Z.!.!.J.H.C.2.O.M.I.!.b.Y I a.D.D.D.D.D.F.F.F.D.%.I C.G.Z.H.!.a. .5.H.!.U.Y.Y.Y.z.' R C.F.J.J.H.J.J.F.F.F.F.F.D.D.F.J.H.H.H.H.H.H.H.H.H.H.H.H.H.H.I.I.P.P.!.!.!.!.!.!.!.H.N.a.F.J.J.H.H.H.F.Z.&.r.F.F.J.J.H.H.J.J.J.J.J.J.P.P.H.H.H.H.H.H.H.H.H.H.J.J.J.F.F.J.J.J.J.J.J.J.F.F.Z.Z.F.c.k.Z.F.F.F.F.F.F.F.F.F.F.J.J.J.J.J.J.J.J.J.J.H.J.J.J.F.F.J.J.J.J.J.J.P.P.J.J.F.S.J.Z.c.3.C.H.J.J.H.H.J.D.a.j.J.H.H.H.H.H.H.H.H.H.I.I.I.I.I.I.I.I.I.H.H.J.J.J.J.J.J.J.J.J.J.J.J.J.J.J.J.J.I.F.J.V.~ F a.F.H.P.P.H.!.N.o.&.C.J.F.F.J.&.Y F.C.C.C.Z.Z.F.F.F.z.Z B 2.v.k.b.u.` d.G.R.J.R.J.V.' ~ G.R.H.J.F.F.F.F.Z.Z.C.C.Z.C.N.c.c.c.c.z.z.z.z.j.a.3.$.=.7.9.7.7.3.3.2.2.2.2.2.2.&.&.' G N ` ..=.=.5.$.] ' ' / ~ / ~ / / / / ~ ! Y Y Y Y U U U U U U U U J J J P P J n n h g y a n G ~ ~ ` ' ' E E ~ ) Y U Y / 8 n Y ) ) ' ' ' ' ' ' ",
"' ' ..o...o...' E i U o.....o.' ~ ..+.o.%.o.......~ B d i f k N F F F F G J U U ~ ~ ~ ~ ) ) ' ' ' ' ' ' ' ' ' ' o.o.o.o.o.o.#.$.%.#.$.3.3.] G Y +.#.$.$.$.$.$.$.&.&.*.3.3.3.*.#.o.5.y.a.a.a.j.j.z.z.z.z.z.z.c.c.V.V.V.V.C.V.V.V.F.V.c...~ z.!.R.J.!.!.a.} 0.J.!.H.*.V $.G.F.F.F.F.F.F.F.V.j.B u.R.H.J.~.R.&...b.!.!.Y.Y.F.P.5.B 7.P.J.J.H.J.J.F.F.Z.Z.Z.Z.D.F.J.H.H.H.H.H.H.H.H.H.H.H.H.H.H.I.I.P.P.!.!.!.!.!.!.I.I.Z.a.F.F.J.H.H.J.J.J.2.0.F.F.J.H.H.H.J.J.J.H.J.J.P.P.H.H.H.H.H.H.H.H.H.J.J.H.J.F.F.J.J.J.J.J.J.J.F.F.Z.Z.F.c.a.C.Z.F.F.F.F.F.F.F.F.F.F.F.F.F.F.F.J.J.J.J.H.H.J.J.F.F.J.J.J.J.J.J.P.P.J.J.F.F.J.C.z.7.C.J.F.J.H.!.J.D.q.c.H.!.H.H.H.H.H.H.H.H.!.!.I.!.I.I.I.I.I.H.H.J.J.J.J.J.J.J.J.J.J.J.J.J.J.J.J.J.H.J.J.0.M } V.H.H.P.H.H.F.0./ k.F.J.Z.H.z.U 2.c.V.V.V.C.F.F.F.F.+.n } k.j.z.V.&.=.F.J.R.J.R.C.a.I u.C.J.H.J.F.F.F.F.Z.Z.C.C.C.C.N.N.N.N.k.z.z.z.z.j.0.#.%.3.7.7.7.7.3.3.-.-.-.-.;.&.=.&.I N ' %.=.7.=.#.o.o.#.o.' ' ' ' ' ' ' ' ' / / ~ ( ~ ! Y Y Y Y Y U P J G F Z B M n h d a y n J E ~ ` ' ' / Y Y ` ' U U ' ' m 8 I ) ) ' ' ' ' ' ' ",
"........' ..] ' S h o.o.o.o...'  .....' o.#.#.o.o...~ S g i d N B B F B B S G J I U U Y Y Y Y Y ~ ~ ~ ~ ~ ~ ` ' ' ' ' ' ] ] ..o.o.o.#.#.3.*.) V / &.+.$.$.$.&.&.&.&.*.*.3.2.*.$.o.=.0.a.u.a.a.j.k.k.z.z.z.c.c.c.c.c.V.C.C.C.C.V.C.A.V.0.~ +.H.!.R.!.!.C.O.' C.!.!.a.L U b.G.J.D.F.D.C.Z.F.C./ R A.F.H.Q.~.z.` w.J.!.I.Y.P.Y.c.U / J.H.F.J.J.J.F.F.F.F.Z.D.D.D.F.F.F.F.J.J.J.J.J.H.H.H.J.J.J.H.I.P.P.!.!.I.I.I.I.!.!.Z.k.N.J.J.F.J.J.J.J.r.&.J.F.J.J.J.J.J.C.F.H.J.J.J.J.H.H.H.H.H.H.H.H.H.J.J.F.F.F.F.F.J.J.J.J.J.J.F.F.F.Z.C.z.a.V.Z.C.D.D.F.S.D.D.D.F.J.J.F.F.F.F.J.J.J.J.J.J.J.J.F.F.F.F.F.F.J.J.J.J.J.J.F.F.Z.C.7.7.Z.D.J.J.H.J.J.z.9.V.!.H.H.H.H.H.H.H.H.H.H.H.H.J.H.H.H.H.H.H.H.H.H.J.J.J.J.J.J.J.J.J.J.J.J.J.J.J.F.F.F.o.z 7.F.J.H.!.!.I.z.] &.F.F.F.C.C.7.N r.c.N.V.V.C.Z.Z.J.c.G Z r.C.z.z.u.` z.F.G.F.J.!.c.` ..b.!.R.J.F.F.Z.Z.Z.C.C.C.C.V.V.c.c.z.k.z.z.z.z.k.a.3.&.*.3.3.3.3.3.3.2.-.-.-.-.2.&.%.~ b ' =.=.$.#.+.o.] ] ' ' ' _ ) / ~ ~ ~ ~ ~ Y Y U U U U U U U P J F F Z B N M m b b h a i b J E ~ ` ` ' ~ Y Y ~ ~ ~ L U ) ' ~ 6 m ' ' ' ] ' ' ' ' ",
"..........] .. .j I +.&.o.o...' ..o...' ` o.%.o.o.o.] ~ B f a k b N B B B S F J J H U U U U U U Y Y E E E ~ ~ ~ ) ) ) ) ' ' ' ' ] ] ] o.$.2.$.~ V ' #.o.#.&.$.$.&.&.&.&.*.*.&.&.o.o.-.0.u.u.a.a.a.j.k.k.z.c.c.c.c.c.c.c.V.C.V.V.C.A.G.j.+./ a.R.!.!.!.J.8.! 4.~.!.J.&.V ;.G.D.C.Z.C.C.C.F.V.=.k +.a.F.!.`.!.&.` C.R.I.Y.Y.P.Z.o.B a.J.H.J.J.F.F.F.F.F.F.D.D.D.D.F.F.F.F.J.J.J.J.J.J.J.J.J.J.J.J.P.P.I.I.P.P.P.P.!.I.Z.k.z.F.F.F.J.J.J.J.k.+.F.Z.J.J.J.J.F.N.S.H.J.J.J.J.H.H.H.H.H.H.H.H.H.J.J.F.F.F.F.F.F.F.F.F.H.F.Z.V.C.N.V.k.a.z.c.M.V.V.V.V.V.C.D.D.F.F.F.F.F.F.F.F.J.J.J.J.J.J.F.F.F.F.F.F.F.F.F.J.J.J.F.F.Z.N.3.q.C.D.J.J.J.J.D.a.a.D.H.H.J.J.J.J.J.J.J.J.H.J.F.F.F.F.F.F.J.J.H.H.J.J.F.F.F.F.F.F.F.F.F.F.J.J.J.J.F.F.k.M Y k.J.J.H.!.!.J.3._ z.H.F.J.F.k.U ' k.c.c.V.C.Z.Z.Z.H.1.c o.c.V.c.3.I ..Z.J.F.J.J.F.9.Y 9.V.G.J.F.F.Z.Z.Z.C.C.C.C.C.V.N.c.z.k.k.k.k.k.k.a.7.$.$.3.3.3.3.2.2.*.&.=.=.=.=.&.&.' b J &.-.=.+.o.' ' ' ' ) ) ) ~ ~ ~ ! Y Y U Y U U K H H H J J G F Z B B M M M b b n l a a h G Y E ` ` ` ~ Y Y ~ ~ / ~ I Y / ' ' h i / ' ' ' ' ' ' ' ",
"........o.....I a ..%.&.o.o...' ..o...' ~ ' o.#.o.o...' E B d i n b b B B S S G J H U U U U U U U Y Y Y Y ~ ~ ~ ~ ~ ~ ~ ~ ` ` ` ' ' ' ] ] &.&.o.G L ' o.o.+.#.&.$.$.$.$.$.&.$.$.%.' o.5.0.w.u.u.a.a.d.j.z.z.c.c.z.z.c.c.c.V.N.N.N.Z.F.C.a.~ @.S.!.H.I.!.s.' { S.!.I.z.` E l.D.b.C.Z.C.Z.F.C.j.j B a.S.F.Y.).g.` 0.J.I.I.P.F.P.a.F +.S.J.J.F.F.F.F.F.F.F.D.D.D.D.G.G.F.F.F.F.F.F.J.J.J.J.J.J.F.F.J.J.P.P.P.P.H.H.H.H.Z.k.a.C.Z.F.F.F.F.F.V.o.k.Z.J.J.J.J.F.k.N.J.P.P.J.J.H.H.H.H.H.H.H.H.H.J.J.F.F.F.F.F.F.F.F.F.Z.V.c.k.z.k.z.a.a.z.z.c.N.N.c.N.c.V.C.C.D.D.D.D.F.F.F.F.F.F.F.F.F.F.F.F.F.F.F.F.F.V.V.F.J.J.F.F.C.k.1.z.C.F.F.J.F.J.C.9.j.F.H.J.F.F.F.F.F.F.F.F.D.Z.Z.Z.F.F.F.F.F.F.J.J.F.F.F.F.F.F.F.F.F.F.F.F.F.F.F.J.F.F.+.d 2.J.J.F.J.H.!.k.] &.Z.J.H.J.J.0.n 9.c.z.c.N.V.C.J.C.V.U ! s.C.V.D.#.k 9.H.J.J.J.J.k.' ..V.F.G.G.F.Z.C.C.C.C.C.C.V.V.c.c.z.k.j.j.j.j.j.j.9.&.o.$.2.3.-.*.*.*.$.$.%.%.&.&.+.' G b ' &.%.o.' ' ) ) _ ~ ! ! ! ! ! Y U U U U U J J G G G G G Z Z B B M M c c n n z h a a j B U ~ ` ` ~ E U U E ~ / / ~ Y ~ ) ' o.U 8 V ) ' ' ' ' ' ' ",
"..........o.' h B o.+.&.o.o...' ..#.o...` ~ ` o.o.o.o.....U b i d j n N B S S G G J H H P P U U U U U Y Y ~ ~ ~ ~ ~ ~ ~ ~ ~ ~ ~ ) ) ' ' ' o.#.&./ F U ] o.o.o.+.#.#.#.#.#.#.&.&.%.' ` %.7.0.w.u.u.a.a.a.k.z.c.c.z.z.c.c.c.c.N.N.N.C.F.G.v.&.R a.!.!.I.!.C.4.U a.!.I.H.9.Y &.l.b.C.Z.C.Z.C.J.C.' I C.I.Y.Y.!.b.&.#.b.H.I.P.F.P.N.' U f.J.J.F.F.F.F.F.F.F.D.D.D.D.G.G.F.F.F.F.F.F.F.F.F.F.F.F.Z.C.Z.S.J.J.J.P.J.J.H.J.Z.k.r.V.C.Z.F.F.F.F.C.+.0.D.J.J.J.J.F.a.z.J.P.P.J.J.H.H.H.H.H.H.H.H.H.J.J.F.F.F.F.F.F.F.D.D.C.V.V.N.C.V.Z.c.N.V.V.C.C.C.C.C.V.V.C.C.D.D.Z.Z.Z.Z.Z.S.F.F.F.F.S.S.Z.Z.Z.Z.Z.D.Z.z.z.Z.J.J.F.F.C.a.1.N.C.F.F.J.D.F.V.3.z.D.J.F.D.D.D.D.G.D.D.D.Z.Z.Z.Z.Z.Z.Z.Z.Z.Z.F.F.F.F.F.F.F.F.F.F.F.F.F.F.F.F.F.F.Z.V.F Z k.!.J.F.J.J.F.0./ r.H.!.J.F.k.U ~ a.k.k.z.c.N.V.c.D.7.V 7.V.J.F.F.o.` v.J.F.J.Z.V.%.E a.C.V.G.G.Z.Z.C.V.C.C.C.C.V.N.c.z.k.k.j.a.j.j.a.a.2.o.o.&.*.*.&.$.$.$.&.#.#.#.#.#.+.U b U ..&.] ' ) ) ) ) ) ! U U ! ! U U U U U K K J G G F F F F B B N N b c n n h g d s a n F U ~ / ` ` E I U E ~ ~ / / ~ Y ) ) ' ] ] n s Y ' ] ' ' ' ' ",
"#.o.o.%.#...N g  .%.=.%.%.+. .' o.o.o...] ' ` ' ' o.o.o.] ` J n d i d n b m V S Z Z F F J J P U U U U U Y Y ! ~ ~ ~ ! ~ ~ ~ E ~ ~ / ` ` ' ] ..o.] Y V Y ] o.] } o.o.o.o.+.+.+.+.%.o.' ' %.9.a.u.q.q.q.a.a.a.k.z.z.z.z.z.c.c.c.V.N.N.Z.D.V.a./  .C.I.H.J.J.k.' &.F.P.H.J.w.` z.J.J.D.D.Z.C.G.G.0.L a.P.Y.P.Y.H.a.` 9.F.H.J.F.H.H.5.D -.J.F.F.F.F.C.C.C.C.C.C.C.C.Z.Z.G.A.A.A.F.F.F.F.F.F.S.S.C.C.S.F.F.F.J.J.J.J.Z.F.Z.V.a.c.Z.Z.F.F.D.D.D.3.;.b.C.Z.F.F.H.c.a.H.P.P.P.P.P.P.H.H.J.J.J.J.J.F.F.F.F.F.D.D.C.C.C.C.C.V.V.c.c.c.c.c.V.V.V.V.V.V.C.C.C.C.C.C.C.C.Z.Z.Z.Z.Z.Z.D.D.Z.D.Z.Z.Z.Z.Z.Z.Z.D.D.k.C.V.Z.Z.D.D.N.7.9.z.C.N.C.C.Z.D.a.7.z.C.G.G.G.Z.C.C.C.C.C.Z.Z.Z.C.C.C.C.C.C.C.C.C.Z.C.C.C.C.C.C.C.C.C.C.C.C.C.C.C.C.C.9.b o.D.H.J.H.H.I.z.' ] c.D.C.C.c.&.B r.J.H.I.!.!.!.Z.G.C.Y ] N.J.C.F.a.' u.F.F.F.G.Z.9.U =.b.C.C.G.C.C.V.c.c.c.c.c.z.z.z.z.z.j.j.j.j.q.a.a.3.] ] #.$.&.=.&.%.%.%.o.o.o.o.] ] Y h G ' ] ' ) ) ) / / ~ ~ Y U U P P U U J L L L L G G G Z Z B B B M M c c n h g d a i 8 h B L Y ~ ' ) Y I U Y ~ ~ ~ ~ ~ ~ E ~ ` ' ] ../ e N ' o.] ' ' ' ",
"....o.#.' N f E =.-.=.%.%.+. .' o.o.o..... .' ` ' ..o.o.' ' ~ F h i i h n c m m B B F F F F J H P J J J P U U U Y Y U Y Y Y Y Y ~ / ` ' ' ' ' ' +.' G B ) ' ] ] ] o.o.o.o.o.o.o.o.+...` ] &.9.0.q.q.q.q.a.a.a.a.j.k.z.z.z.c.c.c.N.N.V.D.F.C.+.U 0.C.J.J.F.C.<.~ z.J.!.J.D.0.7.R.J.F.D.Z.C.D.F.z.` ) Z.P.P.Y.I.c.] o.C.F.F.F.J.J.v.R E v.Z.Z.C.C.C.C.C.C.V.V.V.V.V.V.C.C.C.Z.Z.Z.S.S.S.S.S.S.C.C.C.S.S.S.Z.S.F.F.Z.F.Z.V.z.V.Z.Z.Z.Z.D.D.D.0.#.c.C.Z.F.F.H.C.a.J.J.J.J.J.J.J.H.H.J.J.J.J.F.F.F.F.Z.Z.D.C.C.C.C.C.C.V.c.c.c.c.c.c.c.c.c.c.V.V.V.V.V.V.V.V.V.C.C.C.C.C.C.C.Z.Z.Z.Z.C.C.C.C.C.C.C.C.F.z.Z.C.C.C.C.C.z.1.0.z.N.N.N.C.Z.Z.a.0.b.C.V.z.c.z.z.z.V.V.V.V.V.V.V.c.c.N.c.c.N.N.V.V.V.V.V.V.N.N.N.N.N.N.N.N.c.c.c.c.k.) m a.J.H.J.H.!.J.q.U &.k.k.j.z.7.G o.V.!.!.!.`.!._.J.C.%.U 0.c.Z.C.a.' &.Z.D.Z.F.F.c./ / k.Z.G.C.V.c.c.c.z.z.z.z.k.j.a.a.a.a.a.a.a.a.a.a.9.&.' ..#.$.&.&.%.+.o.o.....o.o...` c m ! / ' ' ) ~ ~ ~ ~ ~ Y U U U P P P P G G G G G V V V B B M M M M c c z h s i i 8 8 s B G Y ~ ~ ~ Y I U U Y ~ ~ ~ ~ ~ ~ ~ ~ ` ' ' ..o.U 8 U ' ' ' ` ` ",
"' o.%.' c y I #.-.-.=.%.%.+... .o.o.o.......' ' ~ ` ] ] ..' / U B d 9 i g h n c m B B Z Z Z F F G G F F F G J J U U I U U U U U Y E ~ ~ ~ ` ` ' ' ] Y V J ' ' ] ' ] ] ] ] ] ] ] o.o.] ` Y o.-.9.9.9.q.q.q.r.a.a.a.a.j.k.z.z.c.c.c.V.V.V.V.Z.q.Y / a.F.F.Z.J.k.' +.C.H.F.J.c.$.j.J.J.D.D.D.G.H.H.9.Z 1.D.I.P.I.D.1.L 9.F.F.F.F.J.G.%.N 5.V.V.N.N.V.V.V.V.c.c.N.c.c.c.b.b.b.V.V.C.C.C.C.C.C.C.V.V.C.C.C.C.C.C.C.C.C.Z.C.V.c.c.V.Z.F.F.D.D.b.j...a.V.C.Z.Z.J.Z.e.C.F.F.J.J.J.J.F.F.F.F.F.F.F.F.C.C.C.C.C.C.C.C.C.C.V.c.c.c.c.c.c.c.c.c.c.c.c.c.c.c.N.N.N.N.V.V.V.C.C.C.C.C.C.C.C.C.C.C.C.C.C.C.C.C.c.a.z.z.c.c.c.c.r.&.r.z.c.c.N.V.C.c.7.q.b.b.k.u.a.d.j.k.z.z.z.c.c.c.z.z.z.z.z.z.z.z.z.c.c.c.z.z.z.z.z.z.z.z.z.z.z.z.z.z.9.B ~ z.H.J.L.L.!.C.] Y a.c.z.V.z._ N k.V.C.Z.F.H.J.J.V.u.V o.c.c.C.r.' F a.G.G.V.G.C.+.B 2.b.G.V.c.z.z.z.z.k.z.k.j.j.a.a.a.a.a.a.q.q.q.a.9.&.) ' ] +.#.o.o.o...' ' ` ` [ ' ] G s G / ) ) / ~ ~ ! ! Y Y U U J J H H H J F F F F V B B B M M c c M c c z h s i 8 3 4 i c G U ~ ~ ~ U L I U Y Y ~ ~ ~ ~ ~ ~ E ~ ` ' ' ] o.o.F a U ~ ' ` ) ",
"o.o.T f n E &.=.-.-.%.+.%.+...' o.o.o.........] ` ~ / ' o...' ~ Y N i 0 i a g h c b M B B B Z Z Z Z Z Z Z Z F G J J L L U U U U U U U Y Y ~ ~ / ) ' ) I b ~ ' ' ' ' ' ] ' ' ' ' ..] ' ' J ~ o.5.3.7.9.9.q.q.r.q.q.a.a.a.k.z.z.c.c.c.V.V.V.N.k.o.Z 2.c.Z.F.C.z.+.F 0.D.C.C.z.#.o.J.J.D.D.D.F.H.H.C.' Z q.J.H.J.F.7.B ' c.D.D.D.D.R.u.N ] v.c.c.c.N.N.c.c.c.c.c.c.z.z.z.z.z.z.v.b.N.N.N.N.N.c.c.z.z.z.c.c.V.V.V.V.c.V.V.c.k.k.V.J.J.J.J.J.z.c.&.5.c.V.C.C.C.C.7.z.S.S.S.S.F.F.F.F.F.F.F.F.F.C.C.C.C.C.C.C.C.C.C.C.V.c.c.c.c.c.c.c.c.c.c.c.c.c.c.c.N.N.N.N.N.N.V.V.b.b.V.V.V.V.V.V.V.V.V.V.V.V.V.V.c.a.c.z.c.c.c.c.7.+.a.z.a.a.k.z.k.a.&.0.z.z.a.0.a.j.z.z.z.k.k.z.z.k.k.j.j.j.j.j.k.k.k.k.k.k.k.k.k.k.k.k.k.k.k.k.k.k.k.k.+.B *.V.L.J.L.D.F.q.L o.Z.D.J.F.a.B ] S.c.N.N.C.C.V.V.a.U E j.z.c.z.} m #.c.G.v.b.V.0.U / a.c.z.z.z.k.k.z.k.k.k.j.a.a.a.a.a.a.a.q.q.w.w.9.&.' Y ) ' o.o.o...] ' ` ` ~ E E ~ Y k B ~ ~ / / ~ ~ Y Y Y Y U U P J G G G G G Z Z V V B B N m M M c c c c z z g i 8 4 - 7 h V U Y ~ ~ Y G G U U Y E ~ ~ ~ ~ ~ ~ ~ ~ ` ] ..] ..o.' L i V ~ ` ` ",
"E f f S ` =.-.-.-.-.-.-.#...` ..o.+.o.....] ' ' ' / E ~ `  . .` ) I b 9 6 8 i d h z c M B B B N N N B B V Z Z F F F G G U I L L J G G G U ~ ~ ~ U U ! U B B U ~ Y ~ ~ ~ ~ ~ ~ ~ / ~ ~ ~ I F ~ &.2.3.7.9.0.q.q.q.q.q.q.a.a.j.j.k.z.z.z.z.k.z.k.a.( U 0.C.C.C.C.q.U Y a.V.C.z.1.F *.D.F.G.F.G.C.C.F.7.h ` l.J.J.D.r.! V 9.V.C.C.D.G.c.E B 9.k.k.c.z.z.z.z.k.z.k.k.k.k.k.k.k.k.k.k.k.k.z.z.z.z.z.z.k.k.k.k.k.k.z.z.z.z.c.c.a.9.7.c.Z.J.V.c.j.z.7.#.c.c.c.V.V.N.7.3.M.C.Z.C.Z.Z.Z.Z.Z.Z.F.F.Z.Z.C.C.C.C.C.C.C.V.b.b.V.V.c.c.z.z.z.z.z.z.z.z.z.z.z.z.c.V.C.N.c.c.c.c.z.z.z.z.z.z.c.c.c.c.c.c.c.z.z.k.a.k.k.j.j.k.a.q.' ~ &.5.&.2.3.3.-.o.X.u.l.l.k.k.z.k.d.a.a.a.a.a.j.a.a.a.a.j.j.j.a.a.s.s.a.a.a.a.a.a.r.r.a.a.a.a.q.q.q.9.G U k.c.D.D.Z.C.k.' V a.D.C.F.c.' d 9.C.z.z.z.c.c.a.a.o.d =.V.z.z.3.V L a.z.c.z.b.a.` S 3.a.k.k.a.a.a.a.a.a.a.a.a.a.0.9.0.0.0.0.0.9.w.9.3._ L Y ) ' ' ' / ~ ~ ~ I Y U I G G k m Y ~ ~ ~ ) Y U Y U P U P P G F Z Z Z F F V B B B B m m b c c z z h g s s i w 4 ; 0 s b G L Y Y U V G L U U Y ! ~ ~ ~ ) ' ~ ~ ~ / ] ......o.o.o./ N a m ~ ",
"n S ` o.=.5.5.;.-.-.-.-.#.` ` ..+.o.o.....] ' ' ' ` ~ E ~ ` ' ' ' ~ G h 8 0 8 i d g h n M M M M M M N B B B C Z Z V V V F F S S G G G S J U U U U F P G I B n V m B V V V V G G G G G G G B S ' $.3.3.7.7.9.9.9.9.9.9.q.a.a.a.a.j.j.j.j.s.k.k.k.1.U ' a.N.V.C.k.] B $.j.V.k.7.! F 9.F.V.b.c.z.k.M.r.m m 7.c.C.c.q.] z _ z.c.c.C.V.G.%.k +.a.a.a.a.a.a.a.a.a.a.a.a.a.a.a.a.a.a.a.a.a.a.a.a.s.a.s.a.a.a.a.a.a.j.j.k.k.k.k.a.&.1.c.k.7.] o.7.a.>.o.0.k.V.k.z.c.a.o.a.k.V.V.N.N.N.N.C.C.C.C.C.V.V.N.N.N.c.c.c.c.z.z.c.c.c.z.z.z.z.z.z.z.z.z.z.z.z.z.z.c.c.z.k.k.k.k.j.j.k.k.z.z.z.z.z.z.z.z.z.z.k.k.9.q.q.9.3.7.3.&.G E o.=.7.0.u.u.y.;.=.u.d.d.a.a.a.a.a.u.u.u.u.u.a.u.u.u.q.a.a.a.a.a.a.a.a.r.r.r.r.0.0.9.0.0.0.0.7.9.9.o.N &.z.c.V.V.c.k.$.m ' k.k.k.a.3.g H s.k.a.a.a.a.8.e.&.b Y 0.k.j.l.) h #.a.z.z.k.0.=.G ' 0.a.a.a.a.a.u.u.q.q.q.q.q.0.7.3.7.7.7.7.5.3.7.;.' L F U Y U U U U K J J S S B N N N s N J V F U Y U L I J G F Z Z Z B B B B B B B m m b b c c n z z g g s i e e w 0 4 4 s n B G I I L F V G L U U Y ~ ~ ~ ~ ) ' ' Y U / ' ] ..o.o.o.&.$.o.E m y ",
"&.#.-.-.7.9.9.5.:.:.-.%.` ~ ' #.&.+.o.o...] ' ' ' ' ` ~ U Y ~ ` ' ~ U V g 8 4 0 i a g h n c c b b M M N N B B B B B B B G G G G G F B B S G F F B N P ~ Y J c h h h h n c b m m N N N N B N B J ] $.3.3.3.3.3.3.7.7.9.9.q.a.a.a.a.a.a.a.a.a.a.a.p.^ J $.a.c.V.c.7.G B 9.k.s.e.' d Y a.c.j.a.a.a.a.j.E 0 E g.c.x.q.*.m h 7.z.z.c.z.V.a.V U 4.9.9.9.9.9.9.9.9.9.9.u.u.u.u.u.u.u.u.q.q.q.q.r.r.a.a.a.a.p.p.a.a.a.a.a.a.a.a.e.&.3.k.9.2.] &.7.w.7.5.$.$.0.a.r.a.a.1.0.a.z.z.z.z.z.k.k.k.k.k.k.a.a.a.a.a.a.a.a.q.q.q.q.q.q.q.q.q.q.q.q.q.q.q.a.a.a.a.a.a.a.a.a.a.r.r.q.a.a.a.q.q.r.r.r.r.r.r.0.0.9.9.2.3.*.#.=.&...~ ~ 3.5.5.u.j.j.a.y.;.;.y.y.y.y.y.u.y.0.0.0.0.0.0.0.0.9.9.9.9.9.9.0.0.0.0.0.8.8.9.9.7.3.3.3.3.3.3.1.3.*.J J q.z.c.z.z.a.7.G g 3.k.q.3.$.V 4 ] a.r.r.0.9.4.1.4.Y i &.a.a.k.;.m V 9.u.a.a.0.2.J I 2.9.9.0.0.0.0.0.0.9.9.9.9.9.7.3.1.3.2.3.2.*.3.=.o.L B B G F V B B B N b b b n k n B h m B G B b B m V L I Z B N B B B B B B M M M m b c c c h h h h g d s e e q 8 4 4 0 i n m B V G V B V F G L U U Y ~ ~ ~ / ) ' ' ~ G E ~ ' o.o.+.$.&.&.%.-.$.~ ",
"9.-.9.9.5.7.7.5.5.:.-.o.G ` %.&.%.+.o.o.o.] ' ' ' ' ` / U U U ~ ) / Y L N d 0 3 8 e i s h h h z c c b b b m M N N N B B B V V S S B B B B S B B Z N J ~ ~ Y V c m c h g c c b m N N N N S B F J ~ ' $.&.&.*.1.1.3.3.3.7.9.0.0.q.0.0.0.0.r.a.a.a.p.<.F / 3.z.c.c.j.] k E 0.a.e.&.b g ] 9.u.0.0.0.0.w.9.f N 9.l.x.7.7._ e ) a.j.z.z.c.z.' n +.<.3.3.3.3.3.3.7.7.7.9.9.9.0.0.0.0.0.q.q.q.q.0.0.0.0.r.r.r.r.e.r.q.q.0.0.e.e.0.2.&. .! ! ! *.w.w.9.q.3.#.1.&.+.o.o.o.o.$.$.&.*.*.*.*.1.1.1.1.&.&.&.&.$.$.#.#.#.+.o.o.o.o.] ] o.o.o.o.o.o.o.o.+.+.+.+.+.o.o.+.o.o.o.o.o.o.o.o.o.o.o.o.o.o.o.o.o.o.] ] +.#.o.' ` ' ` ~ =.u.5.=.5.9.9.5.-.;.;.5.0.0.0.0.0.0.9.5.3.3.3.3.9.3.3.3.3.7.7.7.7.7.9.7.7.4.4.3.3.3.2.2.1.1.1.1.*.3.' m #.a.j.a.k.k.9.#.d U 7.9.&.&.] i z 2.9.7.9.7.2.&.3.o.d G 3.0.a.0.~ s #.u.9.9.9.2.' B ..5.2.5.3.9.9.9.5.5.3.7.3.3.3.3.&.$.&.&.&.&.2.*.o.) V V V V V B b c n n n j k h n B c N V L I F N m B V V N M M N B B B B B m m m m b c n h h h h g g d s s 9 8 7 7 4 3 8 h n b B B B m N V F G L U U Y ~ ~ ~ / ) ' ' ` G I ~ ' o.o.$.&.&.$.=.-.-.;.",
"&.-.;.-.7.7.7.7.5.3.-.o.N F o.&.&.%.+.o.o. .' ' ' ` ~ E Y U U U E ~ ~ U G b a 7 3 0 e a i s g g h h h n n c b m m m m m N B B V V V B B F F F F F F F F G G V m z B h m B B Z Z I I I U U U L L L ~ o.%.+.%.&.=.&.1.1.2.3.3.3.3.3.3.4.3.9.7.3.3.4.1./ B ] 7.a.a.q.&.J h +.3.2.$.G i N &.2.2.-.=.3.9.0.~ y ) w.l.9.;.#.c h 2.0.a.a.a.j.3.N U $.&.&.&.1.&.1.2.2.3.3.3.3.3.3.3.7.7.7.7.7.7.7.7.9.9.9.9.8.9.9.7.7.7.0.0.0.0.0.9.3.&.&.+.&.9.u.q.0.0.9.9.9.9.5.3.-.-.&.$.#.#.#.#.#.#.+.+.+.+.+.o.+.+.%.+.o.o.+.+.+.+.+.+.+.+.+.+.+.+.+.+.&.+.+.+.+.+.+.+.o.o.o.o.o.o.o.o.o.o. . . . .] ] ] ] o.o.o.+.*.*.*.*.*.3.7.3.3.9.5.-.=.=.&.&.&.&.&.&.-.2.3.3.5.5.3.2.3.3.5.2.2.2.3.3.3.3.3.3.3.3.3.3.2.*.*.1.2.2.*.&.&.$.&.#.#.] V G 2.q.k.a.a.j.9.V i o.9.3.o.&.G 3 ~ 4.4.1.3.4.3.&.$.N s #.*.3.9.&.g N -.0.-.3.2.o.N I o.=.&.&.&.&.&.&.&.&.&.&.&.&.&.&.+.o.$.$.$.$.o.] ) G I U U J J G G G V V B N m m B n h m G I U V B B B B B N N N M M M M m m m c z z g d s s d s a a s i e 8 8 7 7 3 < 8 d n h N V N b m B F G G G G U U Y ~ ~ / ) _ ' Y ) U B / +.+.+.%.=.=.&.+.o.o.",
"E #.5.5.5.5.5.5.5.;.-.%...` ] &.&.%.+.o.o. .' ' ' ` E E ~ Y Y U I Y E Y H B h u 3 3 0 w i a s d h h h h h h c c c c c c b m N B B B B B B B B B B B B B B B B B d m V V V V Z Z F F F F F V V B B J ~ ] ] ..o.o.+.+.$.&.&.&.&.&.&.&.&.&.&.&.&.$.&.$.' B J ] 1.7.r.3.~ g U  .o.} U g a U o.&.3.-.=.3.9.%.g m #.9.7.=.$.U 8 / 9.0.q.q.a.9.~ k ' o.+.$.&.&.&.&.&.&.&.*.*.*.*.*.*.*.2.2.2.3.3.3.3.3.4.4.7.7.3.3.3.3.3.5.5.5.3.3.6.5.3.2.6.y.0.0.9.9.9.9.9.9.9.0.0.u.a.a.a.q.q.q.q.q.0.0.r.r.e.e.a.a.a.a.u.0.y.y.u.u.a.a.a.a.a.a.a.a.a.a.a.a.a.a.a.a.a.a.a.0.0.0.0.0.0.0.0.0.0.0.0.0.0.9.9.9.9.9.9.9.9.7.7.7.9.7.7.3.5.3.5.-.=.=.&.&.&.&.-.-.;.;.&.-.&.=.&.&.&.&.-.;.&.&.&.&.-.-.*.*.&.*.*.*.$.$.$.$.$.$.&.&.&.#.+.o.] Y c U 3.q.j.a.0.9.' s N +.&.+.o.' i z } 3.3.<.1.2.&.} ~ i L &.&.3.1.~ a / &.&.%.=.o.I N ~ ..o.+.&.$.$.&.$.$.+.+.+.+.+.o.] ' ' ] ] ] ] o.~ S m G I U J G G G G F V V V B b h 9 h B F V F N b m N N N M M M b b b b c c c z h h g s s s s a a i i e 8 8 7 3 3 1 4 i l b M B m k m B V F G G G G L U Y ~ ~ / ) ' ~ U ) ] ~ ..%.+.&.&.=.&.o.o.' ~ ",
"J L o.-.3.3.3.3.5.3.-.=.&.=.o.] o.+.+.o.o. .' ' ' ~ E ~ ~ ~ E Y J J U U K F v d 8 3 3 3 8 i i i s s s s d g h h h h h h n c b b b b M M M M M M M M M M M M c b h d G B N N B B B N N N N M b b N B G Y ~ ~ / ` ' ' ' ] ] ] ] ] } } o.o.} } ] ' } } ~ L g U ] $.&.&.o.N a U ' _ / N 4 d ~ +.&.&.#.&.$.*.V 8 J =.$.o.o.) e b &.&.3.7.9.9.o.g I ' o.o.o.+.&.&.&.&.$.$.$.$.$.$.$.$.$.$.$.$.*.*.*.*.1.1.2.2.&.&.&.&.&.&.&.&.-.-.5.5.3.3.3.3.3.3.;.-.3.3.5.3.-.2.3.3.3.3.3.3.3.3.3.2.2.2.2.2.4.4.7.7.9.9.3.3.5.5.5.5.3.3.3.3.4.4.4.4.0.9.3.3.2.2.2.2.3.2.*.*.3.5.3.3.3.3.3.3.2.2.2.2.3.3.3.3.*.*.*.*.*.*.*.*.&.$.&.&.&.-.&.&.&.&.=.=.$.$.&.&.&.&.o.o.o.+.&.&.%.%.%.&.&.&.&.&.%.%.#.#.#.#.#.#.o.o.o.+.#.#.o.o.o.o.] ] ~ B c Y *.3.7.7.3.$.N 8 U o.' ' ' H 3 P o.$.O.o.o.o.^ U i 9 ] ] ] #.' n l ' ]  .' o.~ d B ~ ' ` ]  .] ] o.] ' _ / / / / ~ ~ ~ ~ ~ ~ ~ ~ ~ B k h N N B B B B B B B V Z Z N a 4 8 c m m m M n n b c c c c c c n n n n z z h g g d s s p p p p i e e 8 7 3 3 3 1 1 i g n v M c h h B B Z F G G G G G L U Y ~ / ) ' ~ Y ' +...o.%.%.=.%.o.o.' ~ J n ",
"N J I ' -.-.-.-.5.3.-.=.%.&...' ' o.+.+.o. .' ' ~ ~ ~ ` ~ ~ E Y U G F J K G C c a 8 3 ; 7 8 8 8 e e e i i s d s g g g g h h n c c c c c b b b b c c c c c c h h b z g M c b M M M M M M M b c c b b b B U U U Y Y ! ~ ~ ~ ~ ~ / / / / / / ~ ~ ~ ^ ^ ~ Y s B Y ' } +.o.U 8 b U ~ / U i 8 I ' ' ] o.' _ ' ( i i / ' ' ) Y g 4 U ' &.2.2.3.&.B h / ' ] o.o.o.o.o.o.+.+.+.+.#.#.#.#.+.+.+.+.#.#.#.#.$.$.&.&.&.&.&.&.%.%.%.#.%.&.=.&.&.&.&.&.*.&.$.$.&.;.;.&.&.&.%.%.#.$.&.*.$.$.$.&.&.&.&.&.&.&.&.&.-.&.=.&.%.%.%.&.&.&.&.&.$.$.&.&.1.&.&.+.+.+.+.+.&.&.#.+.+.+.%.%.+.+.&.&.+.+.+.+.#.#.#.#.#.#.#.#.+.o.o.o.o.o.o.o.+.%.+.o.&.&.%.%.#.#.#.#.o.o.' ` ' o.o.%.o.o.o.o.o.o.o.o.o.o.o.o.o.o.o.o.o.o.] o.o.o.o.} ' ' ) ~ L h V U o.o.o.+.&.~ s g U ~ Y J U w i ~ / ' ' ( ( ! G v % c ~ ) ' ) J 8 U ~ / ~ ~ ~ B h J U ` ~ ~ ~ ~ / ^ ~ Y U U U U U K J K K U U U U N h f g b b b b b b b N m N B B M h w d z h h z z g g z h l l l l l l l l h g g g s d p d e e e i e e e 8 7 3 3 3 1 < 7 a l b M z g h m V V Z Z G G G G G L U Y ~ / ) ) _ ' ) ' ] o.o.%.%.o...' U J h > ",
"a n B J ` ;.3.&.3.;.=.=.o.o.o...~ ] o.o.o...' ' ` ` ~ ~ ~ ~ E Y Y Y F j F B N b h e 4 < ; 3 7 8 8 9 e e i i i i s s s s d d h h h h h h h h l l l l l l h h h g h g s i d z v c n n n n z c c c h d d l M B G J J G G J J G F F F J P U Z G P U ! ! Y U c s B ~ ' ' / U d 8 b Y Y K l 0 a Y J ( ^ ! K K ( M 3 v ! ~ Y P g 4 d ! o.+.#.3.#.Y i G Y / ' ' ] ] ] ] ] ] ' ' ] ] ] ' ' ' ' ' ' ' ] ..o.o.o.} o.} } o.o.o.] ] ....o.o.o.o.o.o.#.#.o.o.....o.o.o.o.o.o.o.o.o.o.o.o.o.o.o.o.o.o.+.+.+.o.o.o.o........... . . . .} o.o.+.o.o...] ' ' ' ' ] ' ] [ ' ' ' ' ' ' ' ' ' ' ' ' ] ] ] ] ....] ' ' ' ` ` ` ' ' ' ................] ] ] ] ' ' ' ' ' ' ' ' ] ] ] ]  . . . .' ' ] ] ] ] ] ] ] ] ] ] ' ' ' ) ~ ~ U G m h G ~ o.o.] ' _ M 8 n U U F F h ; n ~ Y ~ U G G C v e - Z U ! / L d h U U U J I S y b J J J J J J H H J C M n N B B N C C Z Z B Z Z N a 9 i h n n n c x z z z n b v c h a a d l h g d d d g g g g l l g g g d s s s s e e e e r r e e r q 7 2 3 4 4 < , < 4 e a c b d s g c b B B Z F G G S S L Y U Y ! ~ ~ Y ~ ~ ) ) o.+.+.o.+.' ~ Y F d 4 1 ",
"B h d n F / +.-.5.;.&.%.o...] ' ` U / ......] ' ` ` ` ~ ~ ~ Y Y Y U F n v F F v l a 8 3 - - 1 7 8 8 8 9 e e i i i i i i a a s d d d d d d d g g d d d d d g g g s p e w e d l l l z z l l l l l h a i i a g c v M M M N N M b c c b M M b N B G H J G G B s h G U Y Y L c e d F I J N u ; v F C Y U G G ! C < 4 Z J J B l 8 4 v Y ~ ) ] ' Y i h Z U ! ! ~ ~ ~ ~ ' ) ) ) ) ) ' ' ' ' ' ' ` ' ' ] } } } ] } ] ] ] ' ' ' ` ` ` ` ` ` ' ' ' ' ' ' ' ` ` ' ' ' ' ' ' ' ' ' ' ] ] ] ] ] ] ] ] ] ] ] ] ' ' ' ' ' ' ' ' ' ' ' ' ' ' ] ] ] ' ' ` ' ` ` ) ` ` ` ` ` ` ~ ~ ~ ~ ~ ~ ~ ~ ~ ~ ) ) ) ) / ~ ~ ~ ~ E Y Y R R ~ ~ ` ` ` ` / / / / / / / / / / ) ) ` ` ` ` ` ` ` ` ` ` ` ` ` ` ) ) ) ) ' ' ) ) ) ) / ~ ~ ~ U U F m s b L Y ] ' ' ' P i i M G G B N 7 8 N J F J G M c l a < ; b Z F G h 8 B F F B B N a i N F F B B B B N N b h s a n b b n b b b b M M z s 8 8 i h n n c c l l g g g l l g w 8 w a g d a i i i i i a i i i i i i i i i e e w w w e e e q q q 7 4 1 1 < < - - < 8 p g v n a z b N N B V Z F G G S G G U U Y ) L ! ~ ~ ~ / ) ] o.o.' / U F B a 4 7 j ",
"K G n a B B U o.=.;.%.o.] ' ' ' ` ~ I ~ ` ' [ ' ` ` / ~ ~ ~ Y Y U K F N b F F b b g e 3 & % - 1 4 7 7 7 8 q q q q q q q w e e e i i i i i i i i i i i i s i i e w 8 7 2 2 q r r d d d d p p p p p e 8 4 4 q i g g g d g h d d s i i a a d h n v v B B B B s 0 k N F G Z B s 8 n F F b i % 8 B c Z H G B Z H i ; z B B c l i < d B J U U J P d 8 h M Z F G G G J P U U U U U Y ~ ! ~ ~ ~ ~ ~ ~ ) _ _ ^ / / / / / ~ ~ Y Y Y Y U U Y E Y Y Y ~ ~ ~ ~ ~ ~ ~ ~ ~ ~ ~ ~ ~ / / ~ / / / ~ / / ~ ~ ~ ~ ~ ~ ~ ~ ~ ~ ~ ~ ~ ~ ~ ~ ~ E ~ ~ / / ~ ~ ~ E E E E E E E E Y Y Y Y U U U U U U U U U U U U U U I I J I I I I I U U Y Y Y U U U U U U U U U U U Y Y U U U U U U U U U U U U U U U U U U U U U U U U L L G G V B h i 9 B L L ~ ! Y U g 1 s M B B M g % i B M c M c g a e 7 % 8 n N B c 4 s v b n n n d 4 s n k k k h h h h h a w 8 i s g g s d d g g l g i 7 6 0 i g s d g l p p p p a p i w 3 3 4 8 i i i e w w w w w w w w q q 8 8 8 8 7 7 7 7 7 7 q 7 4 2 2 2 < < , & & & - 4 w p g z h g c M M M B B V G G G S L L J U Y m U / U ~ ~ / ) ' ] ' ~ J B n a 5 i l N ",
"( ~ G n i l B J / +.%.o.' ' ' `  . .~ S U ` ' ' ` ` / ~ ~ ~ Y Y U J B B F B N b v z p 8 - & - < < 1 1 1 1 2 2 4 4 4 4 4 4 4 7 7 w w w w w w w w q q q q 8 8 7 3 2 1 < , & 1 7 q e e e e w e e e 8 q 4 < - < 4 w w w 8 8 e 8 8 8 3 3 4 4 8 i a d g h h n c g 0 y a n c M B c i 8 n N n s 3 - g l c C B c C G g ; d N B n M z 4 4 h B V V F B M 3 e g c M N N N N N B Z Z V F L L L L L L L I U U Y Y Y U U U U U U I L J J J J G L I L L L I U Y U U U Y Y Y E E ~ ~ ~ ~ Y Y Y Y U Y Y Y U U U U U U U U U U U U U U U U I I U U Y U U I U U U U U I I I L I L L J J J J J J J L G G G G G G G F S G J J G G J I F F F F Z F F V V V V V V V G F G G G G S S S S S S S S B B V V V V V V B B B B M m c c z g e 1 i B Z G L G G Z 3 e g g z h g 3 ; g z z h z l i i e 7 + i s h n 8 8 z g h h d a 8 4 a s a a a a a a i i i 4 4 i 8 e e 8 q q w w 8 8 4 ; 4 0 8 i p p p p e e e e i i w 4 < ; ; , 3 4 8 8 8 8 8 8 7 7 7 7 4 4 4 4 4 4 4 4 1 < < 1 1 1 < < , & & & & @ @ & < 7 e i i d n c z z c b B V V F G G G I L I J g G Y J U ~ ~ / ) / / ~ U B j u 5 a b C B ",
"/ ~ U J j a j F G ~ o.o...o...) ` ' ' E G U ' ..' ` ~ E ~ ~ Y I G B B B G F B b z l d e 4 - O & - - , < 1 1 , , < < ; ; ; 1 3 1 3 3 4 4 4 3 1 1 1 3 3 3 1 1 ; - < - @ X @ - < 2 4 4 4 4 4 4 4 4 4 3 < , - & - 1 3 3 3 3 3 < ; ; - ; ; - < 3 3 4 w w i i e 8 3 - 3 e d z v c s 0 a z d g 7 % 1 s g l l g h b g 3 3 d M b v n i < a z b N b c h 8 < i s i d d d d g g h h h h n n n n c c c c c c n n n n b b b b M M M M b b b b m N B B N m B B B B B B B B B B B B B B N N N N B B B B N N B B B B B B B B B B B B B B B B B B B B B B B B B B M N N N m m M N N N B B B B B B M M c c c M M N B B B B B B B B M v c z l l l h g g g g h h h h h h h h h h h h k k k k h h h h g h g g g g g g s s s a q 4 , < d M B Z Z M B e ; 8 a d g g q % 7 i e q d r e e 7 4 + - q 7 7 7 3 q a s s a i w ; 3 0 4 w w w w 8 8 8 8 3 < ; ; < < < < ; , < 1 4 , ; < 3 4 8 e w q q 8 7 4 4 4 4 7 4 4 - & & & - - ; < < 1 1 1 < < 1 1 < < < < ; ; ; ; ; - - - - - - - & @ & & + O & < 1 q e i a d z z z l l g N V V G V G I E E F b V U U U ~ ~ _ ' / ~ J F Z h 4 3 i n N F J ",
"/ ~ U U B l a j F G U ' ..#.o...` ~ ` ` E Y ~ ' ` ` ~ E Y Y U I S S S B G F N m z x d r q 1 - - @ @ & - - - - & - - - - ; 1 3 3 3 3 4 4 4 4 3 1 1 1 1 1 < ; 1 1 1 < ; - - ; , < < < < < < < < < 4 1 < ; - % % - ; < ; ; ; ; ; - & & & & ; ; < < 3 3 4 4 4 4 ; % ; 8 p s z c h i 4 9 i i 7 % - 8 w i i w a h i 3 - 4 a s a i 0 4 4 i n M c b z s 3 8 i 8 0 0 0 8 8 8 e 8 9 9 9 9 9 9 9 9 i i i i i i i i i i i i i i i i i i i i a s d d s s d d d d d d g d d d d d s s d d d d d d d d d d d d d d d d s s s s s a a a d d d d s s s s f f f s s s s a a a a s f d d g h h h h d s s a i i i a s g d d g g g g e e e w e e e e e e e e 9 9 i i i i i i 8 8 8 8 y y y y 8 8 8 8 8 8 8 8 8 8 8 8 8 0 4 4 4 < * 4 l M N N M n g - w i i i i q < O 7 w 8 7 8 q 8 4 4 - . < 3 3 3 ; 3 e i p i i 0 ; & < 3 3 4 4 4 4 3 3 3 3 < < , , < < < < ; < < < ; % & < 3 4 0 8 8 7 7 7 7 4 4 4 < 4 4 1 < < < , ; < 1 1 1 ; ; 1 1 1 3 3 1 1 1 1 1 < < < % @ + + @ @ @ @ @ @ @ @ O + & < 1 7 e e p s l z l l g g m B V V L I I Y I B G U Y Y ( ^ _ ' ' ~ F F B n 4 4 i n B B F J ",
"/ ~ ! Y J B h i n b B U ' ..o.+...' ` ' ' / E ~ ~ ~ ~ E E E J N F F S B B N b n z l d e e 7 < < 1 < , - , , - - - - - - < 4 8 8 8 8 8 q q 8 8 7 0 0 0 0 4 0 8 9 7 7 7 7 3 4 3 3 4 4 4 4 4 4 4 4 0 4 3 < ; & + % < 4 8 0 8 8 8 8 8 8 8 8 7 4 4 4 3 4 4 0 8 8 4 ; - 3 e i g l l g 3 ; 1 1 3 & . < 3 7 4 3 7 8 3 - X % % ; ; - % 4 - 0 d g h h d i 8 w s a i a d g h h h h h h h h s s s s d f f f s s s s h h h h h z z z h h h h h h n n z h z z n n n n n c n z n z z z c b c c c c b b c c c c c c n n h h z h n n n n n n n n c c b b b b b b c c c n n n z z z z h h n n n n h h j n n k h g h h h h n z n n s s s s g g g g d d d d g g h g g g g g h h h h h h h h h h h h i a a a a a a a i y 0 4 7 & % 8 d h j j d a 0 % u 7 3 1 1 ; % O 3 4 3 1 1 7 4 < - O . - % - ; - 7 e e e w 8 3 ; 3 8 e e e e e e w w w w i i i i i i e e e e e q * - ; 4 0 0 8 8 8 7 7 7 7 7 4 3 1 7 8 7 8 8 7 7 7 7 4 3 3 < < 3 4 4 4 4 4 4 4 4 7 1 1 < - - & @ @ & & & & & & & O @ , < < 7 q e p s l l g l g g z N V V V V V V B S U Y Y ~ _ ' ' ' ~ U Z N h 8 4 a b N B Z Z F ",
"~ ~ ~ ~ U G b d 8 d b B J ~ ' #.&.o...' ' ' ~ J Y R E R ~ G B S G F B B B N n h l l p e q 7 1 - - < 1 2 2 4 2 1 < < < < 4 q i s i i i i i i e e 8 8 8 8 0 0 0 0 0 8 w e 8 8 w e i i i i i i i i e w 0 4 3 - % + & 4 i i a a g h d d d d g d a i w e i i i i e 0 ; 3 0 w p a s d 7 % + + % & O % ; 1 1 ; % % + . X X X % % & % i ; 3 0 8 8 e 8 7 8 8 i d h n b N N N B B m N N N B B B B B B B B N N N N B B B B Z Z Z Z G G G F G G J J G F G G J J J J H H H H P P P U U U U U U U U U U U U U L L L L J J J J J J J G G J G G L L L L L L L L U U U U U P P P P P P P L L L J J J U U I G S B V V V V F Z F F B B Z Z Z B B B B B B B B B V V B B B B Z Z C B V V B B B B B B N N b b b b b b b k a i 8 * * 5 u i i i i 0 ; - 3 & O % = O X X ; ; ; - ; 3 1 & .   . O O O % ; 7 q e q e 3 3 8 d z v v v v v v c c c c z c v M z z z z g d s p 4 4 8 i e e 8 8 w q 8 8 7 7 4 3 4 q e e e e w q w q 7 7 7 1 1 7 8 8 8 8 7 7 7 7 7 1 < ; ; 1 1 ; - - - - - - , , O & , , < 4 8 w e p g g g g g g h b B V V B m n V L L U U ~ / ~ / ~ U B z a e 7 d M N M B B Z F ",
"~ ~ ! Y Y U F B n i a h B U ! ' %.&.%.o.' ` ~ E U U Y Y G b F J J F B B N c h d d p e 7 4 1 , & + 1 7 1 1 1 2 4 7 4 7 7 q e i s i s s s s s s i i w 8 0 8 0 0 4 4 7 8 u a a a a g g g g g g h h h g d s i i i i d d h h h z n n n n n z 8 s h h h h h h d d d d 8 0 4 8 i i i s 8 7 3 1 3 7 7 7 e s i e 0 4 1 - 3 3 3 3 7 8 i a 0 0 0 8 8 a a s h c b b B B B B B B B B B B B B V V V V V V V V F Z Z C G V V J P J J J P P P P I I L G J U U Y Y U U U U U U U U U U U U U U U Y Y U U U U U U Y Y Y Y U U U U U U Y U P P P U I I L J L U Y U U Y ! ~ U U P H J P U U U U U U ~ ! Y U U U J J I L F V V V V V Z Z F F G G F Z V V V V G B B V Z Z Z Z Z Z B B B B V V V V V V F B B F B B B B B N n j u 8 0 7 w i i a d a u 0 8 8 4 4 5 3 3 3 3 0 w i p z d 1 + + & & - - 1 7 8 8 7 7 0 8 i d M M M M B B B B b n N M N B B B B M m c z z z z h h h h h g d d s s s s s i s s 7 9 i i e e e e w 8 7 7 7 3 1 3 8 w e i w q 8 7 q 8 1 < ; 1 1 - < < < < < < , , O . O & < 2 8 w e e a d g g g g h n N Z B b c B G J L U Y ! ~ ~ ~ U N h 8 4 0 d n c M B B B Z F ",
"~ ~ ! Y Y U G F B h i i h N F U ' +.%.o.' ' ~ ~ Y Y U J b F U U F Z B B M n h g p e q 7 4 - O @ 4 1 1 4 < < 1 1 q e e w w q q 9 e e i p p i e e e w 8 7 0 8 8 8 w u i a a a a a a a a d g g g g d d d s s g g g h h n n n c b M b b b b h z c n c c c c n n n n h s i 8 i i i s s e e 8 8 e e e e s g h z h d s d d d d d g z n h h g g h c n c B V V V V V F G F F F F F G G G G G G G G G G G F Z Z B V V F L J J P U U U U U L I L L U Y ~ / ~ ~ ~ ~ / ^ ^ / _ _ ' ' / / / / / / ' ' ' ' ' ' ' ' ' ' ' ' ' ' ' ' ' _ ' _ _ _ ' ) / ~ ! ) _ ) ~ ~ / / / ~ ~ ! ! ! ~ ( ~ ~ ~ ~ ( ! ! Y Y Y Y Y Y Y U U I L U U U U P J J J J G G G F F L G J J Z Z Z Z Z Z Z F G G G G G G G G Z B B B F B B B S B N b j n l g g h j n n n h h l l h g a a a p i i s d g l g p d e 7 2 8 7 8 e e e i s s s g h M M B M B B B B b B G m B B B B B B m m z z z z n z z h g g g g g g g g g g g g 8 e e e e e e e 4 4 3 3 4 3 4 8 8 q w e e q 8 8 7 7 7 7 3 1 1 1 4 2 < < < , , & &     @ - < 1 8 w e e a d g g g h l c N v c m G L I U U ! ~ ~ Y Z M h 8 1 7 d b c b M B B Z F G ",
"~ ~ ! Y U U K G F F n i y f n B U ` ....' ` ~ ~ E Y U B B J J F F B B N b z g a i q 4 1 & O @ < & , 1 4 1 1 < < < 4 7 7 7 ; ; < 4 4 7 8 8 7 4 4 8 w 8 7 7 7 8 8 8 8 8 8 8 8 8 8 w i a s g g g g s d d g h h z c c c b m m m B B N N N m B b c c m m m m m m m m b c h a d g g h g g d s s g g g h h c B G F V V V F F V V V V F B N M b b N b b V F V B N V V G G G G G G J J J L L L L J G V V B B N M B V V V Z F J U U U U U U U U Y U U U U Y ~ ~ ) ) _ _ _ ' ' _ ' ~ ~ ~ ~ ~ ~ ' ' ' ' ' ' ' ' ' ' ' ' ' ' ' ' ' ' ' ' ' ' ' ' _ _ / _ _ ~ ! ! ( ^ ^ ^ ( ! ! Y U U ~ ~ ~ ( U U H H H H U U Y Y Y U U U Y ~ / ~ ~ ~ Y U I J G G G G G J I L B B B B B Z G J I L G V V V V V F F Z N B M B G G S V V V J L F M M b b b b M N G G G G Z C C C B M B B B B C C C C C C B c z c g h z c z h h c m m m m B B B B h b B c n b m m m m m c c c c c c n z h g h g g d d g g g s i i 3 7 8 8 3 3 3 3 3 3 3 3 4 3 4 8 8 8 7 7 7 4 3 3 1 1 7 3 3 ; ; 1 4 2 < < , , & & , O   O @ - < 7 7 w e e p d g g l l z b v b B G G L I U U U H C v s 4 - 0 a n h c v B B Z Z G J ",
"~ ~ ! Y U U U U G U F g 0 0 i g N J E ' ~ ~ E Y U U I S G F J J Z B B b c h g i q 4 2 - & - , , - < 1 7 4 2 1 1 , - < 7 3 - - < < 1 3 4 4 3 1 < 1 7 8 7 3 3 3 1 1 1 1 1 3 3 3 3 8 w e p z z z h h h h z z c M B B V V F B V V V V V V V V b h h m m m m B B B B m b c c c m m B B B B V V G G G U L L U U Y Y Y Y Y Y Y ~ ~ Y Y ~ Y U J G P F V V V V m h k m B G G F F F G G G G G G G V B m b b c c n B V N n z c M N U U U U F G L L U J V m L U Y ~ G G G G F F Z Z N N N N M B Z G F F F F G G G G Z Z F F Z Z G G P P P P G G F Z B Z B M M M B B Z Z C B N M c c B B B B v v z x g l z z v v M M N B F J J I U U ~ E Y U I I I I V J U L B B B B B F J U L G V B b n n b B B M h U G V G G G G G U ) _ ! U U P G Z G P Y ! ( ^ ^ ^ ^ ^ ^ ^ ^ ! ! ' { ' ) { _ ' ' ( P G G B B m m c h h c M m m M B B B B m b B B B V V V V B m m c c c c b n z h g h g g d d g g s e 9 8 7 7 ; % : : : : 3 3 7 7 7 3 1 3 ; ; - - 1 < ; ; ; 1 < < ; & @ + < < < < , - & & & & # $ O & ; 1 7 7 q e e p d g l l z n N B B V V V G J G C v c i < - ; i h n b v v B B Z Z G H ",
"/ ~ ~ ~ Y U U U F J Z h h 8 3 3 g N F U U U U ~ U U P J Z Z Z B B B b n h d i 8 e 3 < + - 1 % % ; 1 7 q q 8 7 4 < 1 4 7 2 2 4 4 4 4 4 4 4 4 4 4 < < 8 e 8 8 7 7 7 7 7 7 3 1 ; ; 1 z M g b N b B m m m N V V V V G G G G L I U U ~ ~ ~ ~ Y F g s B G L I U U U U U U U U Y Y Y Y ~ ~ ! ! ~ / ~ ~ ~ / / / ) ) ) ) _ _ ` / ` ` ` ' ] ' ` ~ / ~ ~ ~ U G B k n c b m B G G S S S B N c h c m B B M m c c m V F V N h d b M z U U J B N B V V G F V V U U Z M h s a s s s s s s a p p l l z c c c c c c z z h g g g g g l z z z z z z z l g s s s d d g g g g z z c v v M M B B B B B M v v c c z z z z l g g d h g h c m V G L I U U U U U U B B B B B V B V B V V V V V m g 9 9 8 7 7 s h g M m M V Z G Z Z P U U ! _ } } _ ' ' ' ' ' ' } } } } } } +.o.o.o.o.o.o.o.} ] ] ] ' ' ' _ P P P L G G P P U I I I J G L Y Y L U I U U U U I L J G G G G G Z B B B G G F F Z L G Z m z q 8 e 1 - < 3 4 7 8 8 8 q e 7 7 7 q 8 7 3 1 4 3 1 1 1 1 < < < < < < < 1 2 4 1 < & + O + & O . O - 1 2 4 7 q w e p l l l g l c v N B B Z C B M c l e < - 3 i h n b n m M N B B Z J L ",
"` / ~ ~ Y U U U J U G N M d 8 4 3 i c C H U U Y U P J G Z Z B N B b n h g i 8 0 4 1 % - 3 - O - < 4 q q e w q q 4 4 7 q 7 7 q q q q q q e e e w p 7 q e e e e e e e e e e 7 4 3 1 l U z B H G U L L L L L L I I U U U U I U U Y E ~ ~ ~ Y I B V U ~ / ) ) ) ) ) ' ' ' ' ] ] ' ] ] ' ' _ ' ] [ [ ] ] ] ] ] ] ' ' ' ' ' ' ' ' ' ] ..' ' / / ~ ~ E I V b h b m B B B G G G G G S N m m B V V V V V c n m V B B m k h M N b G F B b B B m m N V G I U U F N c h a a s s d s p p p i p p s s p i p p a a d g d d d s s d s d d d g d d s s s e e e e e e i e e i a a a a s d d d d d d s a p g d s s i s h m N m h h h n c c B B V V F J U J U B M N V F Z V V B M M V V B m g g d s d m V B V B V V Z Z G G G G G U _ o.$.o.#.+.+.+.o.o.o.o.o.o.o.o.+.+.+.+.o.o.o.o.o.] } ] } } } } ] ] ] ] ' _ / / / / / / ~ ~ ~ ) ) U Y ~ U U U Y U U I I I U U U U J J G U U I L L U P V z M 8 1 1 3 9 e e e i i p p p p p p p r e q 8 7 q q 7 7 7 7 2 2 1 4 7 7 4 4 7 7 4 2 < - O + & & O . + - < 1 4 7 7 w i p g g g l c v M N B B M z z g e - - 1 e g h c b c M N B B B F L L ",
"' ` / / ~ Y U U J U U Z B c s 8 ; 3 w l C G J G H H G G Z B N M b c h g a e 8 4 1 - % 1 - O - 7 4 w e e e w q 8 q q q q q q e e e e e e i a a i e 7 e e i i s s a p p p p e e q 5 8 C l M P L U I I I I I I I I U U U I L U U Y Y E ~ Y U U J Y L U Y U U U Y Y Y Y ~ ! / / / ) ~ ~ ! ! ~ / ~ ~ ) ) ) ) ) ) ) ) / / / / ~ ~ ~ ~ E Y I J F S B B B N m m B B B B N N N B S S B N m B V B V V V V N M B G V B B V B Z F F B M c c h h h h m B F J G Z M h 1 - % - % % % % % % % % % + + + X X X . . . X X X X X X X X X . X X X . . . . . X X X X X X X . . . X X + + + % % % % % % % + + . . $ $ $ $ X 3 m G L V V B B B N B B V B B B b b n N G J G F V V N F G m B V V m m M B B m N B V V V B M N B Z G F V G J U Y Y ~ ~ ~ ~ ~ ~ ~ ~ ~ E E ~ ~ ~ ~ ~ ~ ~ E ~ ~ Y ~ Y ! ! ! Y Y Y Y U U U J F F G G G G G F Z B P Y ~ ~ ~ ~ ~ E Y U U L L L L L L J G L L L L G L B g M Z 7 < 8 i a i s s a a p d p p r e e e e w q q q q 7 7 7 7 4 4 4 7 7 4 4 4 7 7 7 4 2 < & + & & @ O O + - < 1 1 4 7 w e a d l l v v v v M c l p s q < & 3 e s h z b M b M B B Z Z F L L ",
"' ' ` / ~ Y Y U J U Y F B M n s i 3 < 0 d v B B H G G Z B N v c c z g i i 8 4 3 & ; 3 - % % 1 3 q e i e q 8 7 4 q q q q q q q q q q w w e e e e 7 w p e e e s s p p p i i i p p i c U b v U Y Y Y Y Y Y Y Y E E ~ Y ~ E ~ ) ' ' ' ' ' ' ~ ! U / B h h h h k k c c c c c N N N B N M M M m B B N B B B B b B V F F F F F S B B B B N b n n n n k b m B B B B B B d f d k k b N k h c b c c b m B F Z J U I L I Y U U Y ! U G Z G L I U U Y Y U U ~ / ~ ~ U P U ! Q Q Q Q P P P P U U P H G G Z Z G F Z Z Z F Z G G G C C C C C C C Z G G P P P P H H G G G L P P P U U Q Q Q Q U U U L L L G V N B V V B U E E E Y Y ~ ~ ~ ~ ~ ~ ~ ~ ~ ~ ~ Y J G J G G V V N F m g b V V B V F G J b h b B V B c h z b M Z F B V V V V V F F F F F C B B B B B B B B B B N N b b N v N b B B B B b b b b B b n n v v v v v B b h i G ~ ) ) ) ' ' ) ) ~ ~ E E E E E E Y Y Y E Y Y U Y Z d P H 4 4 i s s s g s a i e e e q r e q 7 q q q q 7 7 4 4 7 7 4 4 2 2 4 2 2 2 4 7 7 7 4 2 < - + @ & & + O & - < 1 1 4 7 q e s l l v v c c z g e q q - - 7 i g h h n M N M N B B Z Z G L L ",
"..' ' / / ~ Y U U ~ ! G B N b h h i 4 3 0 a c B B B C C B B v n g a e w e 7 1 ; ; 1 ; % - < 4 7 i a p i e q 4 1 1 < < 1 2 < < 2 3 3 3 3 4 4 4 7 7 7 7 4 7 7 8 8 8 8 8 8 8 7 q q w a v G J Y ' ' ' ' ] ] ] ' ' ' ] [ ] ] ] ] o.o.o.o.o.o.' ' ~ ' B 6 i a i i i i i i s s g g g g s d h z n b m m m m N B N N B S S S S S N n n n b b b n b m b h h c V V G V m h k d f d f h h b N m m B N N N M B Z F b c B I U U U U U G F F F F V V V L I U U ' ' ' ' ) ) ' ' _ _ _ _ _ _ _ ~ ~ ~ ) ) _ ) _ ) ~ ~ ~ ! Y ~ / ~ ) ~ ~ ~ ! ~ ~ ~ ~ ~ ~ ~ / ~ / / ~ ~ ~ ~ ~ ~ ~ ~ ! ! ! ! ~ ~ ~ ~ ~ ~ ~ ~ ~ ~ E E E E E E E ~ ) ) ~ ~ ~ ~ ~ ~ ~ ~ ~ ~ ~ ~ ~ ~ / / J G G F I F S G N N B I ~ S G I U V B G L L J G n b B B G F Z B B c h h c b M M b z l n z l l l l l l h l l l l l h l g l l l l h h d a d d i 0 w a g g d w a N N ~ ' ' ' ] o.o.o.o.] ] ] ] ] ] ` ` ` ` ` ` ) ) ~ ] G z P M , 8 e e e e e e q 8 q q q q q 7 7 4 4 4 4 4 4 4 4 4 4 4 1 < , & , 7 < - 2 4 q q 7 7 2 < - & O + & & + & , < < < 1 2 8 e s g z l l d i i w 3 % ; 4 9 a d g h c B B m B B B Z F G L L ",
"o.' ' ` / ~ Y U U ~ ! G Z B M n n g i 4 < 3 i h b v M B B v c z a e w 7 7 1 ; < 1 ; % - 1 4 q e i p i e q 1 , & @ O + & & + + & - - - - - - - - - & & % - ; ; ; ; ; ; ; ; ; < < 1 < i Y ! Y ) ' ) ' ' ] o.] ] ] o...o.o.o.+.$.&.#.#.#.#.o.] ' o.V % - - - - : : > 3 3 3 6 6 6 0 0 8 i s g h h k n m m N m c N S S V V V N g i y 9 a h b h h h s s g N B V B c g g g k n n n k V J V V G J J J J G G G c h B L L U U U U J J G J L J G G Y ~ ) ) ] ] ] ] ' ' ' ' _ _ _ _ ' _ _ _ ) ) _ _ _ _ _ _ ' _ / / ~ ' ' ' _ ) ~ ~ ~ ~ ~ ~ / / / / ) ) ) ) / / ~ ~ ~ ~ / ) ) ) ~ ) ~ ~ ) ) ) ) ) ) ) / ) ) ) ) ' ` ) ) ) ) ~ ~ ~ ~ ~ ~ ~ ~ ~ ~ ~ ~ / / / / / ~ U G I J J J J B n B G B S S N B M m V G J L N b n c N N N M b d e e i a s d p s a e e i i i i p e i i i i i a a s i i i i i i i i u i i u 0 3 8 q 8 w < a P ~ } o.] ] o.o.+.#.#.o.o.o.o.o.o.' ' ' ' ' ' ' ' _ ' G B U e & < 3 3 3 3 3 3 1 < , , , < < , - - ; , , , - & & & & @ + O O O O & & @ , < 4 7 7 7 7 2 < - + + @ & & + & - < < 1 2 4 8 e s s p e e q 7 1 ; ; 1 8 e d g h n c B B m B B B C F G L L ",
"o...' ' / ~ E U U ~ ! G F V B m M n d w 3 ; < 8 s l c v M b z h e w 7 3 1 ; < 1 ; % - 1 7 8 e p i i e q 7 ; & - @ + & , - & & - ; ; ; ; ; ; ; ; ; ; ; : ; ; ; ; < < ; ; ; ; 1 < < & 3 ( / Y ' ' ' ' ] ] +.o.o.o.#.#.#.#.o.+.$.$.#.#.#.#.o.] ` ..U 8 6 0 8 8 i i g g h h h h h k z n b M n c b m B B V V B N B L I I G G S m h g g c V L Z B M m b m V m h m B m b B F G I J S U Y I L L I I I I U U I N B L U U ! ! ~ ~ ~ ~ ~ / ) ) / ~ ' ' ' ' ` ' ' ' [ ' ' ' ' ' ' ' ' ' _ _ _ _ _ _ _ _ ' ' ' ' ' ) ' ] ] ] ' ) ~ ~ ~ ) ) ) / / / / ' ' ' ' / / / / ) ) ) ) ) ) ) ) ) ) ) ) ) ) ) ) ) / / / _ ) ' ` ' ) ' ' ) / / / ) ) ~ ~ / / / / / / / / ~ ~ Y J U U U U E I N D G S I I G U U L U L J G U F b h M M N N N h s s s s g g s z l i a l c l c c n z x l l l n b b h h h d a d g h g g g d i 8 i i 8 a 3 M Y o.$.#.o.] o.o.+.#.+.o.o.o.o.o.o.' ' ' ' ' ' ' ' _ ) G U ! 7 ; 3 3 3 3 3 3 3 1 < < < < 1 1 < < ; < < < < , , , , , , , & & & & - @ O - , 1 4 7 7 7 7 2 < - & + + - & + O - , < 1 1 4 8 e e 8 4 4 3 < ; ; 4 8 i s g l n b c B V N B B B B F G L L ",
"o.o.] ' / ~ ~ Y Y ~ ~ P F V V N B b l a w 3 ; < 8 i a g c l g a w 7 3 < ; < 1 1 % - 1 3 7 q e p e e q 7 - O + & 1 1 4 q 7 3 3 7 7 7 7 7 7 7 7 7 8 7 7 7 7 8 8 8 q 8 8 8 8 8 w q 8 3 3 G J F U Y Y Y ~ ~ ) ~ ~ ~ ` ) ` ` ] ] o.o.o.o.o.o.] ' ~ ] ) U m g h k m B V V G G G G G G U P J G F F G L L L I U J J I Y Y U I L F S G L G L U Y Y L G L L Y ~ V h m V V J U Y U I U J I ~ U L L G G G G U U Y G U ~ ) ) / / / / ~ / _ ' ' ' ' ' ' ' ' ' ` ` [ ] [ [ [ ] ] ] ' ' ] ' ' _ _ _ _ _ _ _ ' ' ' ' ' ' ' ] } ] ' ' _ _ _ _ _ _ ' ' ' ' ' ' ' ' ' ' ' ' ' ' ' ' ' ) _ _ ) ) ) ) ) ) ) ) ~ ~ / / / / ' ' ' ' ' ' ) ) ) ) ) ) / / / / / / / / / / ' ` ~ I U ~ ~ E ~ U I E E I I J J I U U I I U U ! U U H C Z F J I G V J B B V V B B B v B H U J U U U U J J J J F U U V b c h g a s g g g s i 8 0 8 8 0 e 8 J ~ +.$.+.] ' ' ] ] ..] ' ' ' ' ' ' ) ) / / / / ~ ~ ~ Y Z ! H 7 1 7 e e e e e e q 8 q q q q 8 7 7 4 7 7 7 4 4 4 4 4 4 1 2 2 , , , - @ @ - < < 1 4 7 7 7 7 2 1 - + O - & + . - - < < 1 1 4 8 8 7 1 < - & ; 3 w e s g l c b b m V G B B B B B F G L L ",
"+.o...] ` ~ ~ ~ Y ~ ~ I J F V B B B b h a 8 < ; - 1 8 s d x g q 1 7 1 & , < ; & ; 1 4 8 i i p p e e 7 < % + % ; 4 7 q w e e e e e e i i i i i i a a a a s s s s s s a a a a i i 8 4 0 c v z N B Z Z Z Z L F B N C C F G P U ! ~ / / ~ ~ U U Y ~ ' ' b i h b N B F G J J G L L G L F F H U U U U Y Y Y U U U Y U I G G F G J I U L L L U U Y U U U Y Y I L Y U I I U U Y U U L V L J G G G F F F I U U U ~ ) ) ) ' ' ' ) ' ' ' ' ' ' ] ] ] ] ] ] ] ] ] ] ] ] ] ] ] ] ] ] ] ] ] ] ] ] ] ] ' ' ' ' ' ' ' ' ' ' ' ' ' ' _ _ _ ' ' ' ' ' ' ' ' ' ' ' ' ) ) ) ' ' ' ' ' _ ) ) ' ' ) ) _ _ _ _ _ _ _ _ ) ) ) ' ' ' ' ' ' ` ` ' ) / _ ) / / ) ) ) ) ) ) ` ' / Y ~ Y E ` ~ ~ E ~ ' E U J G J J U I I U U U U Y Y U V I V G U Y U L V B B V G G V G G F Z F H U J K K J J G L I G M h s s e e e e i 8 3 1 7 7 4 4 e 0 U J Y Y U L U U U U U U U U I G V V F F F F G G F F G F B Z e 1 4 i a a a a a a a i p p p p p i i e i 9 9 e e e w 9 8 7 7 7 8 7 1 1 & . O & , < 1 4 7 7 7 7 4 1 , & + @ @ O . @ , 1 1 1 1 1 < < , @ & - 1 7 e i s s h n b b M Z F N B B Z Z F J U U ",
"+.+...] ` / / ~ Y ~ ~ I L G V V B B M n s w 3 ; + % ; 7 8 e q 3 1 4 - & < , & & 1 4 8 e i e e e w 7 3 ; + % ; 3 q w e e e e e e e e i i i i s p s s d d d d g g d d d d d s a i w 8 8 a g n N N Z B Z Z G V B M v v B B F J U U ~ ~ ~ ~ Y ~ ) ) ] ' h 8 h c m N V F G F G G V B N n v G U U U U Y Y U U U Y Y Y U L G J G G G G V G I U Y Y ~ ~ U U Y Y U ~ ! U I U U Y U U U J J J L L L L I U Y Y ! Y ~ ) ) ) ' ' ' ' ~ Y ~ ] ] ] ] ] ] ] ] ] ] ] ] ] ] ] ] ] ] ] ] ] } } } } ] ] ] ] ] ] ] ] ' ' ' ' ' ' ' ' _ ' ' _ ' ' ' ' ' ' ' ' ' ' ' ' ' ) ' ' ' ' ' ' ' _ _ ) ) ) ' ' _ _ _ _ _ _ _ _ ) ) ' ' ' ' ' ' ' ' ` _ ) / _ _ / / ) ) _ ' ' ' ' ' ` ~ ~ ~ E ~ ' ` E E ` ` E J I U Y E U U U U Y Y Y ~ Y L I V P U Y U J B k h S L L G F Z B B B F J F G G F F F G G B c h g g h h z z z g g d h h h h h h ~ G B G L G U U U Y U U U U G B m m B B B B Z Z B B V G J V 0 8 i g g g g g g g g g d d d d d s s s a a s s s i i e w 9 q q q 8 7 2 & O . O & < 1 2 4 7 q 7 7 4 1 , & + & & O O & < < < < < , - + O - 1 7 w p s g g h n b b M Z F N B B Z F G L U U ",
"+.o...] ' ` ` ~ Y ~ ~ I I G S V V B B b g i 8 3 % X X % ; , ; - 1 - & 1 , & & , 4 8 e p p e w 8 7 1 ; % % ; 7 e e e w q e e e e e e i i p p s a p p p s d d d g d d d d a a i i i w 8 8 l H ~ Y Y ! ! ! Y Y U U U U Y ! Y ~ / _ ' ' ' ' ] o.#.' ~ U a 8 h k b m B V V B B B M c h h n B U U U U Y Y Y Y Y ~ ~ ~ U I U U U L J G J I U Y Y U U Y Y E E ~ Y ~ ! U L L U U U U Y ~ U U I L I U Y E ~ ~ ~ ~ ) ) ) ) ' ' ' ' Y U Y ' o.o.o.o.o.o.o.o.o.o.o.o.o.o.o.o.} } } } o.o.o.o.o.o.o.o.} } } } ] ] ] ] ] ] ] ] ' ' ' ' ' ' ' ' ' ' ' ' o.] ' ' ' ' ' ' ' ' ' ' ' ' ' ' ` ) ) ) _ ^ _ _ ^ ^ ^ ^ ) ) _ ' ' ' ' ' ' ' ' ' ' ' ' ' ' ' ' ' ' ' ' ' ) ' ' ~ ~ ~ ~ ~ ` E U U / ' ~ U ~ ~ ~ ~ Y U U U Y Y U U Y U U L Y ! Y U I B c h L U U L J F B M N S S B S S S S J J G B h b m m L P H H G G J J J J J J B N ' ~ U ~ ' ' ] ] ] ] ] ] ' ' ) ~ Y Y ~ ~ ~ ~ ~ ~ ~ ~ / ) ~ n i a g n h h h h l l l l l l l l l g d d d s s s a p p e e q q q w q 8 7 1 - O # @ - < 1 2 4 7 q q 7 4 1 < & & & - @ + - & & & - & O . O ; 3 7 w p s g l h n c b N F F N B V Z G J U Y Y ",
"+.o...] ' ` ` ` Y ~ ~ I I L G V V B B M l a w 4 < O   . O O O + & & 8 < & & , < 8 e p a p e 8 4 4 - % & ; 3 e e e 8 7 7 e e e e e e i i i i i i a a a a a a a a s a a a i i e w i e w 8 8 G ~ U U U U U U I U U U U Y ! ' ' ] o.o.o.o.o.] o.o.U N m 9 i g h n b B B B B c m m b h b b z P U U Y Y Y Y Y Y ~ / Y U U U Y Y Y Y Y Y Y ~ ~ U F B V I ~ ` ~ ~ ~ ! U G G L I U U ~ ' ~ Y L F G L U Y ! ~ / ) ) ) ) ) ' ' ' ' ' ' ' ' o.o.o.o.o.o.o.o.o.o.o.o.o.o.o.o.o.o.o.o.o.o.o.o.o.o.o.o.} } } } ] ] ] ] ] ] ] ] ' ' ' ' ' ' ' ' ] ] ] ] o.o.] ' ' ' ' ' ' ' ' ' ' ' ' ' ' ` ` ) _ _ ^ / ^ ^ ^ ^ ) _ ' ' ' ' ' ' ' ' ' ' ' ' ' ' ' ' ' ' ' ' ' ' ' ` ) ) / ' ) ~ G G S G ~ ~ ~ ~ ~ ~ / / E Y U U U U L L U U Y ~ ! ~ Y U U G V V I U Y U U L V N B F G S S S S S I I J B z B G G U U U U P G F F F G F V m c ~ / I ~ ] o.' ] ] ] ' ' ' ) / Y U U Y Y Y Y U U U U L I B 9 d a d z g g g g g g g g p p p a p a p p a a p p i e e e q 8 8 8 8 8 q 8 q 2 - O + & - 1 2 2 4 7 q q q 4 4 < - & 1 - @ + + O O O .   . & 1 7 8 w p s g l h n c b N F F N B Z F J P U Y ~ ",
"+.+...' ' ` ` ` Y ~ ) U L L G V G V B b z s i 8 1 - + O . . O & & < < - & - 1 7 q e i e q 7 4 4 1 & % ; 7 e s s i 9 8 8 w w e e e e w w w e e e e w w w e e e e i i i i 8 8 8 8 i w 8 0 3 i d i i i s d d a s s h g l C P P L U U U U U / ] ] Y V N 3 9 c m N N F G V B b V L U G G G G U Y Y ~ Y Y Y ~ ~ ~ Y Y Y Y Y Y Y E ~ ~ ~ Y Y ! Y U U G J ~ ` ~ ~ ~ ~ Y L V G Y / / ~ ~ / ~ ~ U B V L Y ' ' ' ' ' ' ' ' ' ' ] ] ] ' _ ) o.o.o.o.o.o.o.o.o.o.o.o.+.+.o.o.o.o.o.o.o.o.+.+.o.o.o.o.o.o.} } o.o.o.o.] ] ] ] ] ] ] ] ] ] ] ' ' ' ] o.] ] ] ] ] ] ] ] ] ' ' ' ' ' ' ' ' ' ' ) ' ' ' ' ' ' ) ) ' ' ' ' ' ) ) ~ ' ' ' ] ' ' ] ] ] ] ] ] ] ] ] ] ' ' ' ) ' ' ' L y 3 u B ~ ~ ~ ~ ` ` ) ) ~ ~ Y U U L B m G Y ~ Y Y Y ! Y ~ Y L V U Y ~ Y U U U J I I I I I I L L Y Y U I J G J J U U ~ B M C F Z G G G V m m B G V L U U U U U U U I L G B m c c M M M M N b h s d d 9 9 a i i i i i i i i i i i e q q 7 8 8 7 7 8 8 7 7 7 7 7 7 7 1 7 7 4 1 7 q e q 4 - + + & - 4 4 2 2 7 q 7 4 4 1 , & - + & O   O . .   . O - 1 7 q e a s g l n b M N B F P Z Z Z F G P U ! ~ ",
"+.+...] ' ` ` ` Y ~ ) U I L G S G V B v n d i 8 3 ; ; 3 % . O & < < & - < 1 q e e e e w 4 4 1 < & & ; 4 8 i s i 9 7 7 8 q 8 4 3 4 3 3 3 4 7 7 7 4 8 8 8 8 8 8 8 w w w w 0 0 0 0 8 0 4 3 3 8 i w 8 8 e i i 8 e e i e i z h h h h h h h h h c c s g V b B B B B B F G G U m G U U U U U U ! ~ ~ ~ ~ ~ ~ ~ ~ ~ ~ Y ~ ! ~ ~ ~ ~ / ) / ~ ~ ! Y ~ Y Y I ~ ` ~ ~ ~ ~ / Y U U ~ ) ) ) ) / ) ) ~ I U U Y ' ' ' ' ' ' ' ' ' ] ] ] ] ] ' ' +.+.+.+.+.o.o.o.o.o.#.#.+.+.+.#.+.+.+.+.+.+.+.+.+.+.+.+.o.o.o.o.o.o.o.o.] ] ] ] ] ] ] ] ] ] ] ] ' ] o.o.] ] ] ] ] ] ] ] ] ] ' ' ' ] ] ] ] ' ' ' ' ' ] ] ] ' ' _ ' ' ' ] ' ) ) ~ ~ / ) ' ' ' [ [ ] ' ] ] ] ] ' ' ' ' ' ' ' ' ] Y i 4 i B ~ / / / ` ` ` ) ) ~ ! Y U L V B L ! ~ Y ~ ~ ~ ! ~ ~ Y U L U Y U Y Y U U U U U U U I I I Y Y Y U U U U U U Y ! v v C G F G J G F V z s i h b N m B B B B B B m m h i 9 i a a a s a s a a h i 0 0 w w 8 0 0 8 8 8 8 8 8 8 7 7 7 4 4 4 4 4 4 4 3 3 3 3 3 3 < 1 1 < 1 1 3 7 q e q 4 - + + & 1 2 4 4 4 7 7 7 4 4 1 - - O + O   O . . O O - < 1 7 w e a s g l c M N N B F P Z Z F F J P U ! ~ ",
"+.+.o...' ' ` ` Y ~ ) U I L L G L F B N c g i w 3 ; 1 7 < + + , , & & < 1 7 q e r e q 7 < < , - & < 7 q e s i e 8 7 7 9 e e 8 7 7 7 7 8 8 8 8 8 w i p i i i i i i i i i i i i i a i i 8 s h z z h h h h h g g g g a a c Z Z V V V V V V B V B m F U V V V V F F V B G Y N I ~ Y U U U U ( ( ~ ~ ~ ~ ~ ~ ~ ~ ~ ~ ~ ~ ~ ~ / ) ) ) ) ) / ~ / ~ Y Y ~ / ~ ~ E ~ ) ' / ~ ) ' ' ' ' ' ) ) ' ) ~ ~ ) ) ) ' ' ' ' ' ' ' ' ] ] ] ] o.o.o.#.#.#.#.+.o.o.o.o.o.o.o.&.&.%.%.$.$.$.$.$.$.$.$.$.$.$.$.o.o.o.o.o.o.o.o.o.o.o.o.o.o.o.o.] ] ] ] ] o.o.+.o.o.o.] ] ] ] ] o.] ] ] ] ] ] ] ] ] ] ' ] ] ] ] ] ] ] ' ' ' ] ] ' _ / ~ ~ ~ / ) ' ' [ [ [ [ ] ] ' ' ] ] ] ' ' ' ' ' ] ' H B F ~ ' ' ' ` ` ` ) ) ) ) ~ ! Y Y U U Y ~ ~ ~ ~ ( ~ ( ~ ~ ~ ~ U Y ~ Y Y Y Y Y Y Y Y U U U U U U Y ! ! Y Y Y Y Y ! ! b c G G P L I L J G B c h n B B m B B B B B B B N h y 8 i h h n b n c M B N h a i a i i i i i i i i i i i i i e e e e w w w 8 9 9 8 8 8 7 1 7 8 6 ; - < 4 q q e q 4 - + + - 1 4 4 1 2 7 q 7 2 1 < < @ + . . @ + @ < , , 1 3 8 e i a s l l c M N N B G P Z F F J H P U ! ! ",
"+.+.o...' ' ` ` Y ~ ' Y I I L G L G V N b h a w 4 1 1 7 4 < , < & & , < 1 7 q e e q 7 4 , - & & & 4 e e i i i 9 8 8 9 i v v v v c c M M m m m m b M B B B N N B B B B B J G G J P G F Z N N B Z B B N N N m m M b z l B B B B B V V V V F V V V J G V I L L L L L F L ~ B Y / Y Y ! ! ! ( ( ( ~ ~ ~ ~ ~ / / ~ ~ ) ) ) ) ) ) ) ) ) ) / / / ~ / / / ` ~ ~ E ) ' ' ' ' ] ] ' ' ' ' ' ) ' ' ' ' ' ' ' ' ' ' ' ] ] ] ] ] ] ] o.o.+.#.$.$.&.&.#.+.o.o.o.o.o.o.$.$.$.$.&.&.&.&.&.&.&.&.$.$.$.$.+.+.+.+.+.+.+.+.o.o.o.o.o.o.o.o.] ] ] ] ..o.o.+.o.o.o.o.] ] ] ] o.o.] ] ] ] ] ] ] ] ] ] ] ] ] ] ] ] ] ] ' ' ] ' ' ) ) / ~ / ) ' ' ' ' [ [ ] ] ] ' ] ] ] ] ' ' ' ' ' o.] ' ^ ~ ` ' ' ' ' ` ` ) ` ) ) ) ~ ~ / ) ) ~ ~ ~ ~ ~ ~ / ~ ~ ~ Y U Y ~ / ~ ~ Y Y Y E Y Y Y Y U U U Y ! ~ ~ ~ ~ ~ ~ Y Y Y c l C J U I U I L U J V F G L L F G G G G L L G G b a y g n b N B N B B V V B B B B B B M M N N N B B N M M M c c c c c c c c c c z g s i d l l d 7 < ; 1 4 q q e q 4 - + + < 2 7 1 1 4 q q 7 2 1 1 - & O O - - < 4 1 < 1 3 8 e i p s l l b M N B N G P Z F F J U P U ! ~ ",
"+.+.o.o.] ' ' ` ~ ) ' Y U I U L L G V B M h s i 7 4 7 q q 4 , , + - 4 7 7 7 7 q q 7 1 - % % + & 3 q i s a a i 9 8 i d z M M M M M M N N N b c h b b b b b b M M M M N N N N B B N N N N B B B B B B B B B B V V B v c B B Z F G F F F F F F G G L L L L I U U Y ~ G ~ Y G ~ ) ~ ! ! ~ ~ / / / / / / ` / / ` ` ` ) ) ) ) ) ) ) ) ` ' / / ~ ~ / / ) ) ` ` ) ` ' ' ' ' ' ' ' ' ' ' ' ' ' ' ' ' ' ' ' ' ................] ] o.o.+.+.&.&.&.%.%.%.+.o.%.%.%.=.&.&.=.=.$.&.&.&.&.&.&.&.=.=.=.=.&.&.%.%.%.#.#.+.#.o.o.o.+.+.+.+.} o.} ] o.o.o.o.o.o.o.o.} } } } o.o.o.} o.o.o.o.} } } } o.o.............] ] ] ' ' ' ' ' ' ' ' ] ' ' ` [ ] ] ] ] ] ] ] ] ] ' ' ' ...... .] ] ] ' ' ' ' ' ' ' ) ) ) ) ) / / / ) ) ) ~ ~ ~ / ) ) ~ ~ ~ ! Y ! ~ ~ ~ ~ ~ ~ ~ ~ ~ ! ! Y ! Y ! ! ~ ~ ~ ~ ~ ~ ~ ~ E Y b l J P U U U U I I I I L L J G G G G G G G G G F M a d h M B B B B B B B B B B B M M M M M M N N N N M M M M M M b b b b M c h d h g s s z c l e p 7 < 1 3 7 w e e 8 3 ; & @ - < 4 2 2 4 7 7 7 2 4 1 < + + & , 1 2 1 1 < 4 q e p s g z z b m B B B G U V F F J P U U ! ( ",
"+.+.o.o...' ' ` ~ ' ] ~ U U U U L G V B m h s i 8 4 7 w e 4 < < + , q q q q 7 7 7 4 1 ; O O & < 4 e p g a i 9 9 e a h n M M M M M M N N N m c c b b b b b b b b M M M M N N N N M M M M M M M m N N N N V V V V C v c C Z F G J G J G G J G L L U U U U Y Y E E ~ L / U U ) ) ~ ~ ~ / ^ / / ' ' ` ` ' ' ' ' ` ` ` ` ` ` ~ ~ ~ ) ' ' / / ~ ~ ) ) ) ) ` ` ` ` ' ' ' ' ' ' ' ' ' ' ' ' ' ' ' ' ' ' ' ] ..o.o.o.o.o.....o.o.o.o.+.$.&.&.&.&.%.%.&.%.%.%.=.&.;.&.-.-.&.&.2.2.2.2.2.&.;.&.&.&.&.&.&.%.%.%.#.#.#.#.#.#.#.#.#.+.o.o.} } o.o.o.o.o.o.o.o.o.o.o.o.o.o.o.o.o.o.o.o.} } } } o.o.o.o.o.o.o.o...] ] ] ] ] ' ' ] ] ] ] ] ' ` [ ..o.o.} o.] } } ] ' ' ] ........} ] ] ] ] ' ' ' ' ' ' ) ) ) ) ) / ) ) ) ) / ) / ) ) / / ~ ~ ~ Y ! ~ ~ ~ ~ ~ ~ ~ ~ ~ ~ ~ ~ ~ ~ ~ ~ ~ ~ / / / / ) ~ E ! Z s U U U Y U U U U I I I U I L L L L L L L J G G N g h b B B B B B B B B B B B B M M M M B B B N N N M M M M M M b b b b c z g s h h g s z z l p l p 7 ; 1 3 7 w e e 8 3 , @ + - 1 4 2 2 4 7 7 7 q 4 2 & + & < 1 4 2 1 1 4 q e p d l z z b N B B B J U V F G J U U Y ~ ~ ",
"+.+.o.o...] ' ' / ' ] ~ U U U U I G G V m h s i q 7 q e e 4 < < + , q e q 7 2 1 3 1 ; & O % < 4 8 p d p i e 9 i i s h c M M M M N N N N M m m m M M M M M M M M N N N N B B N N B B B B B B B N B N N N B B B B Z B v Z F G L L U U U U U U U U Y Y Y Y Y Y ~ ~ Y U ~ U / ' ' ) ) _ ' ' ' ' ' ' ' ' ' ' ' ' ' ' ` ` ` ` ) ) ) ' ' ' / / ^ ~ ) ) ) ) ` ` ` ' ' ' ] ] ] ] ] ] ] ] ] ' ' ' ' ' ' ' ......o.o.o.o.o...o.o.o.+.+.$.&.&.&.&.&.%.%.%.%.%.=.&.&.-.-.2.2.2.2.2.2.-.-.-.-.-.;.&.&.&.&.=.&.%.%.#.#.#.#.#.#.#.#.#.#.#.+.+.+.+.+.+.+.+.+.+.+.o.o.o.o.o.o.o.o.o.o.o.o.o.o.o.o.o.o.o.o.o.o.o.o.o.o.o.] o.o.o.o.] ] ] ] ] [ [ ] o.o.o.o.o.o.o.o.o.] ] ..o.o.o.o.o.o.o.] ] ] ] ] ' ' ' ' ' ) ) ) ) ) ) ~ ) ) ' ' ) / ~ ~ ! ~ ~ ~ ~ ~ ~ ) ) ) ) / / ~ / ) / / ) / / ) ) _ / / ) ) ) ~ ~ Y l G ! ! Y Y Y Y Y Y Y U U U I L L L L L L L G G N h n N Z C B B B B B B B B B B M M M A B B B N N N m m m m M M b b b b c n h g n h g g g z z s d s i 3 1 1 3 7 w e e 8 2 - + + - 1 4 2 4 4 7 7 q 4 4 - + - 1 7 4 4 2 2 4 e p p g l z c b N B B V L Y G G J U U Y ~ ~ / ",
"+.+.o.o.o...' ' / ' ] ~ Y U U U U G G V m h s i w 8 w i i 8 < < & < q e q 4 < < 1 ; + . - 3 7 w e g a 7 e 8 i i i d z b M M M M N M N N M M N N M M M M N M N N B B B B B B B B C C C C C C B B B B B B Z Z Z Z G C B G J P U U Y Y Y Y Y U ! ! ~ ~ ~ ~ ~ ~ ~ ~ Y Y L ~ ) ' ' ' _ _ ' ' ' ' ' ' ' ' ' ' ' ' ' ' ` ` ` ` [ [ [ ' ' ' / ~ ^ ^ ~ ~ ` ` ` ` ' ' [ [ ] ] ] ] ] ] ] ] ] ] ' ' ' ' ' [ ....o.o.o.o.o.o...o.+.#.+.$.&.&.$.$.&.&.%.%.%.%.=.&.&.&.2.2.2.3.3.5.5.2.2.2.2.-.-.-.;.&.;.&.=.=.&.&.$.#.#.%.#.#.&.&.&.&.#.#.#.#.+.+.+.+.+.+.+.+.+.+.+.#.#.#.+.+.+.+.o.o.o.o.o.o.+.+.o.o.+.+.%.%.+.o.o.o.o.o.o.o.o.] o.o.o.] ] o.o.o.o.o.o.o.o.o.o. ...o.o.o.o.o.o.o.o.o.o.] ] ] ' ' ' ' ' ` ) ) ) ) / ~ / ) ' ' ) / ~ Y Y ! ~ ~ ~ ~ ) ) ) ) ) ) / / ' ' ' ' ' ' ) ) ) _ / / ) ) ` ~ ~ ~ C v ! ~ Y Y Y Y Y Y Y Y Y U U U U U U U I L G G b d z N Z B Z F B B B B B B B B B B C M B M B B N N m m m m M M b b b b m b c c n n h g d z z g a s s e 7 1 1 3 7 w e e q 1 - O + - 1 4 2 4 4 7 q 4 4 - + - 2 q 7 4 4 2 7 e p d l z c c m B B V V I Y G J P U U ! ~ / _ ",
"+.+.+.+.o...' ` / ] o.) Y U U Y U I G F N n g i w 8 u a a 8 5 5 & < q e q 7 1 , @ + + ; 4 8 w w i e 7 7 w i a g z c b b M M M M M M M b N B B V B N M M N N B B B B Z Z V B B B C C C C B B B B B B Z F F F F F U G B G U U Y Y Y ! ~ ~ ~ ~ / ~ ~ ~ ~ ~ ~ ~ ~ ~ ) L L ' ' ' ' ' _ _ ' ' ' ' ' ' ' ' ' ' ' ' ' ' ' ' ' ' ' ] ] ] ' ' ' ' ^ ^ ' ' ' ' ' ' ' ......] ] ] } ] ] } ] ] ] ] ' ' ' ] ] o.o.o.o.o.o.o.o.o.#.#.#.$.$.&.&.&.&.&.&.&.&.*.-.2.3.5.5.5.5.3.3.5.3.3.3.5.5.3.5.5.2.-.&.&.&.&.=.&.=.$.$.&.#.$.$.&.%.&.&.&.$.&.&.$.$.$.$.$.$.$.#.#.#.#.#.#.#.#.#.$.$.+.+.+.+.+.+.+.+.+.+.%.%.%.%.#.+.o.o.o.o.o.o.o.o.o.o.o.o.o.o.o.o.o.o.o.o.o.o.o.o.o.o.o.o.o.o.o.o.o.o.o.] } } o.] ' ] ' ' ' ' ' ' ) ) ) ' ' ' ) / ~ ~ ~ / ) ' ` ) ) ) ' ) ) ) ' ' ' ' ' ' _ _ ' ' _ _ / / ) ) ~ ~ / / ~ B P ! ~ ~ ~ ~ Y Y Y U Y Y U U I I I U U U U I M d h M Z F Z B N N B B M B B B B B B C C B B B N B B B B B N N N M b b b b c n b c z h z z z z p p l z p 8 4 4 3 7 e i e 8 3 - O O & - < 4 q q q 7 1 & O , 4 7 4 7 1 2 q e p g z z c M N B Z Z F U ! G J U U U ~ ~ _ ' ",
"+.+.+.+.o...' ` ~ ] o.) ~ Y Y Y U I L G B n g i w 8 u a a 8 5 5 & < q e q 7 1 , + + ; 7 q e p p e q 7 8 i i g h b M M b M M M M M M M M m m N N M M M b N N N N B B B C B B B B C C C C B B B N N B Z Z Z Z Z Z G B v Z U U Y Y Y ! ~ ~ ~ ~ / / / / / ~ ~ ~ ~ ~ Y L Y ) ' ' ' ' _ _ ' ' ' ' ' ' ' ' ' ' ' ' ' ' ' ' ' ' ' ' ] ] ' ' ' ' ' ' ' ] ] ] ............] ] ] o.] ] } ] ] o.o.' ] ] ] } o.o.+.+.+.+.+.+.%.%.#.&.&.&.&.&.*.*.*.*.-.-.2.2.3.5.3.3.3.3.3.3.3.9.5.5.9.9.9.9.3.2.2.-.&.&.-.&.&.&.$.$.$.$.#.#.&.%.&.&.&.&.&.&.$.$.$.$.$.$.$.#.#.#.#.$.&.&.&.&.$.$.$.$.$.$.$.$.&.+.%.%.&.&.%.%.#.#.#.+.+.+.+.+.o.o.o.o.o.o.o.o.+.+.+.+.o.o.+.+.+.+.+.o.o.o.o.o.o.o.o.o.o.o.o.o.o.] ' ] ] ' ' ' ' ' ' ' ' ' ' ' ) ) ) ) ) ' ' ' ' ' ' ' ' ' ' ' ` ' ' ' ' ' _ ' ' ' ' _ ~ ~ ~ ) / / ) / _ Y B L Y Y Y U U L G G G G F V V V V V V V B B h i h N Z F Z B B B C B B B C B B B B B B M B B N B B B B B N N M b c c n n n z z z z z l l l l g g g l l i 7 3 3 3 7 w e e 8 3 & + O & < 4 q q q 7 1 & + , 4 7 7 q 2 4 q e p g z z c M N B Z Z G U ~ L P U U ! ~ ~ _ ' ",
"+.+.+.+.o...' ` ~ ] o.) ~ ~ Y Y U U I J B b h a w 8 e a a 8 5 5 & < q e 8 7 1 ; @ ; 7 w e e i p q 8 w e a d n m N N N M M N N N N b n h d d h h g h h h n n n n c n n z d d d d d d g g d g g g g g h h h h h h h d a n M N B V V V F G G G J J J J J J J G G G L Y ~ ) ' ' ' ' _ _ ' ' ' ' ' ' ' ' ' ' ] ' '  .] ] ' ' ' ' ' ' ' ' ' ' ' ' ] } ..o.o.o.o.......] ] ....o.o.o.o.o.o.o.] ] ..o.o.+.+.+.+.+.+.%.%.%.%.&.$.&.&.&.&.-.-.-.-.-.-.3.3.3.3.9.9.9.9.9.9.9.9.9.9.9.9.9.9.9.3.2.2.-.2.-.-.-.&.&.&.$.$.$.#.#.#.#.#.%.%.&.&.$.$.$.$.&.&.&.$.+.+.#.$.&.&.&.&.$.$.$.$.&.&.$.$.+.+.%.%.&.&.&.&.#.#.#.#.#.#.#.#.+.+.+.+.O.O.O.O.+.+.#.#.#.#.#.#.%.%.+.o.o.o.o.o.o.o.o.o.o.o.o.o.o.] ' ] ] ] ' ' ' ' ' ' ' ' [ [ ) ) ' ' ' ' ' ' ' ' ' ' ' ' ' ' ' ] ' ' ' ' ' ' ' ' ' ' / / ) ) ` ` ) ) ) ) Y Z L B h h h h z c z z z h h h h h h h g d i 4 e g g h h d g g g g g h z z z l l l l h g h h h h h g g d d d d a i i i i i i s h h z z z z z z l g z l e 3 3 3 3 3 q e e q 1 - + + < 4 q q q 7 2 - @ < 7 q 7 q 2 4 q e p l z c M M N B Z Z L Y / U U U ! ~ ~ ~ _ ' ",
"+.+.+.+.o...' ` ~ ] o.) ~ ~ ~ Y Y U I L V b h s w 8 e a a 8 5 5 & < q e 8 7 1 ; - 1 8 e i i e e w e e p d z m V B N N M M N N N B c s e 8 8 e e e i i i s a s a i i e w 8 8 8 8 8 8 8 8 9 9 9 9 9 9 i i i i i i a i e g g h h n z c c b m b m m b b b b c M B F U ~ ) ) ' ' ' ' _ _ ' ' ' ' ' ' ' ' ] ] ] '  . .] ] ' ' ' ' ` ' ' ' ' ' ' ] } } ] ] ....................o.o.o.o.o.o.o.....o.o.o.+.+.+.+.+.+.+.+.%.%.$.$.&.&.&.1.2.-.-.-.2.2.3.3.3.9.9.9.9.9.0.0.0.0.0.0.0.9.9.9.9.3.3.3.2.2.2.2.3.2.*.&.&.$.$.$.#.#.#.#.%.%.&.&.$.$.$.$.&.&.&.$.+.+.#.$.&.&.&.&.&.&.$.$.&.&.&.&.&.+.%.%.&.&.&.&.#.#.#.#.#.#.#.#.#.#.+.+.O.O.O.O.$.$.#.#.%.%.%.%.%.%.+.o.o.o.o.o.o.o.o.o.o.o.o.o.o.] ' ] ] ] ] ] [ [ [ ' [ [ [ ' ) _ ' ' ' ' ' ' ' ' ' ' ' ' ' ' ] ] ' ' ' ' ' ] ] ] ' ' _ _ ) ) ` ` ) ) ) ' ) ) ' U m m m m m m m c c c c c c c b c n h d 8 9 d s d s a i i i i e i p p a a a a a a a i i i i 9 e 8 8 8 i i 8 8 8 8 8 0 4 8 i g c c c c c z z l z l a 7 3 1 1 < 4 q e e 8 4 - @ < 4 q q q 7 1 - & < 7 q 4 7 1 2 q e p l z c M M N B Z Z L Y / U U Y ! ~ ~ ~ _ ' ",
"$.&.#.+.o.] ] ' ~ ..o./ ~ ~ ~ E Y U U G V m z s i 8 4 4 8 4 3 3 % < w e e q 4 < ; < 8 e a i w e i a s g b B B N N N M B M B Z B n s 8 0 8 0 8 8 w e i i a i w 8 8 w w 8 8 w e i e e e 9 9 9 9 9 y i s s s s s i d d i d b m B B G G G G L L L L G G V V V L Y Y ~ ~ ) ) ' ' ' ' ' ' ' ' ' ' ' ' ] ] ] ] ] ] ] ] ] ] ] ] ] ] ' ' ' ' [ ] ] ] ] ] ] ] ] o.o.o.] ] o.o.o.o.o.o.o.o.o.o.o.#.o.#.#.+.+.+.+.#.+.#.#.$.$.=.=.=.=.&.*.*.2.3.3.4.3.3.5.5.7.9.9.9.q.q.q.q.q.q.q.q.0.9.9.9.9.9.9.9.9.3.3.3.7.5.3.*.&.$.$.&.#.#.o.o.+.%.&.&.&.&.&.&.&.&.$.$.&.&.&.&.&.&.$.$.$.$.$.$.$.$.$.$.$.$.%.#.%.%.#.#.&.&.&.&.$.#.#.#.+.+.+.+.+.$.&.&.&.&.&.&.&.&.%.%.%.%.#.o.o.o.o.o.o.o.o.o.o.o.o.o.o.] ] ] ] ] ] ] [ [ [ [ ' ' ' ' ' ' ' ' ' ' ] ] ' ' ' ' ' ' ] ] ] ] ] ] ] ] ' ] o. .] ' / ' ' ) / ) ' ' ' ' ' ' ~ U L Z G Z B M M M c c M c c c b b c n g i s g d h g d i i i i i i s s s s d d s s s s i i 9 9 9 9 8 9 9 9 8 8 e 8 8 8 7 7 e s z v M M c z z l z c z s 7 1 ; ; 3 7 8 w q 4 < ; < 4 q q q 7 2 - & < 7 7 4 3 3 7 q e p l c c M N N B Z F H ~ / U ~ ~ ~ ~ ~ ' ] ~ ",
"$.$.#.#.o.o.] ] ~ ..o.` ~ ~ ~ E Y U U G V m z s e q 8 8 e 7 1 3 % < w e e q 4 < - ; q e i i i i s g h l N B B M N N M B B Z B M i 0 3 3 3 4 8 e i i a a i i w w e i e w 8 w w e e e e e e 9 9 9 i s s f g g d s h h g n B V J I Y Y ~ ! ! ! ~ ~ ~ ~ ~ ! ~ ~ ~ / ~ / ) ' ' ' ' ] ] ] ] ] ] ] ] ] ] ] ....] ] ] ] ] ] ] ] ] ] ] ] ] ] ] ] ] } o.......o.o.o.} } } o.o.o.o.o.o.o.o.o.o.o.#.#.#.#.#.+.+.$.$.#.#.#.$.=.=.&.&.&.&.*.2.3.3.4.7.3.3.7.7.9.9.9.9.q.q.q.q.u.q.q.q.q.0.9.9.9.9.9.9.9.9.9.9.9.7.3.;.*.&.$.$.$.&.%.+.+.&.&.&.&.$.&.$.&.&.$.$.&.&.&.$.&.&.$.$.$.$.$.$.$.$.&.&.$.$.$.%.%.%.$.$.&.&.$.$.$.$.$.#.+.+.+.+.$.$.&.&.&.=.&.&.&.$.%.%.%.%.#.#.#.#.o.o.o.o.o.o.o.o.o.o.o.o.o.] ] ] ] ] ' ' ' ' ' ' ' ' ' ' ] ] ] ] ] ] ] ] ] ] ] ] ] ] } } } } } } ]  .o.] ' ' ' ' ' ' ) ' ' ' ' ' ' ' ' ' ~ ~ U U J G G Z C Z Z Z V V V V B B g s g g g h h d d g g d s s g g g g d d d d d s s s a a a a i i a i i i e e 9 7 7 7 8 e g z v M c z z l c z c z g e 7 3 4 7 7 7 q 4 < ; < 4 q q q 7 2 - & < 7 7 7 3 3 7 q e p l c c M N B Z F G P ~ / Y ~ ~ ~ ~ ~ ' ' U ",
"&.&.$.&.o.o.o.] ` o.+.' / ~ ~ E Y U U J V m z s e q q e p q 1 4 + < e e e q 4 < + ; w w i i a s h h h h N N M M N B B B Z C M g 0 3 3 3 0 i g z n c b M Z B B B B Z Z B B B B C C C Z Z Z Z G G G J L U U P J J G G G U Y ~ / ) / / / / _ _ _ _ ) ) ) ' ) ' ' ) ) ) ' ' ' ] ] ] ] ] ] ] ] ] ] ] ] ] ....] ] o...] ] ] ] ] ] ] o.] ] ....o.o.o.o.o.o.o.o.o.o.o.o.o.o.o.o.o.o.o.o.o.o.o.o.#.#.#.#.$.$.&.&.&.#.&.=.&.&.&.&.&.-.2.2.3.3.7.7.9.9.9.9.9.0.0.0.a.a.a.a.a.a.a.a.a.q.0.9.0.0.0.0.0.9.9.9.9.9.7.3.*.*.&.$.$.$.&.&.&.&.&.&.*.&.&.$.$.$.$.$.&.&.&.&.&.&.$.$.$.$.$.$.*.*.*.*.&.&.$.$.$.$.$.$.&.&.&.&.&.&.&.&.$.$.$.$.&.&.&.2.-.&.&.=.$.&.&.%.%.%.%.%.#.#.+.o.o.o.o.o.o.o.o.o.o.o.o.o.} } ] ] ] ] ] ] ' ] ] ] ] ] ] ] ] ] ] ] o.o.o.o.] ] ] ] } } } } } } } }  .] ' ' ' ] ] ' ' ' ' ] ' ' ' ] ] ..' ' ' ' ' ' / ~ ! Y Y Y U U U U U I V V G V Z F Z Z Z F F Z C B Z Z C B B B B B B B B B B B B B B B B B m m M c s 8 7 7 7 7 p g z v c z z l c c z c M h e 8 7 7 7 7 q 4 < ; < 4 q e q q 2 - & < 7 7 w 7 3 4 q e p l c v M N Z F J J P ~ / Y ~ ~ ~ ~ ) ' ) J ",
"*.&.$.$.+.o.o.] ` o.+.' / ~ ~ ~ Y U U J V m z s e q w e p w 3 4 + < e e e q 4 < X ; w w i i a h h h h h b b b b N N B B B M g e 0 7 7 7 l B B F F J L I U U U U U U U U U U U Y U U U U Y Y Y Y Y ~ ~ ~ ~ ! Y U U U U ) ' ' ) / / / / ~ ~ ~ ~ ~ ~ / ) ) ) ) ' ' ) ' ' ' ] ] o.o.o.] ] ] ] ] ] ] ] ......] ] o.o.] ] ] ] ] ] o.o.o.....o.o.o.o.o.o.o.o.o.o.o.o.o.o.o.o.o.o.o.o.o.o.o.#.#.#.#.$.$.&.&.$.&.$.#.$.=.-.-.-.-.-.2.2.3.3.3.7.9.0.9.w.w.0.q.q.q.a.a.a.a.a.a.a.a.a.a.q.q.0.u.u.0.0.0.0.9.9.9.7.3.3.*.*.&.$.$.&.&.&.2.2.2.-.-.&.&.$.$.&.&.&.&.&.&.&.&.&.&.$.$.$.$.-.-.*.*.&.&.&.$.$.$.$.$.&.&.&.&.&.&.&.$.&.&.$.&.&.&.2.2.2.-.-.&.=.&.&.%.&.%.%.#.#.#.+.+.o.o.o.o.o.o.o.o.o.o.o.o.o.o.} ] } } } } ] ] } } ] ] } ] ] ] o.o.o.o.o.o.} ] ] ] } } } } } } } } } ] ' / ' } } ' ' ' ] ] ] ] ] ' ' ' ] ] ....o.o.o.o.' _ ' ) ) ) ) ) ~ ~ Y ~ ) Y ! ~ ~ Y Y ! ! ! Y ! ~ ~ U U U U U U U U U U U U U U U U U I L J Z G Z c 8 7 7 7 e p g z c z z l z c c z m c s 9 8 8 8 8 q 4 < ; < 4 q e q q 2 - & < 7 7 e 8 3 4 q e p l c v M N Z G J H P ~ / Y ~ ~ ~ / ) ' ) F ",
"3.3.&.$.+.o.o.] ' o.+.` ~ ~ E E Y U U J V m z s p q w a p w 3 4 + < e e e q 7 , + ; w w i i i i h b N b c c c b M N B Z M g e 7 4 0 i b Z V F L L J J G G G G G G G G G G G G G G G L L U U U U U U U U U U U U U J U / ) ) ) ~ / ~ ~ ~ ~ ~ ~ ~ ] ' ' ' ' ) ' ' ' ' ' ' ] ] o.o.o...o.] ] ] ] ] ] ] ] ] ..o.o.o.o.o.o.o.o.o.o.+.#.o.o.o.o.o.o.o.o.o.o.o.o.o.} } o.o.o.o.o.} o.+.o.o.$.$.$.&.$.$.$.$.&.$.&.&.*.3.2.5.3.2.3.3.3.9.7.9.0.0.q.q.q.q.q.r.r.r.a.j.k.k.k.k.k.k.k.j.a.a.a.a.a.q.0.0.9.9.0.9.3.3.3.2.*.&.&.&.&.-.2.2.2.2.2.-.*.*.&.$.&.&.&.&.1.<.1.1.1.1.*.$.$.$.&.&.*.*.&.&.&.&.&.=.&.&.&.&.*.&.&.&.$.$.&.&.&.&.&.&.2.2.3.*.*.&.$.$.$.#.&.#.#.&.$.$.+.+.+.+.+.+.+.o.o.o.o.o.o.o.#.o.o.o.} } } } } } } } o.o.o.] } } ..o.o.o.] ] o.o.o.] o.o.o.o.o.o.o.o.o.o.} ] } } } } ] ] ] ] o.o.] ] ....] ' ' ' ' ' } ' ) ) ) ) ~ ~ ~ ~ ~ ! Y U L U Y Y Y Y Y Y Y Y U U P J J U U J G G G G G G G G G G G G G G G V C B B Z z e 3 3 7 e a l z z z z z c z z z h h g i w w i e 8 1 - , 7 q q 8 7 8 - - 1 7 8 g q 4 3 q i d l c v N B C G H H U / ) Y / / ) ) ) ] ] ~ ",
"3.3.*.$.#.+.o.o.' +.%.' ~ ~ ~ ~ E Y U L F N z s p w e a p e 4 4 @ 1 e r e e q ; % ; e e i i i i M M b h c c b M N B B B g s 9 7 4 8 z Z B B V G F F F V V V V V V V V V Z Z Z Z Z G J L L L I L I U U U P P U I U L U ~ ' ' ) ) / ~ ~ ~ ~ ~ / / ' ' ' o.' ' ' ' ' ' ] ] ] ] ] ] ] ] ] ] ] ] ] ] ] ] ] ] ..o.o.o.o.o.o.o.o.+.$.&.&.o.o.o.o.o.o.o.o.o.o.o.o.} } } } o.o.o.o.} o.+.#.#.$.&.&.&.&.&.&.&.*.*.2.3.3.3.3.3.3.3.9.9.9.0.0.0.r.r.a.a.a.a.a.a.a.a.j.k.z.z.z.z.z.z.z.z.j.a.j.j.j.a.q.q.q.0.0.9.7.5.3.2.*.*.&.&.*.-.2.2.2.2.2.2.3.*.*.&.&.&.&.1.1.1.1.1.1.1.*.*.$.$.&.*.&.*.*.*.*.*.*.&.*.*.*.*.2.2.3.7.3.$.&.&.&.&.&.&.2.2.*.*.*.&.$.$.$.&.$.$.$.$.&.$.$.+.%.%.+.+.+.+.o.o.o.o.o.o.#.o.o.o.} } } } } } } o.o.o.o.o.} o...] o.o.o.o.o.o.] ] o.o.o.o.o.o.o.o.} } } } o.o.o.o.o.} } o.o.o.} ] ] ] ] ' ' ' ' ' ] _ ~ ~ / ~ ~ E ~ ) ~ Y ~ U U U Y Y Y Y Y Y Y Y U P G F F F G F V V V V V V V V V V V V B B V V Z B B B Z c i 8 7 8 e s l z z z z z z z z h h g e w e i i 8 1 - < 7 e q q 8 8 ; - 1 8 q g w 4 7 w p d l v v B B G G H K U / ' ~ ) ) ) ' ) ' ] ' ",
"3.3.*.$.$.#.#.o.' +.%.` ~ ~ ~ ~ ~ Y U L F B z s a e e p s e 3 3 @ 1 e r e w 8 < % < e e a e e a B b z h c b m M B B M g e 9 8 7 8 g B V V G F V M B Z B B B Z Z V V V V V V V V G G J L L L L L U U U U U U U U Y U Y Y ' ' ' ] ] ' ' ' ) ) ) ) ) ) ` ] [ ] ] ] ] ] ] ] ] ] ] ] ] ] o.o.o.o.o.o.] ] ] ] o.o.o.o.o.o.o.o.o.$.&.1.$.#.#.#.#.o.o.o.o.o.o.o.} } } ' ' } } } } ] } o.$.&.&.&.&.<.2.2.-.2.3.3.3.3.3.3.0.0.0.0.0.0.0.a.r.a.a.a.j.j.j.l.j.k.k.k.z.z.c.c.c.c.c.c.c.z.k.j.k.z.z.j.a.a.q.0.0.0.7.3.3.3.3.1.*.*.-.2.5.5.5.5.3.2.2.2.*.*.&.&.1.1.1.1.1.1.1.1.*.*.&.&.&.*.-.-.*.*.*.*.*.*.*.*.;.;.3.3.7.9.7.&.&.&.&.&.&.&.2.2.*.*.*.&.&.*.*.&.&.&.&.&.&.&.&.$.&.&.$.$.$.+.#.o.o.o.o.o.#.#.o.o.o.} } o.o.o.o.#.+.+.o.o.} } o.] ' ' ] ] o.o.o.o.o.o.o.o.o.o.o.o.o.o.+.+.} } } o.o.o.o.o.o.o.o.o.o.o.o.o.o.o.o.O.} } o.$.&.$.$.$.o.o.} _ ' ~ Y Y ~ ~ ~ Y ! Y ! Y U L G F F V Z F V V V V V V V V V V V V B B M m B C B M Z Z M s e 8 w p s l z z c z h z z z h g 8 w i i i 8 1 - < 7 e q q 8 8 ; - 1 8 q d 8 7 7 e p g l v v B C G H P U U _ ' ~ ) ) ) ' ' ' ] o.",
"3.3.*.$.$.&.&.o.' +.%.` ~ ~ E E ~ Y U L G B z s a e e p p w 3 3 @ 1 e r e e 9 < & 1 e i a w w s B b z c c b M M Z N h i 8 8 8 8 g m B V V V B c h B F Z Z Z Z Z V V F F F F F G G L L I I U U U I U U U Y Y Y Y ~ ~ ~ Y ~ ' o.$.7.9.9.5.*.*.*.*.=.$.$.$.o.o.o.o.o.o.+.+.o.o.] ] ] o.#.#.#.+.+.+.o.o.o.o.o.o.o.o.o.o.o.o.o.+.&.2.&.$.&.$.o.o.o.o.o.o.o.o.] ] ' ' ' ] } } ' _ ' ] &.&.&.&.<.2.3.2.2.3.3.7.9.7.3.3.0.0.a.a.a.a.a.a.a.a.k.k.k.k.z.z.z.z.z.z.z.c.c.V.V.V.V.V.V.c.z.k.c.N.c.k.j.a.a.q.0.0.9.7.3.3.3.1.*.*.-.2.5.5.3.3.3.3.3.1.2.*.*.*.1.1.1.1.1.1.1.1.*.*.*.&.*.*.-.-.*.*.2.3.*.*.;.;.3.3.3.3.*.7.5.$.&.&.&.&.&.&.2.2.*.*.*.&.*.*.*.*.*.*.1.&.&.&.&.&.&.&.&.&.&.$.$.#.#.#.#.#.#.#.o.o.o.o.o.o.#.#.#.$.#.#.#.+.o.o.} } ~ ) ' ] o.o.o.o.o.o.o.o.+.+.o.o.$.&.&.&.&.&.&.&.&.&.1.&.&.&.<.1.1.1.1.<.<.<.<.<.<.<.<.3.3.1.1.1.1.1.$.] o.' ~ ~ ~ ~ ~ ~ ! Y ! Y U U L L G F F G J G G G G G F F V V V V F B b z z M B B M B Z M z i q e p d l z c c h h z z h g 4 i i i i w 3 - < 7 e q q q q ; - 1 8 q s 8 7 q e a l x v B B Z G H U U Y _ ' ~ _ _ ' ' ' ' ] o.",
"9.2.3.2.&.$.&.&.] +.+./ ~ ~ ~ ~ E Y U I G N c g a i e i s 8 3 3 % 3 i s s i e 1 - 1 e e i w 8 s M b n z c b M B B g e i e 8 9 h b B Z Z B B n i a N B N Z Z Z Z Z Z Z Z Z Z Z L G L L U U U Y Y E E E E E E E E ~ ~ Y ' ~ / o.1.q.q.q.a.a.r.0.0.a.a.a.q.9.-.7.7.q.a.q.7.a.a.r.e.a.a.a.a.a.a.0.0.9.9.0.0.9.9.6.6.4.3.1.<.7.3.0.c.z.a.a.a.a.a.a.a.a.a.a.a.0.0.4.3.0.0.0.0.9.3.7.9.a.k.z.f.z.k.k.k.z.z.c.c.C.N.k.a.z.N.V.C.Z.Z.C.C.C.C.C.C.F.F.J.J.J.J.J.J.H.H.H.H.H.H.H.H.F.D.F.D.!.^.J.F.!.H.F.D.D.C.V.c.z.k.k.a.a.a.q.q.q.q.q.q.q.a.j.k.z.j.a.r.0.9.9.r.e.p.a.k.a.s.k.k.k.k.a.a.z.z.z.z.z.k.j.x.k.k.k.k.z.k.z.k.k.k.k.k.z.z.z.z.z.z.k.k.k.k.k.k.k.k.z.z.C.C.C.C.C.C.V.V.r.2.2.1.3.3.8.8.8.8.8.8.*.*.*.1.1.3.3.3.7.3.1.&.3.a.z.k.3.4.8.0.4.4.3.1.1.1.1.1.&.1.3.1.&.1.3.8.a.a.a.a.a.a.a.a.a.a.a.a.r.p.e.4.4.e.8.4.4.3.3.4.4.4.8.4.3.2.<.&.&.' / ~ ~ ~ ~ ~ ~ ~ ! ~ Y U U U L J J J G G G G G F F F F F F F G F c s p l C C M M B C C c a 8 8 i s h c b c h n n h h 8 9 i e e q 3 - 4 q e e 8 7 7 - , 4 8 q q q 7 q i g l c M B C Z J U U U P ) ' ~ ) ) ' ' ] ] o.o.",
"9.3.&.3.*.&.&.&.o.&.&.' / ~ / / E Y U I F N c g s i e i i 8 3 7 ; 7 i s i e e 1 - 1 w e i w 8 s v b n z c M B B z e 8 9 8 9 s c B Z Z Z N a i g b M c B Z Z F F Z Z G G G G L L L L U U Y E ~ ~ E E E ~ ~ ~ ~ ~ ~ / ) $.3.7.r.a.V.V.C.V.C.M.c.z.k.z.z.j.a.z.J.!.I.!.!.H.!.P.P.P.J.J.J.F.F.V.Z.!.!.!.^.`.!.!.^.`.Q.!.~.).`.!.!.`.`.!.!.!.!.!.!.!.^.!.(.~.~.~.`.`.'.'.`.`.!.!.!.!.!.`./.!.`.`.OXOX X XOXOXOXOX`.). X XOXOXOXOX X XOXOXOX X X XOX+X X X X XOXOXOXOXOXOXOXOXOXOXOXOXOX%XOXOXOXOXOXOXOXOX$XOXOXOX X X(.!.F.Z.C.C.C.C.C.D.J.H.H.!.!.!. XOXOX'.oXoXoXoXoXoX'.'.!.^./.`.OX X X X X`.).'.).`.`.`.).~.).~.!.!.!.!.~.~.~.!.!.!.!.!.!.!.!.!.!.!.!.(.|.|.|.|.OX X!.I.k.N.!. X X X X`.).).).).`.(.U.H.Z.Z.C.C.Z.F.J.J.!.`.|.).).).|.OX~.~.Y.I.~.!.Y.I.P.!.I.J.z.a.a.z.z.z.k.j.k.k.k.k.a.k.c.M.F.P.P.F.M.s.r.p.s.r.r.s.r.s.s.p.p.a.e.e.2.' / / ~ ~ ~ ~ ~ ~ ! ~ E U U U I L L L L L L G G G G G G G F G Y Z b c s s z B B v v M Z N h i 0 8 i a c b b n z n h h 8 8 i e i w 1 - 4 q e e q q w < , 4 7 8 q q 7 q i d l c M B C Z J U U U U ) ' ~ ' ' ' ' ] ] ..] ",
"o.3.3.7.3.&.&.&.+.&.&.] ` / ` ` E E U I F N c g s i e i i 9 7 8 3 e s a a i e 1 - 1 w e i w 8 s v b n z n M B B e 8 7 7 8 s c M Z Z Z N h 8 e b B N c B G G J J G G L L L L I I U U Y Y ~ ~ / ` E ~ / ' ` ` ` ` ~ / ] 9.F.J.J.S.Y.|. X XOX X X|.OXOXOX X XJ.C.I.`. X X|.|.|.).~.~.~.~.!.!.V.z.F.~.Q.F.Z.Z.Z.Z.Z.J.P.!.~.!.!.J.J.F.C.N.c.N.V.V.V.V.C.F.J.P.P.J.J.J.F.C.V.C.C.F.H.!.'.OXOXOXOX*X*X*X*X%X%X*X%XOX X$X%X*X*X$X$X$X$X$X$X$X$X X X+X+X%X%X%X%X*X*X*X*X*X*X*X*X*X*X:X*X*X*X`.!.~.!.!.H.^.!.^.^.!.I.H.H.!.H.D.V.c.c.c.c.c.C.D.F.F.H.!.!.!.!.!.J.C.C.C.C.V.C.Z.Z.c.A.!.`.+X+XOX+X X).).|. X X X X X XOXOXOXOXOXOXOX X X XOXOX|. X|. X X X`.`.|. X X X X XOXOXOXOX'.'. X`.!.I.J.F.J.H.!.`.OX`.!.H.C.V.c.z.V.z.a.a.d.k.c.c.Z.J.!.). X`.!.!.!.`.`.'.`.'.oX'.!.V.a.a.k.V.H.!.).`.).).!.!.`.'.OX%X%XOX X`.`.|. X'.'. X|.|.|.!.J.H.I.!.3.' ~ ~ ) ) ) ) / ~ ~ ~ ~ U U U U U U U U L L L L L L L J J G G Y M F N z d s z B M c c B B c d 7 4 0 8 c N m c z c h h 0 8 i e i e 4 ; 4 q e e w e i 3 , 4 7 8 q 8 7 q i g z c M B C Z J U U U Y ' ] ` ' ' ] ] o.o.' ' ",
"#.&.7.3.3.*.&.&.+.2.&.] / ~ / / E Y U I F N c g s i e i i 9 7 e 7 i s e i e q < - 1 w e i w 8 s v b n z n M Z b 7 7 7 7 i c B M Z Z N b i i h N M B M Z J J J J G L L L U U U U U Y Y E E ~ ~ ~ U Y ~ ` ` ` ` ` ~ ) } 0.`.`.!.F.P. X:X:X5X>X:X:X5X7X7X>XqX%X!.`.>XqXwXqXqX6X5X5X5X5X>X>X5XOX'.OXOX~.S.z.a.a.0.5.3.4.8.9.a.a.r.0.a.e.9.9.0.0.0.0.9.0.p.s.z.M.C.S.J.F.V.z.Z.J.`.OX%X5XqXqXqXqXqXqXwXwXqX6XwX6X>X*X6X6XqXqXqXqXqX6XqXqXqXqX>X,X6X6XqXqXqXqXqXqXqXqXqXqXqXqXqXqXqXqX6XwX*X+X|.~.J.C.c.k.j.a.r.e.0.0.a.a.q.q.0.0.0.0.0.q.a.j.k.k.z.z.V.k.a.a.s.k.c.V.J.!.`.'.OX%X=X5X6X9X6X6X6X>X>X6X6X6X6X6X,X>X,X>X6X6X6X6X6X6X6X6X6X6X5X6X5X6X6X6X:X>X>X5X:X:X:X:X>X>X7X6XwX7X*X).I.J.F.N.N.N.c.z.V.z.k.a.a.0.6.3.9.3.&.@.+.&.3.9.a.j.V.G.z.a.y.9.5.y.f.V.J.!.'.oX`.!.OX*X6X6X6X6X6X6X6X6XqXqX0X6X6XqX5X*XOX*X>X>X5X:X:X5X5X=XOX!.H.!.).`.3.( U Y _ ) ) ) ) ~ ~ ~ ) Y U U U U U U U U U L L L L L U P L J B Z J B c z s s z M B c N N b z 8 4 4 7 n N m c z c c h 0 8 i e i e 7 ; 4 q e e 8 w i 3 , 4 7 8 q 8 8 q i g n c M B C Z J U U U Y ' ..` ] ] ] ] o.] ' ) ",
"a.*.+.&.&.*.&.+.+.2.&.] ` ' ' ` ~ Y U L G B b h s e i i i 8 7 e q 7 e e i e 8 1 - 1 e i i w 8 s M M n z n M M b i e 3 8 M M M M B M h i g c N B F Z B N F J P U P P U Y U U U U Y Y E E ~ ~ R B n B Y ` ' ' ' ' / ~ ] 3.H.I.!.'.J.I. X>X>X>X>X>X>X7X7X=X5X%X'.~.%X:X6XqXwXqXtXqXqXqX6X6X=X*X%X%X+XOX|.`.!.H.A.C.C.V.c.k.a.q.7.3.$.#.o.] ' } +.&.&.&.2.3.6.a.S.`.*XOXOX'.OXOX*X=X5X>X>X5X7X7X>X=X6X5X>X>X5X5X5X7X5X>X5X5X5X5X5X>X5X>X5X5X>X,X5X5X6X6X6X6X6X6X6X6X6X6X6X6X>X>X>X>X>X>X>X*X*X>X:X%XOX'.!.H.V.V.c.a.q.7.3.*.2.&.&.2.*.&.&.*.9.0.k.V.J.I.).'.|.OXOX+X%X%X*X*X7X7X>X>X>X<X5X6X:X:X:X:X:X;X;X;X:X:X>X>X6X6X6X6X6X,X>X>X>X>X>X>X>X>X>X>X*X*X>X>X>X>X:X:X=X=X=X*X=X*X%XOX X X X X'.(.H.Z.c.a.0.&.;.&.o.o.o. .' ' ` '  .o.;.;.5.5.u.l.b.J.R.^.{.OX&X=X4X=X*XOXOX=X7X7X7X7X7X7X6X6X7X7X7X7X>X6X%X).%X%X*X:X=X>X>X>X%X$X`.V.c.H.`.~.3.( U ! ' [ ' ' ) / U M L ~ U U U U U I U U U U U U U U U U P J B Z Z Z B M z s s n M c b M M b i 0 0 4 n M M M m m m h 0 8 p i i e 7 ; 4 q w 8 8 7 7 7 < 3 7 8 a e 8 e i g z v B C C G U U Y ! ~ ] o.[ o.] ] ' ' ' o.&.",
"z.a.*.o.o.#.&.&.+.2.&.] ' ' ' ` ) E Y L G B b h s e i i i 8 7 e 7 8 p p i e 8 1 - 1 e p i w 8 d M b n z n b M b s e 3 e M B B M N h i i c N B Z F Z Z B J J U U U U Y Y Y Y Y Y Y Y ~ ~ ~ I k u N G ~ ` ' ' ' ' ' ' ] $.J.F.J.!.F.Z.H. X=X:X>X=X=X>X>X*X=X%X|.`. X+X%X*X>X>X>X>X>X:X:X:X%X%X+XOX+XOXoX'.`.^.R.F.V.c.k.a.q.3.o.) Y U L G G J U Y ! ~ _ ' &.3.p.f.C.F.H.!.'. XOX*X*X*X*X*X*X*X%XOX%X%X%X*X*X=X*X4X*X*X=X=X=X*X*X*X*X:X:X:X:X:X:X:X:X>X>X>X:X:X*X*X:X:X:X:X*X%X*X*X*X*X%X%X%X*X%X XOX`.I.J.C.N.k.0.7.*.o.o.' ) ) ' ] ' ' ] +.&.0.a.C.S.H.!.~.`. XOXOX$X*X*X%X%X%X%X%X%X:X:X%X%X%X%XOX X X|.%X%X*X*X*X*X*X*X*X*X*X%X%X%X%X%X%X%X%X%X%X%X:X:X%X%X%X%X*X*X%X%X%X+XOXOX$XOX X`.`.!.J.C.c.6.+.' ~ Y U J J J G F S G I U ~ ' &.5.v.G.^.`.{.'.'.`.'.OXOXOXOXOXOX*X*X*X*X*X*X*X*X*X*X*X*X*X*X X(.U. XOX$X$XOXOXOXOXOX(.D.k.z.Z.!.P.8.' ~ ^ ~ ` ' ' ' / U B b V ~ U Y U U U U U U U U U U U U U P J F Z Z Z Z Z B c i a h b b N N b i 0 8 0 n M M M m m m h 8 e a p i i 7 - 3 7 q q w w e e 3 4 7 7 p w 8 e i g z v B C Z G P U Y Y ~ ] o.' ] ] ' ) ] o.*.3.",
"k.a.0.7.$.#.o.o.+.2.&.] ' ] ] ' ) E Y U G B v l s e i s s 9 7 i 7 w g g s i 8 < - 1 e s i e w g M b n z z b M b s e 1 i B B B M b i w g N B Z Z Z F F G P U U U U U Y Y Y Y Y Y ~ ~ E E Y k i b G U ~ ' ' ' ' ' o.o.+.&.J.V.C.H.D.G.b.b.^.`.OX'.[.OXOX'.'. X`.).).`.`. XOXOXOXOXOXOXOX X'.'.`.^.`.^.!.R.V.z.a.0.3.-.=.#.) E L V V V B B Z Z F F G H U Y / ] o.+.&.&.6.0.k.c.Z.J.!.`.'.oX'.'.`.`.`.'.oXOXOXOXOXOXOX XOXOXOXOXOXOXOXOX+X+X+X+X+X$XOXOXOXOXOXOXOXOXOXOXOXOX X X X X X X`.`.'.'.!.H.J.C.z.a.0.9.2.O.+.] ' / Y U U Y ~ Y Y ~ ' ] ] o.+.&.&.2.2.0.z.C.F.F.U.(.).).).).).`.|. X`.`.'.`.).).!.!. XOXOXOXOXOXOXOX X'.`.`.`.`.`.`.'.`.`.`. X X XOXOXOXOXOXOXOXOXOXOXOXOXOX`.!.F.C.k.a.9.3.&.] Y L G V N b m m N B N B S J J ! ] &.&.-.5.0.a.k.C.D.J.H.H.F.R._.'.[.`.`.'.'.'.'.'.'.'.'.'.`.(.J.F.H.!.(.(._.(.^.R.L.C.j.a.j.F.N.I.F.8.o.] ] ) ' [ ] ] ' ! P B g V ~ ~ Y U U U U U U U U U U U P L L J G F Z G Z V B n d d c M B B M i 8 8 8 n M M M m m m h 8 i s p i i 7 ; 1 7 e i i i i e 3 7 7 7 i 9 8 e a g c v B C G H U U Y ! ~ ] o.[ ' ] ] o.&.2.*.o.",
"' 3.a.q.9.*.+.o.+.2.&.] ' ....' ` ~ ~ U G B v l s e s s s 9 7 i 4 e l l g a 8 < % 1 e a i e w g b b z h z c M c s i 7 s B B M M g 8 i b B Z Z F Z F G H P U Y Y U U Y ! ! ! Y Y ~ ~ E E N f n J U ~ ` ' ] ] ' ' +.+.$.3.H.b.b.H.C.C.z.u.j.c.b.G.G.G.G.D.D.F.Z.Z.J.J.J.J.J.J.H.J.J.J.J.F.F.F.Z.Z.F.Z.V.c.z.a.3.&.&.=.#.o...' E I I I U U U U U U H U ! ~ ~ ' ] o.+.+.+.+.&.2.0.a.k.c.V.Z.F.Z.C.V.G.F.J.R.!.!.!.~.I.I.U.U.Y.Y.Y.Y.Y.I.!.!.(.(.(.!.(.!.!.!.!.!.!.!.!.!.!.!.I.H.I.H.H.H.J.J.H.J.C.z.a.9.1.&.&.&.&.o.o.] ] ' ~ U U ~ ) ~ ~ ) / ' ]  . .o.o.+.+.&.1.3.9.q.j.z.c.c.c.z.V.C.D.D.D.D.D.D.C.G.J.R.J.J.R.R.R.Q.!.!.H.J.F.F.F.J.J.J.J.J.J.J.J.J.H.H.H.H.J.J.J.J.J.F.J.H.!.!.C.z.0.3.*.#.[ ) ) ~ Y U U L F B B B V G F G I U ' ] o.o.&.&.#.#.*.7.u.k.z.c.z.a.a.z.C.Z.Z.C.Z.Z.Z.Z.Z.Z.Z.Z.Z.C.a.k.c.D.c.c.C.C.c.z.j.a.q.9.a.Z.H.c.P.J.7.o.} ] ..o.] ] o.' ~ U J B k F ~ Y Y U U U U U U U U U U L L L J J F Z V V V B N h a s N B B N i 8 i i z M M M m m m h 8 i s a p p 7 ; 1 q a d s p i e 3 3 7 8 s e 8 e a g c v C Z G U U Y Y ~ ~ ] #.] ) ] $.3.3.3.o.U ",
"' &.9.0.k.a.3.%.o.&.7.] ) #.o.] ' / ~ U U Z N z s e i s s 8 3 i 4 e h h h s e ; % 1 e p i e w h b b z h z c M b s a 7 s B B B M h s n V B V V G L L U U I U U Y ! ! ~ ~ ~ ~ E E ~ ~ E V f N U Y ~ ) ' ' ] ] ] ] +.+.o.3.R.C.b.!.G.z.b.j.;.-.9.0.3.7.7.3.9.9.9.0.0.r.r.r.r.r.r.r.r.r.q.q.9.9.7.7.9.9.9.9.9.2.$.$.+.o.o.o.o.o.' ) ~ ~ Y U I U J U U E ~ ~ / ] ] o.+.&.+.&.&.&.&.2.2.3.7.7.7.7.7.7.0.a.a.a.a.a.a.a.a.r.k.k.s.k.k.k.N.N.C.C.C.C.F.F.F.C.C.C.C.C.C.C.N.N.N.N.C.N.c.z.a.a.k.z.V.c.j.a.9.7.3.2.2.*.&.$.#.o.] ' ` E Y ~ ~ ~ Y ' ` ] ....o.o.o.o.&.&.-.2.5.-.3.0.7.5.7.9.9.9.9.9.0.0.9.9.u.a.l.z.j.d.a.a.a.a.u.u.y.y.y.u.q.q.q.q.a.a.w.9.w.a.a.y.0.0.0.0.3.3.3.7.3.*.*.3.$.&.#.+.#.#.o.....] ] ' ~ Y U J G J I U I U ~ ` o.+.+.+.+.+.$.$.&.-.9.u.0.3.2.&.2.2.&.&.2.2.3.3.9.7.3.3.7.3.1.&.#.q.k.r.7.7.7.7.3.3.1.&.3.j.c.Z.I.M.I.J.7.O.o.o.] ] } ] ] ] ' ~ U L N s I ~ Y ~ Y U U U U U U U U U L L L J G Z V V V B M g 8 a M B Z B i 8 i i z v M M m m m h 8 i d d a a 7 ; 1 e d p q w i e 4 4 7 8 g i q e a g z M Z G P U U U ! ~ ~ o.#.[ ' *.9.9.#.' Y / ",
"j.&.o.=.9.0.a.a.2.3.3.) ) #.o.] ' ) ~ U U Z N n s e i s i 8 3 e 4 e h h h d i > % 7 i a i i e l M M z z z M N M d d 8 g Z B B B N c m V V V G G L L U U U U Y Y ~ ~ ~ ~ ~ ~ E E ) ~ L m b J E ~ ) ' ' ' o.o.o.o.o.o.+.3.!.F.c.!.G.z.c.k.u.y.9.9.7.9.0.0.r.r.e.e.r.r.0.e.0.8.0.0.0.9.9.9.3.3.2.1.&.%.o.o...` Y Y U U I L L J F V G F V B B B n B B B S F F J U U Y Y Y Y / ' ] o.o.+.$.&.O.&.1.3.7.0.e.0.0.0.7.7.0.0.r.r.r.a.a.a.z.N.N.N.N.N.B.z.z.z.N.N.N.N.N.N.N.N.z.z.z.k.a.a.9.7.3.2.2.&.#.o.o.] ' ) ~ Y Y U G G V B B B S F G G B G G U Y Y Y Y Y Y ~ ~ ' '  .'  .+.%.....%.&.-.-.=.-.;.5.5.u.u.u.u.y.0.0.9.9.9.3.3.9.9.9.9.9.9.0.0.9.9.7.-.-.5.5.-.&.&.&.=.$.=.=.$.o.] ' ' ) / ~ E ) E I L L S S V S B N b n n N N N B B S Z F J J J J P U U ~ ' ] o.o.+.+.+.&.2.&.&.&.2.2.3.3.2.2.1.1.1.1.1.0.r.7.3.3.7.7.1.1.1.&.4.a.f.C.I.M.I.J.8.+.o.o.o.o.o.o.] ] ] ' ~ Y L B c Y ~ ~ ! Y U U U U U U U U U I L L J G G V V V V m h c N Z Z B i 8 i i l v M M m m m h 8 i g d s a 8 ; 3 i d a w e i e 4 3 4 8 s e 8 w s g z M Z G L U U Y ! ~ Y o.&.] 3.0.7.+.) ~ o.3.",
"b.k.5.' ..=.9.a.0.9.9./ ) #.o.] ] ' ~ Y U Z N n s 9 e e e 8 3 9 4 e h h h d i 3 - 8 a i i w w h M M c z c M N M g d 8 g Z C B B B B B V V G J L L I U U U Y Y ~ ~ ~ ~ ~ ~ ~ ~ ~ ~ U V G U Y ~ ) ' ' ] ] o.o...o.o.o.#.7.(.H.z.!.F.c.c.c.c.`.!.F.H.!.`.`.!.!.!.!.Q.P.J.S.S.S.S.S.S.S.Z.Z.Z.V.z.k.0.9.3.*.#.' Y U J G G F F V V V V V B B b n y n n n N N B G G J U U U U ~ ' ] o.$.&.1.1.1.7.a.N.F.J.P.P.P.P.F.F.P.P.Y.U.U.~.~.).).|. X X X|.).).).XX|.|.|.`.|.`.).).).).~.!.Y.I.N.k.r.7.7.3.1.&.#.o.o.] / Y J V b c c h b b b n k N n b k b N N B B B N S J U ~ ..' ..#.3.o.%.w.J.J.J.J.J.H.!.!.J.J.J.J.!.P.P.J.Y.I.P.P.I.Y.I.I.I.I.I.I.I.!.H.Z.C.F.F.C.C.C.C.C.C.N.a.1.*.o.} } ` ` ) ) E T L S B N N n m n n c f f N N k n b N B B V F G J P P ~ ) ' ] o.$.2.7.j.C.J.F.S.F.J.H.H.J.I.I.P.P.P.P.J.F.S.C.M.M.V.N.B.k.k.s.r.p.a.A.P.c.H.F.9.$.+.+.o.o.o.o.} ] ] ] ) ) Y L m B ~ ~ ~ ! Y U Y Y U U Y U U I L L L J L G V V V V V G Z F F B a 8 i i l v M M m N N h 9 i h h g d q < 3 p l d e e s i 3 3 3 7 e 7 7 q s l c M Z G L U Y ~ ( ~ ~ #.;.%.9.*.] ~ ) 3.9.q.",
"c.z.a.9.......&.q.q.0.' ) #.o.] ] ' ) ! P Z N n i 7 7 3 8 8 3 8 4 i g h h d s 3 ; e a e i w w h N M c c c M B M h g 9 h Z Z C B B B B V G G L L L I U U Y Y ~ ~ ~ ~ ~ ~ / ) ) ) L V L ~ / / ~ / ' ] ] ] o.o.o.o.] o.#.9.`.^.z.!.F.c.V.c.C.OX^.!.`.OX*X*X=X=X=X*XOX|./.~.`.`.`.`.`.`.`.`.`.!.H.F.a.r.7.2.o.' ' ' / ~ ~ ~ ~ ~ ) ) Y Y U U I G d G U U Y ~ ~ ` ` ' ' ' ' ] ' o.&.1.3.7.9.0.a.N.!. X X+X+X+X+X+X X X X X+X$XOX+X$X$X$X$X%X%X$X%X*X*X*X%X%X%X%X$X$X%X X X X X X|.|.`.Y.J.C.B.r.0.7.3.=.#.o.o.o.o.o.o.~ ~ ~ ~ ~ ~ U S J ` ` ' ` ] ..o.` ` ` / ` ..%.&.9.3.0.u.a.3.q.!.OX X X X`.).).~.`. X X+X%X%X$X+X%X%X+X.X.X.X.X.X%X%X%X%X X+X X).).|.|.).).`.`.).!.I.C.r.1.&.&.1.+.o.....~ E E Y ` ) ~ E I I I I f g I I I U ~ ' ' ] ] o.' ] ] ] o.#.$.$.*.3.9.q.C.(.OX X XOX+X+X%X%X%X:X>X:X%X+X%X X XOX~.~.~.~.U.Y.P.T.z.a.a.P.H.c.I.J.0.&.#.$.#.+.o.o.o.] ] ] ' ' ) ! U B V ~ ~ ~ ! Y Y Y U U Y Y U U I L L L U L G V V G G L G G F B a 8 i i l v M m m N N h 9 a h h g g w < 4 s l d e i d p 3 1 3 7 8 4 4 8 s l c M Z G L U ! ~ ~ / ' 2.0.5.$./ / $.7.7.9.3.",
"z.z.k.j.u.5...~ o.7.q.7.&.] ] ] ] ' ~ U U Z N z s 7 < 7 8 8 8 8 4 i d h h h d 8 3 i s s s i i l c b c c B B B M b n e g B C Z G V B B V L L L L L I U Y Y Y Y Y ~ ~ ~ ) ' ) ) S V L Y ~ / ) ) ' ' ' ] o.o.o.o.o.o.' ] q.'.`.C.'.!.z.C.!.`.+X%X%X6XqXwXfXfXfXfXfXfXfXuXuXgXfXuXfXqXwXwXwXwX6X5X!.4.4.<.o.' ' ' ' _ ~ ~ ' o.' o.] ' ' ) / / U i E ` ' ` ~ ~ Y ~ ~ / ) _ ' ] ] } o.1.0.k.c.N. X:X6XwXwXwXqXiXiXyXyXpXpXiXpXpXpXpXpXiXiXiXpXpXpXpXpXiXiXiXiXyXyXyXyXyXyXyXyXqX6X6X6X).M.k.N.k.0.1.o.+.o.o.o.o.o.o.#.&.3.o.#...o.] J ~ o.o...' ' ' o.] ' ] o.o.+.$.*.7.7.0.0.0.1.z.%XiXiXiXiX6X6X6X6XqXyXpXkXkXgXkXgXpXpXiXiXiXiXiXiXpXpXiXiXiXiXuXuXtXuXuXqXyXuXuXwX,X6X~.M.r.e.0.9.$.) L G G V S L T T U U E ~ ~ E i n ~ E E ~ / ` ~ Y / Y Y ~ ~ / } o.o.o.o.1.1.N.'.6XuXqXiXwXwXiXpXpXpXpXgXpXiXiXgXgXgXgXgXuXwX6X;X<X,X;XF.s.z.J.I.C.!.~.a.$.$.$.#.#.+.o.o.} ' ' ' ' ) ) ~ U F G ~ ! Y ~ ~ E Y U Y Y Y U I I L L L I J V S F G J G G F B i i s i z M M M M N B n i s n z g g e 3 8 d z g i p p e 1 1 1 1 1 1 4 8 s l b B F G L U U Y ] &.$.3.;.o.~ ] *.9.7.7.7.7.",
"z.z.k.j.k.a.0.;.' ' *.a.a.2.+.o.] ' ~ U U Z N z s 7 < 7 8 8 8 8 4 i d h h h g 8 4 e s s d i i l b b c c B B B M c z 9 g B Z Z G G V V G L L L L L I U Y ~ ~ ~ Y ! ~ / ) ) ' G k Y ~ ~ ~ ~ ) ' ' ' ' ] o.o.o.o.o.o.o.3.c. X`.C.'.I.N.F.`.:XqXuXqXwXiXpXgXkXkXkXkXkXkXkXkXiXuXiXgXpXgXkXkXlXlXgX>XV.a.0.0.e.r.r.0.7.1.$.%.+.o.o.] ' ' ' ' ~ I y U ` ' ' / ~ ~ ' o.&.&.3.7.e.a.N.F.U.`. X`.U.,XyXiXpXpXpXpXpXpXpXpXlXkXkXbXbXbXbXbXkXkXlXkXkXkXkXkXkXpXpXpXpXpXiXiXpXpXiXiXiXiXiXiX+X~.). X|.).!.I.!.Z.k.0.3.*.#.o.$.3.o.] ..o...G U ] ' ' ~ ~ ` +.&.*.7.q.a.z.C.D.(.(.`.`.~.N.F.:XpXpXpXiXiXiXiXiXiXiXpXpXkXsXkXkXsXsXsXsXxXxXxXxXMXMXxXxXjXjXpXpXuXpXpXuXfXpXgXgXxXkX X~.+XOX X XJ.z.7.*.#...' ' E U U U E ~ ~ E i n ~ E ~ / / ~ Y ~ ' ' +.&.3.7.k.z.N.C.N.1.7.).6XiXkXkXpXyXqXqXqXqXtXuX6XgXbXkXkXkXkXkXkXkXgXiXwXyXkXpXP.k.c.F.!.M.!.|.k.&.$.$.$.#.+.+.} } ] ' ' ' ) ) ) ~ U G G Y / / ~ ~ E Y Y Y Y U I I L L L L I L G G J J G G F B i i s i z M M M M N B n i s n z g g e 3 8 d z g a a e q 1 1 1 1 1 1 4 7 a l b B F G U Y ~ _ +.2.&.+.' ~ +.2.7.3.7.7.7.7.",
"z.z.k.j.k.j.d.a.$.) ] *.a.q.*.#.] ^ ~ Y U Z N z s 7 < 7 8 8 8 8 4 i d h h h g 8 7 e s d g a i z M M M M B B B M n h 8 s B Z G G J V V J L L L L L U U Y ~ ~ ~ ~ ~ ~ ~ ) ' ~ m G ~ ) / / ) ' ' ' ' ' ] ] o.o.o.o.o.3.C.H. X`.F. X!.C.P.>XuXgXkXkXsXkXkXkXkXkXkXkXbXbXbXbXtX6XqXiXiXiXiXpXyXsXbXkXgX6X=X5X5X5X5X>X7X%X`.H.a.9.$.Y ~ ) ' ' ~ I i Y ~ ' ' ' ~ ' 0.F.`.'.OX%X>X5X,X6XqXqX>X*Xk.Y.qXpXpXpXpXpXyXtXtXtXbXbXbXcXcXcXcXcXMXMXMXbXbXxXxXxXxXkXxXxXkXkXkXkXkXkXgXgXgXgXgXgXpXqX6X6X6X6X6X6X5X*XOX`.^.F.k.9.9.9.o.] o.+...I U ..] ' ~ ~ o.9.F.!.'. X%X*X>X6X5X5XqXqX6XOX+XyXkXkXkXkXxXkXxXkXsXpXpXpXpXpXpXpXsXsXpXpXdXdXxXxXMXMXxXxXsXpXpXiXiXiXiXaXpXpXpXpXxXgXP.Y.qXqXyXuXiXuXwX6X6X*X(.D.u.&.` U E ~ ~ E i n ~ E ~ ~ / ~ ' &.q.V.~.`.OX*X*X>X6XqX-XN.U.yXbXMXbXbXxXiXyXiXyXuXuXiXtXkXbXbXbXbXbXbXpXpXpXpXpXpXbXbX+XN.k.N.!.C.|.=XC.7.3.*.$.$.$.+.o.o.o.] ] ' ' ' / / ~ Y F J ~ _ ` ) ) ~ E E Y Y Y I I I L L I U J J J J G J J B i i s i z M M M M N B n i s n n h g e 1 8 g z g d a w 4 1 1 1 1 1 1 4 8 a l b B F G Y ~ ] o.$.&.] ~ ) $.7.9.3.3.7.7.7.7.",
"z.z.k.k.j.j.k.z.a.3.' Y o.3.7.3.o.' ~ ! U Z N h s 7 < 7 7 8 8 8 4 i d g h h g 8 7 9 a d g a i z N N M M B B B M n h 8 s B Z G G J G G L L L L L I U U Y ~ ~ / ~ / / ) ) U b G U Y Y ~ ' _ _ ' ' ' ' ] ] o.o.o.o.*.c.`.!. X'.F. X~.F.).,XiXxXmXmXbXbXMXMXbXbXbXbXmXmXmXmXmXMXbXbXbXbXnXnXnXmXmXmXmXlXfXfXfXfXfXfXqXwXqX7X=X$XD.~ U ~ ` ' ` U a ~ ~ ` ' ' ' +.z.'.=X>X>X>X6X6X6X6XqX6XqXyX,X XbXmXmXmXmXmXmXmXbXbXmXmXmXmXmXmXmXmXmXmXmXmXmXmXmXmXmXmXmXmXmXmXmXmXmXmXmXmXbXbXbXbXbXkXuXiXwXqXqXqXqX6X5X>X=X=XOXH.c.a.o.' o.o...J U ..] ' ' ' =.z.^.'.$X$X6X6X6X6X6XqXwXwXiXiXgXnXmXmXmXmXmXmXmXmXmXmXmXmXmXmXmXmXmXmXmXmXmXmXmXmXmXmXmXmXmXmXmXmXmXmXmXmXmXmXmXmXmXmXP. X<X>X6X6X6XwXwX6X6X:XOX!.F.z.-.U E ~ ~ E i n ` ~ U ~ / ' j.J.).*X6XqXwXwXwXwXwXwXeXwXnXmXmXmXmXmXmXmXmXmXmXmXmXmXmXmXmXmXmXmXmXmXmXmXmXmXMXcXmXbXuXY.k.B.~.I.:X6XI.r.0.7.1.$.&.$.o.o.] ] ] ] ' ' / ) ' ) ~ G J ( ' ' ) ) ) E E E Y U I I L L I U I J J G G J J B i i s i n M M M M N B n i s n n g g e 3 8 g z g l p q 1 1 1 1 1 1 1 4 8 a l b B F L Y ) #.$.+.] I ' =.5.3.3.3.3.7.7.7.7.",
"z.z.z.k.z.z.j.j.a.j.q.$.G / &.2.+.' ~ U L V b h s 7 ; 7 3 3 3 3 3 p d d l l g q 4 w a d d i i z B B B B B V B N b l 8 g C Z F G J G G L L L L I U U Y Y ~ ~ ~ ) ' ] ' U h N L Y Y ) ] ] ' ' ' ' ' ' ] o.o.+.} $.a.J.!.).%X X). X~.S.%XuXkXkXxXbXbXkXlXlXkXlXnXnXmXnXnXnXgXgXkXkXpXpXiXiXpXyXyXpXwX+X%X6XwXwXwX6X6X7X*XOX'.(.V.$.` ` ' ` ' U i U ~ ' o...+.0.k.Z.'.OX=X7X5X5X0X0XqXqXwXwXpX,XxXmXmXmXcXbXkXpXyXwXiXiXkXbXbXkXbXbXbXbXbXbXbXbXxXxXkXbXbXbXbXkXkXgXpXiXiXyXpXiXpXpXuXwXqXwXqXqXwXwXqXwXwXqX>X:X*X).C.a.o.' o.#.o.G U ] ] ] ' ' a.G.!.(.'.$X*X*X*X*X:X:X>X:X+X:X6XuXyXyXiXiXpXpXpXpXpXgXkXbXkXkXkXkXiXyXpXmXgXgXgXkXxXjXMXxXxXbXbXbXkXkXkXkXkXkXkXkXkXgX+X6XwXqX6X5X5X5X4X*XOXoX!.J.Z.k.9.` E ` ` ~ a n ` ~ Y ~ ~ o.0.H.OX*X:X*X:X6X7X6X6X6XqXqXqXwXyXpXgXpXiXyXyXkXbXmXbXMXMXMXMXMXbXbXbXbXgXbXbXxXyXiXgXbXkX XM.k.!.|.%X:X%XI.a.0.0.3.$.$.o.} } ] } } ] } ' ' / ~ ) ~ U U ' / ~ ) ) ) E E Y U U I L L L L L G G G G J J B i i i i c m M M m N N c i s h z g g e 3 q g z d g i 7 ; < < < < < < 1 7 a h b B U U / o.#.] ~ J ' *.3.*.3.3.3.7.7.7.7.7.",
"z.z.z.z.z.z.l.j.k.k.k.a.$.L L ' +.#.' ~ U G m h e 7 1 7 3 3 3 3 1 i d d l z g w 3 w a s s i e h B B B B V V S B b n w h Z G F G G G L L L L I I U Y Y ~ ~ ~ ~ ) / ' Y h m G U Y ~ ' ] ] ' ' ] ] ] ] o.+.+.+.$.0.F.F.H.`.>X;X$X$X~.P.6XuXkXyXqXyXkXiXwXwXqXqXqXwXqX6X:X%X:X:X:X:X:X:X:X:X*X+X+X%X5X%X`. X%X%XOXOX'.`.^.H.c.c.c.9.%.' ..' ` U i U ~ ' ....&.V.Z.z.!.'.OXOX$X$X$XOXOX X X X). XiXbXxXkXpXiXuXqX6X6X:X>X6X6XqX6XqXqXtXyXyXyXyXyXuXiXuXuXyXyXyXyXyXyXyXyXyXqXqX6X6XqXiXqX:X*X%X%X%X%X*X*X*X X`.(.I.F.k.q.+.] o.#.] V U o.o.] ' &._.'.OX X X X`. X X X).).~.!.~.|.%X>X;X;X:X<X<X<X<X<X<X,XqXtXqXtXuXiX,X>X6XiX6X6X6X,X,X,XyXaX,XtX<X;X;X:X:X:X:X:X:X:X:X5X%X X X X|.|.oXoX'.^.!.R.H.R.a.0.0.o.~ ` ` ~ i n ` ~ ~ / ' 2.z.J.OX*X%X+X+X%XOXOX XOX X X X). X$X%X%X;X*X;X,X,X3X,X<X;X<X,X6XtXtXtXtX6XqX6X,X;X<XtXyXgX;XF.k.P.`.%X:X*X%XI.a.r.7.1.$.o.o.} ] } } } } ' ' ^ / ) ) ~ U F U ~ ) ) ~ E E U U U I L L L L J F S G G J J B a a i i b N N M m N N c i s h z d d e 3 q g z d g i 4 - ; ; ; ; ; < 1 7 i h M V Y / ' ' ) U Y o.&.*.2.3.3.3.7.7.7.7.7.7.",
"c.c.c.c.c.c.z.l.z.j.a.j.a.7.' G ~ ' ] ' Y L B z e 8 < 1 1 1 1 1 ; e s d z z l e 4 w a s s i e h B B B B V S S B b h w n G G F G G L L L L I I U Y E ! ~ ~ ~ ~ ) ~ L g B L U Y ~ ' ' ' ' ' ' ] o.o.o.#.#.o.&.r.N.Y.U.).%X,X>X*X XJ.`.uXuXkXkXxXbXbXfXqXqX5X>X>X>X>X0X:XOXOXOXOXOX*X*X*X*X%X X'. X*X6X XJ.C.V.V.V.l.j.a.q.7.w.C.J.w.` ' ' ' E d ` ' o.%.%.9.'.!.a.z.z.z.k.a.c.D.D.!.). XOX6XqXuXqXtXtXqXwX6X6X>X>X5X5X6X6XqX6X6X6XqXuXuXiXuXtXtXtXqXqXqXqXqXyXuXuXuXuXwXwXqX6X>X:X>X%X|.`.|.).).~.I.H.F.z.k.e.7.0.V.z.2.o.#.$.] V L o.o.' ' -.'.J.7.9.a.a.k.N.F.H.'.OX7XwX6X5X5X5X:X:X>X,X,X,X,X,X,X,X,X,X:X>X6XqX>X>X5XqX>X>X>X,X<X,XtXuX<XqX<X$X*X*X*X*X*X*X*X*X=XwXwXOX!.R.Z.c.a.a.9.&.&.o.o.&.0.z.A.&.'  .` ~ i n ` ~ ~ ~ ' k.!.c.N.V.k.c.N.c.C.V.Z.!.!.!.).`.+X%X*X*X:X>X,X,X-X>X-X*X X.X%X;X>X>X>X>X>X<X>X,X<X>X,X6XuXqX|.M.S.~.%X:X%X*X%XI.z.r.7.1.$.#.o.} } } } } ] ' ' ' ' ) ) ~ B V U / / ~ E E U U U U L I L L J G S G J L J Z a a s s m B N M m B B c i s h z s s w 1 w l z d s e 3 - - - - - - ; < 3 i h B G ~ ~ Y J F ) $.3.*.*.*.3.3.7.7.7.7.7.7.7.",
"N.N.N.N.c.c.z.z.z.a.a.a.q.a.3.$.G F ~ ] ) U V n p q ; & 1 1 1 1 - 8 a s l z g w 3 w a s s i e h B B B B S F S B m h w b G G F G G L L L I I U U E E ! ~ ~ ~ ~ ) G s c G Y Y ~ ) ' ' ' ' ] ] o.o.o.+.#.&.$.0.N.J.H.`.-X6X:X:X X).Z.+X6XyXiXcXmXbXnXiX6X>X>X:X*X%X*X6X5X%X%X+X%XOXOXOXOXOX%X X`.`.`. X%X X!.J.N.j.w.w.w.9.&.;.C.].C...` ` o.` n o...&.-.-.V.6XOX0.3.o.) ' &.q.D.^.*X*X>X6XwXqX>X5X5X5X5X5X>X>X>X>X5X5X>X>X6X5X5X5X6XqXuXiXgXpXtX6XqXqXqXqXqXyXuXuXyXwXwXqXwX6X>X:X%X%X%X%X*X%XOXOXI.J.N.a.0.1.$.7.^.H.q.&.*.*.o.F L o.+.' o.5.OXV.o.+.$.*.a.N.!. X=X=X=X=X%X+X+X+X+X%X*X*X:X:X:X:X6X<X%X+X%X%X%X%X%X:X:X:X:X:X:X:X@X+X:X:X+X,X:X+X+X+X+X+X+X+X+X+X*X*X%X=X=X*XOX'.F.V.0.o.R U / +.J.Q.R.%.....` E i n ~ E ~ ..%.J.!.3.&.&.&.9.a.a.F.F.!.%XOX~.!. XOX%X*X$X X$X*X$X'. X X'.`.|.|.|..X XOXOX+X+X;XqXtX6X<X;X6XpX6X~.Z.~.%X:X%X%X*X%X!.z.0.4.&.$.#.o.} } } ] } ] ' ' ' ' ) ) U V G ~ / ~ E E U U U U I I I L J G S G J L J Z d s s s m B B N m B B c i s h z a a q 1 w l z g s e 3 - - - - - - - < 3 i z B U G C C G o.$.*.*.$.*.3.3.7.7.7.7.7.7.7.7.",
"V.V.V.V.V.c.c.z.z.k.a.a.q.0.0.9.1.~ N B Y Y F M g q $ . ; < < ; - ; 7 s l c d 7 3 8 i a g e 8 s B B B B V V S B N g i b G G F G S G L I U U Y Y E ~ ~ ~ ~ ) ! U z m I ~ ~ ~ ) ' ) ' ' ' ] o.o.o.] &.&.+.7.C.I.(.%X*X>X0X,X:XY.N. X6XqXqXpXmXnXbXkXwX6X>X:X%X+X X XOXOXOXOXOXOX XOX X|.`. XOX%X`.).).'.%X>X=X%XOX(.L.C.9.' [ l.].G...` ....` h / o.%.-.0.A.7X'.a.*.G G #.C.`.=X=X5X*X&X*X=X%X+X@X:X:X:X*X:X>X>X>X4X7X7X5X5X5X5X5X6X6XwXuXuXuXwXyXyXyXuXuXwXwXuXuXwXwXqXqXqX0X>X:X:X%X%X%X%X%X%X%X%XOX).D.a.1.3.q.J.-Xa.1.2.*.o.G F +.o.' o.9.OXz.o.&.3.k.H.`.OX'.).).).`. X`. X'.`.%X>X*XOXOXOXOX+X+X+X+X+X+X+X+X+X+X+X+X+X+X+X+X+X+X+X+XOXOX+XOXOXOX%X%X%X%XOXOXOXOX'.'.'.'.OXOXOXOX!.z.&.~ Y &.~.!.F.&.......' g N ` ~ ` ' 9.H.!.&.] *.q.z.J.(.'.`.`.%XOX!.!.|.).`.`. X`. X'.`.`.`.`.`.`.`. X XOX:X:XOX*XOX%XwXkXuXtX:X:XyXuX%XF.F.|.>X:X%X*X*X%X!.M.e.3.1.#._ o.o.} ] o.] ' ' ' ' ) ) _ Y G G Y ~ ~ ~ U U U U U U L L U G V G L J J Z d d s s m B B m B B B c i i g h i e 4 1 w g l g p q ; - & - - -   + 1 3 s b N B h b Y +.$.$.&.*.&.2.3.3.7.7.7.7.7.7.7.7.",
"V.V.V.V.V.V.c.c.z.k.j.a.q.0.0.9.3.*.] V h N F b l 7 $ . < 1 1 3 ; - 3 a l c g 8 3 q p s s 9 8 g B B B B V V S B N h i c Z G G G S G I I U U Y Y ~ ~ ~ ~ ~ ~ U B m L ~ ) ~ ) ' ' ' ' ' ] ] o.o.+.#.$.$.3.V.!.`. X*X6X0X6X;X~.F.U.>XwXuXpXkXmXxXsXiX6X>X>X*X%XOX|. X'. X XOXOXOXOX'.`.!.!.!.`.%XOX!.!.!. XOXOXOX$X$XOX'.R.-.` l.[.J.o.' ..o.' n / o.%.-.0.J.qX`.a.*.U 7.`.*X*X*XOX$X'.OX$X=XOXOX%X@X@X%X%X*X*X*X*X*X=X=X>X5X5X6X6X6X6X6X6X6X6XtXuXyXyXuXuXwXwXuXyXqXqXqX6XqXqX>X:X:X*X%X%X%X%X%X%XOX*X>X:X(.N.z.z.H.>Xa.3.3.2.o.J J $.&.o.&.a.OXj.) q.(.*X$XOX'.(. X'.`.).).!.OXOX`.%X*X%X`.`.`.`.|. X+X%X X XOXOXOXOXOXOX X X XOX X X X X X X X X X X X XOXOX X X'.'.`.(._._.`.`.'.oXOX'.C.+.~ 2.~.`.H.&.o.....' g N ' ~ ' o.0.R.z.' ] u.H.!.(.!.OX|.!.`.~.P.P.~.!.~.).).OXOX'.(.).).).(.(.).'.'.%X:X:X%X*X X$X:X6XiXxXfX>X>XuXpX).Z.~.OX%X:X*X*X%XOX!.C.0.1.$.} o.o.} ] ] ] ] ] ' ' ' ' ' ) U G J Y ~ ~ U U U U U U L L U G V L L G J Z g d s s m B B m B B B c i i g h i e 4 1 q s g d a w - - 8 q q 8 - + 1 e s h h h N Y +.&.$.$.&.*.1.3.3.3.7.7.7.7.7.7.7.7.",
"C.C.V.V.V.V.V.c.z.z.k.a.q.0.0.9.7.3.&.o.~ c a h g 4   - e q e l C g 8 7 a l s 8 1 7 e i i 8 8 g Z Z B B V V F S N j i c C G G L S G I Y Y Y ~ ~ ~ ~ ~ ~ ~ L B V I ~ ~ ) ) ' ' ' ' ' ' ] o.o.#.#.$.#.3.z.I.`.OX*X>X6X,X%X~.Z.P.%XuXuXpXkXbXbXsXyXqX>X*X%X+XOX|.`.`.`.`.`.OXoX'.'.^.~.!.!.H.!.'.`.!.H.I.).).`.'. X'.'.`.'.c...a.'.G.o.] ..o.' n / o.%.-.0.!.qX`.a.-.$.!.&X*XOX'.`.`.`.[.&X*XOXOX+X+X+X+X$X%X$X$X$X%X*X=X6X5X5X6X6X6X6X6X6X6XqXwXwXyXyXyXyXwXwXyXyXwXwXqXqXwXqX6X>X>X*X*X%X%X%X%X%X X%X>XwX:X`.F.z.H.5Xa.3.3.2.o.J L &.*.$.3.j.OXj.#.H.=X=X'.(.^.!.OX'.`.^.!.^.'.'.`.OXOX'.(.(.!.!.).'.OX*X X X X X X X X X X X'. X|.|.|.|.|.|.'.'.`.`.`.`.'.'.`.`.(.(.^.!.^.^.!.!.!.^.`.[.`.a.' &.H.`.!.&.%.o.' ` f N ' ` ' %.a.!.=.) 9.J.H.H.E.!. X`.J.J.J.J.J.P.J.H.H.!.'.'._.(.!.~.~.!.!.(.).). X X X X*X$X X+X%XtXgXbXiX>X,XpXqX~.F.~. X%X=X%X%X*X%X).N.0.1.$.+.} } ] ' ' ] ] ] ] ' ' ' ) ) Y L L U Y Y Y Y Y Y U I L I G V L L G J Z g d s s m B B m B V B b i i g h i e 7 1 8 s g s s 1 3 g z w e z 8 + 1 e i a h b ~ ' +.&.$.&.*.*.2.3.3.7.7.9.7.7.7.7.7.7.",
"C.V.V.V.V.V.V.V.c.z.z.j.q.0.0.9.7.7.2.&.' Y n 8 e 4 O 4 p e p M P G z q 8 i e 3 - 3 8 q e 7 8 g Z Z Z B B B S F b k i n C Z J L G L I E Y ~ ~ ~ ~ ~ ~ ~ Y B B U ~ ) ) ) ' ' ' ' ' ] ] o.o.+.#.&.+.&.a.!.(. X*X*X6X6X*X).B.Z.%XqXgXgXgXgXkXkXyXyX>X*X*X+XOX|.`.!.(.(.(.(.!.!.!.!.!.!.!.!.H.H.!.F.F.H.H.!.!.!.!.!.).).!.`.R.3.u.!.k.....o...` j / o.%.-.0.`.wX/.a.*.q.'.OX`.`.`.`.(._.[.&X*XOXOXOXOXOXOXOXOXOX$X$XOX*X>X6X5X5X6X6X6X6X6X6X6XqXwXyXyXyXyXyXyXwXyXyXiXyXeXwXwXwX0X,X>X:X*X%X%X%X%X%X X X X*X*X>XP.k.I.5Xj.7.3.3.%.I U 3.3.3.3.k.*Xb.q.'.=X`.!.!.!.(.`.`.!.^.`.!.`.(.!.`.`.!.!.!.!.!.!.`. XOX`.`.'.'.`.`.`.`.`.`.`.'.`.`.`.`.`.`.`.`.`.).).).`.(.!.^.^.!.!.H.!.!.R.J.R.F.J.!.!.R.2.+.Z.`.'.9.%.o.' ` f N ' ' ..-.j.!.o.$.G.L.D.D.D.D.I.!.C.C.V.C.S.Z.D.D.F.J.!.!.!.^.!.!.!.!.I.!.(.).'.'.'.`.OX$XOX X:X:X:XfXkXuX>X,XiXuXY.Z.Y.OX*X=X>X=X*X X).B.7.1.&.o.] ] ' ' ] o.o.] ] ] ' ' ' ' ~ L L U Y Y Y ~ E Y U L L F S L L G J Z g d s s m B B m B V B b i i g h p e 7 1 8 a s s 8 e M g v e e M q + 1 8 e a N ~ ' o.o.o.$.&.*.*.3.3.3.7.7.9.7.7.7.7.7.7.",
"C.C.C.Z.V.V.V.V.v.z.z.a.a.y.0.0.7.3.1.#.o./ L c < & & 7 a 4 i v B v v B n g s 7 & < e w w 7 8 z Z Z B B B Z G F B n i n Z F L L G L U E ~ ~ ~ ) ~ ~ ~ I F G I U ) ) ) _ ' ' ] ] ] } o.o.$.#.#.$.$.a.H.).%X:X>X6X*X%XU.e.F.+XtXiXkXkXiXqX6XwXqX:X%X+XOX|.OX'.).!.^.!.!.!.^.^.!.J.H.J.J.F.J.J.F.D.D.F.J.!.R.!.R.J.J.R.!.^.].l.:.G.j.&.o.#.#.' z / o.&.-.a.OX7X!.u.%.C.OXOX[.`._.'.`.(.'.OX7X$X'.'.OXOXOXOX[.OXOX$XOXOX*X5X6X6X5X5X6X6XqXqXqXwXuXuXiXiXiXiXiXiXiXiXpXiXiXyXwXwXqX6X6X>X>X*X*X%XOXOXOX X X XOX%X Xk.F.>Xk.9.3.3.&.Y Y 3.9.3.0.k.-XC.u._._.R.R.!._.!.^.!._.'.`._.!.H.!.~.`.^.^.^.^.^.!.!.!.!.!.!.!.).).!.).`.'.).(.`.`.`.`./.^./././.!.!.!.!.!.!.!.!.~.!.!.H.H.H.J.H.H.H.H.H.^._.z.+.z.!.OXa.o.o.X...a N  .' ] &.c.D.#.j.D.D.D.C.C.D.Z.!.!.F.c.V.C.Z.Z.G.F.F.H.H.H.H.P.P.H.H.I.!.^.(.(.`.`.`. XOX*X%XOXOX|.%XgXlXwX:X6XgXqXY.S.I. X%X>X>X>X*X`.!.z.1.1.&.o.} ' ' ] o.o.} } } ' ' _ _ ] ~ B B U ~ ~ ~ ~ ~ U I J J J J L G J Z h h g d B B B B B Z B b i i d h a 8 3 3 3 a d a c B M d C z s v 3 O + ; a N U ~ ) ] o.#.$.&.*.3.5.3.7.7.9.9.0.q.9.9.9.9.",
"F.F.Z.C.C.V.V.V.c.z.z.a.a.u.0.0.7.3.1.#.o.' ~ F a & O 4 g i g C G B Z U ~ ( J h - 3 e 8 q 7 8 z Z Z B B B Z G F B n a c F J L I L I Y ~ ~ ~ ) ) ` ~ L N V U ~ ~ ) ) _ ' ' ] ] ] } o.o.+.o.$.$.$.0.J. X%X5X>X:X6X*XP.e.Z.%X6XgXkXbXfX5X%X*X>X>X+XOX|.`.).`.).!.!.!.I.I.I.!.^.!.J.J.F.G.D.D.F.F.F.D.D.J.H.!.R.H.R.J.J.J.E.^.x.7.C.N.2.#.#.#.' n _ +.&.2.k.=X6X^.u.&.G.[.'._.!.^._.'._.'.$XrX*X'.'.'.'. X X'.[.OXOXOXOX%X*X>X6X6X5X6X6XqXqXqXwXuXuXiXiXiXiXpXgXpXgXgXpXpXiXiXwXqXqX6X>X>X:X*X%X%XOX%X X'. X`. X Xz.F.5Xz.7.3.3.&.Y U 5.9.3.9.j.&XV.a._.^.H.R.!.R.J.!.R.R.^.!.!.R.H.H.R.^.!.!.!.^.^.!.!.!.!.!.!.!.!.!.!.).'.`.'._.(.`.`.!.!.!.!.!.!.!.!.!.!.!.!.!.!.!.!.H.J.!.R.J.A.F.J.H.H.!.^.C.5.a.J.OXk.o.o...X.f N  .' +.&.k.D.9.C.F.D.C.D.D.C.D.G.OX(.b.b.C.C.C.C.F.F.J.J.J.J.J.J.F.J.J.H.!.!._.^.'.*X7XOXoXOX`. X).).*XwXgXuX6XqXiXwX!.N.F.OX*X:X>X>X X`.!.z.7.1.&.o.} ' ] } o.} } } } ' _ _ ' ) G c F U ~ ~ ~ ! U U I I L L L L U F n z h h B B B B B Z B b a i d h w 8 ; < c G U B B B M c Z c s c e % % 7 b F Y ~ ) ] o.#.$.&.*.3.5.7.7.7.9.9.0.0.0.0.q.q.",
"H.J.J.F.C.C.V.V.b.z.k.a.a.a.y.0.7.3.1.#.o.' ~ J B 7 . 4 l a c Z G H G B G ~ ~ ~ b b a q e 8 e c F Z B B V V G G B n s m G J L I I U Y ~ ) ) ) ) ~ L N B U ~ / ) ) ` ' ' ] ] ] } o.o.+.$.*.&.*.3.F.`.%X>X,X>X:X$XF.e.Z.:X6XuXkXbXgX5XOXOX+X+XOX X'.`.~.!.~.!.!.P.H.H.H.H.H.I.I.J.J.F.D.D.D.Z.C.Z.Z.D.F.H.!.!.R.H.J.G.G.G.E.D.;.c.H.0.&.#.#.] n ' +.&.5.V.6X7XR.9.3.R._.^.!._.`.`._.^.`.OXOX`.`.'.'.'.'.'.'.'.OXOXOXOX%X%X*X>X6X6X0X0XqXwXwXuXiXiXpXpXpXpXkXkXkXkXkXgXpXpXpXiXwXqX6X6X>X>X=X*X*X*X*XOX`.`.`.'. XF.D.0Xc.7.3.3.&.Y Y 3.9.9.9.j.&XV.z.^.R.H.R.J.R.!._.H.F.F.H.J.J.J.H.R.^.!.R.R.R.R.!.!.!.!.!.!.!.!.!.!.!.`.!.=XOX!.^.^.!.R.R.R.R.R.P.P.H.H.H.H.H.H.H.J.F.A.F.!.!.F.C.F.J.H.J.^.R.u.9.G.OXc.%.%.+.o.f N  .' &.+.k.U.z.c.C.D.V.D.G.V.b.G.D.J.C.b.b.b.b.V.C.Z.Z.Z.Z.Z.S.F.F.F.F.J.H.H.^.!.`.*X6XoX!.!.!. X(.J.!.%XiXkXiX>X6XgXwXF.k.I. X%X>X>X%XOX`.!.z.7.1.&.o.} ] } o.o.o.} } } ' _ ' ' ~ B B F Y ~ ~ ~ U U U U I I U L U G z z h h B B B B Z Z Z M d i a d 8 ; 8 b F H G B B B N B Z z i z q & 3 z N J Y ~ ) ] +.#.$.&.*.3.3.7.7.9.9.9.0.q.q.r.a.a.",
"!.I.J.F.D.C.C.V.b.z.k.a.a.a.u.0.7.3.1.#.o.) U J C z , 7 h d c C J K U H Z H U ' ' ~ c 7 e 7 8 z F Z B B V V G G B n s m G J L I I U Y ~ ' ' ) ~ V b B Y ~ ~ ~ ' ' ' ' ] ] ] } } o.+.$.&.*.$.7.N. X*X>X*X:X6X%XU.8.Z.+X6XuXkXbXkX5X X`.+X X|.`.`.`.~.~.!.!.!.I.H.H.L.L.L.F.J.J.Z.D.Z.C.C.C.C.C.V.C.D.F.J.F._._.G.G.D.b.b.G.b.7.C.!.a.*.#.#.] c ' &.&.3.F.6X4XZ.2.0.^.^.R.!.`.OX{.H.J.!.`.!.`.'.(.'.'.'.'.'.'.[.OX XOX%X%X*X*X>X6X0XqXwXwXwXuXiXiXpXpXpXpXbXbXbXbXkXkXgXpXpXiXwXwXqX6X5X>X=X*X*X=X=XOX`.`.`. X XH.C.qXN.3.3.3.&.Y Y 3.9.5.3.a.OXb.c.^.H.J.J.J.^.[.'.!.J.F.G.F.F.F.!.!.'.!.R.R.R.R.H.H.!.!.!.!.!.!.!.!.!.!.H.'.!.H.R.R.J.J.J.J.J.J.J.J.F.J.F.F.F.F.F.F.Z.C.V.R.!.H.V.Z.F.R.F.!.R.z.9.Z.OXz.&.%.+.+.f N  .' #.o.z.'.D.z.z.Z.c.F.F.b.c.D.c.J.D.C.b.c.c.b.V.C.V.V.V.V.C.S.F.F.F.F.J.H.H.R.!.^.`./.!.!.!.`.I.J.H.).*XiXfXqX:X>XgXwX!.s.Y. X*X>X>X%X X`.!.z.7.1.$.o.o.o.o.o.o.} } } } ' ] ' ' Y F B F Y Y ~ U U U U U U U L U G n z h h B V V V Z F Z M g i a s 4 i Y Z B C V B B Z Z B Z z e d e 1 8 z b F Y ~ ) ] +.#.$.&.*.3.3.7.7.9.9.9.0.q.q.a.j.k.",
"!.!.!.I.F.Z.C.V.b.c.z.j.a.a.u.0.9.3.*.$.o.) U J C l 1 3 c l v C K U Y U U U U ! U ! Z e 8 8 8 c F Z B B V V G G B n s m G L I U U U Y ) ' ] ~ Z d c L ~ ~ ) _ ] o.o.o.o.o.o.o.o.$.&.&.1.*.7.D.$X%X*X>X>X:X>X).e.P.+X,XuXgXnXbX>X|.).|. X'.`.~.~.!.!.P.P.!.I.H.J.J.J.F.D.D.D.D.D.D.c.Z.D.V.V.V.V.C.C.Z.Z.V.G.G.C.b.b.b.b.D.G.w.G.OXa.&.%.=.o.M } &.&.3.F.qX5XZ.&.a._._.`.`.'.`.^.R.J.H.!.).).(.(.`.`.'.'.'.'.OXOX XOX%X*X*X-X>X>XqXwXyXyXiXiXpXpXgXkXxXxXxXMXcXmXbXkXkXkXgXpXyXyXuXqX6X>X>X*X*X*X%XOX'.'.`.OX*X XJ.>XZ.8.3.9.-.R Y 3.9.6.3.z.*Xk.V._.!.H.J.H.`.{.!.J.G.G.Z.Z.Z.Z.H.`.OX`.F.G.J.L.H.H.H.H.H.H.H.OX`.!.H.!.!.H.H.H.J.F.G.G.J.J.J.F.F.J.J.J.J.A.C.G.S.A.C.V.C.R.^.J.Z.Z.!.OXR.R.`.Z.9.Z.*XV.=.#.+.#.j D o...%.o.z.OXZ.k.k.z.z.J.G.V.b.b.b.j.z.z.c.c.c.c.b.b.V.V.V.V.C.C.C.D.D.F.J.H.J.F.F.F.A.F.H.!.!.H.J.I.H.!.`.=XqXiXwX6X6XgXwX!.k.J. X*X>X>X*X+XOX`.z.1.1.$.} } o.#.$.#.o.} } } ] ] ' ) ~ G B B G J U U U U U I U L U G n n h h V V V V V F V m h 8 i 8 d d G B V G J L J G F Z B c e g e ; 7 s M F U ~ ' o.#.&.$.&.1.3.3.3.7.9.0.q.q.a.j.k.c.V.",
"!.!.!.I.J.F.Z.C.b.v.z.k.a.a.u.0.9.3.*.$.} ) Y J B d ; 1 c l v C H U U U U P U ! ~ ~ Z e 8 8 8 M F Z B B V F J G B n f N G L U U U U Y ~ ] ' P e i G Y ~ ) ' ] o.+.+.+.+.+.+.$.&.&.&.*.3.0.D.OX$X+X>X>X6X>XY.t.Z. X>XyXpXnXbX6X~.~.`.|.`.~.!.!.!.!.I.P.P.P.P.J.J.J.J.D.D.D.Z.D.D.V.Z.J.C.b.b.b.b.b.V.C.C.V.C.C.c.c.x.c.c.b.G.a.G.OXa.&.%.$.o.b ' &.&.3.F.6X7XC.&.G.[.`._._.`._.!.R.J.H.!.!.!.(.(.(.`.`.'.'.'.OXOX XOX%X*X*X>X>X>XqXwXyXiXiXpXpXsXkXxXbXMXcXmXmXmXbXbXbXbXkXkXpXiXuXqXqX5X7X=X*X*X%XOX'.'.`.OX%XOXH.OXz.4.2.9.3.~ E 9.0.9.9.c.=Xc.Z.^.H.F.G.G.!.!.J.G.G.G.Z.Z.Z.Z.A.!.!.!.G.G.R.^.J.J.J.J.F.J.J._.!.R.J.H.!.H.H.J.J.J.G.G.G.G.G.G.G.G.G.G.A.C.A.G.A.Z.V.V.C.F.F.G.V.A.`.-XZ.V.!.!.9.D.*XV.-.&.%.&.g D o...#.} z.OXZ.k.k.z.k.C.c.z.a.j.j.a.z.z.z.z.c.c.c.b.c.c.c.c.N.V.V.V.C.D.F.*X!.F.G.G.Z.F.H.!.J.F.F.I.I.H.!.`.*XqXiXwX>X6XfXiX).N.P. X*X>X>X*X$XOX Xz.1.&.&.$.$.o.#.$.o.o.} } ] ] ] ' ' Y G B n N ~ Y U U U I U L U G n n h h V V V V V F V m d 8 a 7 a h U F V G J L J G F Z B c e g e ; 8 s M F U ~ ' o.+.&.$.&.1.3.3.3.7.9.q.q.a.a.z.c.V.C.",
"!.!.!.I.H.J.F.Z.V.V.c.z.a.a.u.0.9.7.*.$.] ) Y J B d ; 1 c l v C H U U U U U U ~ ' ~ Z e 8 8 8 M G V V V F G L G S N h B L U U Y Y Y Y Y / ' g 3 m U Y ~ ' ] o.+.+.#.#.#.#.#.&.&.&.1.2.r.D.$X=X*X*X>X*X*XP.t.F.:X;XqXpXkXlX6X|.!.).).).).!.I.P.P.P.P.I.!.H.J.F.F.D.D.Z.C.C.C.C.C.C.J.!.D.c.c.c.c.c.V.V.V.Z.V.c.z.l.l.l.l.b.G.c.G.OXa.&.=.*.o.N } &.&.7.J.6X5XF.-._.OX`.!.!._.!.R.!.J.H.!.H.!.(.`.!.(.`.`.`.`.'.'. XOX%X%X*X>X6XqXqXwXyXiXpXgXkXkXMXbXmXmXmXmXmXmXmXmXbXcXbXxXpXpXiXuX6X6X7X=X*X&X+XOX'.'.`.OX%X%X).%XC.4.9.0.3.~ Y 3.9.6.9.b.=Xc.F.!.F.G.F.Z.J.A.G.G.G.G.C.C.Z.Z.Z.F.F.F.G.J.^._.F.F.F.F.Z.F.G.R.H.J.J.J.H.J.G.G.F.F.G.G.G.G.G.D.G.C.A.A.b.b.b.G.A.C.b.v.V.C.V.V.V.V.F.R.V.b.H.'.z.!.-Xc.-.=.%.&.j D o...%.o.z.OXZ.z.k.z.c.V.j.j.a.l.l.a.j.j.l.l.l.l.z.z.c.c.c.c.c.c.c.V.C.V.c.(.R.G.V.C.C.Z.J.H.`.I.J.J.H.!.H.!.).%XqXiXfX6X6XiXuX).Z.P. X:X>X>X:XOXOX`.k.3.1.1.$.$.o.#.#.o.o.} ..] ] ] ] ' Y J h g G I U U U I U U U J n n z h V G G G G G F N f 8 i 4 i h ~ U V G J L J G F Z B c e g i 1 9 g M F U ~ ' o.#.$.$.&.3.3.5.3.9.9.q.a.j.k.z.c.V.C.",
"!.!.!.!.H.H.J.F.C.V.v.z.a.a.u.0.9.7.*.$.] ) Y J C l 1 3 c l v C U Y ! U U U U ~ ] ~ Z i 9 e 9 M G G V V V G L G S N h V L U U Y Y E ~ U N Z 8 M U ~ ' ' ' ' ] o.o.+.#.#.#.#.$.&.1.2.r.N.OX-X*X5X>XqX>XF.0.P.:X:XqXpXxXkXqX X).).~.~.~.~.!.P.J.J.J.J.P.!.J.J.F.Z.D.D.C.V.V.V.V.V.z.V.F.C.c.c.c.c.c.b.V.V.G.b.k.l.l.l.l.l.z.C.z.!.OXa.&.$.=.o.M } &.&.7.F.7X7XF.2._.OX!.J.^._.^.R.!.J.H.!.J.H.^.`.^.(.`.`.`.`.'.'. XOX%X%X*X>X6XwXqXwXyXpXpXkXkXxXbXmXmXmXmXmXmXmXmXmXmXbXMXxXsXpXiXuXqX6X6X=X*X&X+XOX'.'.`.OX%X%XOXqX~.8.a.a.5.R Y 3.9.3.9.b.=Xc.F.R.G.F.R.F.J.V.A.A.G.G.G.C.C.G.F.A.A.G.G.J.^._.F.F.F.F.V.D.C.G.G.G.F.F.J.F.F.G.F.F.G.G.G.G.G.G.b.b.b.b.v.v.b.G.V.V.v.v.c.c.c.c.c.V.V.V.V.F.!.'.H.'.=Xj.-.%.#.%.k S o.o.$.o.c.OXZ.z.j.z.C.C.j.z.l.b.c.l.j.j.l.j.l.l.l.z.z.z.z.z.c.c.c.c.V.C.C.Z.c.G.V.z.V.Z.F.H.!.J.F.F.J.R.R.H.J.).%XqXgXuX6X6XuXqX|.Z.~. X:X>X*X>X$XOX`.k.1.3.1.$.$.o.o.o.o.} o.o.] ] ' ' / U B d k B U U U U U U U J n n z h G G G G F G G N g 6 9 6 i c ) Y V G L L J G F Z B c e g a 1 e g M F U ~ ' o.#.$.&.*.2.3.5.3.9.q.a.a.k.z.c.c.V.C.",
").!.!.!.!.H.H.J.F.Z.V.N.a.a.r.0.9.3.&.o.} / U J B l 3 4 n h M G U Y ! U U U U ~ } ' B s i i 8 M G G G F F G I L G B h V I U Y Y Y ~ ~ / G G L I ~ ' ] ' ] ] ] ] o.+.&.&.&.&.&.1.2.r.F.OX*X*X*X>X5X6X(.a.I.%X5XtXfXbXkX>X`.`.).!.!.!.!.`.!.H.F.F.F.J.J.J.J.H.H.H.H.J.c.V.C.z.v.k.a.j.z.c.z.z.l.l.b.b.G.&XJ.z.j.z.l.j.j.j.b.b.C._.=Xk.$.%.=.#.M o.&.2.7.V.>X7X!.9.).OXJ.F.J.I.!.!.!.H.^.!.R.R.^.^.^.(.`.`.`.`.'.'. XOX%X%X*X>X6XqXwXwXyXiXpXsXxXbXmXmXmXmXmXmXmXmXmXmXmXmXcXbXkXpXpXiXyX6X6X5X=X*XOXOX X'. XOX%X X*XqX).r.p.a.5.~ ] 0.7.3.3.Z.7X!.J.F.Z.A.G.A.G.G.G.G.A.A.C.C.C.C.C.G.F.C.G.G.G.G.G.G.G.G.Z.Z.C.C.Z.Z.A.A.Z.Z.Z.Z.D.D.G.G.[.[.G.b.b.b.v.c.v.c.b.c.c.z.c.c.c.c.c.c.c.c.c.b.Z.(.'.!.I.%X:XZ.5.-.%.;.n J #.o.$.$.z.OXF.k.a.d.j.j.j.j.j.j.j.j.l.l.l.j.z.C.z.l.z.z.z.z.c.z.v.z.b.b.b.b.b.b.b.b.b.V.C.C.C.C.D.F.F.F.F.J.H.I.).+XuXgXfXwX6XfXuX`.N.P.OX6X>X>X>X:X X).N.3.1.&.$.o.o.} } } o.o.o.o.' ' _ _ Y B n F ~ ~ Y U Y U Y L c c z h F G F G G G G B s 8 s b g B ) I G L L L L G G F B c s z s 1 9 g m V U ~ ] o.&.&.&.2.2.3.3.6.0.a.a.k.k.c.V.V.C.C.",
"`.`.~.!.!.!.H.H.J.F.C.N.a.a.r.0.9.3.&.+.} ^ U J B l 3 4 n z N J U ! ! Y U U U ~ o.] Y U B 0 0 b L J G G G L U I G B h V I U Y Y Y ~ ~ / Y Y ~ ~ ) ' ] ] ....] o.+.&.&.1.1.&.1.3.a.S. X>X:X>X6X6X>X!.N.I.$X6XwXgXxXkX6X X`.`.!.!.!.H.I.!.!.I.H.I.H.H.J.J.H.!.~. X%X'.D.c.z.z.b.c.j.j.z.z.z.z.l.l.b._.$XOXC.z.j.l.l.j.l.z.V.J.R.`.=Xk.&.$.*.#.M o.;.3.9.C.*X6XOXZ.>X*XH.Z.J.I.!.H.R.R.!.R.R.R.!.^.!.(._.`.`.`.'.'. XOX%X%X*X>X6XqXwXwXyXiXsXkXxXcXmXmXmXmXmXmXmXmXmXmXmXmXbXMXxXkXpXiXyX6X6X>X=X%XOXOXOX X X X X X%XqX).r.p.a.5.~ ..0.7.3.q.H.wX|.F.F.F.Z.A.A.G.G.G.G.A.A.C.C.C.C.C.G.C.v.C.C.C.C.C.C.C.Z.C.C.C.C.Z.Z.Z.Z.C.C.C.C.C.D.D.D.[.`.G.b.b.c.v.b.b.c.c.l.z.z.z.z.c.z.z.z.c.c.c.c.c.(.=X(.!.*X5XS.5.;.-.;.D I =.%.*.$.z.OXJ.k.a.a.a.a.d.d.j.j.j.j.l.l.l.j.G._.G.z.j.j.k.k.j.z.k.z.v.b.c.c.z.z.c.c.c.b.V.C.C.C.D.D.D.F.F.J.H.H.H.!.%XtXgXhXiXtXuXqX`.N.!.OX*X>X>X>X-XOX!.k.3.&.&.o.o.} } { ] ] ] ] ' ' ' ' ' ~ Y ' ~ ~ Y Y Y U Y L c c z h F G F F G G G B g f m U B F ' U G L L L L G G G B c s z s 1 9 d b V U ~ ' o.+.&.&.2.2.3.6.0.a.a.k.z.c.M.C.C.Z.Z.",
"'.`.`.~.!.!.!.H.J.F.Z.V.k.a.r.9.3.3.1.&.} / U G B l 3 4 b n B P U ! ! Y U U Y ( #.] Y o.~ i 8 M I L L J L I U U G V h V U U Y Y Y ~ ~ ~ ) ' ' ' ] o.o.o.o.o.o.o.$.&.1.1.2.&.2.a.J. X>X>X>X6XqX:X|.B.F.OX6XwXgXbXlX6X X).).!.!.!.R.J.J.J.H.H.H.!.!.H.J.J.I.~.|.6XfX>XH.c.l.z.C.c.z.l.k.j.z.z.z.l.G.OXR.j.z.j.j.j.l.z.z.C.!.^.R.^.*Xk.&.=.*.#.M o.2.3.0.Z.*XqX=X XwX$X!.F.J.H.H.F.J.J.^.R.R.R.!.^.^.!.(.(.`.`.'.'. XOX%X%X*X>X6XqXwXeXyXiXsXkXMXmXmXmXmXmXmXmXmXmXmXmXmXmXmXcXbXkXpXiXyXqX6X>X=X%XOX%X6XfX%X`.`. X*XwX`.k.p.a.5.~ ..q.8.4.0.H.6XOXF.F.Z.V.A.A.G.G.G.G.A.A.C.C.C.C.C.J.`.F.C.C.C.C.C.C.C.C.C.C.C.C.C.C.Z.Z.C.V.V.V.C.C.C.Z.Z.Z.C.Z.C.C.G.E.G.c.l.l.l.l.l.z.z.z.z.z.z.z.c.c.c.J.OXOX!.=X6XF.0.;.-.5.J E 5.*.3.1.z.OXR.z.a.a.a.a.a.a.a.a.a.a.a.j.j.l.b.J.b.u.j.j.d.d.a.z.C.z.l.l.l.l.l.l.k.k.z.z.c.b.V.C.Z.D.Z.F.F.F.J.J.J.J.).%XuXlXgXwXqXiXwXI.N.Y.|.*X>X>X6X>X XI.z.7.1.$.$.} } } ] ] ] ] ] ' ' ' ] ] ) ' ) / ~ ~ E Y Y U b b c z F J G G G J G B g g m ~ Y G ~ U L I I L L L J G V M d c s 1 9 d b V U ~ '  .+.+.&.&.2.6.0.a.a.f.z.c.N.V.Z.Z.Z.Z.",
" X'.`.`.!.!.!.!.J.F.F.C.N.z.a.9.3.2.1.&.} / U G B l 3 4 M c B U Y ~ ~ ! Y U Y ~ &.) V ' ~ c g N I I L L L U U U G V h V U Y Y Y Y ~ ~ / ' ' ' ] o.o.o.&.o.o.o.+.&.&.1.3.1.1.r.J.%X6X5X6X6XqX>X|.k.F. X>XwXgXlXbXuXOX).).!.!.!.!.H.J.F.F.F.F.H.!.H.H.H.J.P.!.OXfXmXfX`.c.j.J.[.`.z.z.k.a.z.z.z.l.^.C.j.j.j.j.j.j.l.z.b.G.!.H.F._.*Xj.*.*.*.&.N +.3.3.0.D.*XqX7X*X=X`.!.F.J.H.J.Z.G.R._.R.R.R.!.^.!.^.!.(.`.`.'.'. XOX%X%X*X>X6XqXwXwXiXpXkXxXcXmXmXmXmXmXmXmXmXmXmXmXmXmXmXbXMXxXpXiXuXqX6X>X=X%X*X*XwXlX>X`.). X%XwX|.k.a.a.5.~ o.a.0.7.q.I.6X%XJ.F.C.V.A.G.G.G.G.G.A.A.D.C.Z.C.b.R.eX`.V.V.V.V.C.b.C.C.C.C.C.C.C.C.Z.Z.V.V.V.V.b.V.C.C.C.M.V.Z.C.b.G.'.^.c.j.l.l.l.l.l.z.z.z.z.z.z.z.z.z.V.!.OX!.=X6XJ.0.3.;.9.J / 9.5.7.1.z.OX!.z.a.u.a.a.a.a.a.a.a.a.j.j.j.j.l.b.j.j.a.a.a.a.a.b.`.k.l.j.j.j.j.j.j.k.l.z.z.z.c.C.C.D.Z.F.F.F.J.J.F.F.J.`.:XfXgXfXuXtXwXwXI.z.J.|.:X>X5XqX>X).).N.7.1.&.$.} } } } } } ] ] ] ] ] ] / ~ ) ) ~ ~ E E ~ U c b c z G G J J J L J B h h b ~ L N Y ~ U Y U I L L L J V M g c s 1 8 d b V U ~ /  .o.+.&.&.2.9.a.a.f.k.c.c.V.C.Z.Z.Z.Z.",
"!.'.`.'.`.!.!.!.H.F.F.Z.C.N.k.r.0.3.&.o.&.' Y F b d 0 4 n b Z P ~ ~ ~ ~ ! Y ~ / $.) V ~ ~ N c B U P I I U U U U G V h V Y Y Y ~ Y ~ / ) ' ' ' ] o.o.} } &.&.&.&.&.&.&.3.3.0.S.OX>X5X,X6X6X6X~.t.F. XqXiXgXnXmXhXOX).).).!.!.P.P.R.J.J.G.Z.Z.C.C.D.H.I.I.P.~. XfXmXlXOXC.C.`.0X[.z.z.z.z.b.b.b.b.G.v.j.j.j.l.j.j.j.j.c.G.R.H.G.^.OXq.=.*.;.&.B o.3.6.r.F.*X6X=X X'.!.J.J.J.F.F.F.R.`.OX!.R.R.!.R.!.!.!.!.`.`.'.'.OXOX%X%X*X>X6X6XwXyXiXkXkXxXMXvXmXmXmXmXmXmXmXmXmXmXmXmXmXcXbXxXkXiXuXqXqX6X>X*X%X%X%X6X%X`.`. X%XfX Xs.a.a.5.R ' 0.9.7.q.!.wX+XH.F.V.V.V.C.G.G.G.G.G.G.D.D.Z.C.Z.F.{.H.C.C.C.V.C.C.C.C.J.G.G.C.G.C.J.J.b.b.b.b.c.V.V.N.M.V.C.C.Z.V.b.R.C.z.l.l.l.l.j.j.j.j.j.j.l.l.z.z.c.c.G.`.).>X6XH.a.5.;.;.D E 9.3.9.3.k. X!.v.z.u.u.a.a.a.u.u.u.u.j.A.7X0X].C.l.l.a.a.a.a.a.z.G.z.u.a.u.j.a.j.j.j.j.l.z.z.V.c.c.J.!.J.Z.C.F.!.!.H.P.I.`.*XfXlXgXuX6XfXwX~.k.F. X%X:X3X0X*X X).F.r.1.&.$.o.&.o.o.o.o.] ] o.] ' / ~ ~ ~ ~ Y E E ~ U c b c z F G G J J P L V h g h L M N U ~ I I U I I I L L V c l z e 1 8 i b V U ~ / ] +.&.&.2.6.0.p.a.a.k.c.v.V.V.V.C.C.C.",
"c.H.!.).`.).!.!.I.H.F.F.C.V.z.a.r.7.<.&.o.' Y J M d 7 3 i d B U ~ ~ ~ ~ ! Y ~ / #.` F ) Y c n J L L I I U U U U G V h F Y Y Y ~ Y ~ / ) ' ' ' ] o.o.o.o.o.o.+.+.&.1.1.1.8.J.+X5X5X5X6X6X6X~.s.Z.$X,XuXkXbXbXfX%X).~.).).!.I.H.H.J.J.F.G.C.C.C.C.b.G.H.!.!.J.!.5XgXfX!.c.b.R.`.C.l.l.z.z.b.b.b.b.C.l.j.j.j.j.j.j.j.l.b.J.R.J.J.!.$Xq.=.*.3.*.B o.3.6.a.F.%X6X=X`.!.J.J.H.F.F.F.F.^.'.OX_.R.R.R.R.!.!.!.!.^.`.[.OX XOXOX%X%X*X>X6XqXwXiXpXkXxXMXmXmXmXmXmXmXmXmXmXmXmXmXmXmXcXbXkXgXiXuXqXqX6X=X*X%X%XOX%XOX`.`. XOXfX|.s.a.a.5.R ' 9.9.4.0.!.wX|.F.C.V.V.V.V.A.C.A.G.G.G.D.C.C.C.Z.C.J.C.V.V.V.V.b.b.b.b.G.G.G.C.b.b.G.G.v.v.c.b.c.G.F.N.c.z.c.c.c.z.k.b.l.l.l.l.l.l.l.l.j.j.j.j.j.j.z.z.z.z.c.J.!.>X6XJ.a.5.;.:.G E 3.3.9.3.k. XH.v.v.d.u.u.a.a.u.u.u.u.j.R.bXbXrXR.l.a.a.a.a.a.a.a.l.l.j.a.u.u.a.a.j.j.j.j.l.z.c.V.c.F.D.C.V.V.Z.H.H.J.P.J.P.`.@XfXbXfXqXwXiXwX Xz.F.|.*X>XqXqX*X`.!.F.0.&.$.$.o.} ] o.] ' ' ] ' ' ~ ~ ~ ~ Y Y Y E ~ U n b c z F G G J J P L V c h g G B G ) ~ I I I L L L L J V c l l 3 1 e d b V U ~ ~ ] +.&.2.5.0.a.a.d.k.z.c.c.V.V.C.S.k.3.",
"F ' r.Z.I.!.!.!.I.I.H.F.C.V.z.a.a.0.3.<.o.' Y J B g 4 3 0 i B Y ~ ~ ~ ~ ! Y ~ ) o.[ L ' U h n U P L I I U U U U V V h G Y ~ ~ ~ ~ ~ ) ) ' ' ] ] o.o.#.$.+.+.o.o.1.1.&.3.S.OX6XqX,X6X6X:XY.t.B..XqXyXgXbXbXfX%X!.~.~.!.!.!.H.H.J.J.J.G.Z.C.C.C.C.b.C.F.H.D.Z.F.J.F.!.H.F.v.b.b.a.j.j.j.j.z.z.z.z.v.j.j.j.j.j.j.j.j.c.G.R.R.F.Z.^.*Xa.*.3.7.3.F +.3.6.r.F.*XqX*X^.J.J.H.J.J.J.G.G.!.^.`.^.R.R.R.R.H.!.!.!.!.'.OX*X XOXOXOXOX*X>X>XqXwXyXpXkXxXMXmXmXmXmXmXmXmXmXmXmXmXmXmXmXbXbXkXpXuXqX6X6X>X*X%XOXOX X X X`.`.`.+XfX Xs.s.a.3.Y ` 0.0.0.a.).wX~.S.V.V.V.V.V.b.b.b.C.C.C.C.C.C.V.C.V.z.C.b.b.b.b.b.b.b.b.c.b.z.z.z.z.V.b.v.v.z.z.z.G.F.c.z.z.l.l.l.l.l.j.l.l.l.g.g.g.l.l.l.l.j.j.j.j.j.j.k.k.z.V.I.:X6XZ.p.5.;.9.I E -.3.0.1.k. XJ.v.V.v.d.u.u.a.u.u.u.u.j.R.zXmXzX^.j.a.u.u.a.a.a.u.a.u.j.a.G.L.u.a.a.a.j.j.j.l.D.D.z.z.z.z.c.C.F.F.F.F.F.J.J.I.~.%XiXlXfXqXwXfXwX).z.P. X:X3XqXwX*X`.I.N.8.$.$.o.] } o.o.] ] o.] ' / ~ ! Y Y U Y E ~ U n c c z G G J J J P L V b n s F V U ' ~ U I I L L L J G V c g p ; 1 8 g b V U ~ ' o.&.&.3.9.y.a.a.d.k.z.c.c.c.c.k.e.' b ",
"~ B G o.k.H.!.!.I.I.I.H.Z.V.c.k.r.e.0.4.&.' Y F B g 4 1 8 a V Y ~ ~ ~ ~ ! Y ~ ) o.] U ' Y h h J P P I L L I U U V V h J Y ~ ~ ~ ~ ~ ) ) ' ' ] ] ] o.$.&.3.&.+.o.+.$.9.C.%X5X6XwX6X6X:X Xt.Z.%XqXwXkXnXmXgX>X`.H.!.!.!.!.!.!.H.H.J.F.G.C.b.b.b.b.b.C.C.C.c.V.D.C.c.V.H.v.V.b.l.j.a.a.a.a.a.a.a.a.j.l.d.j.j.j.j.j.j.b.G.R.H.G.b.J.$Xq.*.;.7.3.F +.3.6.r.F.*XqX*XH.J.H.J.D.J.J.J.G.G.G.R.F.R.R.R.R.H.!.!.!.!.`.'.OX'. XOXOXOX%X*X>X6XwXuXiXkXxXMXmXmXmXmXmXmXmXmXmXmXmXmXmXmXbXbXkXpXuXqX6X6X>X*X%X X X X X`.`.`.).%XfX Xs.s.a.3.E ` 0.0.0.a.).wXI.C.c.V.V.V.b.v.z.z.b.b.b.b.b.V.V.b.C.b.c.b.b.z.z.c.b.b.b.z.z.z.c.c.l.z.j.z.z.z.z.j.b.C.k.z.z.j.j.j.l.j.j.g.l.g.g.g.g.g.l.l.l.j.l.j.j.j.j.j.j.l.b.J.:X6XC.0.5.:.9.R E &.3.0.1.k. XA.v.A.C.v.d.u.u.u.u.u.u.j.G.4XzX-XC.a.a.u.u.u.a.u.0.a.a.u.u.R.R.q.u.a.a.a.j.j.j.D.D.z.j.j.l.c.D.Z.C.C.F.Z.F.H.H.P.!.%XlXkXiXwX6XeXwX XN.(. X:X0XpXwXOXJ.H.k.1.+.o.o.o.&.$.o.o.$.o.o.' ' Y U U U E E ~ U n c c z G G G J J P L V c n s J G L / ~ U I I L L J G G B c g e 1 1 8 g b V U ~  .&.2.3.6.0.a.a.d.d.k.k.c.c.z.z.1.P c F ",
"C.3.U c F &.z.H.I.H.F.C.F.V.c.k.a.a.y.9.-.o.~ G b s 3 % e s Z U ~ ~ ~ ~ / ~ ~ ) #.o.Y ] ~ z n F P P P P U U L I F V h G ~ ~ ~ ~ ~ ) ] a.V.k.0.7.7.a.c.N.N.a.9.7.r.k.H. X=X5X6X6XqX6X XZ.F.%X6XuXkXmXnXiX>X|.!.!.~.~.!.!.!._.H.F.F.G.C.V.V.V.V.V.V.V.c.z.z.z.z.v.c.c.z.k.z.z.z.z.a.a.a.u.a.a.a.a.a.a.a.j.j.j.j.j.V.Z.J.!.C.b.a.!.$X9.=.=.7.7.G +.5.9.a.D.$X0X*XF.L.G.J.H.J.J.J.J.Z.D.D.G.F.F.J.J.R.!.^.^.^.!._.`.'. XOXOX*X*X*X*X6XqXuXiXpXkXMXmXmXmXmXmXmXmXmXmXmXmXmXmXmXMXxXsXpXyXqX6X5X>X*X$XOXOX[.'.'.`.`._.*XfX`.s.s.r.0.E ' q.r.r.k.).qXH.c.c.c.c.v.z.z.C.D.v.v.b.b.C.b.z.c.c.c.c.z.z.z.z.z.z.z.z.c.z.c.z.l.l.l.l.V.C.z.z.l.l.l.l.z.l.z.z.b.l.l.l.j.j.u.j.u.u.a.l.l.j.u.j.j.j.j.a.j.j.j.z.H.:X6XC.e.5.;.9.J / -.3.1.3.z.OXF.a.c.G.C.c.j.a.a.u.u.u.u.l.G.[.E.l.j.a.u.u.u.u.w.q.u.a.q.q.q.q.q.q.u.u.u.u.u.u.j.a.j.l.k.z.z.c.N.V.Z.Z.F.F.J.H.!.!.`.=XfXkXpXuXeXyXqX XN.(.:X6XqXyXwX%XH.F.D.N.V.c.z.k.k.z.a.0.4.4.3.9.&.~ U Y ~ ~ ~ U c b c z G G G G G L L V c n s U P P ' ~ U I L L L L J G B c g e 8 ; i g b F Y _ +.&.2.3.5.0.y.p.f.d.k.k.z.a.1.U n J &.a.",
"`.`.C.&.N n / 0.V.F.F.F.C.V.z.k.a.a.y.9.3.%.' U N d 3 - e s Z U ~ ~ ~ ~ / ~ ~ ) $.o.Y ] ~ h z Z P P P P P P L L G V h G ~ ~ ~ ~ ~ ) o.j.!.J.F.H.`.'.'.`.!.!.!.`. XOXOXOX%X6XwXwXqX XF.Y.%XqXuXkXmXmXgX%X|.!.!.!.~.!.!.I.!._.J.F.G.Z.C.V.b.b.b.v.v.c.z.z.j.j.z.z.z.k.j.a.j.j.j.j.a.u.u.u.a.j.a.a.a.a.a.j.j.j.z.z.C.G.F.J.V.c.a.!.OX9.*.*.7.7.G +.5.9.a.D.$X0X*XF.J.G.J.R.J.J.J.J.J.J.J.J.J.J.J.J.R.^.!.^.^.!._.`.'. XOXOX+X%X*X*X>X6XwXuXpXgXxXMXmXmXmXmXmXmXmXmXmXmXmXvXvXxXsXpXiXyXqX,X>X*X*XOXOXOX'.'.`.`.`.`. XqX~.p.a.r.9.E ` 0.e.t.r.).0XJ.c.c.c.c.v.v.b.D.v.c.v.b.b.J.J.c.z.z.z.z.z.z.z.z.z.z.z.z.b.b.c.l.j.j.j.j.J.F.c.z.j.j.j.j.l.l.l.l.E.b.l.g.j.j.u.l.l.j.j.j.j.u.u.j.a.a.a.a.a.a.a.j.J.:X6XC.0.5.;.9.R X.3.&.1.3.M.OXA.0.a.z.C.C.z.a.a.a.u.u.d.l.l.l.l.a.a.a.y.y.y.y.9.w.q.q.q.w.w.w.0.0.0.w.w.w.u.u.u.u.a.j.k.k.z.z.c.N.C.Z.Z.F.F.J.I.!.!.`.>XfXkXpXyXwXeXqX).N.).*X0XeXyXqXOX`.OX%X$X$X$X$X'.OX'.'.I.P.P.!.$.~ Y E ~ ~ ~ U b m m z G G G J G L L V c n s U P U ' / U I I L L L J G B c g e i ; i d M G ! ' +.&.2.3.6.0.y.p.p.d.a.a.9./ c B o.a.V.H.",
"9.Z.!.J.k.] N Z +.r.k.N.c.V.k.a.a.a.0.9.3.&.] E B g 7 3 e d Z U ) ) ) ) / ~ ~ ' $.o.Y ] ! h h B H H G G P P L L G V h G ~ ~ ~ ~ ) ' o.k.!.H.J.H.!.!.'.OXOXOX%XOX*X>X*XOX%X6XwX6X XF.P.*XqXuXgXmXmXgX:X).).).`.).!.!.I.H.!.(.J.F.Z.C.V.c.z.c.c.c.j.j.l.l.j.j.j.l.z.z.d.d.d.d.a.a.u.u.u.u.j.j.j.a.a.a.a.j.j.z.b.C.G.F.Z.z.k.j.0.H.OX9.*.;.5.3.G o.5.9.a.D.$XqX*XF.G.D.J.!.J.J.J.J.!.J.F.J.J.J.J.J.R.^.^.!.^.!._.`.'.|.OX%XOXOX*X*X>X6XqXuXiXpXkXbXMXbXmXmXmXmXmXmXmXmXvXcXcXxXsXpXiXyXqX,X>X*X$XOXOXOX'.'.`.`.`.`.!.5X~.s.r.0.0.~ ' q.e.e.r.).0XH.c.c.c.c.v.b.G.}.D.c.l.v.z.J.R.b.k.k.k.k.z.z.z.z.l.l.l.z.c.z.j.j.l.l.l.j.G.G.z.k.k.k.k.k.k.k.l.l.J.b.j.u.j.j.a.l.v.z.l.a.j.j.l.j.u.a.a.a.a.a.a.j.D.=X6XS.r.3.;.9.E X.3.&.1.4.c.OXF.9.0.u.l.b.V.z.a.a.a.u.d.u.u.u.u.u.u.u.u.w.w.9.9.9.w.w.9.9.9.9.9.9.9.9.0.w.w.y.y.w.u.j.z.z.z.z.z.c.V.C.C.Z.F.F.H.I.!.!.|.>XpXkXpXwXqXwXwXP.M.).*X>X6XqX=X*X*X7X*X$XOXOXOX`.!.H.F.P.).Z.&./ E ~ ~ ~ ~ U N B m c J J J J J L L F c n s U U U ' _ U I I L L L L G B c g e i - e h B U ~ ] +.&.2.3.6.0.0.p.a.p.3.+.b j ~ r.N.J.Z.&.",
"B U &.z.!.H.r.Y b Y &.7.k.z.k.a.a.a.0.9.&.+.' E Z g 8 8 i g Z ! ) ) ) ) ~ ~ ~ ' $.o.Y ] Y g h B G G G G J P L L G V h J ~ ~ ~ ~ ' ' o.z.!.'.).J.V.V.F.!.!. XOXOX+X%XOXOX%X6X6X XN.J.+X>XiXgXmXmXkX:X`.~.`.`.`.`.!.I.H.J.!.(.J.F.C.V.b.c.z.z.z.z.a.j.j.j.j.j.j.j.z.j.d.d.d.d.a.a.u.u.q.u.a.j.a.a.a.a.a.j.j.c.C.G.J.G.v.d.j.d.y.R.OX0.5.7.7.7.J +.5.9.a.D.$XqX&XF.G.D.G.!.J.J.G.L.`.H.G.J.J.F.F.F.J.R.R.R.^.^._.`.`.'.OX*XOXOX%X:X>X>X6XwXuXiXgXxXbXMXbXmXmXmXmXmXmXmXbXcXMXkXpXiXiXqX6X>X*X*XOXOXOX'.'.`.`.`.`.`.!.5X~.k.e.0.0./ ' q.e.t.r.).0XH.c.c.c.z.z.G.].$X_.c.d.z.d.A.G.c.k.k.k.k.z.k.k.z.j.j.j.j.j.j.a.a.l.l.l.j.j.z.j.k.k.j.k.k.k.k.j.j.a.j.l.j.j.j.u.l.C.v.j.u.u.l.G.j.u.a.a.a.a.a.a.j.Z.*XqXF.q.3.;.9.R / ;.*.1.4.M.OXH.q.0.w.u.j.V.b.k.a.a.a.y.y.y.u.y.y.y.u.u.w.9.7.7.9.9.w.7.7.7.7.7.7.9.9.9.0.w.y.u.u.a.j.c.z.z.k.z.c.c.V.V.C.Z.F.J.H.I.!.~.|.>XpXpXiXwXqXwXqXF.k.Y. XOX$X X*X*X%XOX`.!.F.V.k.j.k.C.`.+XV.*./ ~ ) / ~ ~ U B B M m J G G J J L L F c n s U U U ] ' U I I L L L L G B c g e 8 % i M C U / } +.&.2.3.5.9.0.p.6.-.Y n J 3.z.F.C.3.B 4 ",
"a./ n B +.z.H.N.&.Y v U &.9.a.k.a.u.0.3.-.%.] ~ P z 3 9 i i M ! ' ) ~ ~ / ~ ~ ' $.o.U ' ~ h h B G G G G P U U Y J F n U ~ ~ ~ / ' ' ] c.OX%X X!.!.V.9.r.a.k.C.P.!.!.!.!.~.|.!.N.P.%XqXyXkXlXmXmXqXOX).(.!.(.`.'.!.!.H.J.G.C.G.z.b.b.b.c.z.z.z.z.j.j.j.j.A.b.l.l.d.d.d.a.a.u.u.u.u.0.a.j.q.q.a.a.a.l.j.z.b.G.E.R.G.z.j.j.a.u.0.!.OXq.7.7.7.9.V &.3.3.j.D.%XqX*XD.C.C.G.J.J.J.J.J.J.J.J.F.J.J.F.F.F.J.H.H.R.!.^.^.`.`.'.OXOXOX*X*X>X,X6XqXqXuXpXgXkXbXbXbXbXbXbXbXbXbXxXkXxXpXiXyXyXqX6X>X*X%XOXOX'.'.`.`.(.`.`.!.!.6X~.s.r.0.0.~ ) r.e.e.k.(.0XG.z.z.z.z.b.b.m.L.(.x.l.l.v.v.z.k.c.a.j.b.l.j.j.j.j.j.l.j.j.j.j.j.l.j.j.j.j.j.j.a.a.j.j.j.j.j.j.j.j.l.l.l.l.j.j.l.j.j.u.u.u.l.l.u.a.j.a.j.a.a.j.j.D.+XwXJ.q.5.-.9.R ~ 2.&.3.4.C.%X!.q.9.9.0.u.k.v.c.z.a.a.a.u.u.u.u.y.w.0.w.9.9.7.7.7.7.7.7.7.7.7.7.7.7.9.9.w.y.y.w.w.u.u.j.j.j.z.z.z.c.c.V.C.Z.F.F.H.P.!.!.~.|.:XpXlXkXpXuXuX:XF.t.F.I.P.H.I.!.H.C.C.c.a.9.0.k.Z.!. X`.N.7.~ ~ ~ ` ` ~ U B B M b G G G J J L L F b c g U ~ U ] ' U U U I L L L G Z M s i d ; i n F Y _ o.&.&.1.2.3.3.3.&./ b J +.a.V.Z.0.P e d / ",
"OXZ.] c i F 2.C.H.a.} B N ' 0.a.a.a.0.0.-.%.] ~ J h 7 e e 7 s G / ~ ~ ~ / ~ ~ ' $.o.U ' ~ h h B G G P P U U Y Y J G b U ~ ~ ~ / ' ' ] c.OX%XOX`.!.C.0.3.1.2.4.0.k.z.V.C.J.F.J.).:XwXiXgXbXmXbXqXOX).).!.!.^.!._.!.R.J.F.C.b.G.C.Z.V.c.c.z.z.z.k.j.j.j.j.^.G.z.d.d.d.d.a.u.u.u.u.w.w.j.j.u.u.a.a.l.j.z.b.G.J.J.G.z.j.j.z.j.u.9.J.OXq.7.7.3.7.V $.3.3.j.D.%XqX%XZ.D.G.L.G.G.G.G.G.D.D.D.D.D.F.F.F.J.J.H.H.R.!.^.!.`.`.`.'.OXOX$X%X*X:X:X,XqXuXuXpXgXgXkXbXbXbXbXbXxXkXgXgXgXiXyXtXqX6X5X*X*X%XOXOX'.'.`.`.`.`.`.^.).6X~.k.r.r.0.~ ) a.e.q.k.(.0XG.j.j.l.l.l.l.x.x.c.j.l.z.z.z.k.j.k.a.j.b.l.j.j.j.j.l.a.a.a.j.j.j.z.j.a.a.j.a.j.j.u.a.z.b.z.z.z.z.l.b.b.b.l.b.E.c.y.y.y.y.u.j.u.u.u.a.a.j.z.j.a.z.D.+XwXJ.q.5.-.9.J / 6.&.3.4.C.%XH.a.w.0.0.0.a.k.c.c.z.a.d.u.u.u.y.y.0.9.9.7.7.5.7.7.7.7.7.7.7.5.7.7.7.7.9.9.w.0.w.w.u.u.a.a.a.z.z.z.z.c.V.V.C.Z.F.H.H.P.!.!.~. X,XpXkXkXpXqXqX>XU.F.N.N.C.N.k.k.a.q.9.2.3.q.c.F.).OX|.N.7.) ) ) ' ` ) U B V B m P G G L L U I G m c h U ~ U ] ' Y U U U U L L G Z M s i l 3 s b J Y _ } o.&.1.&.2.+.~ b B ] 3.k.Z.a.' z N o.a.V.",
"OX X!.k.o.F P o.k.C.C.2.U N J &.9.0.0.9.-.%.] ~ F h 0 i g i h F ~ ~ ~ ~ / ~ ~ ' $.o.U ' ~ h h B P P P P U Y Y Y G L m U ~ ~ / ` ' ] ] c.OX%X+X XF.V.k.0.3.3.8.e.k.V.J.!. X+X>XqXiXgXgXlXnXmXwX$X`.).(.!.!.!.R.R.H.J.F.G.C.c.J.(.J.V.z.z.z.z.j.j.j.j.l.l.b.z.d.a.a.a.a.u.u.u.u.u.0.a.z.a.q.a.a.j.j.z.b.G.R.J.C.z.y.a.j.l.j.u.0.R.OXq.7.7.5.9.V &.3.3.j.D.$X0X%XZ.C.L.H.C.D.D.D.D.C.C.C.C.D.D.F.J.J.J.J.J.!.^.^.`.OX'.`.`. XOX XOX$X*X:X,XwXwXwXuXpXpXgXgXkXkXkXkXgXgXgXgXpXuXtX6XqX,X>X*X%XOXOX'.'.`.`.`.`.'.`.(.`.6X).k.p.r.0.~ ) a.r.q.k.!.0XG.j.j.l.l.l.l.l.l.j.l.d.l.z.z.j.j.j.j.l.l.l.a.a.l.l.j.a.u.a.a.a.a.k.a.a.l.j.j.u.a.u.a.l.c.l.l.l.l.l.c.c.l.l.l.[.b.w.w.y.y.y.u.y.y.u.a.a.j.G.!.C.a.F.+XwXJ.r.7.-.9.D / 0.&.3.4.C.%XJ.a.a.u.0.0.0.a.k.c.c.z.j.u.u.u.w.w.9.7.7.5.5.5.7.7.7.7.7.7.7.7.7.7.7.7.9.9.w.w.w.w.u.u.u.a.d.z.z.z.l.z.b.V.C.Z.G.F.H.I.Y.!.~.`.+X,XgXbXmXpXwXqXpX>X X(.!.J.c.r.q.3.*.&.9.a.k.F.|.+X|.B.0.) ) ' ' ` ) U V V B N U J L I L U U J N b g J ~ J ' ' Y U U U U I L J Z M s i B a n B P ! _ } +.&.&.+.+.J 8 h o.p.a.a.&.N n o.r.Z.J.I.",
"'.OX X).V.a.2.! H 1.z.c.a.&.G n / -.5.2.-.%.] ~ V h 0 a B B F L Y Y ~ ~ / ~ ~ ' $.o.U ' ~ h h B P U U U Y ! ! ! G I N U ~ ~ / ` ' ] ] c.OX%X%XOX!.C.c.r.4.8.a.M.!. X=XqX6X6XqXyXgXgXlXnXmXpX:X X`.).(.!.!.!.R.J.J.J.G.G.C.b.^.OX!.V.z.z.z.z.j.j.j.j.l.l.u.u.u.a.a.a.a.u.u.u.u.u.0.j.c.u.w.q.a.j.z.b.G.G.R.G.z.a.w.a.j.a.u.u.u.`.OXq.7.7.5.9.V &.3.3.j.D.$X0X%XC.c.G.G.z.b.b.b.b.V.V.C.C.C.D.F.H.J.J.J.J.!.^.!.[.+XOX`.).OX X X X X*X>X0XwXwXwXwXyXiXpXpXpXgXgXgXgXgXgXgXpXuXqX6X6X>X*XOX%XOX'.'.`.`.`.(.'.'.'.(.`.6X|.M.p.r.0.~ ) a.r.q.k.!.qXG.j.j.l.l.l.l.l.l.l.l.l.l.l.k.d.j.a.j.l.j.j.u.u.j.j.j.a.u.u.u.a.a.a.0.a.b.l.j.u.u.y.u.a.j.j.j.j.l.y.l.c.j.j.j.C.j.w.y.u.u.y.w.w.y.y.u.a.a.C._.G.a.F.OXwXJ.r.7.-.9.F ~ 6.2.3.4.C.%XF.j.j.u.u.0.0.0.a.k.c.b.l.a.u.u.w.9.7.:.:.5.5.5.7.7.7.>.>.>.;.7.7.7.7.7.9.9.w.w.i.w.u.u.u.a.z.V.z.z.z.l.c.V.V.C.G.F.J.H.I.U.).).|.+XqXbXnXnXkXuXiXpXiX,XqXqXOXF.a.3.*.*.0.a.c.H.OX%X|.z.0._ ' ' ' ` ' Y V F V B U J L U U U U J B b d G ~ J ' ] Y Y Y U U U U P G B d s v a h b U ! _ ' o.+.} ! h h ~ +.9.p.&.U N / 7.c.H.I.H.I.",
" X'.`.`.F.F.V.a.' U ~ 3.a.a.9.] G J ' #.$.%...~ G h 6 s N N B I E ~ ( / / / / ] 2.&.J ' ~ c h J U U Y Y Y ~ ~ Y F U V U ~ ~ ) ) ' ] ] r.=X%XOXOX XI.C.k.3.&.k.P.`.%XwXlXtX|.%XuXpXkXbXmXyX*X X X`.).).U.!.I.H.H.Z.G.R.C.b.C.E.^.G.b.l.z.z.l.l.j.j.d.a.u.u.u.u.u.u.u.u.u.u.G.].l.u.j.a.y.u.a.j.z.v.Z.J.R.G.c.u.w.w.w.q.q.a.a.j.`.OX0.9.3.3.9.V =.5.7.j.D.$XqXOXC.C.!.C.z.V.V.V.V.C.C.V.V.C.Z.G.G.F.J.J.J.!.^._.OXOX`.(.(.`.'. X XOX%X*X6XqX6X0XwXwXuXiXiXiXiXiXiXiXuXuXyXuXqX6X6X5X*X%X%XOXOX'.'.`.`.`.(.(.(.!.!.`.6X|.k.p.r.0.~ ' a.e.e.s.~.qXD.j.l.l.l.j.j.j.j.j.j.j.j.j.j.j.j.a.a.j.l.j.u.u.g.j.u.u.u.u.u.u.u.u.u.a.c.l.a.u.u.u.u.u.u.u.u.u.u.u.j.c.l.l.u.w.u.u.u.u.w.u.w.w.w.q.u.a.a.j.j.j.j.F.+XqXJ.r.9.-.9.S / -.2.2.<.V.*XA.a.z.l.u.9.u.y.y.a.j.z.z.j.u.y.9.7.>.;.;.;.;.;.7.7.;.,.;.,.,.;.:.:.>.,.,.9.w.w.y.w.y.u.u.a.k.C.^.G.z.z.z.b.b.C.G.F.J.H.!.!.).). X X%X6XkXbXmXkXyX,XqX*XiXbXwXJ.z.a.3.7.a.0.F.OX%X>X`.C.r._ ~ _ ` ' ` ~ F G V B I L U U U U U J B b s V ) J ] ] ~ Y Y Y Y U U U H B z g l 8 e z C P ! ) _ ! B s F o.0.3.+.Y G ~ 1.r.c.Z.J.H.!.!.",
" X'.`.`.!.!.J.N.z.0.' Z ! $.0.r.*.Y B V ~ ` ' ~ G c 0 h S B B J ~ / / ' ] ' / ' 3.&.U ] / b n P Y U U U Y ~ ~ Y F U G Y / ) ) ) ' ] ] r.=XOXOXOXOX!.F.c.3.<.z.P.`.%XwXkXtXT. XgXpXgXpXpX>X X X X`.).(.U.I.I.!.!.F.A.J.C.b.b.b.b.C.z.z.l.l.j.j.j.a.u.u.u.u.u.u.u.u.u.u.u.u.G.!.j.a.a.u.u.a.j.z.V.G.J.R.J.b.j.y.u.w.w.q.q.a.a.a.(.OX9.9.3.3.9.V $.3.7.j.D.%XqXOXC.C.J.N.c.c.V.V.V.C.C.V.V.C.C.Z.G.G.F.J.J.^.`.`.`.`.^.!.^.(.`.`.'.OXOX%X*X5X>X,XqXqXqXyXuXuXuXuXuXyXqXqX6X6X5X5X>X*X%X%XOXOXOX'.'.`.`.(.(.(.^.!.!.!.6X|.k.p.a.0.~ ] a.e.e.s.~.qXD.j.l.l.l.j.j.j.j.b.v.j.a.j.j.j.j.a.a.j.a.a.u.u.j.u.u.u.u.u.u.u.u.a.u.u.j.j.u.q.q.u.u.u.u.u.u.u.u.w.u.w.u.j.u.w.u.u.u.w.w.w.w.w.w.9.q.a.a.a.q.a.z.F.+XqXJ.a.9.-.9.B R &.&.2.&.V.*XZ.a.j.j.u.0.u.0.0.y.a.j.l.l.l.u.w.w.7.>.;.;.;.;.7.7.;.,.,.;.,.,.,.:.>.>.,.9.w.i.y.y.y.q.a.a.a.z.b.c.c.b.z.b.b.C.G.F.J.H.!.^.).).|.|. X%X<XqXiXiX,X).I.I.fXlX6X!.V.a.3.3.6.c.`.OX%X:X).C.0.~ ! ~ ` ' ' Y G J V B I L U U U U U J B b s V ) G ] ] ~ ~ ~ ~ Y Y U U H C B v g 8 w l Z P ! ! B h M _ &.2.&.Y J Y o.9.k.N.F.J.I.!.!.!.",
" X'.`.`.`.!.F.C.Z.J.z.&.F N Z o.$.&.' G b B G U V h 0 h F S S I / ' o.+.o.' ~ ~ 6.&.U o._ M b U Y Y U L U Y Y U F Y L Y ' ' ) ' ] ] o.a.=XOXOXOX%X XI.C.7.1.M.!.`.%XwXkXuX X6X6X:X;X%X$X$XOX X X`.).(.U.!.!.!.!.R.Z.G.C.C.b.l.l.c.z.z.j.j.a.a.a.u.u.u.u.u.u.u.u.u.u.u.u.w.u.j.q.y.y.u.a.j.z.b.G.J.R.G.z.j.u.u.u.w.w.w.q.a.a.a.!. X0.9.3.3.0.V *.3.7.j.F.$XqXOXC.C.V.z.c.c.c.V.V.V.V.V.V.V.V.C.Z.G.J.J.J.^.{._.^.!.!.!.!.^.(.).`. XOXOX%X*X>X>X>X>X,X6XqX6X6X6X6X6X6X>X>X>X:X*X*X%X%XOX X'.'.'.'.OX`.!.(.!.!.H.H.!.5X|.s.a.a.0.~ ] a.e.e.s.!.qXZ.j.l.l.l.l.j.j.j.b.c.l.u.j.a.a.a.a.d.z.a.a.u.u.u.u.u.u.u.u.u.u.u.u.a.q.q.q.q.w.w.u.u.u.u.y.y.y.y.w.y.u.a.a.u.w.u.u.u.q.w.w.w.w.w.q.j.z.z.j.w.w.j.F.%XqXF.a.9.-.9.B ! &.=.1.&.V.%XC.u.j.j.a.j.l.y.0.0.y.u.j.l.l.l.j.u.9.7.:.:.>.>.7.>.;.9.g.;.;.;.:.:.>.>.,.9.i.y.y.y.u.q.a.a.a.a.j.l.b.b.c.b.b.C.G.F.J.H.!.^.).).|.|. X+X.X;X:X>X*X$X|.OXlXfX>X`.H.k.1.2.a.J.'.OX=X=X(.F.0.~ ~ / ' o.] Y G I V V U L L I I U U L B b s V ' I o.o.) ~ ~ ~ ~ ! Y U P G C v d 4 8 g G Q P c c U _ } &./ J J +.2.r.k.V.Z.J.J.!.I.H.H.",
" X'.`.`.!.!.!.!.H.J.H.N.a./ h d J ' ' ) F N h n b s 3 d V F J ~ ' o.&.2.2.+.' / 9.2.! o.' B M U ! U I L L U U I F ~ I Y ' ' ' ' ] ] o.a.=XOXOXOX%XOX!.F.8.1.M.!.).%XwXkXyX>XbXiX1X.X+XOX X$XOX X`.).(.U.I.!.!.`.!.Z.C.C.C.b.z.l.z.z.l.j.a.a.u.u.u.u.u.u.u.u.u.u.u.u.u.y.w.u.w.9.9.u.a.a.z.b.G.G.J.C.j.w.a.a.a.u.w.w.w.q.a.u.q.H. X0.9.3.3.0.V &.3.7.j.F.%XqXOXV.c.z.k.c.c.c.c.c.b.V.V.V.V.V.C.Z.G.J.J.J.R._.^.^.^.!.!.!.^.!.).`. X XOXOX%X:X:X:X:X:X>X,X5X6X5X5X>X>X:X:X:X%X*X%X%XOX X X`.`.`.`.OX`.!.!.!.!.H.H.!.5X).s.a.p.0.~ ] a.0.e.r.Y.qXZ.j.l.l.l.j.j.j.l.l.l.a.u.u.u.a.a.a.z.V.k.a.u.u.u.u.y.u.u.u.u.u.u.a.u.q.9.w.w.q.q.w.w.w.w.w.w.w.w.u.u.G.l.w.w.y.y.u.u.q.w.w.w.w.w.j.b.G.D.j.q.w.a.F.%XqXF.a.9.-.9.J / &.%.1.&.M.%XV.u.a.a.d.b.A.d.w.0.0.w.u.j.l.l.l.a.w.9.:.:.>.>.7.;.;.w.l.;.;.:.:.:.>.>.,.9.i.d.d.u.u.q.u.a.a.a.j.z.z.j.c.b.b.C.C.G.J.H.!.^.).).|. X X+X.X%X*X*X,XiXwXwXbXuX*X|.!.z.2.2.k.H.`.+X:X%X!.F.r._ / ' ] o...Y J I S V U U L L L U U L B c s V ' U o.o.) ~ ~ ~ ~ ~ ! Y U Z v l s 4 8 d B M M B ~ _ ) ! M n J &.0.a.z.V.C.Z.F.J.J.J.F.Z.",
"c.!.!.'. X!.!.!.!.!.!.J.V.a.$.Z s h F ~ U U N s 0 1 ; 1 i g c C U ~  .+.&.&.2.+.0.+.U o./ c b U ~ ~ Y Y U Y Y Y P ~ I Y ' ' ' ' ] ] } a.7X*X*X*X*XOX`.J.e.<.C.!.%X6XwXkXpXtXnXmXqX:X$X X X X X X`. X`.!.J.H.!.!.^.H.A.C.b.v.l.l.l.j.j.a.a.a.u.u.u.u.u.y.u.u.u.u.u.u.j.j.v.j.q.q.a.j.j.z.z.C.G.G.C.j.u.y.u.u.u.u.u.u.u.u.a.u.a.!.'.9.9.9.9.0.F *.3.9.j.F.*XqXOXc.c.z.z.k.z.c.c.c.b.V.C.C.C.C.C.G.^.J.G.J.R.R.R.R.R.!.!.!.^.!.`.*X*XOX XOXOX%X%X%X*X*X:X:X:X:X>X>X>X*X*X*X*X*X*X%XOXOX'.'.`.`.(.(.`.(.^.!.H.H.J.F.R.5X).s.p.a.0.~ ] p.e.e.a.!.wXF.d.l.v.G.z.j.u.j.l.j.u.u.u.u.a.a.a.z.R.z.a.u.u.u.u.u.u.u.u.u.u.u.a.a.q.q.w.w.w.w.w.w.w.w.y.y.y.y.u.w.D.u.u.w.y.w.u.w.u.w.u.u.u.u.a.c.C.b.j.w.w.a.J.%XqXF.a.9.5.u.' ' &.&.1.<.M.%XG.u.y.u.l.l.E.E.j.w.9.0.0.w.u.l.l.j.u.w.9.5.>.>.>.>.;.,.9.;.-.:.,.,.,.,.9.i.d.E.a.y.u.q.u.a.a.a.a.a.a.l.v.G.J.C.Z.F.J.H.!.P.!.`. X+X%X*X*X*X;X>XwXkXwXiXmXfX>XOX!.k.&.3.V.!.'.OX*X%X!.P.k.} ' o.+.o...U G ~ S I Y U L G L U U I V B g V ' G +.2.] ' / ~ ~ ! U P B h a 8 3 , ; < 8 l Z P G C d 3 h U +.0.z.z.N.V.C.F.J.F.J.z.3.! ",
"M ' a.C.H.I.!.!.!.!.I.H.J.C.z.r.I h i h b Z F b e ; + % 1 4 w l b B J Y / o.2.3.0.o.Y o.~ n M U ~ ~ ~ ~ ! ~ ~ ! P ~ U Y ' ' ' ' ] ] } a.7X*X*X*X*XOX`.J.e.<.Z.~.%X,XwXkXkXyXmXmXyX,X*X$X$XOX X X`. X`.!.J.H.R.Q.R.!.R.b.n.v.l.l.j.j.j.a.a.a.u.u.u.u.u.y.u.u.u.u.y.u.u.J.L.c.u.u.j.j.z.z.b.G.G.G.l.u.u.u.u.u.u.u.u.u.u.u.a.a.a.!.'.9.9.9.9.0.F *.3.9.j.F.*XqXOXc.c.z.z.k.z.z.z.z.c.V.C.C.G.H.^._.R.G.G.F.J.J.J.J.R.R.R.!.!.!.`.*XqX%X X X XOXOX%X%X%X%X%X*X*X*X*X*X*X%X%X%X5X>XOXOX'.'.`.`.(.(.!.!.^.!.R.H.H.J.F.H.7X`.s.r.r.0.E o.a.e.e.s.!.wXJ.u.u.v.G.l.a.u.u.u.u.u.u.u.u.a.a.u.d.V.j.a.a.u.u.u.u.u.u.u.u.u.u.u.a.u.w.w.j.l.w.w.w.w.w.y.y.y.y.u.w.j.u.u.w.y.w.u.w.y.w.j.j.j.w.w.j.z.z.l.a.u.j.J.%XqXF.a.9.5.y.~ ' ;.=.1.<.M.%XG.u.0.u.u.l.E._.b.a.0.9.0.0.0.y.a.j.d.y.w.9.,.>.>.>.>.,.:.-.-.;.;.;.;.;.:.u.}.W.a.y.u.q.a.a.a.a.a.z.(.J.b.^.^.Z.Z.A.F.J.!.!.!.'.+X+X+X%X*X<X3XqXpXlXuXkXmXgX6X%X!.z.&.7.V.!.'.OX*X%X).U.r.] ' ' ' ] ' U G ~ S I Y U I J G I U U J B d m _ U $.1.] ' ~ ~ F M B G b g g w & & - ; i M B z s 8 e M ' &.a.k.z.z.N.V.Z.Z.V.z.7._ b i ",
"b i n / 7.c.!.!.!.!.H.H.H.F.Z.N.q.] V s i h n n d 4 @ O @ < w c b b j n b U +.3.9.&.o.1.~ n M Y ~ ~ ~ ~ ~ / / ~ P ~ L U ' ' ' ' ] } o.a.7X*X*X*X*XOX`.J.0.1.S.'.:XqXyXbXcXpXmXmXkXwX,X:X%X$XOX X`. X`.!.H.J.J.F.J.!.R.b.n.v.l.l.j.j.j.a.a.a.u.u.u.u.u.y.u.u.u.u.w.u.u.G.l.u.u.j.j.z.z.c.C.C.b.c.u.u.u.u.0.0.0.u.a.a.u.u.a.a.a.!.'.0.9.9.9.0.F *.3.9.j.F.*XqXOXc.c.z.z.k.k.z.z.z.c.V.C.C.V.G.R.R.G.G.Z.G.F.F.J.J.J.R.H.R.I.!.`.*X5X$X`.`. X X XOXOX%X%X%XOXOXOX%X%X$X$XOXOX=X*X'.'.`.`.`.(.(.^.!.!.!.!.H.H.H.J.F.J.5X`.s.s.a.0.~ o.s.e.e.k.~.uXH.u.u.l.C.j.u.u.u.y.u.u.u.u.u.u.u.u.a.a.u.u.u.u.u.u.u.u.u.u.u.u.u.u.u.u.q.w.l.l.w.w.w.w.w.u.u.y.u.u.y.w.u.u.w.y.w.w.y.j.l.u.j.u.9.w.y.j.l.l.j.j.j.H.*XwXJ.a.9.9.0.U ' -.&.1.&.M.%XC.0.9.y.y.y.l.l.l.a.y.w.0.0.0.0.u.a.l.d.y.w.7.>.>.>.>.:.:.;.;.,.9.9.,.9.,.w.v.y.u.y.u.q.a.a.u.u.a.l.`.J.j.C.G.c.Z.A.F.J.P.!.`.OX%XOXOX*XqXqXyXiXnXnXuXkXnXgXqX:X).z.1.9.M.!.'.OX*X%X`.).0.' _ / / ' ` U G ~ S I U U I I G I U U J B d m ' _ +.o./ U F N c d B G c l l 8 % % ; 3 s d 9 1 e c ~ &.7.0.a.a.z.z.N.V.z.z.7.' b 9 h ] ",
"k.&.J i M ] r.C.!.!.H.F.F.Z.C.C.C.j.*.L a i 7 8 8 4 & $ $ @ q v U B a 8 8 n U o.<.2.7.0.Y z N ~ ~ ~ ~ ~ ~ ) ) ~ P ~ J U ' ' ' ' ] } o.a.7X*X*X*X%XOX`.J.0.2.F.OX:XqXiXbXmXpXmXmXbXyXqX,X*X%X$XOX`. X`.!.H.J.F.A.G.A.C.b.n.v.l.l.j.j.j.a.a.a.u.u.u.u.u.y.q.q.u.u.w.l.l.u.w.j.j.u.z.z.z.c.b.b.l.a.u.u.u.u.0.0.0.u.a.a.u.u.j.a.j.(.'.0.3.9.9.9.F *.3.9.j.J.*XqXOXc.c.z.z.k.l.z.z.z.c.b.C.C.C.V.b.C.C.C.Z.Z.G.F.G.F.J.H.H.H.H.!.!.'.'.'.).).`. X X X XOXOX X X X X XOXOX X X XOX X'.`.`.`.`.(.!.!.!.!.!.H.H.J.J.J.F.F.5X`.k.a.a.0.~  .a.0.0.a.!.wXF.u.u.u.l.l.u.w.u.u.u.g.g.j.u.u.u.j.a.y.y.u.u.u.u.j.j.j.u.u.u.u.u.q.u.u.q.w.w.w.w.w.w.w.w.u.u.u.u.w.y.u.y.y.w.y.w.w.w.j.l.w.w.w.w.w.w.u.j.j.j.j.a.H.*XwXJ.a.0.9.0.G / 2.&.1.&.V.*XC.0.9.0.w.y.w.0.0.y.u.0.0.0.0.w.u.u.l.l.d.y.9.7.>.>.>.,.,.:.,.w.b.g.w.9.9.9.;.i.u.w.w.q.a.a.u.u.a.a.b.j.l.z.z.V.Z.A.F.J.P.!.`.OX+X XOX,XyXyXiXpXmXbXuXbXbXgXqX>X`.z.2.0.V.!.'.OX*X*X X`.8._ ~ ! ~ / ' E G E S I U U I I L U U L V B g V / ~ ~ J M b c n h h P U v c h 3 O % < 8 4 < 3 i C ~ &.4.0.r.a.a.z.z.N.V.0.] N i i I 7.Z.",
"H.I.F.7.P s Z &.a.!.J.F.Z.C.F.Z.c.z.a.3.) B 6 + & % + # $ & e c ! ~ i 8 a a z n F L Y / B c V Y / ~ / ~ / _ _ / U ^ U U ' ' ' ' ] o.o.7.*XOX*X*X%XOX`.J.0.&.A.OX>XwXpXbXmXkXxXmXkXiXwXqX>X-X%XOX`.).).!.!.!.J.V.b.v.b.b.b.v.l.l.l.l.R.J.a.u.u.u.u.y.0.9.w.w.u.u.u.u.u.u.u.u.a.l.z.z.z.z.z.a.a.j.u.a.a.a.u.w.y.u.u.u.u.u.z.a.u.{.`.7.7.7.7.7.V *.8.7.a.F.*XqX Xz.c.z.z.z.z.z.z.z.z.b.c.c.c.b.b.C.Z.C.C.Z.G.J.J.G.J.J.J.H.R.!.!.(.^.(.`.`.`.'.'.OX'.'.'.'.'.OXOX'. X X X X'.'.'.`.`.(.!.!.!.!.!.!.!.!.!.!.H.!.R.F.F.6X|.s.r.a.9./ o.a.0.7.a.!.fXF.a.u.u.u.u.u.u.u.w.c.G.m.u.u.u.u.u.u.u.u.j.u.l.G.E.j.u.b.E.E.l.w.u.u.u.u.u.w.w.w.u.w.u.u.u.u.u.u.w.w.w.u.w.w.w.w.i.i.u.y.y.i.u.l.g.u.g.l.j.g.u.a.H.*XqXJ.a.y.5.0.J ~ -.-.2.&.z.=XG.0.9.w.w.w.w.w.w.w.u.u.9.w.0.w.y.u.a.l.j.y.w.w.7.;.7.;.,.,.:.i.n.h.w.9.7.,.,.9.9.0.w.w.q.a.u.g.j.j.j.a.j.z.z.c.C.Z.F.J.!.J.H.'.%X=X>X6XwXiXpXpXmXbXiXbXnXgXwX>X`.N.3.e.C.!. X*X=X*X'.H.o._ ~ ) ' ] ] ~ G Y S L U U U I U U U U F N c B F M n n v s s s 7 z ~ U N c g 3 O & ; ; - 1 s U ' $.3.7.7.9.r.a.a.k.a.3.U i s Y $.a.D.Z.",
"I.!.!.!.C.3.Y b / z.F.Z.C.V.V.c.c.z.j.a.3.] G d % . $ #   & e c ' } h 8 h i 8 i 8 9 i s B B F Y / / / ~ / _ _ / U / U Y ] ] ] ] ] o.o.7.k.V. X6X+XOX`.J.u.&.G.OX7XwXpXbXmXMXxXmXkXiXwX6X>X:X*X*X X X`.).!.!.H.C.V.V.b.b.b.v.l.l.z.z.G.G.u.u.u.u.y.y.y.0.w.0.w.u.u.u.u.u.a.j.j.l.c.c.c.c.b.j.u.u.u.a.a.a.a.u.y.y.a.a.a.a.z.a.a.{.`.7.5.7.7.7.V *.4.8.a.F.*XqX Xz.V.c.z.z.z.z.z.z.z.z.c.c.b.b.b.C.C.Z.Z.Z.G.J.`._.J.J.H.H.H.R.!.!.!.^.(.`.(.).'.'.`.`.'.'.'.'.'.'. X X'.'.'.`.`.(.(.!.!.!.!.!.!.I.!.!.!.^.!.!.R.G.F.6X|.s.r.r.9./ o.a.0.0.a.!.fXF.a.u.u.u.u.u.u.u.j.v.b.c.u.u.u.u.u.u.u.u.y.u.x.L.G.l.l.G.J.v.l.w.u.u.u.u.u.u.u.u.y.w.u.u.u.u.u.u.y.w.q.q.w.0.w.w.y.u.l.u.l.h.l.x.b.x.x.x.j.g.u.j.H.*XqXJ.a.y.5.0.J / 2.5.3.&.z.=XG.u.w.y.0.w.w.w.w.u.l.c.j.u.u.u.y.y.u.u.a.u.a.0.9.7.3.:.:.9.:.,.i.9.9.7.,.;.,.9.9.w.w.w.q.q.u.u.j.g.a.a.j.z.z.c.C.Z.F.J.H.H.!.'.*X:X5X6XqXuXiXpXmXMXiXbXnXgXwX>X`.V.3.e.Z.!.OX+X$X'.'.j.' _ _ _ ' ] ] ~ J Y G L Y U U I U U U U J B b M d i 0 4 4 4 e i 8 M _ Y N n d 3 O - - % 0 b ! $.&.1.3.7.r.a.a.a.a.2.o.L h ~ 9.a.z.C.J.J.",
"I.!.I.F.J.I.N.3.] 7.7.0.k.c.V.V.z.k.a.a.7.&.] U s < . # # , i c } 1.N i z 0 % % > 0 s n B G L ~ / / / ~ / _ _ ~ U / U ! ] ] ] ] ] o.o.7.Z.V.|.>X+X+X`.J.a.&.G.OX7XwXpXbXmXmXMXmXkXpXwXqX6X,X>X>X*X$X X).`.).R.Z.C.V.b.z.b.v.l.l.d.d.l.l.u.u.u.u.y.u.u.u.u.u.u.y.u.u.u.u.l.l.c.v.b.b.b.b.b.j.u.u.u.u.a.a.a.a.u.y.j.j.j.j.z.l.V.OX`.9.5.7.7.7.V 1.4.8.a.F.*XqX Xz.C.b.c.z.l.l.c.c.z.z.b.c.b.b.b.C.C.Z.Z.C.Z.F.[.OXJ.J.H.H.H.H.H.R.!.!.!.(.(.(.).`.`.`.`.`.`.`.`.'.'.'.`.`.`.(.!.^.!.!.!.!.!.!.H.H.!.^.`.OXOX!.F.C.G.6X`.s.e.0.3.~ o.a.0.0.a.!.fXF.a.u.a.u.u.u.j.l.j.l.j.u.u.u.u.u.u.u.u.u.u.w.y.j.l.u.j.D.D.a.u.j.u.u.u.u.u.u.u.u.u.w.g.u.x.g.w.w.w.w.w.q.w.j.c.u.y.l.x.l.h.u.u.l.x.x.l.l.j.j.u.j.H.*XqXJ.a.y.5.0.G ^ 3.9.9.*.c.*XJ.u.w.y.w.w.w.w.9.u.l.l.l.j.u.a.u.u.y.0.u.j.z.j.u.0.9.9.9.9.,.:.:.,.7.:.:.9.9.7.9.w.w.w.w.q.a.j.a.a.j.j.j.z.z.c.C.Z.F.J.!.!.'.OX5X5X6X6XqXwXiXiXmXMXpXbXmXkXwX,X XV.3.a.Z.`.OXOX'.!.).0.} } } ' ' ] ] ~ G Y F L Y U U U U U U U U Z M n a i 8 4 & 1 s g e Z } U b h a ; . X ; i Z ~ } #.&.1.3.7.0.r.9.&.U J *.+.2.k.C.b.C.D.G.L.",
"J.I.I.J.H.M.k.k.F.J.3.F ~ &.0.z.k.j.a.q.5.*.#.' U c e < O < i c } 9.U h z 7 % 3 s h B G L L G ) / / / / ~ _ _ ~ K / U ! ] ] ] ] ] o.o.7.'.H.).+X+X+X`.J.a.;.G.OX5XwXpXbXmXmXvXmXkXiXwXqX0X0X0X0X,X*XOX`.`.`.!.A.A.C.v.l.b.v.l.l.j.j.d.d.u.u.u.y.y.u.u.j.b.z.u.w.u.u.u.u.c.c.b.b.b.b.b.b.z.a.a.j.u.u.a.a.a.a.a.u.l.l.l.l.b.b.J.*X`.9.3.7.7.5.V 1.4.7.a.F.*XqX Xz.b.G.G.b.x.l.l.c.z.z.c.b.b.b.b.C.C.C.C.Z.G.G.J.R.J.J.H.H.H.H.H.H.H.!.^.!.(.(.(.!.(.(.`.`.`.`.`.`.`.`.`.`.(.!.^.!.!.!.!.!.!.I.H.H.!.!.{.=X6X'.F.C.Z.7X).r.0.0.5.~ o.a.0.9.a.!.fXF.a.u.a.u.u.u.l.l.j.j.u.j.u.u.u.u.u.u.u.u.u.j.l.b.b.l.u.u.j.c.l.u.u.u.u.u.u.u.u.u.y.u.m.L._.b.w.w.w.w.w.w.0.l.x.u.w.h.x.h.u.i.i.u.g.g.l.l.j.u.u.j.H.*XqXJ.u.y.5.0.G / 3.0.q.2.c.*XJ.a.y.y.w.w.w.w.,.9.w.w.w.u.u.a.a.u.u.0.0.u.z.j.a.C.0.0.d.9.9.,.9.,.7.7.;.y.u.,.9.w.w.w.9.a.z.z.a.a.a.a.j.z.z.c.C.Z.F.J.!.'.*X>X6X6X6X6XqXqXyXiXmXcXpXcXmXkXeX,X XC.4.a.Z.`.OX'.`.J.I.k.#.#.} ' ' ] ] ~ L Y G L Y U U U U U U U U Z M n z z s w & 4 g z s L o.Y c h a - - 4 h F ~ ' } o.1.1.7.9.7.&.Y h a o.c.a.a.F.D.D.D.C.D.L.",
"!.I.I.J.Z.M.a.a.M.F.!.k./ g Z o.0.0.7.9.3.&.o./ ! H C v p 8 s b o.1.~ b M i 3 0 h M B J J G U ~ _ _ / / / _ _ ~ K / ! _ } } } } o.o.+.r.OX!. X*XOX|.!.C.0.3.C.'.6XwXgXmXmXmXmXmXkXyX,X>XqXqX0X0XqX6X>X%X`.!.!.J.G.J.z.C.b.l.z.j.d.d.a.u.u.u.u.y.y.u.l.L.E.l.u.u.a.a.a.j.b.b.G.G.b.b.b.z.a.u.u.u.u.u.u.a.u.a.j.b.b.j.a.a.b.z.R.*X'.9.3.7.7.5.N 1.7.7.a.F.%XwX Xz.b.D.b.c.z.z.z.z.z.z.c.c.c.c.b.V.C.C.C.C.G.G.G.G.G.R.H.R.R.H.R.J.L.H.!.!.`.`.!.!.!.!.!.!.!.!.!.!.(.(.(.(.(.(.!.!.!.^.^.^.!.!.R.H.R.!.!.`.OXR.C.C.J.7X).s.e.a.0.Y o.a.r.r.k.!.wXF.j.l.j.j.u.u.u.j.u.u.u.u.j.u.u.u.u.u.u.u.u.u.b.E.b.l.u.u.w.c.G.l.g.u.u.u.u.w.w.w.w.u.x.l.].b.w.w.y.y.u.u.w.w.w.u.i.i.y.y.i.i.i.i.i.u.g.g.j.j.u.a.H.>XqXJ.a.0.7.a.J / 3.9.q.#.V.:XF.a.b.l.w.w.w.9.w.9.9.u.w.y.u.j.a.u.u.u.0.0.0.y.d.`.k.0.u.i.9.,.,.,.5.9.5.y.g.7.9.9.w.w.u.a.G.C.a.a.j.j.c.c.z.c.V.S.P.`.OX+X%X:X5X5X6X5X,X6X,XgXmXmXcXmXmXkXyX3XOXZ.9.a.F.`.OX X=X!.H.D.3.o.] ] ] ] o.~ L Y P P ~ Y U L P U U I G Z M b n c z a < 4 g z g U #.Y B z d d a z B J / ] +.+.1.3.1.o.H i 0 M &.k.c.9.c.C.C.c.Z.C.J.F.",
"!.!.F.z.k.c.N.N.c.Z.'.).F.9.B i h ~ ' $.$.$.o./ ~ U Z B z e d b o.2./ M M i 3 0 h M B J J F U ~ ~ ~ ~ ~ ~ / ~ Y K / ~ _ o.o.} } o.o.$.a.OX!. X:X%X+X).F.a.3.Z.OX0XwXgXmXmXmXmXmXkXyX,X>X,X,X6X6X6XqX6X>X$X`.!.J.G.C.z.R.^.z.a.a.d.j.j.d.d.a.u.u.y.j.c.E.b.u.w.w.a.a.l.c.v.G.E.G.b.z.z.l.a.u.u.u.u.u.a.a.u.a.z.C.z.j.a.a.z.z.H.&X'.9.3.3.7.7.B 1.7.4.a.Z.%XwXOXz.b.b.v.l.l.l.z.l.z.z.c.c.c.c.c.b.V.C.G.J.J.F.G.J.G.J.R.oX^.H.H.E.J.L.H.!.`.(.!.!.!.!.!.!.!.!.!.!.!.!.!.!.!.!.H.H.H.!.!.!.H.H.J.J.J.H.H.Q.!.A.V.C.J.6X`.s.r.a.0.Y o.a.r.r.k.(.fXJ.j.l.j.j.u.u.j.l.j.u.u.u.j.u.u.u.u.u.u.u.l.l.c.c.l.j.u.u.u.j.c.l.l.g.u.u.u.w.w.w.w.w.u.w.w.l.u.u.y.y.u.u.w.w.w.w.i.i.i.i.i.y.i.i.i.u.g.l.c.c.j.j.H.>XqXJ.a.0.3.u.J / 3.9.0.#.V.*XJ.z.J.G.w.w.9.9.w.u.g.u.w.w.a.j.j.u.u.u.y.0.0.0.a.A.a.9.y.i.9.9.,.,.,.9.9.9.7.;.7.9.w.w.0.a.j.l.j.j.j.j.c.c.c.V.F.P.~.OX%X=X>X5X5X5X>X>X6X6X,XgXmXmXcXmXmXkXyX,XOXA.9.a.Z.`.%X*X=XF.F.J.7.#.} ] ] ] o.~ I U P P I U L L U U U U G B M b n c z a < 4 g z g U #.U B n g g d n B P ~ } &.&.$./ Z e - 7 ! 0.k.C.C.a.C.D.D.b.D.k.V.F.",
"!.!.V.0.0.a.V.Z.F.F.!.!.!.J.k.o.h 8 i V U ' ' E ! U G C v a h B +.3.' N M i 3 0 h m B J F Z H ! ~ ~ ~ ~ ! ! ! U I ` ~ ' o.o.o.o.o.o.&.a.%X!.|.>X:X%X|.J.a.0.H.OX6XwXgXmXmXmXmXmXkXyX>X>X:X:X>X>X>X6XqX6X6X*X`.^.J.C.b.G.!.b.z.j.j.j.l.l.l.l.j.j.j.w.9.j.j.w.y.y.u.k.b.b.G.E.(.G.z.l.j.j.u.u.u.u.a.a.a.a.u.a.z.b.j.a.u.a.k.j.F.OX'.9.3.3.9.7.V 3.7.7.a.S.%XwX Xz.b.b.c.l.l.l.l.l.l.l.z.c.c.c.v.v.C.b.C.J.!.H.J.G.G.G.H.OX!.J.J.J.J.J.H.H.!.^.^.!.!.!.!.!.!.!.!.!.!.!.!.!.!.R.H.L.J.J.J.J.J.G.D.D.G.F.F.F.!.H.G.C.J.7X).s.0.a.0.G ] a.0.0.k.!.wXF.j.l.j.u.u.u.l.v.l.j.j.u.a.j.u.u.u.u.u.u.u.l.c.l.l.j.u.y.u.u.w.w.l.u.u.u.u.w.w.u.u.u.u.u.l.c.u.u.u.u.u.u.w.w.w.w.i.i.i.i.y.y.i.i.u.u.j.l.c.c.a.j.H.>XqXJ.0.9.3.u.G / 2.3.7.#.V.%XF.j.l.l.w.w.9.9.9.g.g.w.9.w.j.z.z.a.u.u.u.y.0.0.u.a.u.w.y.i.w.9.9.9.9.9.9.9.;.7.9.9.w.w.u.a.u.j.j.l.j.l.c.C.D.F.!.`.OX%X:X:X:X:X:X:X*X*X>X6X,XgXmXmXcXmXmXxXyX,XOXA.9.a.J.OX=X:X=Xc.c.!.7.$.o.} ] ..o./ U U L P V b G J F P U I G B M b n c z a < 4 g z g U #.U Z b h h g b F U _ ] ' U d - + % d o.a.V.k.N.c.j.F.D.c.a.j.3.0.c.",
"J.J.c.r.3.0.k.V.z.Z.!.H.F.Z.C.Z.q.U 6 % 4 b I J U P G Z c s c J #.3.' N M i 3 0 h m B J Z C G ! Y U J F J U ! U U ' ~ ' o.o.o.o.+.o.&.a.*XP.`.5X%X+X).F.k.0.R.*X0XwXgXmXmXmXmXmXkXyX>X>X*X*X*X*X%X>X6XqXwX6X=XOX^.R.G.l.z.z.C.c.l.j.j.l.v.v.l.l.l.u.;.w.w.w.u.a.a.z.b.D.G.G.G.l.j.j.j.a.u.u.u.u.a.a.a.a.u.u.a.j.a.u.u.a.a.a.G.[.'.9.3.3.9.0.V 3.7.7.a.C.%XwX Xz.b.b.c.l.l.l.l.l.l.l.z.z.c.c.v.v.C.C.R.[.[.!.G.C.G.G.F.`.J.F.J.G.G.J.H.H.H.!.!.!.H.H.!.!.!.!.!.I.!.I.R.!.R.H.L.J.G.G.G.G.G.D.D.C.C.G.A.A.S.F.G.G.G.7X~.s.0.a.9.V ..a.q.q.a.U.wXG.j.l.j.u.u.u.l.b.x.j.j.u.a.j.j.u.u.u.u.u.u.j.l.j.j.l.j.u.u.j.w.y.u.u.u.u.u.w.w.w.u.w.u.u.g.g.u.u.u.u.y.y.w.w.w.w.y.i.i.w.y.y.y.y.u.g.j.l.l.j.q.a.H.=XqXJ.0.9.2.0.F ~ 2.5.3.#.V.OXC.a.y.u.w.w.9.9.9.w.u.w.5.0.j.c.b.l.j.a.u.u.0.9.w.u.y.w.y.y.0.w.w.w.w.w.w.w.9.w.u.w.0.w.w.0.y.a.l.l.l.l.C.D.F.H. X+X%X:X:X:X=X=X=X%X*X%X>X6XqXgXmXmXcXmXmXxXyX6XOXF.9.a.~.OX=X%X5Xj.z.).9.$.o.o.] o.o.) U U P J G c s m B F J J G B M b n c z a < 4 g z g U #.U Z M h h h b F U ~ U d % X % 8 U &.k.N.z.z.c.c.k.F.c.9.#.o.o.a.J.",
"Z.C.F.C.a.a.3.<.&.z.H.F.M.M.M.M.N.a.o.z % % 3 d N Z G Z c g c L &.9.] B c g 7 1 c B M n N N B G G G J L U ~ Y U ~ ] ~ ] +.+.+.+.o.o.&.a.*XF.`.5X=X+X`.J.a.3.C.OX6XwXgXmXmXMXmXmXkXqX,X:X*X%X%X+X+X%X=X5X6X6X6X7X$X`.E.G.b.c.l.l.z.l.j.l.l.z.z.z.c.u.,.9.u.u.j.z.c.V.G.J.G.R.u.j.l.l.u.0.u.u.u.u.a.l.u.u.u.u.u.u.j.a.j.j.k.V.F. X X0.3.7.9.9.V 1.7.7.j.D.%XuX Xz.b.c.z.l.j.j.j.j.l.z.z.z.c.c.b.b.b.C.R.OX(.E.G.G.G.G.!.^.F.G.J.G.G.G.J.J.J.J.R.R.L.L.H.H.H.H.H.H.H.!.E.E.H.H.L.J.G.G.G.J.G.G.b.b.C.C.C.C.C.C.C.b.J.=X`.s.e.a.5.G +.s.0.8.r.U.qXJ.j.j.j.u.j.j.j.l.l.l.l.l.d.l.d.l.l.d.u.u.u.j.j.j.j.j.j.u.u.u.u.w.u.u.u.u.u.u.u.y.y.u.u.u.u.y.u.u.u.u.y.w.y.y.w.w.w.m.l.w.u.w.w.u.u.u.g.l.j.u.9.a.D.=XqXJ.0.9.3.u.U ~ &.2.1.+.S.%XC.j.u.u.w.y.w.w.9.9.9.9.w.y.a.l.l.z.z.l.u.y.0.9.u.u.y.u.u.y.y.0.0.w.w.w.w.w.9.u.l.w.w.y.u.w.u.a.k.z.b.V.C.J.!.'.$X*X*X-X*X*X%XOX%X*X*X:X>X6X6XbXmXmXMXmXmXbXiX6X*XF.7.r.F.'.*X=X6Xc.k.'.9.#.o.o.o.o.o./ U U U H J Z b h F V V G Z B z d s s g a 3 3 g c h Y o.Y Z b h h h N F Z i + . . 8 I $.&.9.z.c.z.c.V.V.z.z.3.' 3.k.C.H.!.",
"H.F.!.I.!.Z.k.0.&.k.I.V.c.M.M.c.a.a.a.9.~ d & % ; 9 z B c z b G &.9.] B M g 1 - 8 s a i g h M F G L I U U U U U ~ ' ~ ] +.+.+.+.+.+.&.a.=XF.`.5X=X+X`.J.a.3.C.OX7XqXgXmXmXMXMXmXkXqX>X>X*X%X%X+XOX+X*X=X:X6X6X6X5X$X].E.E.G.c.l.b.z.z.z.j.l.l.l.l.u.y.g.l.j.c.V.C.C.G.F.G.[.v.b.R.z.u.u.u.u.u.u.a.l.c.j.u.u.u.u.j.j.l.z.c.Z.F.'.OX0.3.3.9.9.V *.7.7.j.C.%XuX Xz.c.l.l.l.j.j.j.j.l.z.z.z.c.c.b.b.b.C.C.C.G.G.G.G.G.b.G.J.F.F.J.G.G.G.G.G.J.J.J.J.J.L.J.J.L.L.L.L.H.H.H.H.H.H.L.G.G.G.G.G.G.C.C.C.b.b.C.C.b.b.b.b.A.*X~.s.e.a.5.G o.p.8.4.e.P.qXC.j.j.j.j.j.j.j.j.l.l.l.l.l.l.l.l.l.l.l.d.j.j.j.j.j.j.j.j.j.u.u.u.u.u.u.u.u.u.u.u.u.u.u.u.u.y.u.j.l.u.w.y.y.y.w.w.u.l.u.w.u.u.u.u.u.u.u.g.l.u.9.a.D.=XqXJ.0.9.3.u.Y / 2.3.1.+.F.%XC.j.u.u.u.u.y.w.w.w.9.9.a.l.u.0.a.j.z.c.z.a.u.u.a.a.u.u.u.u.y.y.y.0.0.w.0.w.w.u.j.w.u.u.u.u.a.j.k.c.C.F.J.^.'.*X*X=X*X*X*X*X%XOX%X*X*X:X>X6XqXbXmXmXMXmXmXbXiX6X*XF.7.r.F.'.*X=X6Xc.k.'.9.#.} ] o.o.../ K U U K U U J N B N N N M z g s e 8 8 8 4 4 s h h Y +.Y V b h h h M a % .   3 B ' #.2.&.q.j.c.c.z.z.V.a.3.&.k.C.H.!.!.!.",
"!.H.!.'.).J.J.!.Z.e.C.N.c.c.c.M.a.a.0.0.2.] G 8   + ; e z c m G &.9.] B B g 1 % 1 8 i i a g M J I U U U U U U ~ ) ) ~ o.+.+.+.+.&.+.&.e.=XF.'.6X=X+X`.J.a.3.C.OX>X6XpXmXMXxXMXmXpXqX>X6X*X%X%XOXOXOX+X*X+X=X6XqX0X4X&X'.(.H.G.c.b.b.z.z.l.z.b.b.c.x.l.x.z.z.c.C.Z.Z.C.C.G.-Xl.G.b.j.u.j.u.u.u.u.l.b.E.R.u.u.u.u.j.j.z.c.C.J.H.`.OXr.3.2.0.9.V *.7.0.j.C.%XiX'.z.l.l.z.l.j.j.j.j.l.z.z.c.c.c.c.b.b.C.C.G.G.G.D.D.G.E.^.G.J.F.G.G.G.G.G.G.G.G.G.G.J.J.J.J.J.J.J.J.H.H.H.H.H.E.(.].R.J.G.C.C.C.C.b.b.b.C.C.C.C.b.b.A.*X~.s.r.a.7.G o.p.8.8.r.U.qXC.j.j.l.l.l.j.j.j.l.l.l.l.l.l.l.l.l.l.l.l.j.j.j.j.j.j.j.j.j.j.j.u.u.g.g.g.u.u.u.u.u.u.u.u.u.y.u.j.l.u.w.y.y.y.u.u.u.w.u.u.y.G.b.u.u.u.y.u.j.u.9.a.D.=XqXJ.0.9.2.u.Y / 2.3.1.+.F.%XC.j.u.u.u.u.u.u.a.u.w.9.u.u.y.9.y.u.d.l.V.v.z.d.Z.c.a.9.u.u.u.y.w.0.0.0.w.y.w.u.u.y.j.a.j.a.j.z.c.C.J.!._.OX*X=X=X=X*X*X*X*X%XOX%X*X*X:X>X6XqXbXmXmXbXmXmXbXiX5X*XF.7.e.F.'.*X=X6Xc.k.'.9.#...] o.o.../ J U Y U U U U U V B N B M c z g 8 3 9 8 3 0 g g z ~ #.~ Z m z h 8 - . $ + h / +.$.$.3.9.a.k.c.z.a.z.a.*.0.c.H.!.!.!.R.R.",
"!.J.!.OXOX!.!. X Xk.C.C.c.c.c.c.z.a.9.3.$.+.O.^ h 3     e b V I &.9.] B B z 3 ; 3 e g h c b Z U U U U U U Y ~ ' ) ) ~ o.+.o.+.+.&.$.$.0.:XH.|.6X=X+X`.J.a.3.C.OX>X6XpXmXMXxXMXbXiXqX,X0X*X%X%XOX X XOXOXOX+X:X6X0X0X0X=XOX`.R.G.b.b.b.c.b.b.C.G.D.C.b.c.z.k.c.S.A.Z.V.b.R.R.c.l.j.l.a.u.u.u.u.u.j.c.E.C.u.u.u.a.a.l.c.V.F.!.H.`.%Xr.3.1.w.9.V *.7.8.j.C.*XiX'.z.l.l.z.l.j.j.j.j.l.z.z.c.c.c.c.b.b.b.b.C.D.D.D.D.G.OX-XJ.F.F.G.G.G.G.G.G.G.G.G.G.G.G.G.G.J.J.J.J.J.J.L.L.L.E.[.0X&X^.J.G.C.C.b.b.b.b.C.C.R.J.C.b.G.*X).s.p.j.9.L o.a.0.8.k.U.6XN.j.l.z.c.l.l.j.j.l.l.l.l.l.l.l.l.l.l.l.l.j.j.j.j.j.j.j.j.j.j.j.j.g.g.g.g.g.g.u.u.u.u.u.u.u.y.u.u.u.u.y.w.u.y.u.u.u.w.l.g.u.L.m.u.g.u.u.y.a.u.0.j.D.=XqXJ.0.9.3.u.U ~ &.2.1.+.Z.%XC.j.u.u.u.u.l.c.c.l.u.y.9.w.y.w.u.u.u.a.V.A.V.v.b.z.k.a.u.u.u.y.y.w.w.0.w.u.w.u.w.u.l.j.l.j.l.c.V.F.!.`.&X=X=X7X>X=X*X*X*X%X%XOXOX*X*X*X>X6XqXbXmXmXbXmXmXbXiX5X*XF.7.e.F.'.%X=X6Xc.k.'.9.#...] o.o. ./ G U ! U G J U U Y U L U P Z M h e s z 9 ; 4 l l n ~ $.~ Z m z g % $ . 4 B _ o.&.$.3.0.q.q.a.q.3.&.c.j.a.G.H.H.H.H.H.H.H.",
"`.!.^.'.'.^.!.!. Xz.V.c.0.0.z.V.N.k.9.2.+.+.o.' H b 8 ; 0 c B U -.9.o.J B g 1 ; i z g c Z F P Y Y ~ ~ ~ ] o.+.~ L U ' o.o.o.+.#.$.&.1.9.OXC.OX6X>X+X`.J.a.9.C.OX>XqXgXmXMXpXMXbXpXqX,XqX%X+XOXOXOX|.OXOX%X X@X=X7X6X0X5X5X$X`.R.J.D.G.G.D.D.D.D.G.D.D.b.C.b.V.C.G.A.Z.V.b.j.j.j.a.a.a.a.0.u.a.l.u.j.j.j.u.u.a.j.k.z.V.J.!.H.D.!.%Xe.3.3.w.9.G 1.7.7.a.V.*XuX`.V.b.c.z.z.z.z.z.z.b.b.b.b.b.b.C.c.b.b.C.C.C.C.b.m.G.[.&X!.G.A.G.G.G.G.J.J.G.G.G.G.G.G.G.G.J.J.J.J.J.J.L.L.!.^.5XzXwX_.F.G.C.E.G.v.c.b.V.C.R.G.b.b.G.*X'.k.s.k.0.T ] a.7.8.a.Y.,Xc.j.j.j.l.l.l.j.j.l.l.l.l.l.l.l.l.l.l.l.l.l.j.j.j.j.j.j.j.j.j.j.j.j.g.g.u.g.u.u.g.j.u.u.u.u.u.u.u.u.u.u.u.u.u.u.u.u.u.u.u.u.u.g.g.u.h.j.b.G.j.a.z.F.*X>XF.0.0.3.u.J / 2.2.3.&.Z.OXZ.a.u.u.y.u.z.G.G.z.a.y.y.w.w.w.0.0.9.a.a.v.V.v.a.d.C.z.u.u.u.u.u.u.u.u.u.y.u.u.u.a.j.j.z.z.c.b.J.^.[.-X7X7X7X7X*X%X%X+X*X*X%X*X%X*X*X>X6X6XtXpXxXmXxXmXmXbXwX>X*XF.7.0.F.'.%X=X6XF.z.!.#.o.o.' o.....' U J U Y Y P G G L U U U P G B h g c c 9 ; 0 c c M / #.) Z v n d & % d U ' / ' +.&.7.9.3.1.] Y G &.j.C.C.H.F.J.!.^.!.!.F.",
"/.!.!.!.OX'.`.'.).V.Z.V.9./ U &.p.k.a.&.o.o.' ~ G c w 4 0 n B U -.0.+.J F z 6 3 B Z M B G U U U ! ! _ } 3.*.' U U ) } o.o.o.+.#.$.&.1.9.F.p.%X6X>X+X`.J.a.9.C.OX7XqXgXmXMXgXbXbXyX:X*X>X%X+XOXOXOXOX|.OX=XOX+X@X*X>X6X6X6X=XOX`._.!.H.H.D.D.D.D.b.D.G.G.D.b.v.V.V.v.c.z.j.a.j.j.a.a.a.a.u.l.z.z.j.j.j.j.u.a.d.k.c.C.J.!.!.J.b.H.%Xe.3.7.w.9.G 1.4.7.a.V.*XuX`.V.b.c.z.z.c.c.c.c.b.b.b.b.G.b.b.c.b.b.b.b.C.C.b.D.G.^.`.R.G.A.G.G.G.J.J.R.G.G.G.G.D.G.G.G.G.G.G.G.J.J.J.J.!.`.=XwXOXR.G.C.C.'.L.v.c.b.C.C.C.b.c.b.F.*X|.k.p.a.9.L ..a.8.0.s.U.6XN.j.j.l.l.l.j.j.j.l.l.l.l.l.l.l.l.l.l.l.l.l.l.l.l.u.u.u.u.j.j.j.j.g.g.g.u.u.g.m.(.u.u.u.u.u.u.u.u.u.u.g.g.u.u.u.u.u.u.u.u.u.u.u.g.u.h.j.G.R.z.a.z.F.*X>XF.q.u.9.u.U ' 3.9.3.&.Z.OXG.j.u.u.u.u.j.C.J.z.l.l.a.y.w.y.u.j.u.y.u.a.j.v.z.c.OXJ.u.u.u.u.u.u.u.u.u.u.u.u.a.j.j.l.l.z.C.G._.[.*X4X7X7X>X=X*X%X X`. X X XOX%X*X*X>X6X6XtXpXxXmXMXmXmXbXwX:X%XF.3.0.F.`.$X=X=XH.0.3.+.o.] ] o...' ' ! U K G ! ~ ~ ~ ~ ~ ~ Y U G Z B c B M e ; 4 z n M _ #.) Z v n d ; ; c P U Y ' o.$.&.#.' B i s ) 9.c.D.F.J.J.H.^.H.Z.V.c.",
"!.H.F.F.!.`.`.`.H.F.J.Z.0._ h g B ' 0.3.&.} ( H B a 4 3 0 n B U 3.0.+.U G c 7 4 Z P F J U U U P U Y ~ ' ` Y L ) ' o.o.o.o.o.+.#.$.&.1.9.z.1.%XwX>X+X`.J.a.9.C.OX7XqXgXmXMXgXbXbXiX>X:X,X%XOXOXOX X X XOX%XOXOXOXOX%X*X>X5X5X=X$XOX`.).!.L.C.C.D.v.b.G.L.L.b.v.c.z.z.j.d.j.a.j.a.a.a.u.u.a.j.D.z.j.j.j.j.a.j.k.c.C.J.H.!.J.C.z.H.OX0.3.9.w.9.G 1.3.7.a.V.*XiX`.V.b.v.z.z.z.c.v.v.b.b.b.v.v.b.b.b.C.G.C.b.C.C.D.C.D.D.J.F.A.G.R.G.G.G.J.J.F.G.G.G.D.D.G.G.G.G.G.G.F.J.J.J.H.!.`.!.H.F.C.C.b.L.v.c.v.b.C.Z.c.z.z.b.A.*X`.k.r.a.7.L ..a.8.0.k.U.qXN.j.l.l.l.j.j.j.j.l.l.l.l.l.l.l.l.l.l.l.l.j.x.l.j.j.j.j.j.j.j.j.j.g.g.g.u.l.j.b.E.u.u.j.l.u.u.u.u.u.u.g.g.u.u.u.u.u.u.u.u.u.u.u.g.d.d.l.b.J.l.a.k.J.-X,XJ.u.u.0.a.J ' 6.0.3.&.Z.%XF.j.j.g.u.u.j.c.z.z.z.b.l.u.w.w.j.G.b.y.a.y.u.z.k.C.R.v.a.a.a.a.a.a.a.a.j.j.j.j.j.l.l.z.b.C.!.`.OX-X4X4X7X7X*X$X=X%X`.).`.`. X X%X*X:X>X6X6XtXpXbXmXcXmXmXbXqX*X%XZ.3.0.F.`.%X=X6XZ.&.3.&.o.] o... .' ' / ~ Y G G U ! Y Y U L I P G G Z Z G B e ; 4 l z B ' $.' F N n d ; 1 n G U ~ ' o.] ~ h 3 4 B o.3.z.C.D.J.D.F.J.F.c.z.z.c.",
"!.F.C.C.A.H.!.H.F.H.!.F.V.r.&./ z i z B U Y U Y G s 3 4 0 n B U 5.0.+.U F z 3 3 e z c Z U G F J G I U I Y U ' ] o.o.o.o.o.o.+.#.&.&.1.7.F.+.+XwX>X+X|.J.a.9.C.OX7XqXgXmXMXgXbXbXpXyXwXqX%XOXOXOX X XOX XOX`.'.'.`.OX$X*X>X6X6X7X%XOX X`.^.D.C.C.b.m.G.G.l.x.C.R.c.z.j.d.j.a.j.a.a.a.a.u.u.a.G.l.j.j.j.j.j.l.c.b.J.!.H.F.C.z.j.!.OX8.3.9.w.9.G &.3.7.a.V.*XiX`.c.b.v.z.z.c.v.V.V.b.b.b.b.C.R.G.b.G.R.G.C.C.C.C.b.b.b.C.V.C.R.&X4XL.C.G.G.G.G.G.G.D.D.D.D.D.D.D.D.F.F.F.F.J.H.H.F.Z.F.C.b.b.v.v.c.v.b.C.G.C.b.c.b.Z.*X`.s.p.j.9.I ..a.7.8.k.U.6XN.j.j.l.j.j.j.j.j.l.l.l.l.l.l.l.l.l.l.l.l.l.c.c.j.l.l.l.l.j.j.j.j.j.j.g.g.u.u.u.g.l.l.x.v.u.u.u.u.u.u.u.u.u.u.u.u.u.u.u.u.u.u.u.g.u.u.u.l.b.a.u.a.H.=X6XF.a.a.0.a.F ~ 3.9.3.&.Z.$XF.l.j.j.j.u.j.c.G.L.G.l.a.u.y.w.c._.G.a.u.y.y.y.a.k.z.d.j.j.j.j.a.a.a.a.j.l.l.l.j.l.z.c.F.I. X=X>X6X7X=X7X=X$XOX7X*X X).`. X XOX%X*X*X>X,X,XqXiXbXmXvXmXmXbXqX*XOXZ.3.9.F.`.%X=X6XZ.2.Z.$.o.o.o... .' ' / / / Y J G J F F J G G C Z Z Z F G M 8 ; 4 l l B ' &.' Z N n d 3 0 z M J Y ~ ~ n 4 > i U &.k.k.c.C.V.D.Z.D.V.j.k.z.V.G.",
"H.J.F.F.F.F.F.S.J.J.J.J.Z.C.c.k.&./ a ; ; 8 z P H p 3 3 0 d B U 5.0.&.~ U n 0 3 ; a b b J J U Y ! ~ ) / ) ` ' [ o...o.o.o.o.+.#.&.&.2.r.J.3. XwX5X*X|.F.r.9.C.'.>XqXpXMXMXjXbXbXuXgXpX6XOXOXOXOX X|. X%XOX`.'.`.`.`.`.'.OX%X4X7X=X*XOXOX).!.F.Z.G.G.b.l.h.l.J.^.C.a.a.a.a.j.l.z.a.a.a.a.a.a.a.a.a.a.j.j.l.c.C.J.R.R.F.b.l.j.j.!.OXr.7.9.q.9.G &.4.9.a.V.*XiX).c.c.c.c.c.z.k.V.V.V.b.b.b.b.E.J.b.D.G.G.D.b.b.b.b.b.b.b.b.C.J.OXOXR.D.b.D.D.D.G.Z.Z.G.G.G.G.G.G.G.F.F.F.F.J.H.R.R.G.V.b.b.b.b.c.c.z.b.C.C.b.c.c.c.V.*X/.k.r.a.5.J ' r.4.0.k.Y.6XN.a.l.l.j.l.l.l.l.l.l.l.l.j.j.E.b.l.l.l.l.l.l.g.l.l.l.l.l.j.j.j.j.g.g.g.g.u.u.u.u.u.u.u.u.u.u.u.u.y.u.y.y.y.u.u.u.u.u.u.u.u.u.u.h.h.g.g.g.h.a.u.u.!.*X6XJ.0.0.9.j.G U 0.9.3.&.V.$XJ.j.j.j.j.j.z.c.H.`._.C.l.d.y.d.l.v.l.u.u.u.u.u.u.a.l.l.d.z.z.d.c.c.z.k.a.j.j.z.z.M.F.I.). X*X>X,X6X>X*XOXOXOX'.'.`.`.`.`. XOXOX%X*X*X*X,X6XwXpXxXmXvXmXmXbXqX*XOXZ.3.9.F.`.%X=X=Xc.k.D.*.] o.] o.] ] ' ~ ~ ~ ! Y Y U U H H L L G F B c d h d 0 < 4 g l Z o.$.] Z N z i 3 8 g h J U n 1 X 7 J +.r.a.k.c.C.C.b.b.a.j.l.z.z.V.F.!.",
"R.R.R.R.!.!.H.F.Z.Z.Z.Z.F.Z.C.V.V.a.&.U 3 % ; s z a 8 3 0 d N U 5.0.1.~ U z 8 8 i B Y ! ~ ! ~ _ ' _ ) ) ` ` [ [ o.o.o.o.o.o.+.#.&.&.3.a.!.c.|.qX6X*X|.S.0.3.b.[.=XqXpXcXmXjXbXbXiXiXyX>XOXOXOXOX+XOXOX*X*X'.OX'.`.^.^.`.`.OX*X=X>X>X=X+X X`.~.J.J.G.v.l.u.b.!./.J.z.k.a.a.c.b.j.u.u.u.u.a.a.a.a.a.a.j.j.c.C.J.R.R.F.b.j.j.j.l.!. X0.9.9.w.9.G &.6.9.a.V.*XiX).c.c.c.c.c.k.D.R.V.V.V.b.b.b.D.C.b.b.G.D.b.b.b.b.b.b.b.b.b.G.G.R.R.G.D.b.D.D.Z.Z.C.C.C.G.G.G.G.G.G.F.F.F.F.F.F.J.R.F.C.C.G.b.b.c.v.z.b.b.b.z.z.z.c.V.:X`.s.r.a.6.K ' a.3.7.a.!.qXC.j.c.c.j.l.l.l.l.l.l.l.l.j.l.{.b.l.l.l.l.l.l.u.l.l.l.l.l.j.j.j.l.g.g.g.g.u.u.u.u.u.u.u.u.u.u.u.u.u.u.u.u.u.u.u.u.u.u.u.u.u.u.u.h.h.g.g.g.h.d.a.u.!.*X6XF.0.0.9.j.G I 9.9.3.&.V.$XJ.j.j.j.j.b.b.l.j.b.G.C.b.l.l.l.d.l.a.a.u.u.u.u.u.u.a.l.z.j.z.v.R.c.a.a.j.j.z.z.M.S.Y.`.+X:XqXyX9X9X>X$X'.'.`.'.'.'.`.`.`. XOXOX%X*X*X*X>X,X0XiXkXmXMXmXmXbXqX*X%XZ.3.0.F.'.%X=X5XZ.c.H.3.] o.] o.] ] ' / ~ ~ ~ Y Y U U H H L L G G Z M m M h 8 ; 4 i g Z o.$.] B N z i ; 4 z M a - X ; N ' 3.p.a.k.z.c.c.z.k.j.0.u.l.b.R.R.H.F.",
"R.R.J.F.J.F.F.F.C.C.C.C.Z.Z.C.C.F.Z.c.3.' G s 3 - 7 7 3 0 d N U 3.0.2.~ P h 8 a n F Y ~ ~ Y ~ ) ' _ ) ' ` ` ' [ o.o.o.o.o.o.#.#.&.&.7.k.).!.|.qXqX:X`.C.6.-.b.[.=XqXiXbXmXjXbXbXiXuXqX-XOXOXOXOX*XOXOX$X&X'.[.'._._.^.^._.`.OXOX*X7X7X=X*XOXoX`.!.F.b.j.l.v.!.oXZ.j.l.j.a.z.z.a.a.a.a.a.a.a.a.a.a.j.j.z.C.J.R.R.J.C.l.a.l.l.z.H.'.0.9.w.q.9.G &.6.9.a.V.*XiX).c.b.b.b.b.V.`.OXF.V.V.b.b.b.c.b.b.b.D.D.b.b.b.b.b.b.b.b.b.C.C.C.b.D.b.b.C.C.C.C.C.Z.G.!.F.G.G.G.G.F.F.F.F.G.G.F.F.G.Z.G.G.b.b.v.v.z.z.z.z.z.z.z.z.z.*X`.s.r.a.6.K ' a.4.0.a.!.qXG.z.v.c.l.l.l.l.l.l.l.l.l.l.z.b.j.l.l.l.l.l.G.b.l.l.l.l.l.j.j.l.l.g.g.g.g.g.g.u.g.u.u.u.u.u.u.u.u.u.u.h.h.l.u.i.u.u.u.u.u.u.g.h.h.u.u.g.g.h.d.d.a.!.*X6XF.0.0.9.j.G G 3.9.9.*.V.%XJ.j.j.j.c.L.b.j.a.l.b.G.b.v._._.l.d.u.u.u.u.u.u.u.u.u.a.j.z.v.b.^.C.j.j.k.z.c.v.S.P.|.:X,XqXyXyXiXyX>XOX`.]._.`.'.`.`.`.`. XOXOX%X*X*X*X>X,X0XiXkXmXMXmXmXbXqX*X%XZ.3.0.F.`.%X=X5XD.C.!.q.] ] ] o...] ] ) ) ~ ~ Y Y U U H H L F F G Z B B B b i 3 4 a a Z o.$.] B N h i - ; 3 % $ 3 c Y o.3.0.k.a.k.k.k.k.a.a.a.a.z.b.G.G.R.J.b.",
"&.3.9.a.d.z.V.C.Z.Z.Z.Z.V.N.V.V.C.Z.V.j.3.&.~ z & O . < 0 d N U 7.q.3./ H g e h V G L Y ~ U U Y ~ ~ ) ) ` ` ' [ ..o.o.o.o.o.#.#.$.&.8.c.%X!.`.qXqX>X`.C.2.&.c.'.*X6XyXkXbXgXbXbXiXqX>X%XOXOXOXOX$X X'.OXOX_.`._._.^.^.!.^.!._.'.OX=X6X6X4X*X@XOX/.R.C.l.v.z.V.v.k.u.j.l.j.a.u.w.j.j.j.j.a.a.a.a.j.z.b.V.J.R.R.J.C.z.j.j.l.z.c.H.'.0.9.w.q.9.G &.7.9.a.V.:XiX).c.b.b.b.b.V. XOXF.V.b.b.b.b.z.C.C.b.b.b.b.b.b.b.b.b.b.b.b.b.b.b.b.b.b.b.b.b.b.C.C.C.C.!.Z.G.G.G.G.F.F.F.G.G.G.G.C.C.C.C.G.b.v.v.v.z.z.z.j.l.l.j.z.f.*X`.p.r.a.6.K ' a.4.0.r.!.wXJ.z.b.c.l.l.l.l.l.l.l.l.l.l.l.l.l.l.l.l.l.l.b.v.l.l.l.l.j.j.j.l.l.g.g.g.g.g.g.g.g.u.u.u.u.u.u.u.u.u.u.h.l.l.u.i.u.u.u.u.u.l.l.h.u.u.d.u.g.l.l.d.d.!.*X6XF.0.9.7.j.G F 2.9.9.&.V.%XJ.j.j.j.D.E.c.l.j.j.l.v.x.m.eXhXG.l.u.y.u.u.u.u.u.u.u.u.u.b.G.v.z.z.j.j.z.z.v.V.P.|.:X6XtXtXyXyXpXaX>X X(.(.(.(.'.'.`.`.`. XOXOX%X*X*X*X>X,X0XiXsXmXxXmXmXbXqX*X%XZ.3.0.F.`.%X=X=XC.b.!.a.o.] o.o...] ] ' ) / ~ Y Y U U H H J B Z F Z B M B M a i 0 i a F o.&.] Z N h i % $   X a U ' o.2.2.r.r.a.a.r.r.a.a.k.c.k.z.z.b.j.j.9.#.",
"~ ! ~ ~ ' +.6.C.H.H.J.F.C.V.k.j.c.j.k.k.7.$.] ~ v 3 X % 0 d N Y 6.r.3.' P g 8 M L G I ~ ~ ! U L ~ / ) ' ` ` ' ` ....o.o.o.o.#.#.&.&.3.z.OX!. XqXqX>X|.V.2.=.v.'.&X5XuXkXbXiXnXbXwX6X=XOXOX[.OXOX$X X X'.OX{._.^.!.!.R.H.!.^._._.`.OX-X7X5X:X%X+X'.!.F.C.z.z.k.j.j.j.j.j.j.u.u.y.b.c.j.a.a.a.d.j.b.Z.J.R.!.!.R.G.z.j.j.l.l.z.V.(.`.0.q.u.9.9.B $.7.7.a.V.:XiX).c.b.b.c.c.C.H.H.C.c.b.b.c.c.b.C.C.b.b.D.G.E.D.b.c.b.b.b.b.b.b.b.b.b.b.b.b.b.c._.G.C.C.C.C.C.V.V.C.Z.F.G.C.C.C.C.C.V.V.b.c.c.c.c.c.z.z.z.z.z.z.z.z.M.5X`.e.r.a.9.U / a.7.0.a.!.rXF.c.c.l.l.l.l.l.l.l.l.l.l.j.j.l.l.l.l.l.l.l.l.l.l.l.l.l.l.z.l.j.l.g.g.g.g.g.g.g.g.u.u.u.u.u.u.u.u.l.l.h.h.g.u.h.g.u.u.u.u.b.l.u.u.d.d.g.g.h.u.G.v.!.=X6XH.0.9.7.a.L J 3.3.3.*.V.7XJ.j.j.j.z.x.z.z.l.j.l.z.z.b.^.4X^.z.y.u.y.y.u.u.u.u.u.u.l.v.G.x.u.u.0.9.0.k.F.~..X;X,X9XiXiXpXxXpXpX6X'.(.(.(.(.).`.`.`.`. XOXOX$X%X*X*X>X>XqXyXkXmXsXkXmXkX6X*XOXF.1.8.Z.Z.!.*X5XC.D.(.j.o.o.o.o.o.] ] ' _ ~ ~ ! Y U U U U L V Z J P Z M M b c c 4 8 i J o.&.o.Z B a i - % - g P ' o.&.3.9.a.p.9.7.7.0.a.f.c.c.c.0.5.+.%.' N i ",
"&.2.3.2.+.~ Y 2.Z.J.F.F.F.D.C.V.9.7.3.7.*.$.#.] P v d 0 8 h N Y 6.r.7.' U d 8 M L J L ~ ) ~ Y U ~ / ) ' ` ` ` ` ] ..o.o.o.o.#.#.&.&.3.z.$X!.+XwX6X>X|.M.&.%.l._.&X-X0XuXgXuXmXbXwX5X*XOXOX[.OXOXOX X'.'.OXOX`.^.!.!.R.H.H.!.!.^.^._.{.&X>X5X:X@XOX`.R.G.z.l.j.j.j.j.j.j.a.u.u.u.l.j.a.u.a.a.k.z.C.J.R.!.!.R.G.b.l.j.j.j.l.z.c.!. Xq.9.w.9.0.B $.4.7.a.V.:XyX(.c.b.b.c.c.z.c.b.c.c.b.C.V.G.C.b.c.v.m.G.'.-XD.c.b.b.b.b.b.b.b.b.b.V.V.b.b.b.G.`.G.C.C.C.C.C.V.V.C.V.C.C.V.C.C.C.C.V.b.c.z.z.z.c.c.z.z.z.z.z.z.z.z.C.5X`.e.e.a.9.U / 0.3.9.a.!.wXF.c.c.l.l.l.l.l.l.l.l.l.l.j.j.l.l.l.l.l.l.l.l.l.l.l.j.b.L.l.j.j.j.g.g.g.g.g.g.u.u.g.g.u.u.u.u.u.u.l.l.h.h.g.g.g.u.u.u.u.u.l.u.g.l.d.d.g.g.u.u.n.v.R.*X6XJ.0.9.3.a.I ~ 0.3.3.*.V.7XJ.j.j.j.l.l.z.z.l.j.j.z.b.b.b.G.G.l.u.j.y.y.u.u.u.u.u.u.u.l.x.x.l.l.u.u.j.V.!.|.;X<X,XtXpXpXpXdXxXpX>X`.(.(.(.(.).`.`.`.`. XOXOXOX%X*X*X>X>XqXyXgXbXiXpXmXbXqX*XOXZ.<.7.e.k.'.=X0XD.F.`.z.#.+.#.o.o.] ] ' ' / ~ ! Y U U U U U V U ~ Y J B B N M M 4 8 s J o.&.o.F B s i 0 i d B ~ ] $.2.3.3.3.3.9.q.k.c.Z.S.V.k.0.o.' o.U G +.j.",
"'  .+.3.0.&./ ' 0.V.G.Z.D.D.Z.C.c.j.3.$.$.$.#.o.) H C l u h B ~ 6.a.7.' J s 0 b I G G U Y Y Y U ~ / ) ' ` ` ` ` ] ..o.o.o.+.#.$.&.&.3.z.$X!.+XwX6X:X`.z.+.' z._.`. X*X6XkX6XmXbXqX7X*X$XOX[.[.[.'.'.'.`.OXOX{.^.!.!.R.R.R.R.R.!.^.^._.`.%X:X5X=XOX'.!.C.j.j.j.j.a.j.j.a.j.l.l.l.a.a.u.u.u.j.z.V.F.!.!.!.H.F.b.l.j.j.j.l.z.z.c.!. X0.7.9.9.0.B $.4.7.a.V.*XwX!.z.b.c.c.c.c.c.c.b.C.b.Z.!.OXR.b.b.D.D.b.(.].D.b.v.C.C.b.b.b.b.b.b.V.V.V.V.b.C.G.C.C.C.C.C.C.V.V.b.b.C.b.b.b.b.b.b.b.c.z.z.z.z.c.c.z.z.z.z.z.z.z.z.C.5X`.0.9.a.9.Y / a.7.0.a.!.wXF.c.l.l.l.l.l.l.l.l.l.l.l.j.l.l.l.l.l.l.l.l.l.l.l.l.l.b.L.j.j.a.j.g.g.g.g.u.u.u.u.g.g.g.g.g.g.g.g.d.d.h.h.g.g.g.g.g.g.g.u.u.g.l.h.l.d.g.g.l.u.l.d.J.&X6XF.0.9.7.a.U ) r.1.3.&.V.7XJ.j.j.j.l.l.l.l.l.l.l.l.b.b.v.d.l.d.j.l.y.y.u.u.u.u.u.u.u.u.h.l.b.x.j.j.c.F.`.+X<X<X2XBXaXaXaXyXxXyX%X).(.(.(.(.).`.`.`.`. XOXOXOX%X*X*X>X>XqXyXkXbXiXkXmXbX6X%X!.N.$.&.9.F.`.=X6XZ.F.`.k.#.o.#.o.o.] ] ' ' ) ~ ! Y U U Y Y U G P Y Y J B B N M M 3 7 a J o.&.o.J Z g a 8 g b U ' o.&.2.$.o.#.3.a.z.C.C.S.C.p.&.E h i B -.C.F.Z.",
"Z.V.p.2.&.3.&. .+.5.z.C.V.V.c.c.z.z.a.3.#.#.] ' _ Q B c i l F ~ 9.a.7.' J s 0 b U J G I L L I I ~ / ) ' ` ` ` ` ] o.o.o.o.+.#.$.&.&.3.z.OX!. XqX5X*X).k.' ~ b.[._.OX6XiXmX>XbXbX0X=X&X$XOX[.[.OX'.`.`.`.[.OX{._.!.!.R.R.R.R.R.R._.(.^.^.|.+X:X:X*XOX^.D.l.j.g.j.a.j.j.j.a.l.j.l.a.a.l.l.u.j.c.Z.R.!.!.Q.F.b.l.j.j.a.l.z.z.z.z.H. X0.7.7.9.0.B $.4.7.a.V.%XwX!.z.b.b.c.c.c.b.b.v.b.C.C.c.G.C.b.b.b.b.b.b.b.C.v.D.C.C.D.b.b.b.b.b.b.V.V.b.b.C.b.b.b.C.C.C.C.V.V.V.C.C.C.b.b.b.b.b.c.c.z.z.z.z.c.z.c.z.z.z.z.z.z.k.C.5X).8.7.r.9.Y / 0.3.9.a.!.eXF.c.x.l.l.c.c.l.l.l.l.l.l.j.j.l.l.l.l.l.l.l.l.l.l.l.l.l.l.j.a.u.a.g.g.g.g.u.u.u.u.g.g.g.u.g.g.g.g.d.d.h.h.h.g.g.g.g.l.l.g.u.l.l.g.l.d.g.g.u.y.d.j.J.$X7XF.0.9.7.a.Y ~ 9.&.3.-.V.7XJ.j.j.j.j.j.j.j.l.l.l.j.c.b.v.j.y.u.j.j.u.y.u.u.u.u.u.u.u.u.y.u.c.x.l.j.c.F.`.+X<X<X2XtXtXtX,X,XyX<X X).(.(.(.(.(.`.`.`.`. XOXOX%X*X*X=X>X,XqXyXnXbXpXbXmXkX:X XF.a.] } 0.H.OX*X5XC.D.(.j.o.o.o.o.o.] ] ' ' ) ~ ~ Y U U Y Y U G M F P F M M b c z 3 8 e J o.&.o.P F h a i h N ~ ] } } ' ' &.r.j.z.c.c.V.z.0. .F i 0 N -.C.b.V.V.",
"'.`./.^.V.0.$./ G S ~ 5.a.V.F.V.c.a.0.0.0.-.) I Y U G c a z F ~ 9.a.6.' U s 3 i Z L J Z B B G U ~ / ) ' ` ` ' ' ] o.o.o.+.+.&.&.&.&.3.j.`.D. X6X6X:X`.C.2.' 9.C.^.>X,XgXmXqXbXgX7X=X*XOXOX$XOX'.'.'.'.`.`.[.{._.^.R.R.J.H.H.!.`.OX`.^.`.`.|.OX@X%XOX).Z.j.l.g.l.l.d.j.j.l.l.l.l.j.j.j.a.j.z.V.F.~.~.R.F.V.z.j.j.j.j.j.l.l.l.k.H.OX0.5.9.9.9.B $.7.7.a.V.%XwX!.c.b.b.c.c.v.v.v.v.b.C.V.V.z.c.C.b.C.C.b.C.b.C.b.b.G.A.G.b.v.v.b.m.b.b.b.b.b.b.b.C.C.C.C.V.C.C.C.C.C.J.J.b.C.b.b.b.b.z.z.c.c.c.c.c.b.b.z.b.c.c.z.k.C.>X).0.7.7.9.Y / 6.3.7.a.F.6XF.z.z.l.l.v.c.v.l.l.l.l.l.l.l.j.j.b.b.b.G.b.l.l.l.l.l.l.l.l.d.d.d.g.a.a.u.j.j.j.j.l.u.l.l.j.j.j.j.j.j.g.g.g.u.G.b.g.l.l.u.u.j.l.l.l.j.d.l.l.l.l.l.G.OX7XF.y.9.9.a.Y ~ 0.3.3.1.V.7XJ.a.j.j.l.l.j.a.j.j.j.j.z.C.b.j.u.u.u.j.j.j.j.j.x.l.l.y.u.u.u.u.v.x.l.j.b.H.`.@X<X<X5X5X6X6X5X<X<X X).).).).(.(.(.).`.`.'.'.OXOX@X*X*X=X6X,X0XwXkXbXkXkXgX:X).N.J.k.' o.k.!.OX7X6Xc.V.F.a.&.o.#.o...] [ ' ' ) / ~ ! U U Y Y U J n n Z J c M n a i 8 8 w G ] &.' F F z s i z G ! / U U ' 2.q.k.k.k.a.a.*.o.U h 0 b +.c.Z.V.V.V.V.",
"'.`.`.^.^.!.Z.9.~ N d b ~ &.k.c.z.j.a.u.u.9.#.` F B v c i n G ~ 9.a.9.} U s 3 e B G U U U P G J ~ ' ` ' ' ' ' ] ] o.o.o.+.+.&.&.&.&.3.j.(.C.'.>X6X%X|.S.3...y.A._.5X:X;XgX:XqXlX>X*X%XOX[.[.OXOX X'.'.`.`.'.`._._.!.R.J.H.J.!.`.(.`.'.'.).'.OX+X%XOX).Z.l.l.l.j.l.l.j.j.l.l.l.l.j.a.a.j.z.b.F.H.~.Q.F.V.z.k.j.j.z.z.j.l.l.j.k.J.OX0.3.9.9.9.B $.7.7.a.V.+XwX!.c.V.b.c.c.v.v.v.b.b.V.V.V.c.c.z.b.b.C.C.C.C.C.b.b.b.A.D.b.c.v.v.b.b.b.b.b.b.b.b.b.C.C.C.V.C.C.C.C.C.C.C.b.C.C.b.b.b.b.c.b.c.c.c.c.z.b.C.b.b.c.z.z.C.>X`.e.7.9.0.~ ' 0.4.0.a.F.0XJ.z.z.l.l.v.c.l.l.l.l.l.l.l.l.j.j.b.A.#X4Xb.l.l.l.l.l.l.l.l.l.d.d.j.j.j.j.j.j.j.j.l.l.G.b.j.j.j.j.j.j.g.g.g.l.&X].l.l.g.u.j.j.l.l.l.u.l.b.G.G.b.l.G.OX7XF.y.9.9.a.~ ~ r.7.3.1.V.=XJ.a.j.l.l.j.a.d.j.j.j.l.j.z.z.u.u.u.j.j.l.l.v.b.l.l.x.h.u.u.u.u.u.l.j.j.C.H.`.@X>X>X:X:X:X:X%X%X X).).).).).(.(.).`.'.OXOXOXOXOX@X*X*X=X5X>X0XeXlXbXtXiXqX%XY.B.!.s.' 3.c.!.OX>X>Xk.k.V.a.&.o.#.o.o.] [ ' ' ) / ~ ~ Y U U U U U J B F G b B B z i i d i P o.&.' F F c s d c B B Z ~ +.*.3.7.0.a.2.o.U m d e h ~ 0.z.C.c.C.C.Z.Z.",
"`.`./.^.`.!.!.A.c.3.~ B g N U o.9.a.k.a.a.9.*.#.] U c i 8 n H / 9.a.9.} ! m s c B V P ! U J Z M Y _ ' ' ' ' ' ] } o.o.o.+.+.&.&.&.&.2.j.H.c.).>X>X%X|.F.9...0.b.R.>XwX,XqX|.~.wX=X%XOXOX`.[.=XqXOX'.'.`.`.`.]._._.^.R.R.H.H.!.(.!.!.`.!.!.`. XOX%X+X).Z.z.j.l.l.v.z.l.l.l.l.l.l.j.a.j.c.b.F.!.!.R.A.V.z.k.j.j.j.C.b.l.a.j.j.j.J.%X0.3.9.9.9.B $.7.7.a.C.%XwX!.c.V.b.c.c.b.b.b.b.b.b.b.b.b.v.b.v.b.b.b.b.C.C.C.C.G.A.b.C.b.b.v.l.b.b.b.b.c.b.b.b.b.b.b.b.C.A.A.C.C.b.c.b.C.C.b.b.b.b.b.b.c.c.c.c.z.C.G.C.C.V.c.c.C.>X).e.7.9.0.~ ] e.7.7.a.F.6XJ.z.z.l.l.c.l.l.l.l.l.l.l.l.l.j.j.v.b.{.#Xb.x.l.l.j.j.j.l.l.l.l.l.l.l.l.l.l.l.l.l.c.j.b.G.l.j.j.j.j.j.g.g.l.x.b.b.l.g.u.g.j.j.l.l.l.j.l.v.l.b.n.l.C.OX>XZ.a.9.0.a.Y E 8.2.2.1.V.=XF.a.l.l.l.j.d.d.j.j.z.b.l.j.a.a.u.j.j.j.l.c.D.G.u.l.v.l.l.u.u.u.u.d.l.z.b.H.`.@X<X:X@X+X+XOXOX X).(.(.(.(.(.(.(.'.`.OX=X$X$XOXOX&X*X*X=X=X>XqXiXpX X|.uXbXgX+XI.!.r._ 7.F.`.OX=XOXa.k.C.a.&.+.#.#...] [ ' ' ' ) / ~ Y Y Y U Y Y ~ Z Z G c B B c i d z z Y +.&.' P P c g g a n J ~ o.&.&.3.3.+.~ V n 9 6 n ~ 7.a.V.V.V.C.Z.Z.Z.Z.",
"`.`./.^.R.!.R.!.F.C.k.3.' B i h B ` =.&.9.3.3.&.o.' U b 0 n K ^ 8.a.8. .Y B m G V V G Y U U J B U ' ' ' ' ] ] ] } o.o.o.+.+.&.$.&.$.3.j.G.j.(.>X:X%X XJ.6.' 5.z.Z.OXwXqXyX|.z.>X%X+XOXOX'.`.OX=X-XOX'.`.'.`._._._._.!.R.H.H.!.^.*X'.`.(.!.`.|.OX%X+X).Z.z.j.l.l.b.b.l.l.l.l.l.l.a.j.c.C.D.H.!.!.F.V.z.k.j.j.j.z.G.b.l.u.j.j.j.F.%X0.3.9.9.9.B $.7.7.a.V.%XwX!.c.V.b.c.c.b.b.b.b.b.b.b.b.c.b.E.b.c.c.c.c.b.b.b.b.C.b.C.`.-XJ.J.G.b.b.b.b.c.c.b.b.b.b.b.b.C.b.b.b.b.b.b.b.C.C.b.b.b.C.C.b.c.c.c.c.k.G.J.C.C.C.V.c.C.=X~.e.7.9.9.~ o.r.8.7.r.D.6XF.z.z.l.l.l.l.l.l.l.l.l.l.l.l.j.j.l.l.l.A.b.v.l.l.j.j.l.l.l.l.l.l.j.l.j.l.l.l.l.l.j.l.l.D.l.j.j.j.j.j.g.g.l.g.l.g.j.g.u.g.j.j.l.l.l.v.G.G.l.l.d.d.C.OX=XZ.a.9.0.a.~ ~ e.3.2.&.M.*XF.j.l.l.l.l.j.d.j.l.b.C.z.j.j.j.j.j.j.j.j.l.c.v.l.l.x.l.l.l.u.u.j.l.l.c.b.H.`.+X:X;XOX X X|.`.`.(.(.(.(.(.(.(.(.OX'.OX5X*X*XOXOXOX*X*X*X*X-XqXiX6XF.$XgXbXgX`.N.a.2._ 9.H.'.OX*X'.0.c.H.a.&.+.+.o...] [ ' ' ' ) / ~ ! Y Y Y Y Y ! N B G c B B c i z l v ~ $.1._ P P c g v v Z Y ~ _ ' ] / U m s 6 i B ' 3.a.a.z.V.Z.D.Z.S.S.S.S.",
"`.`.).!.!.!.I.H.J.D.C.V.a.9.' S a f n J ' o.&.] } o.^ G a z H ' 8.p.6. ./ B m G G g J U Y U U J ~ ) ' ' ] ] o.o.o.o.o.o.+.+.$.$.&.$.=.z.H.z.U.*X>X%XOXH.3...5.z.a.V.>XyXuX Xa. X5X*XOXOX{.'.`.`.OX'.`.'.OX[.`._.(.(.!.!.J.J.!.`.=X`.H.!.!.`.|.OX%X+X).J.z.j.l.l.l.l.l.l.l.l.g.g.j.z.C.G.!.I.H.D.z.z.k.j.d.a.k.z.z.z.l.l.j.a.a.F.OXa.3.7.7.3.C $.7.0.r.N.%X0X!.C.C.V.Z.c.z.c.b.b.b.V.V.b.c.C.`.b.c.c.b.b.b.b.b.b.b.b.b.G.!.G.{.^.b.b.c.c.c.c.b.C.C.C.C.b.b.b.b.b.b.b.b.b.b.b.b.b.b.C.C.b.c.c.c.c.b.b.b.b.V.V.V.V.Z.=X!.r.0.9.9.Y ~ 0.7.0.k.D.7XF.z.z.l.l.l.l.l.l.l.l.l.l.j.A.G.z.l.l.l.l.l.l.l.h.l.l.l.l.l.l.c.b.v.b.l.l.l.l.l.l.l.l.l.l.l.l.l.l.j.l.g.x.l.g.u.g.j.j.j.j.l.l.l.l.l.l.b.b.l.d.u.u.C.[.7XA.r.9.0.a.Y / 0.9.2.3.c.OXF.l.l.c.l.l.j.d.j.j.z.C.b.l.j.a.j.l.l.c.l.l.l.l.l.j.j.l.b.b.l.j.v.v.l.l.l.D.~. X:X:XOX`.~.).!.!.(.(.(.(.(.(.(.(.`. XOX*XOXOXOXOXOXOX%X*X*X%X6XwX`.k.,XgXgXuXJ.7.1.+.~ 3.C.).OX*X`.7.F.`.c.O.+.+.o...] ] ' ' ' ) / ~ ~ Y Y ! Y Y U V B G M N N c a l b C ' &.$._ P P c h M C Z J U U Y G h s 8 8 c ~ 3.j.r.a.k.c.V.Z.D.F.J.J.J.J.",
"`.`.).!.!.!.I.H.J.D.C.V.C.k.u.3...G i 0 i N Y ' ' ' U B i l G ' 6.p.4. .~ V m Z V h J U Y U U U ~ ) ' ' ] ] o.o.o.o.+.$.+.+.$.$.&.$.=.z.E.z.H.*X:X+X|.F.2.' -.l.q.k.%X6XqX|.a.H.7X*XOXOX[.'.`.`.`.!.(.'.OXOX[.`.(.(.^.!.!.H.!.^.`.!.H.!.!.`. XOX%X+X).J.z.j.l.l.l.l.l.l.l.l.l.l.z.C.L.!.!.I.F.C.z.j.j.a.a.a.j.z.z.z.l.l.j.a.a.D.OX0.9.9.7.3.C $.7.0.r.N.%X0X!.C.b.z.k.G.`.C.b.c.b.b.b.b.c.V.C.b.c.c.b.b.b.b.b.b.b.b.b.b.C.G.A.A.b.b.c.c.c.J.J.C.C.C.C.b.b.b.b.b.b.b.b.b.G.C.b.b.b.b.b.b.b.c.c.c.b.b.b.b.V.V.V.V.C.*X!.e.9.7.4.U ~ 0.7.0.a.Z.4XF.j.l.l.l.l.l.l.l.l.x.l.l.z.A.C.z.l.l.l.l.l.v.l.l.l.l.l.l.l.l.l.c.l.b.l.j.j.l.l.l.l.l.l.l.l.l.l.l.j.j.l.G.l.g.u.g.j.j.j.j.l.l.l.l.l.l.l.l.l.l.d.a.G.[.7XA.r.9.0.a.Y / 8.9.3.3.c.OXG.l.l.c.l.l.j.d.l.z.l.l.j.j.j.j.l.l.l.l.l.l.l.l.j.l.j.j.b.b.c.z.v.v.z.l.z.D.).OX:X%XOX`.!.!.!.!.!.!.(.(.(.(.(.(.'.'.OXOXOX X XOXOXOX%X*X%X*XqXwXI.z.>XuXuX6XC.2.&.+.~ 1.N.!.OX%X!.7.H.`.c.+.+.o.o...] ] ' ' ' ) _ / ~ ! Y Y Y Y U F Z G N N N c i z B G _ $.+.~ J J c g c B B F m b g 8 4 8 n Y $.3.q.q.r.a.k.c.V.Z.D.F.J.J.J.J.",
"'.`.`.).!.!.I.H.J.D.C.V.V.v.l.y.0.3.' b 3 5 4 l J H C z i l G / 6.p.4. ./ Z m B c z F U U U Y Y ! ) _ ' ' ] } } o.o.#.#.#.#.#.#.&.$.=.z.E.l.J.OX+X X).C.2.~ +.j.w.u. X,XqX Xz.c.%X:XOXOX'.'.`.`.(.(.`.`.OXOX[.'.`.).^.!.^.!.H.H.!.^.(.`.!.). X+X%X+X).J.c.z.l.l.l.l.l.l.l.l.z.c.b.R.!.!.P.J.V.c.j.l.l.j.j.j.j.z.z.z.z.z.j.j.a.C.OXr.9.0.7.3.C $.7.0.r.N.%X0X!.C.C.Z.j.z.^.z.c.c.b.b.b.b.b.b.z.c.c.c.b.b.b.b.b.b.b.b.b.b.b.b.b.n.b.b.c.c.c.OX$XG.C.C.C.V.C.V.V.V.b.b.b.b.A.C.C.b.b.b.b.b.c.c.c.c.b.b.b.b.V.V.V.V.V.*X!.0.7.4.3.U / r.7.q.a.Z.7XF.j.j.l.c.l.l.l.l.l.l.v.l.l.z.z.j.l.l.l.l.c.l.x.E.v.l.j.l.l.l.l.l.l.l.l.l.j.l.l.l.l.l.l.l.l.l.j.j.j.j.l.G.l.j.j.j.j.j.j.j.j.j.j.l.l.l.l.l.j.j.l.l.G.[.7XG.a.0.0.a.Y / 0.9.3.3.c.OXG.l.l.c.x.j.j.d.j.z.z.a.j.l.l.l.l.l.l.l.l.l.l.l.l.l.l.l.v.l.z.C.c.z.l.l.z.J.).+X:X%XOX`.!.!.!.(.!.!.(.(.(.(.(.(.'.'.'. X'.'.'. XOXOX+X*X%X=XqX5Xz.N.>X6X6X@Xs.&.&.#.~ $.z.I.'.OXJ.7.!. Xc.+.#.o.o...] ] ' ' ' ' ' _ ~ ~ Y Y Y U U L J J N N N c i c C J / +.o.( G F z s i g h d i 3 : 6 h L ..=.3.7.q.a.a.s.c.M.V.Z.D.F.J.J.J.J.",
"'.`.`.).!.!.I.H.J.D.C.V.V.v.d.u.u.9.-. .J d ; 1 < 8 i w e g F / 6.p.4.o.^ G M m s d B G U U ! ~ ~ ~ _ ' ' } } } o.o.o.o.#.#.#.#.&.$.=.z.!.z.F. XOX|.!.V.&.U ..d.u.q.'.0XwX*XV.j.`.=XOX X'.'.`.`.).).`.(._.`.'.'.'.`.!.H.^.!.H.H.H.!.!.H.!.!.OX%X%X+X).J.c.l.l.l.l.l.l.l.l.z.c.b.G.!.!.P.J.Z.M.k.l.l.l.l.j.j.l.z.z.z.z.z.z.j.a.V.OXr.9.q.7.3.B $.7.0.r.N.*X0X!.C.J.G.z.z.b.b.c.c.b.b.b.b.b.b.v.v.c.c.b.b.b.b.b.b.b.b.b.b.v.b.l.v.b.b.c.b.c.H.!.G.C.C.C.V.C.V.V.V.b.b.b.b.c.b.b.b.b.b.c.b.b.z.c.c.b.b.v.b.V.V.V.V.V.%XI.8.4.3.3.U / a.0.q.a.Z.7XF.a.j.z.v.l.l.l.l.l.l.l.v.v.z.j.j.l.l.l.l.j.j.l.E.b.l.j.l.l.l.j.j.l.c.b.l.j.l.l.l.j.l.l.l.l.j.j.j.z.z.l.v.l.j.j.j.j.j.j.j.j.j.j.j.j.l.l.l.l.l.j.l.G.[.7XG.a.0.0.a.Y / 0.9.3.3.c.@XG.l.l.c.c.l.j.d.u.z.c.j.z.z.z.z.z.l.l.l.l.l.l.l.l.l.l.l.l.j.l.C.v.z.z.l.c.J.`.%X:X:XOX`.!.!.(.(.!.!.(.(.(.(.(.(.'.'.'.`.`.`.'. XOXOX+X*X*X>X5XOXr.N.>X:X5X X0.+.+.#.~ #.k.J.`. XZ.7.!.OXc.+.#.o.o...] ] ' ' ' ' ' _ ~ ~ Y Y U U U U P J N B N c w v G H ~ +.o.~ F F l a 4 8 3 ; % 3 g V E ' #.$.3.9.q.a.a.k.c.V.V.Z.Z.F.J.J.J.J.",
"'.`.`.).!.!.I.H.J.D.Z.C.V.z.z.d.u.9.-.o./ Y N 8 - + % ; w g B ! <.e.7.o./ U M N n N F U Y U ~ ~ / / ' ] ' ] o.} ] ..o.o.#.#.#.#.&.$.*.c.OXk.N.+X|.~.P.k.+.I ` u.u.9.!.>X>X>XD.q.b.6X*XOX X'.`.`.`.`.`.(.(.(.(.`.*X$X`.`.(.H.J.H.R.!.!.R.!.(. X%X%X+X`.H.z.l.l.l.l.l.l.l.l.c.b.G.H.H.J.J.C.V.c.k.j.j.j.j.b.G.c.z.c.c.z.z.a.d.k.F.OXp.r.e.e.0.B $.8.0.r.N.%X5X`.C.A.C.C.b.b.b.c.c.b.V.b.b.b.b.b.b.b.b.b.b.J.C.b.b.C.C.b.b.b.b.b.b.v.v.v.b.b.C.b.b.V.V.V.V.V.V.V.V.b.b.b.v.v.b.b.b.V.b.b.b.b.c.V.z.z.c.c.C.V.V.V.V.C.OXJ.0.3.3.3.U ~ a.e.r.a.C.-XJ.d.z.v.b.b.z.l.h.l.l.l.l.z.z.l.j.j.j.j.l.l.l.l.l.l.l.l.l.l.l.l.a.j.j.z.j.l.l.l.j.l.l.l.l.l.z.z.j.v.l.j.j.l.l.j.j.j.j.j.j.j.j.j.j.j.j.l.j.l.R.R.j.J.OX5XZ.r.0.q.j.Y ~ 0.0.3.7.c.*XH.a.z.z.C.C.V.c.k.j.j.z.V.V.V.c.z.z.c.b.l.j.l.l.b.j.l.C.b.j.j.b.C.z.j.l.V.H.`.@X:X@X|.).!.^.^.^.(.(.^.!.`._.`.'.`.`.).).`.'.OXOXOXOXOX%X%X>XwXC.1.F.:X>X5X!.0.&.o. .E +.u.C.I.!.N.3.H.!.j.$.o.o.o...] ] ' ` _ _ ' ) ~ Y U U U U I L J F B N Z m i g c M ! +.] U Z M l a ; ; + + i c J ~ ) [ o.%.3.9.u.a.a.k.c.V.V.C.S.S.J.J.J.J.",
"'.`.`.).!.!.I.H.F.D.Z.C.b.z.l.d.u.0.2.+. .' ~ J i % . O 8 g B U <.e.3.} ~ J c b B F J U Y U ~ Y ~ / ) ) ' ] o.} ] ..o.o.#.#.#.#.&.$.2.V.OXz.z. X`.!.J.s.+.J ~ y.u.7.F.*X>X>XJ.q.9.[.6X%X X'.`.`.`.`.`.`.(.(.!.^.`.'.'.OX`.!.H.!.R.!.!.R.!.(. X%X%X+X`.J.c.l.l.l.l.l.l.l.x.b.C.J.R.P.J.F.V.b.z.j.k.k.z.z.C.G.V.c.J.G.b.k.k.k.k.F.|.r.e.e.e.e.B $.8.0.r.z.%X>X!.c.V.F.G.b.b.b.c.c.b.V.b.b.b.b.b.b.b.b.b.b.G.C.b.b.C.c.b.G.G.b.c.b.v.v.v.b.C.C.b.b.b.V.V.V.V.V.V.b.b.b.b.b.v.v.b.b.b.b.b.b.c.b.V.c.c.c.b.z.V.V.V.V.F.OXF.0.4.4.3.H ^ a.r.r.a.Z.=XH.f.z.b.b.b.v.l.l.l.l.l.l.z.z.z.j.j.j.j.l.z.l.l.l.l.l.l.l.j.l.j.a.l.l.l.l.l.l.l.l.j.l.l.l.l.z.z.z.z.l.a.j.j.l.j.j.j.j.j.j.l.l.l.l.l.l.j.l.z.OXOXj.G.OX5XC.r.9.0.a.J ~ 0.8.3.7.z.@XH.d.z.z.b.V.b.c.k.j.k.c.c.c.c.c.z.z.c.b.c.l.j.l.j.j.z.G.b.a.z.G.C.z.j.z.V.H.`.+X:X@X|.!.!.!.(.(.^.(.(.(.`.[.'.'.`.`.`.`.'.|. X X XOXOXOX X>X*X3.1.J.%X>X:XM.2.%.o.] ~ +.a.C.H.I.N.1.F.I.a.$.+.o.o...] ] ' ` _ _ ) ) ~ Y U Y Y ~ Y U P F B N Z m i g c N Y +.' L B M l i 3   ; g b H ~ ' ' ] #.$.3.9.u.a.a.k.c.V.V.C.S.S.J.J.J.J.",
"'.`.`.`.!.!.I.H.F.F.Z.C.c.z.d.a.u.0.5.&.+.' ~ U F e % % w z C H o.3.1.} ~ F h h Z G U U U U ~ L Y ) ' / / ' } } ] o.#.#.&.&.$.$.$.&.3.C.OXk.k.`.`.J.C.s.+.J E 9.0.;.z. X:X5X(.a.3.J.wX+X|.'.`.`.`.`.`.(.`._.^.!.!._.`.OXOX`.^.!.R.R.R.R.!.!. X%X*X+X`.L.c.l.l.l.x.x.c.c.z.C.F.J.H.J.F.F.V.c.z.j.k.z.c.b.Z.F.V.c.z.z.z.z.z.z.z.J.).0.0.e.r.e.B &.9.0.r.z.%X6X).k.c.H.D.c.c.c.c.c.b.b.V.V.V.V.V.C.C.V.b.b.b.C.b.b.b.c.b.G.(.G.c.c.c.c.c.b.C.C.C.b.b.b.b.b.b.b.b.b.n.n.n.n.b.n.v.v.b.b.b.b.b.b.v.C.J.c.C.z.V.V.V.V.H.OXC.0.4.7.3.C / a.e.r.a.Z.-XJ.f.z.v.b.v.b.x.x.x.c.x.z.z.l.j.j.j.l.k.k.b.l.l.j.c.c.c.c.l.l.z.C.l.z.l.l.l.l.j.j.l.l.l.z.z.l.l.l.l.l.j.j.j.j.l.l.j.h.h.h.l.l.l.l.l.l.l.z.z.G.G.j.G.[.4XV.a.0.9.q.B Y 0.8.9.9.k.OXR.a.z.z.k.z.z.z.k.k.c.D.z.z.z.z.z.z.b.b.b.v.l.l.l.l.l.v.c.j.c.C.C.z.j.z.V.H.`.+X:X@X|.!.(.(._._.!.(.`.'.OXOX].H.).`.|.OXOX X X'.`. X XOX*X6XI.] 7.P.OX>X:Xs.2.&.o.' E #.q.z.D.F.C.&.C.J.q.&.&.+.o.o.] ] [ ` _ _ ) ) ) ~ Y ~ ~ ~ U I P G B B B b i g b N U +.E V B b g i 3 X e l C U ~ ' ' ] o.#.3.9.u.a.a.k.c.V.V.C.S.F.P.P.J.J.",
"'.`.`.`.!.!.I.H.F.F.G.C.z.k.a.a.u.9.5.=.o.' / Y Z n 8 3 a M G U Y $.&.o.~ Z d a M Z U ! U Y ~ V J ) ' ) ~ ' ] } ] o.#.#.&.$.$.$.&.*.3.C.OXk.s.~.P.e.4.0.+.J E 5.9.=.q. X:X5X'.a.*.q.6X*X|.|.`.`.`.`.`.(.`._.^.R.R.!.!.`.[.OX'._.R.R.R.R.!.!. X%X%X+X`.L.v.l.l.l.v.v.c.c.b.F.J.J.J.J.F.F.V.c.z.j.j.z.b.C.V.G.c.z.l.l.z.z.z.z.c.J.(.0.0.r.r.0.B &.7.9.0.z.%X6X!.a.V.J.b.b.c.c.c.c.b.b.V.V.V.V.C.C.C.C.b.z.c.b.C.v.b.b.b.b.c.b.b.b.b.b.c.b.C.C.C.b.b.b.b.b.b.b.b.b.v.n.n.b.b.b.v.b.b.b.b.b.b.b.G.OX&XC.C.C.V.V.V.V.!.OXV.0.4.8.4.B ^ a.r.r.a.Z.=XH.f.z.b.C.v.v.v.v.v.v.c.c.z.l.j.j.l.l.z.z.b.l.l.l.c.c.c.c.b.z.C.`.b.z.l.l.g.j.g.g.l.l.x.x.x.x.x.l.j.l.c.j.l.j.l.l.l.h.h.l.l.l.l.l.l.l.v.v.j.j.j.j.G.[.=XV.a.0.7.9.n U 0.8.8.8.k.OXR.d.z.z.a.d.j.k.k.z.V.J.z.z.z.z.z.c.b.b.b.b.v.l.v.l.l.d.l.l.l.a.a.a.z.z.V.H.`.+X:X@X|.~.`.`.`.`.^.(.'.OX`.^.!.(.).`.OXOXOXOX X'.`.`. X X>X>X7.! 0.I.|.>X Xe.&.o.o.' E #.7.a.z.z.F.$.c.F.9.&.$.+.o.o.] ] [ ` _ _ ) ) ) ~ ~ ~ Y U F V G P B B B b i g b N U +.U B N n g w 3 - a c B U / ] ' [ o.#.3.9.u.a.a.k.c.V.V.C.S.F.P.P.J.J.",
"'.`.`.`.!.!.!.H.H.F.G.V.z.j.a.u.0.5.5.&.+. .' ~ U b i 7 g c H ~ ~ ~ / ] U B z h N B G U U U ~ / ) ) ' ' ' ' ] ] ..o.o.#.%.%.$.=.&.*.3.Z.OXa.a.`.V.] ' &...J E 5.9.=.3.H.%X%X Xj.1.&.I.iX+X X`.`.`.`.`.`.`.(.!.^.!.^.!.H.!.'.'.(.(._.'.OX~.!.~. X%XOX`.H.C.z.x.b.G.G.D.D.F.J.F.F.P.F.C.N.c.z.k.j.k.b.V.c.V.V.b.c.b.C.C.G.C.V.z.F.!.7.0.0.r.0.b &.7.3.r.z.%X>X!.a.C.C.b.b.c.c.c.c.V.V.V.Z.J.J.Z.C.F.Z.C.C.G.G.C.z.b.b.b.b.c.b.b.b.b.b.b.b.b.b.C.C.C.C.C.C.C.V.b.b.z.z.b.b.b.b.b.b.b.V.V.V.c.b.R.&XqX^.V.Z.Z.V.c.C.!.'.z.r.8.e.0.M / a.9.0.r.z.*XJ.z.z.c.v.c.c.c.c.z.z.l.z.z.z.l.l.l.l.l.z.z.l.j.j.l.x.x.z.v.z.C.].C.c.l.l.l.l.l.l.l.l.c.v.b.v.l.l.z.b.G.b.z.l.l.l.l.v.v.l.l.l.l.l.z.z.z.l.k.a.a.a.G.OX&Xk.0.0.9.a.B ~ a.0.0.9.k.OX_.d.z.d.j.j.k.k.c.j.c.^.V.c.c.c.C.C.b.b.C.b.v.z.c.z.z.j.b.z.z.z.c.k.j.j.C.H.`.OX:X+X|.!.`.`.(.!.`.OX`.!.!.!.!.).|.|.|.|.`.`.`.`.`.`. XOX*XC.~ _ z.P.+X:X~.2.] ' ..' U ` o.9.o.c.C.$.N.H.0.&.&.+.o...] ] ' ' _ _ ' ' ) ~ ~ ~ Y G c V P P F B Z c i h b N N V m B N c g w < 3 i z C U / ' ] o.#.$.2.9.u.a.a.k.c.c.C.Z.F.F.J.J.J.J.",
"'.`.`.).).!.!.I.H.F.G.b.z.k.a.u.0.5.5.&.&.o.' ~ U M i 0 g c J ~ ~ U J J P Z B M B N F U J U U Y ) _ ' ' ' ' ] ] ..o.o.#.#.%.$.=.&.*.7.Z.'.0.a.!.k.] ] +. .G E ;.9.-.3.z.OX X!.c.9.o.r.%X:X|.~.!.!.!.).!.!.!.!.!.!.!.!.!.!.!.!.!._.[.OX[.I.P.~. X+XOX`.!.C.c.v.D.L.J.D.F.C.D.F.F.P.P.F.D.k.k.k.k.z.b.b.c.b.c.c.c.b.C._.R.C.c.z.H.H.3.q.9.r.0.b &.7.3.0.k.OXqX!.k.Z.Z.V.c.c.c.c.c.c.V.Z.J.[.`.F.V.C.V.V.Z.G.G.G.C.b.b.b.b.c.b.V.V.c.c.c.b.b.V.V.N.V.V.V.V.C.z.k.z.k.l.z.z.c.c.z.z.c.c.c.c.b.V.J.`.-X!.C.Z.Z.V.V.A.`.`.k.r.e.p.e.C o.k.7.9.9.a.%XH.c.c.z.z.z.z.c.z.z.c.c.b.c.z.z.c.c.c.c.c.z.z.l.z.l.l.l.l.v.z.b.J.C.z.l.u.u.u.u.u.j.j.l.l.z.l.z.c.z.z.b.b.C.b.v.l.l.l.l.j.l.l.j.l.l.l.l.j.a.a.a.z.G.OX&Xk.0.0.9.a.B ~ a.0.e.8.k.%X_.a.j.z.a.a.j.k.V.k.c.H.c.C.C.C.C.Z.G.G.Z.C.V.V.V.V.c.z.c.z.z.c.z.k.j.a.V.H.|.%X+X+X|.!.(.!.!.!.^.'.!.I.I.!.!.!.`.`.`.`.).`.`.`.`.`. X X!.1.U +.F.!.OX%XV.+.] ' ..` L E ' *._ a.c.$.z.F.9.&.&.+.o...] ] ' ' _ _ ' ' ) ~ ~ ~ ~ Y L I U G B c M M s n b M m N b B N n s w < 4 a z C U / ' ] o.#.$.2.9.u.a.a.k.c.c.C.Z.F.F.J.J.J.J.",
"'.`.`.`.`.!.!.!.H.J.G.c.z.k.a.a.0.5.5.&.&.o.' / Y N i 8 g c P ~ ! F b z C F G F F N B U U U U U / _ ' ' ' ] ] ] o.o.#.#.%.%.$.=.&.*.7.Z.`.9.0.!.a. .o.o. .G E ;.0.9.2.0.F.`.(.F.F.z.Z. X6X+X|.`.!.~.).!.~.~.).).).).).).`.(.!.!.!.'.'.).!.~.`. X+XOX X!.V.c.b.G.J.J.F.F.C.C.F.P.U.).(.I.z.N.D.F.F.Z.C.C.b.V.V.V.G.R.*X`.Z.z.z.F.c.7.a.0.q.9.b &.7.3.7.r.`.>X!.z.c.N.N.V.N.N.N.N.c.c.V.D.^.!.F.D.C.C.C.Z.F.F.J.H.H.H.H.J.J.J.H.H.I.I.I.I.I.I.I.I.I.I.I.I.J.F.F.F.D.D.F.F.J.F.J.J.J.J.J.J.J.J.J.H.H.D.D.D.Z.Z.F.R. XH.a.0.e.p.r.C 1.z.7.0.r.k.|.).Z.S.F.S.F.S.F.F.D.F.F.C.C.C.C.D.D.D.D.D.Z.C.Z.C.C.C.C.C.G.G.G.J.E.G.b.b.b.b.C.C.F.J.D.c.V.V.Z.Z.D.D.G.J.F.G.C.V.b.b.b.z.z.c.b.b.V.V.V.b.z.j.k.Z.`.$X(.a.0.0.7.a.B ! a.0.e.e.a.!.OXG.V.V.z.z.z.c.c.k.k.c.a.c.c.F.H.J.F.F.Z.Z.Z.Z.Z.Z.C.N.C.V.V.V.c.z.l.j.V.J.~.OX XOXOX'.(.(.^.!.!.`.!.!.`.'. X X'.'.'.'.'. XOXOXOXOX X XOXF.a.a.`.`.~.P.0.o.o.' o.` S I ) #.Y a.k.&.k.C.9.&.&.%.o...] ] [ [ ' ' ' ' ) / ~ ~ / ) ~ U J G n a n M z b M n b b c G N g i w < 8 g z C U / ' ] o.#.$.2.9.0.a.a.k.c.c.Z.F.J.J.P.P.P.P.",
"'.`.`.`.`.).!.!.I.J.C.z.z.z.d.a.0.5.5.&.&.+.] / ! B a 8 g c J ~ U B z g c C J G J N N U ! ! Y Y / ' ' ' ' ] ] } o.o.#.#.%.&.$.=.*.-.3.C.!.3.9.H.0.o.+.o. .G R -.w.9.3.0.k.N.c.J.).`.>X>X>X6X>X>X:X>X>X>X>X>X6X6X6X6X6X6X6X5X=X*X=X=X*X*X=X=X:X:X>X>X*XOXOXOX&X=X*X%X%X$X X).!.). X$X*X X`. X%X-X$XOX'.'.!._.`.'.oXOX*X!.c.k.a.a.7.q.j.q.q.7.c $.4.2.4.e.z.OX:X=X+X+XOX X X'.|.|.`.'.OX=X0XqX7X5X=X=X*X*X%X%X=X7X5X5X>X=X=X>X>X>X>X>X>X>X%X%X%X%X*X*X*X*X$X:X,X:X$X$X*X*X*X*X-X>X*X*X*X*X*X%XOXOXOXOX'.(.!.!.`.OX XV.7.3.0.e.e.M 2.z.0.r.r.r.C.!.'.OX*X=X6X6X6X6X7X5X=XOXOX$X&X-X-X-X*X*X*X=X:X:X=X=X=X=X-X4X4X4X7X-X-X4X-X=X4X7XqXwX0X=X*X*X=X=X$X*X&X-XOX&X-X4X7X-X&X&XOX$X*X=XOXOXOXOX'.!.!.OX7X=Xc.0.0.0.9.a.B ! r.0.0.a.r.B.OX`.`.`.!.!._._.'.(.^.(.!.!.!.6XwX6X7X%X=X%X=X:X:X=X%X+X:X=X=X=X$XOXOX'.OX*X>X6X5X6XqXqX5X5X=X=X*X=X*X7X=X=X>X7X7X7X7X7X%X*X>X6X*X*X%XOX*X*X'.`.`.J.s.3.2.o.&.o.o.` B S ) o.U r.r.$.a.c.9.&.&.%.o...] ' [ [ ' _ ' ' ) / / ~ / ) ~ I J U N b B B M N b h c c b I N d e w < q l z C U / ' ] o.#.$.2.9.0.a.a.k.c.c.Z.F.J.J.P.P.P.P.",
"`.`.`.`.`.`.~.!.!.H.D.z.z.k.j.a.y.9.5.5.=.%.] ) ~ Z d w h c F Y Y N s i s M G P L I Y ~ Y ~ ~ ) ) ' ' ' ' ] ] ] o.o.+.#.&.$.&.*.*.*.3.C.`.3.0.k.2.+.o.o./ J E o.5.3.#.$.r.9.9.0.c.V.C.S.M.M.C.C.J.J.J.J.!.!.).(.U.Y.I.I.P.J.J.J.F.F.F.J.I.P.P.!.!.~.).~.~.!.!.!.P.J.F.F.C.N.z.N.J.J.J.J.F.F.C.C.C.N.N.c.z.c.z.k.a.a.a.a.a.0.9.9.u.a.a.j.q.9.b &.9.9.7.3.e.s.S.~.~.~.!.P.J.J.J.J.J.F.J.!.I.H.F.Z.D.D.F.F.F.J.I.!.J.J.J.J.J.F.F.C.N.C.C.N.z.z.z.C.N.N.N.N.D.D.F.F.J.J.J.J.F.F.F.F.J.J.S.S.M.M.c.c.C.C.C.z.c.c.b.b.k.a.3.4.4.0.0.B 1.z.a.q.a.q.9.3.a.Z.!.H.!.I.I.H.I.!.J.Z.C.Z.F.J.J.J.J.J.J.J.F.Z.P.H.H.P.!.R.H.H.F.F.F.F.D.Z.C.C.C.Z.C.C.V.V.V.V.V.V.V.V.C.V.C.F.H.J.C.j.c.c.N.V.N.V.V.N.N.N.V.C.C.z.q.9.9.9.7.a.Z ! a.9.q.q.9.9.q.a.z.j.c.V.D.J.J.H.!.H.J.z.a.N.F.F.F.F.J.F.S.C.C.F.J.S.F.F.F.F.J.J.J.J.H.!.!.^.^.!.!.H.D.D.D.D.F.J.F.D.F.J.J.F.C.C.C.C.B.N.N.N.k.z.M.V.C.C.V.N.a.0.&.o.} +.#.+.o.E B I ) ] U 3.7.2.9.C.9.&.&.&.+.o.o.] ] ] ' ' ' ' ) / / ~ ~ ~ ) U L G F I I F N M b z h n N F M h e s < 8 s c Z U / ' ] o.#.$.2.7.0.a.j.k.c.V.Z.F.F.J.H.H.H.H.",
"`.`.`.~.~.).~.!.!.H.Z.c.z.z.j.a.y.9.5.5.-.%.o.' ~ F g e h c Z U ~ B d a a d b F Y Y ~ Y Y ~ ~ ) ) ' ' ' ' ' ' ] o.o.+.#.%.$.&.*.2.2.3.C.`.9.0.a.&.o.]  .~ S I ' o.o.~ ~ 3.1.3.7.0.9.7.4.O.$.&.&.3.3.7.7.0.0.e.r.r.r.e.e.0.0.0.0.0.r.r.a.r.0.0.e.r.p.a.a.r.0.0.0.0.8.7.7.7.3.7.0.a.a.r.a.0.0.9.9.7.7.7.7.0.0.4.&.&.&.2.3.0.0.9.9.0.q.q.a.a.9.b &.a.r.0.0.4.8.0.p.0.y.8.8.6.6.6.6.4.3.3.7.9.9.3.3.3.7.9.0.0.r.a.a.r.r.r.a.a.a.r.r.q.r.r.q.9.7.9.q.r.r.r.r.r.a.a.a.a.a.a.a.a.a.a.a.a.a.p.e.r.r.r.r.0.9.9.3.3.3.3.3.3.6.9.0.9.r.0.B *.z.a.a.q.9.7.3.3.0.q.9.0.e.q.q.7.0.e.9.9.0.0.0.0.0.0.0.e.9.3.1.2.3.0.0.0.9.9.9.7.7.9.9.q.9.9.9.9.9.9.9.0.0.0.0.9.9.9.9.q.9.7.9.a.q.9.3.3.3.7.7.9.9.9.9.0.0.r.a.q.0.7.7.0.0.9.a.Z ~ a.9.q.q.9.9.3.3.1.7.7.0.q.a.q.q.a.a.k.z.k.a.a.a.a.a.k.a.e.0.8.e.e.9.0.0.0.0.r.q.r.q.q.q.q.q.q.q.q.0.9.9.9.9.0.q.0.9.7.0.0.7.7.7.7.7.4.4.8.8.&.3.7.0.8.7.4.3.3.3.1.+.] o.#.o...E B U ) ' U &.7.-.9.C.9.&.&.&.#.o.o.o.] ] ] ' ' ' ) ) / ~ ~ / ~ U U U G U U G N b h g h c N B c g 9 i 3 8 s c Z U / ' ] o.#.$.2.7.0.r.a.k.c.N.Z.F.F.J.H.H.H.H.",
"`.).).~.~.~.!.I.P.S.c.k.z.z.j.a.0.5.3.3.-.%.o.' Y F l a l c B J Y G b h d i s b L ~ ~ ~ E ~ / ) ) ' ' ' ' ] } o.o.o.+.#.$.$.*.*.3.3.3.C.`.9.9.3.o.' ' ] ~ F I ' ....~ ~ } } &.3.3.2.&.O.o.+.&.&.*.3.7.7.7.7.9.8.r.0.0.0.0.0.0.r.p.a.s.s.a.e.9.8.0.q.q.q.a.a.q.a.q.q.q.9.a.0.9.0.r.r.r.r.e.r.q.q.a.a.a.a.a.a.4.&.&.&.2.4.0.0.0.0.0.0.u.a.a.0.m *.k.a.a.a.9.4.7.0.0.0.9.7.9.7.7.7.8.3.3.3.7.7.7.7.9.y.a.j.a.0.3.*.&.&.&.&.1.1.3.3.3.7.7.3.2.1.2.3.7.7.7.7.3.7.q.j.a.a.a.a.e.e.e.0.p.p.p.p.e.a.a.a.0.9.9.2.3.3.3.3.9.0.a.a.p.a.r.B 3.c.j.a.q.0.9.9.9.9.3.2.&.2.3.9.7.0.r.r.a.r.r.r.7.7.7.7.0.9.3.3.3.0.a.q.9.9.5.3.3.3.3.3.3.7.7.9.9.9.9.9.9.9.9.9.7.7.7.7.9.3.3.3.7.3.2.3.7.9.0.0.0.0.9.9.0.0.r.r.q.q.0.9.q.q.9.a.V E a.9.u.0.0.9.0.0.9.q.a.a.j.k.k.a.0.q.j.z.k.a.a.a.a.a.k.a.a.r.a.a.r.9.a.a.a.a.a.p.a.a.r.r.0.0.9.0.q.q.q.q.q.q.r.r.r.q.0.r.r.0.0.0.0.0.0.0.7.7.2.3.7.9.8.7.4.3.3.3.1.+.' } o.] ' Y B Y ) ' Y o.7.-.9.V.9.&.=.&.$.#.+.o.] ] ] ] ' ' ' ) ) ~ ~ ~ Y G G J V Y Y V b h d h n N B M c g 8 i 9 e s M Z Y ^ ] ] o.#.$.2.7.0.r.k.a.k.C.Z.F.F.J.H.H.H.H.",
"`.).).~.~.!.Y.I.F.c.j.a.z.z.j.a.0.5.-.3.-.&.o.' Y G n a l c N F Z U J n g s i i N U / ~ E ~ / ) ) ' ' ' ' ] o.o.o.o.o.#.$.$.*.*.3.3.7.D.`.0.3.&.' / / ' ' J I ' ' ..' ' ~ _ o.*.2.1.&.&.&.&.1.2.3.7.q.q.q.q.a.a.p.a.r.r.a.a.a.k.s.k.k.z.c.a.q.r.a.a.j.j.j.a.a.a.j.a.a.a.a.a.a.k.0.0.0.0.a.a.j.k.c.V.C.A.k.0.3.9.3.3.3.3.0.0.0.0.u.a.a.a.j.q.B 3.j.a.a.r.r.7.7.9.0.0.9.9.9.9.9.9.r.0.9.9.7.7.7.9.y.a.k.c.z.a.0.7.3.3.3.3.7.7.9.0.0.r.r.0.8.7.9.r.q.q.q.q.0.u.a.k.a.a.a.a.a.e.e.e.a.a.p.p.a.a.a.p.a.a.a.9.q.q.a.u.a.a.a.k.k.z.a.Z 7.C.z.k.a.a.a.a.0.9.9.9.2.7.0.u.a.k.k.a.k.k.a.a.9.9.9.9.9.0.r.q.9.a.a.9.a.u.0.0.0.e.e.0.0.0.p.a.a.a.a.a.u.u.u.u.q.q.q.q.q.9.q.a.0.7.7.0.r.r.a.a.a.a.a.a.a.a.k.k.k.k.j.k.a.a.q.z.G ~ j.0.u.q.0.0.9.0.a.a.a.a.a.a.9.3.9.j.j.9.9.k.z.z.z.z.j.k.z.c.C.Z.N.j.k.k.k.k.k.s.k.s.k.k.r.r.r.a.k.k.a.a.a.a.a.k.a.a.a.k.k.a.k.k.k.k.a.r.e.0.0.0.9.7.9.9.7.4.3.3.1.+.' ] o.] ' Y B Y ) ' Y ] 7.-.9.V.3.&.=.=.$.#.#.+.o.o.] ] ] ] ' ' / / ~ ~ ~ L G G V Y Y V h s d n B Z N M c g 8 e i e g B Z Y ^ ] ] o.#.$.2.7.9.r.r.&.2.k.Z.F.F.J.H.H.H.H.",
").).).).~.~.Y.I.J.z.a.z.z.k.j.a.u.9.5.5.;.&.o.' ! G c d l c N V G G P U N d a a h m F ~ ~ ~ U ~ ~ ) ' ' ] ] o.o.o.o.o.+.$.&.*.*.*.*.3.V.[.0.5.=.` ~ ~ ' ~ G U U ~ ~ E Y E o.$.#.&.$.+.+.o.#.$.*.*.#.#.&.*.7.9.7.0.9.0.q.q.9.7.7.3.7.7.9.a.q.a.a.u.q.w.9.9.7.7.7.7.7.9.9.9.9.q.a.6.9.9.9.9.3.3.2.-.2.-.-.&.o.+.;.=.=.&.&.-.-.;.3.5.3.-.&.2.*.V 3.k.a.0.0.5.3.3.3.5.5.3.3.5.3.3.5.9.3.2.2.2.*.*.3.5.3.9.0.3.3.3.3.0.3.9.9.3.3.2.2.3.3.3.3.2.+.&.0.q.0.9.9.9.9.9.9.9.3.3.7.8.0.0.r.s.z.a.4.9.9.9.9.0.3.&.o.#.#.&.&.&.&.2.2.3.&.} z 3.j.9.9.0.0.0.0.0.9.3.&.&.&.;.-.0.0.y.y.q.0.r.r.3.3.3.3.3.<.&.&.&.&.;.&.5.3.3.2.9.6.5.3.3.5.3.2.3.5.5.5.2.-.&.&.3.3.3.3.3.*.*.3.+.} &.3.9.9.9.9.q.0.7.3.9.7.3.3.7.3.*.&.&.&.o.$.B U 0.2.-.&.*.-.&.*.3.7.3.2.3.3.o.&.q.V.0.;.*.7.7.7.;.*.$.3.w.j.a.0.7.3.9.7.3.3.3.&.&.2.3.2.&.&.7.9.0.q.9.7.3.7.7.7.7.3.3.3.3.7.1.1.1.1.1.*.$.$.1.&.&.&.&.&.&.&.&.$.#.o.' / E Y U F B Y ` ~ ~ ~ 3.3.9.C.5.;.&.=.=.&.%.+.o.o.o.] ] ] ] ' ' ~ ~ ~ U I U I J G V h a g N U Z C B B c s e 9 g e z M J Y _ ] } o.+.&.2.3.9.a.8.7.1.z.S.F.J.J.H.H.H.H.",
").).).).~.!.Y.I.J.z.7.D.V.c.l.a.u.9.5.5.;.&.o.' ! G c g h v N V V V F G P Z z g h g h U ' Y n g Y ~ ) ' ] ] o.o.o.o.o.#.$.$.&.*.*.*.3.V.[.0.5.=.` ~ ` ' ' B n d d d d f N G L F Z Z Z Z B G U Y ~ L V B B L Y Y Y U Y Y Y U L L Y U I I U U Y Y Y T I L L L L L L G S V S V G U G G G G F S B B B B N B N N N F G J G G G F B N n n n k h h s L I G G I G G I L G G G G G F F G G Z G J J G G L U I G S B S J I Y Y / ] / ~ U G J J J J F N B U ~ ~ Y Y ' ' ' ' ~ P B B J J P U ! ! U Z ~ ~ ~ ~ P Z B M m m N N b b N N B B c 7 V V n g b N N N J J J G S G G G U R R Y Y Y Y Y J J G J ~ U B N B B F B S G J I ~ E R Y J J G G G G G G F S B B G G G G V B B V B b Z J U U U U U U J G S S V V m b c n g h h B f n F b n n n c c b B V V B V V U L L U G B B S V B B N N V L U U U U U U U I L I F G J G G S V G U Y Y L G G G G L J G V V V V G G G G G Z V B F Z B B B B B B V Z V V h d i i a k B ~ ` ~ ~ ~ 3.3.9.Z.5.&.&.=.&.&.%.+.o.o.o.] ] ] ] ] ' ~ ~ Y b m U I G B n i z B P U Z B B B c s e 9 z s c B J Y _ ] } o.+.&.3.3.9.0.&.+.3.N.S.F.J.J.J.J.J.J.",
").).).).~.U.Y.P.J.D.j.*.z.c.z.a.u.9.5.5.;.&.o.' ! G c g h b N V V V F G Z Y J M h s h Y ' ~ c b Y ~ ' ' o.o.o.o.o.o.#.&.$.&.*.*.*.*.3.V.[.0.9.&.' ` ' o.' S G U Y ~ ~ ~ ) ' o.#.o.+.&.&.$.$.#.+.#.o.o...] &.;.3.*.*.*.;.=.$.%.#.o.o.] ] ] ] o.#.$.%.#.o.%.#.#.#.$.%.#.#.$.%.%.=.=.=.-.-.=.%.%.+.o.+.....%.%.&.-.5.5.5.5.5.:.-.=.%.%.=.=.3.-.V ..5.;.;.5.3.3.7.5.&.&.&.=.&.+.+.&.#.#.#.$.#.o.o.$.$.$.$.$.$.&.2.3.3.;.5.5.5.5.5.5.5.5.5.5.-.&.=.3.5.5.:.-.9.9.9.9.3.-.-.5.3.3.3.9.3.3.2.&.-.-.-.-.$.#.#.+.$.#.&.&.&.&.&.&.+.&.o.g ~ #.o.o.$.&.&.&.-.5.5.5.;.3.3.5.5.5.9.9.9.9.9.9.5.5.:.:.:.-.&.&.-.;.3.-.-.5.5.5.5.5.5.;.-.-.=.=.&.&.=.=.&.&.&.+.#.#.#.#.#.$.$.#.*.$.3.3.&.&.&.=.-.-.=.=.=.=.=.=.&.&.&.&.&.1.3.q.U U a.7.2.2.2.3.o.+.$.&.&.&.&.&.&.$.o.$.$.$.&.&.&.&.*.*.$.=.*.*.*.3.7.9.9.7.5.3.7.*.*.3.9.9.9.9.9.9.3.2.&.&.&.&.&.-.&.=.&.#.#.$.*.*.*.*.$.$.+.o.+.o.o.} } } } } } o.o.o.~ Y U L G J V U ' ~ ~ ~ 3.3.9.Z.5.;.&.=.$.$.#.#.o.o.o.] ] ] ] ] ' / ! Y L L Y I U F h h Z U U F Z B B N c s e 9 z i z B J ! _ ] } o.+.&.3.9.0.9.Y &.a.C.S.F.J.J.J.J.J.J.",
").).).).~.U.Y.I.H.F.F.*.a.z.z.a.u.9.5.5.;.&.o.' ~ J c d h b N V G G P U J G ! ~ L N c U ~ ~ m G ~ ` ' ] o.o.o.+.#.#.#.$.&.*.*.2.2.2.3.C.OXu.9.;...'  .o./ B F Y Y ~ / ) ' ' ' ' ' } o.+.#.#.#.#.&.2.3.3.w.a.j.a.a.a.a.j.u.q.9.9.w.q.q.a.a.j.z.V.c.z.z.j.a.a.q.q.q.q.a.a.j.a.a.j.j.j.j.j.a.u.u.y.y.y.0.y.5.9.0.9.9.9.9.9.9.9.9.9.a.a.j.l.j.a.V *.c.j.a.a.q.w.q.q.0.w.w.0.u.0.0.u.0.7.7.7.7.3.3.9.9.0.0.q.0.0.0.0.0.5.0.y.0.0.y.u.y.y.y.y.u.y.y.u.u.u.y.0.u.u.u.u.a.u.a.j.a.a.a.j.a.u.0.q.0.0.0.0.9.9.q.q.0.0.0.0.e.0.9.7.r.r.q.h ) k.0.j.0.q.q.q.a.a.a.y.y.u.u.u.u.u.u.u.u.u.a.u.u.u.u.u.u.y.0.y.y.u.u.y.y.y.0.w.w.9.9.9.0.w.w.9.9.w.0.0.0.0.9.9.3.3.3.3.5.9.9.3.0.9.a.q.9.9.9.0.0.0.0.0.0.0.y.0.q.q.q.a.0.r.q.z.G J k.j.q.0.q.q.3.7.9.q.9.9.8.9.r.9.3.7.3.7.0.0.9.9.q.q.q.q.0.9.9.9.9.0.w.w.0.9.w.7.9.9.u.u.a.a.0.a.a.0.0.0.a.a.a.a.a.a.a.a.a.a.a.a.a.a.0.7.3.1.3.1.&.&.&.&.&.&.o.o.] ' ' ) ~ ~ L V m I ' ~ ~ ~ 3.3.9.Z.5.&.&.$.&.$.$.#.o.o.o.] ] ] ] ] ' / ~ Y / ) ! J Y I V L ! U Z N Z B B N c s e 9 g e h B J ! _ ] } o.+.&.3.0.0.4.o.k.s.M.Z.F.J.J.J.J.J.J.",
").).).(.(.!.I.I.H.F.F.7.j.c.z.j.q.9.3.5.-.$.o.) ~ G c s z c M V G G G G F L Y ~ _ ! P P / ~ Z U ' ' ] ] ..o.o.o.+.#.$.&.&.*.1.*.3.3.3.C.'.a.0.9.o.` ` ' ~ N G E Y ~ ' ] ] $.o.o.$.$.&.$.&.+.&.1.&.3.0.q.a.a.q.9.9.7.9.9.0.0.q.q.j.j.a.a.k.k.z.z.k.a.a.r.r.r.q.7.0.r.a.a.a.a.a.a.a.q.q.q.q.u.u.u.u.u.u.u.3.3.7.7.-.-.;.;.7.7.9.7.0.0.w.a.j.q.N &.z.j.a.a.q.9.9.0.9.0.9.9.9.9.0.q.w.7.7.;.;.5.9.0.u.u.u.u.u.w.0.0.7.7.7.7.9.9.9.9.0.0.0.0.0.0.0.0.9.9.9.9.0.0.0.0.u.u.a.a.a.a.a.a.0.9.7.7.9.7.7.3.9.9.7.3.7.9.0.a.r.8.p.0.r.z.7.m ] k.a.a.q.9.q.9.9.0.e.r.0.0.0.r.a.a.q.q.9.9.9.9.9.9.9.9.9.w.w.w.u.a.a.u.9.0.0.0.9.9.9.9.0.9.9.7.w.w.w.q.0.9.3.3.3.5.5.9.9.9.5.3.0.0.9.9.9.9.7.7.9.3.3.3.3.3.3.3.7.9.0.0.r.0.r.a.J F k.q.r.0.0.7.0.0.0.0.r.0.0.9.8.9.9.9.7.9.0.0.0.0.0.0.r.e.r.r.9.9.9.9.9.9.9.9.9.9.w.w.q.q.q.q.q.q.q.q.0.0.0.y.u.u.0.0.a.a.a.a.u.u.u.u.7.7.7.7.*.&.$.&.*.&.#.o.o.] ' ~ ) ' ) ! L m N Y / ) ~ ) 2.3.q.D.0.-.&.&.&.&.&.$.o.o.} } o.] ] ] ' ~ ~ Y ~ ~ L B ! ~ Y Y U F N N B B N M c h i 8 8 8 b Z U Y ' ] ] o.#.$.3.9.0.3.3.a.k.C.Z.F.F.J.J.J.J.J.",
").).).(.(.!.I.I.H.J.F.3.a.c.z.a.q.9.3.3.*.$.} ) ~ G c s l c N V G J G J L U U U _ _ ~ P / ~ G ! ' ' ] ] ] o.o.o.o.#.$.$.&.*.*.*.3.3.3.C.'.j.a.a.o.) ~ ` ~ N G ~ ' ..+.&.0.r.0.e.a.a.a.a.a.a.k.c.c.C.C.M.V.Z.Z.V.N.N.N.C.C.C.Z.Z.Z.Z.Z.Z.Z.D.D.D.C.C.C.N.N.N.M.k.N.N.N.C.c.c.c.c.V.N.z.z.C.C.C.C.C.C.D.D.C.N.z.z.a.r.q.q.q.0.0.9.q.0.q.a.a.9.b $.z.j.a.a.a.z.j.j.a.j.a.a.a.a.j.k.l.a.j.a.l.z.b.b.C.C.C.C.C.b.z.k.z.z.c.z.z.z.z.z.z.z.z.z.z.z.z.z.M.c.c.c.V.V.V.V.C.C.C.Z.Z.Z.Z.C.N.z.k.z.z.z.k.k.k.k.j.a.a.a.a.a.s.p.p.0.0.j.3.z o.c.k.k.0.9.q.q.a.k.k.k.z.z.z.N.N.N.N.z.z.z.z.z.z.z.z.z.z.c.c.c.V.C.C.V.N.V.V.V.V.V.V.V.C.V.V.b.b.V.V.V.V.c.c.k.k.k.k.k.z.z.z.z.z.z.c.c.z.k.k.j.a.a.a.q.a.a.a.a.a.a.p.p.r.0.r.a.J F k.r.0.0.0.7.9.0.a.a.k.k.a.a.k.k.a.s.a.k.k.k.k.k.k.k.c.c.c.M.k.z.k.k.k.k.z.z.z.z.z.z.b.b.V.V.V.V.V.V.N.V.V.V.C.V.V.V.c.c.c.c.c.c.c.c.a.a.j.j.j.j.a.a.q.q.q.q.7.*.o.' ' ] ' ) U B B Y ' ) ~ ] q.7.q.J.0.-.&.&.&.&.&.$.o.o.} } } ] ] ] ' ) ~ ~ ~ ~ L U ~ Y Y U G F Z F B B B N b h i 8 0 0 n B U Y ' ] ] o.#.$.3.9.0.3.1.a.z.C.C.F.F.J.J.J.J.J.",
"`.).).(.(.!.I.I.H.F.F.3.a.z.l.a.q.9.3.3.*.$.} ) ~ J c d l c B F I I I I U U U I ~ ^ ' ~ / ! U ~ ' ] ] ] ] o.o.o.o.#.$.$.&.*.*.*.3.3.3.C.`.j.k.c.=.) ~ ` Y N J ` o.&.*.3.a.a.a.C.J.J.H.J.!.!.`.OX`.'.).!.~.|.OXOX X X X XOXOXOXOXOX X X X X X X X X|. X|. X X X X X X X|. X X X X X X|.|.|. X X X X X X X$X X X).).U.I.H.F.F.C.N.a.r.r.a.a.9.b $.j.j.a.a.a.!.!.).(.`.`._.^.!.(.`.!.I.`.`.).`.`.`.).).).).).).(.!.).).).).).).).).).).).).).).).).).`.`.`.`.`.`.`.`.`.`.`.`.`.`.`.`.).!.(. X'.`.).(.(.!.!.U.U.H.I.J.M.e.0.0.j.3.z o.c.k.k.q.a.C.F.I.I.!.(.~.).).).).`.).).).).).).).).).).).).`.).).).).).~.).).).).).).).).`.).!.!.!.!.!.!.!.~.!.!.!.!.!.(.(.!.!.!.~.!.!.!.I.I.I.!.!.H.H.H.I.I.I.J.F.z.a.r.0.r.a.F F z.a.0.0.9.z.C.C.J.H.!.!.!.!.`.`.`.).`.'.'.'.'.'.'.'.`.`.).).).).).).`.'.`.|. X X'.'.'.'.|.|. X X X X XOXOXOXOX|.|.'.`.).).).).).).).!.!.!.!.`.).!.!.!.!.!.!.H.C.a.9.o.+.o.] ~ V B U ' ) / #.c.7.7.J.9.*.&.&.&.&.&.$.+.o.o.} o.] ] ] ' ) / ~ ~ ~ U ~ ~ Y U L F G J G Z B B N M z a i 0 0 n B U ~ ' ] ] o.#.$.3.9.0.4.&.p.z.V.C.F.F.J.J.J.J.J.",
"`.).).(.!.!.Y.I.H.J.D.7.a.z.j.a.0.9.3.3.*.$.} ) ~ J c d g c B G U U U U I U U Y U ~ ' ' / Y ! / ' ] ] ] ] ] ] o.o.#.&.$.&.*.*.*.3.3.3.C.^.a.k.c.3.[ ) ] Y B I ' +.=.2.3.k.a.z.). XOXOXOXOXOX*X6X5X6X5X*X%X5XqXwXqXqXqXwXwXwXwXwXwXwXwXwXqXqXqXqX6XqXyXqXwXuXyXyXiXiXwXwXqXqXqXqXuXwXwXqXqXqXqX6X6X6X6X6X,X6X6X6XqX,X:X*X*X%X X`.N.a.r.a.a.7.c &.j.a.a.a.V.*X*X*X*X*X*X*X=X=X5X5XqX6XiXgXwXwXwXwXqXqXqXqXqXqXwXwXwXqXwXwX0X0X0X0XqXqXqXqXqXqX0XqXwXwXwXwXwXwXwXwXwXwXwXwXwXwXwXwXpXyXeXeXeXwXqXqX=X=X*X*X$XOX'.`.|.J.e.8.0.k.7.c ] k.a.a.a.N.'.*X*X=X=X=X>X>X>X>X5X6X7X>X6X6X6X6X6X6X6X5X7X5X6X5X5X6X6X5X*X>X>X:X*X*X*X*X-X*X*X*X*X*X*X=X=X*X>X>X,X,X,X,X,X,X>X>X>X>X>X>X>X*X*X*X*X%X$X$X%X%X%X%XOX X!.N.r.0.r.a.B F z.j.q.7.q.(.$X%X%X%X=X=X7X6XwXwXqXqXuXiXiXiXiXuXuXuXwXwXuXwXwXwXeXwXwXwXqXwXwXwXwXwX6X6X6X6X6XqXqXqXqXqXqX6X5X5X5X>X>X>X>X7X>X>X:X:X:X=X>X>X=X*X%XOX'.'.(.^.D.c.a.9.#.$.#.o.~ V B U ] ' ) &.C.3.3.F.9.&.$.$.&.&.&.$.+.o.o.} o.] ] ] ' ' ) / ~ ~ ~ / ~ Y L G J U P F Z B B N M z a i 8 8 b Z U ~ ' ] ..o.#.$.3.9.0.4.o.a.z.N.C.F.F.J.J.J.J.J.",
"`.).).(.!.!.Y.I.H.F.D.0.q.c.k.a.0.9.3.3.2.$.} ' ~ H c i g a h G ~ ~ ~ Y Y L L U H ~ ' ' _ ~ Y ' ' ] ] ] ] o.o.o.+.#.$.$.&.&.*.*.3.3.3.C.I.a.V.!.a.] ~ ] ` B I ' -.9.2.0.r.1.c.!.L.K.E.J.C.D.!.'. XOX X`.!.`. XOX%X*X:X>X>X>X>X6X6X6X,X>X,X%X+X%X%X:X:X%XOX X XOX%X X'.'.!.).'.OX`.`.`.`.`.(.!.!.`._._._.(.^.^.`.(.!.!.(.H.!.F.OXH.q.a.q.a.0.m &.a.a.q.a.J.5XOX!.H.H.H.H.!.!.!.!.). XOX*X+XOXOXOX X X|.). X X X$X).).).).).).).).).).'. X X X*X$X$XOX'.'. X X'. X X X X X$XOXOXOX*X$X-X*X X'.'.'.H.H.J.F.D.C.c.N.P.OXk.0.0.j.7.m o.z.a.a.a.C.*X'.(._._._._._.^.(._.`.`.`.`._.`.`.`.`.`.`._.]._.(.^.!.!.!.!.!.!.I.!.!.I.`.).).`.).).).).).`.).'.`.'.'.'.'.`._.).'.`.`.`.`.).).).).!.!.H.J.F.J.J.J.F.`.OXC.a.0.0.a.S U a.9.q.9.a.'.!.H.H.!.F.J.J.H.(.H.J.J.H.H.H.H.H.!.).`.'.`.`.'.).'.'.).'.OX'. XOX%XOXOXOX%X:X6X5X:X%X+X%X%X%X%X:X:X%X:X:X%X%X%X5X:X:X:X%XOX X`.OX X!.F.a.9.9.0.a.a.a.9.$.} +.o.' G m Y ] ] ' 7.F.&.&.J.9.&.$.$.&.&.&.$.+.o.o.o.o.] ] ' ] ' ' ' Y L F ~ Y U J F Z G J Z c M B N M n a i 8 8 b Z U ~ ' ] ] o.#.$.2.9.0.4.&.a.c.N.C.F.F.J.J.J.J.J.",
"`.).).(.!.!.Y.I.H.J.D.q.q.c.k.a.0.9.3.5.2.$.} ' ~ J c i g a d N Y ~ / ~ ~ G V U H ~ ' ' ' ~ G U ' ] ] ' ] o.o.o.#.#.$.$.&.*.-.-.3.3.3.C.!.a.C.!.z.#.' o.' S U ..3.0.6.c.F.z.C.c.g.w.;.&.] a.C.Z.Z.D.C.c.k.N.J.!.I.I.!.). X X X+X%X%X$X+X X).). X+X+X X).V.V.c.b.b.k.a.j.z.c.V.C.G.G.G.G.D.c.j.l.c.c.c.c.b.z.z.c.C.C.C.C.b.V.k.`.!.q.q.q.a.q.N $.a.u.a.k.(.qX'.F.c.c.c.c.c.c.V.V.V.C.C.Z.F.F.Z.C.N.N.z.z.z.z.c.C.D.C.N.N.c.c.c.z.z.c.c.N.N.z.D.G.D.D.C.C.V.V.V.b.V.V.V.V.N.c.c.c.c.z.D.D.z.z.k.j.k.j.j.a.z.l.j.j.J.OXz.e.0.a.7.B ] k.a.a.a.Z.OXJ.j.j.j.j.l.l.j.j.d.j.j.d.l.a.d.a.a.a.j.j.j.j.u.u.j.j.j.j.z.z.z.z.c.c.k.b.z.z.c.z.c.c.c.c.c.C.C.q.a.a.k.k.z.j.j.z.a.a.a.a.a.a.a.a.z.k.a.a.r.a.k.z.F.`.OXC.a.0.0.a.G U a.9.a.q.z.$XD.c.l.j.j.l.z.c.b.z.c.C.C.j.u.j.a.j.z.z.b.k.a.j.a.j.j.a.j.j.9.0.a.q.9.a.b.H.'.OXOX|.~.Y.~.~.~.~.|.@X>X5X5X@XoX`.`.`.|.OX`.P.J.P.H.I.H.Z.*.] o.9.c.!.`.J.1.$.+.+.' L B ~ o.] o.k.I.&.&.H.0.&.$.$.&.&.&.&.+.+.o.o.o.] ] ] ' ' ) ~ b c b U Y U J F n M N B m B B N M n s i 8 8 b F U ~ ' ] ] o.#.$.2.9.0.4.&.a.c.V.C.F.F.J.J.J.J.J.",
"`.).).(.!.!.I.I.H.J.F.q.q.c.k.a.y.9.3.3.2.$.o.' ~ P c i s a g m U ~ ) ~ ~ U G J H ~ ' ' o.Y b b ) ' ] ] o.o.o.o.#.$.$.$.&.*.-.-.3.2.3.C.'.k.D.'.D.3.o.#.o.J E %.9.9.9.F.>X*X*XD.g.>.%.7.G.OX%XOX$X$X[._.(.).`.).(.(.).`.OXOXOX%X X XOXOX X!.!. X%X+X X^.C.b.n.b.v.l.l.z.v.b.b.b.G.G.G.E._.^.b.b.G.G.G.G.R.G.C.C.b.b.b.b.G.G.V.&XOX0.9.0.a.q.B $.a.u.a.z.`.qX`.V.z.z.z.z.z.z.c.c.c.b.b.C.R.G.D.b.G.C.C.b.b.z.b.C.D.C.b.b.b.b.b.c.v.b.b.D.b.c.G.R.G.G.G.D.C.C.b.b.C.C.C.C.b.c.c.c.D.C.H.H.D.J.G.b.C.b.c.c.c.c.z.j.F.@XC.p.9.a.9.V ] j.r.r.a.J.@XC.l.j.j.l.c.c.z.l.z.c.c.c.l.l.l.l.l.l.z.z.c.c.l.l.b.c.c.b.c.z.z.z.J.J.c.z.z.z.c.c.c.b.b.b.G.R.R.a.j.j.z.c.G.b.c.v.z.z.z.z.j.k.z.c.C.C.C.V.c.c.c.z.F.`.OXZ.a.0.0.a.J Y u.5.q.q.z.*XD.c.a.a.j.j.l.x.b.c.C.G.D.z.j.l.l.l.l.z.c.j.a.j.z.b.b.z.v.l.y.d.c.a.w.d.b.G.!.'.%XOX X`. X X X X|.+X%X:X@X{./.`.~.~.`.OXOX`.^.'.OX$X*X$Xa.#.#.a.z.OX>X`.e.1.&.&.o.U V ) +.o.&.J.).1.&.H.q.*.&.&.1.1.&.&.&.&.o.o.o.] ] ] ' ' ) ~ ] Y G Y Y U J F c n c b B B B M c h a i 8 8 m F U ~ ' ] o.o.#.&.3.9.0.7.&.a.c.V.C.F.F.J.J.J.J.J.",
"`.).).(.!.!.Y.I.I.H.F.q.q.c.k.a.y.9.3.3.2.$.o.' ~ P c i a g n V I ~ ) ) ) ) Y G J ~ _ ' o./ P U ) ' ] ..o.o.o.o.#.$.$.$.&.*.-.-.3.2.3.C.OXk.F.OX!.9.#.&.+.U ` =.y.5.2.F.:X>X>XJ.g.7.7.(.*X*X*X=X=X=X$X'.'.`._.(._._.`.'.`.`.`.'.'. XOXOX&X'.`.'.OXOX'._.b.b.n.m.n.v.v.b.b.b.n.n.m.G.J.R.[.$XE.C.G.G.G.G.E.G.C.C.A.A.A.G.F.G.V.=X*X9.3.0.a.q.B $.u.0.a.z.`.qX`.C.z.c.z.z.b.b.C.D.v.b.G.L.L.G.b.c.G.G.G.C.b.v.b.A.C.b.v.c.c.c.c.c.x.v.n.b.z.C.R.R.G.G.D.b.v.v.v.v.b.b.b.b.c.z.z.z.G.b.G.D.G.E.E.D.G.G.C.C.b.b.c.z.S.%XS.a.7.a.9.V ' a.0.0.0.I.=XF.c.z.z.c.b.b.b.v.v.v.v.v.l.l.l.l.l.l.z.z.c.v.c.c.c.c.c.v.l.l.l.l.z.C.z.z.j.j.l.l.z.z.z.z.b.J.J.u.j.l.c.v.G.b.x.v.v.v.v.v.c.b.G.F.c.c.c.c.k.z.c.N.F.`.OXZ.a.e.0.a.I Y u.-.9.9.z.*XH.C.j.j.l.z.c.c.c.l.z.b.l.l.l.l.l.l.l.l.c.l.l.c.v.b.b.v.b.l.d.C.!.J.z.l.l.G.E.[.%X+X+X%X%X%X%X%XOXOXOXOX{._._.{._.`.OX=X*X*X*X@X$X=X=X*X(.w.-.a.C.OX6X%XC.3.1.&.o.Y V ) o.o.2.`.'.1.&.I.q.*.&.&.2.1.1.&.&.&.+.o.o.] ] ] ] ' ' ` o.~ L ~ ~ U L F Z M c b B Z B M n h s a i i N J U ~ ' ] o.o.#.&.3.9.0.7.&.a.c.V.C.F.F.J.J.J.J.J.",
"'.`.`.~.~.!.!.!.I.H.F.r.r.c.k.a.q.7.3.3.*.$.o.' ~ L c i d c B G I E ~ / ' ' ! G G ~ ) ' ] / Y ' ' ' ..o.] o.o.o.&.&.=.=.&.;.2.2.3.2.3.Z.OXa.H.*X`.a.*.&.' U ~ 9.a.9.4.!.>X:X*XJ.9.9.H.5X*XOX'.'.OXOX[.`.`._.^.^.`.`.'.'.`.(.^.!.(.`.'.OX*XOX'.'.OXOX X(.G.C.b.b.n.n.n.n.b.n.n.n.b.D.G.E.(.(.R.G.G.G.G.G.E.G.G.C.A.A.G.G.C.C.V.!.`.9.7.7.a.a.N &.a.0.a.C. XwX`.b.b.b.b.C.C.C.b.b.G.E.^.G.G.b.b.c.[.[.J.Z.F.G.G.G.b.b.b.b.n.n.n.n.v.v.v.v.b.D.G.G.b.b.b.b.b.b.b.b.v.b.G.G.n.n.G.E.D.v.v.b.b.b.C.c.b.b.C.A.b.v.v.v.S.+XP.r.7.a.7.J ` j.r.9.e.I.=XZ.c.c.c.c.C.C.b.z.D.G.D.l.x.x.x.x.c.c.z.z.c.c.b.b.b.v.b.n.l.l.l.z.l.l.l.l.z.l.j.z.l.l.l.l.l.l.l.l.l.l.l.l.b.v.x.v.b.b.D.D.b.G.=X!.V.V.V.V.c.z.V.C.F.|.OXS.a.0.9.j.I ` a.9.7.q.C.$XH.c.c.j.j.l.z.c.c.c.z.z.l.l.l.l.l.l.l.l.l.x.c.v.c.v.v.x.n.l.u.R.oXoXR.z.b.G._.OX+X@X+X+XOXOX X X|. XOXoX`._._._.[.`.'.OXOXOXOX&X@XOX&X-X-XR.:.j.C.%XwX:XI.3.&.2.$./ U ' &.] a.OX X8.3.!.a.$.*.*.-.;.&.&.&.&.&.+.o.} ] ] ] ] ' ' U U U U ~ Y I G B B B G G V B b n h a i 8 8 M F Y ~ ' o.o.o.$.&.3.9.0.7.&.a.c.V.C.S.J.J.J.J.J.J.",
"'.`.`.~.~.!.!.!.I.H.F.r.r.c.k.a.q.7.3.3.*.$.o.' ~ L c i g b C G I E ~ ~ ~ ~ P G G ~ ) ] o.Y L ~ ' ] ] o.] o.o.o.&.&.=.=.&.;.2.2.3.2.3.Z.%Xa.H.*X Xk.3.&.' ` ` y.a.9.e.`.>X>X>XF.0.z.%XqX*X$XOXOXOXOX{.`.`._.^.^.^.!.(.(.`.(.(.(.^.^.^.^.`.`.`.oXOXOX X(.G.C.b.C.b.b.b.n.b.m.m.n.b.D.G.J.J.E.J.C.D.D.D.D.G.G.G.G.A.G.G.G.C.G.Z.!.OX0.9.0.a.j.N $.a.0.a.C. XwX`.b.b.b.b.C.C.C.b.b.G._._.G.C.b.c.c.`.OXV.C.Z.Z.C.C.b.b.b.b.n.n.n.n.v.v.v.v.b.b.b.b.b.b.b.b.b.b.b.b.v.b.G.G.n.b.G.G.b.v.c.c.c.z.c.b.C.b.b.b.b.b.v.v.S.@XP.r.7.a.9.J ` a.r.0.e.!.=XZ.c.c.c.c.b.b.z.z.D.G.D.c.x.x.x.x.c.c.z.z.c.c.b.b.b.b.b.n.l.x.l.l.l.l.l.l.z.l.l.z.l.l.l.l.l.l.l.l.l.l.l.v.v.v.v.v.b.C.b.m.b.J.`.J.V.V.V.V.c.z.V.C.F.|.OXS.a.r.9.j.U ' z.0.0.r.V.&XG.z.C.b.z.z.z.c.c.c.z.z.z.l.l.l.l.l.l.l.l.c.c.c.c.c.c.c.G.v.l.^.+XOXJ.z.b.G._.OX+X+XOX X`.`.|.|.+X+X X`.!.^._._._._.[.*XOX[.OXOX@XOX*X7X=XOXu.a.C.OXqX>X`.r.1.3.o.+.o.o.*.+.z.%XOXe.9.!.a.&.;.;.-.;.&.&.&.&.&.+.o.} ] ] ] ] ' ' G G G Y / ~ U G B B V G G V B m c z d a 8 8 M G Y ~ ' o.o.o.$.&.3.9.0.7.&.a.c.V.C.S.J.J.J.J.J.J.",
"'.`.).~.~.!.!.!.I.H.F.r.r.c.k.a.q.7.3.3.*.$.o.' ~ L c i g v Z I U E E E L G Z G J ~ ' ] o.) Y ~ ] ] o.o.o.o.o.o.&.&.=.=.&.;.2.2.3.1.3.F.*Xk.!.=XOXN.q.2.` ` -.d.p.0.c.OX>X6X>XC.r.!.qXqX=X=X=X*X*XOX'.`.`.^.^.^.!.!.!.I.!.!.(.(.!.^.!.R.!.!.`.OXOXOX X(.G.C.b.C.C.C.b.b.A.A.A.A.A.A.G.G.C.G.G.b.D.D.D.D.G.G.G.G.G.G.G.G.G.J.H.H.*Xr.9.w.u.k.B $.a.e.a.C. XuX`.b.v.b.b.C.b.A.C.b.D.G.G.C.b.b.b.v.G.G.b.b.b.C.C.b.b.b.b.b.b.b.b.b.v.v.v.v.b.c.c.c.v.v.v.v.v.v.v.v.v.b.b.v.v.v.b.n.b.b.b.c.z.z.z.b.V.b.v.v.b.b.n.b.S.@XP.r.7.a.9.J ~ a.r.r.r.!.7XF.b.c.c.v.z.b.c.b.v.b.b.c.l.l.c.c.z.z.z.z.c.c.b.b.b.b.b.b.x.x.x.x.l.l.l.l.l.l.l.l.l.l.l.l.l.j.l.l.l.l.v.v.v.v.v.v.b.G.b.b.z.C.C.c.V.V.V.V.c.z.V.C.J. X%XF.a.r.9.j.Y ] z.u.a.0.c.$XG.c.Z.Z.c.c.z.z.z.z.c.c.c.c.z.c.z.z.z.z.z.z.z.c.c.c.c.c.G.c.u.b.C.C.j.d.v.G._.OX%X+X X|.~.).'.|.%X X`.!.!.^.^.(.(._.OX=XOX'.OXOX&XOX=X6X6X7XR.0.C.OXqXqX:XN.3.1.&.7.*.+.3.#.Z.%X Xr.0.!.a.$.*.*.-.-.&.&.=.&.+.+.o.o.} ] ] ] ] ' ~ U V Y ) / U G B B B F F V B B M b h d i i N J ! / ] o.o.+.&.&.3.9.0.7.&.a.c.V.C.S.J.J.J.J.J.J.",
"'.`.).~.~.!.!.I.!.J.F.r.r.c.k.a.q.7.3.3.*.$.o.' ~ L c i g B F U U U E I V B B G P / ' ] o.o.] ] ] ] o.o.o.o.o.o.&.&.=.=.&.;.2.2.3.1.3.F.*Xz.!.>X%XF.a.3...E y.A.y.0.C.+X>XqX>XN.k.*X7X7X=X7X0X7X-XOX'._._.^.^._.(.!.!.H.H.H.!.!.`.`.`.`.!.!.`.OXOXOX X(.G.A.b.C.D.D.G.G.G.G.G.G.G.G.G.G.G.J.J.G.G.G.G.G.J.J.J.J.J.J.G.G.G.J.!.!.*X0.3.9.q.k.B +.a.0.a.C. XwX).b.v.b.b.C.A.A.b.b.b.D.D.C.b.b.b.b.b.C.C.b.b.b.b.b.b.b.b.b.b.b.b.b.v.v.v.b.b.b.c.x.v.v.v.v.v.v.v.v.v.b.b.v.v.v.v.l.z.b.c.c.z.c.c.c.z.z.v.V.b.b.n.b.S.@XP.r.7.a.9.J ~ a.a.r.p.!.5XF.b.c.c.v.l.z.z.z.c.l.l.l.l.l.c.c.z.z.z.z.c.c.b.b.V.b.b.b.x.x.x.x.l.l.l.l.l.l.l.l.l.l.l.l.j.j.l.l.x.v.b.b.v.v.v.v.b.G.b.c.b.C.b.b.V.V.V.V.c.z.V.C.J. X+XF.a.r.0.j.U ' l.0.a.e.c.$XG.c.Z.Z.V.b.c.z.z.z.c.c.v.v.v.z.z.c.c.z.z.z.c.b.c.c.c.c.x.l.u.l.l.l.u.l.v.G._.OX%X+X|.).~.`. XOX X!.!.^.!.!.^.(.`.`.OX=XOX'. XOXOX&X4XqXwX6X*Xa.C.'.qXwX,XF.r.7.3.2.+.#.7.*.I.*XOXs.p.!.j.*.3.3.2.-.&.&.=.&.+.+.+.o.} ] ] ] ] ' ' ~ U ) ' / Y J B M B V V V B B B M n h i i B P ! / ] o.o.+.&.&.3.9.0.7.$.a.c.V.C.F.J.J.J.J.J.J.",
"'.`.`.~.~.!.!.I.J.J.F.a.a.N.z.a.a.9.3.3.*.$.o.] ~ J c i l B F L I U L B N B Z Z U / ' ] ] ] ] ] ] o.o.o.o.o.o.o.&.&.=.=.&.;.2.2.3.3.7.F.+Xs.~.:X+X!.c.7.o.E y.G.u.a.!.:X6XqXOXk.F.wX7X7X7X7X7X7X=X*XOX XOX'.).!.!.!.!.H.!.!.H.H.!.!.`.'.'.`.`.oX%XOX X!.J.G.G.J.R.J.F.J.G.G.G.G.A.J.C.G.G.J.R.^.=X`.R.R.J.J.J.J.J.J.J.J.J.J.H.I.7Xr.9.0.q.a.G +.a.0.a.N.+XwX`.D.C.b.C.A.A.G.G.G.C.C.C.C.C.V.b.b.b.b.b.b.b.b.b.b.b.b.b.b.b.b.b.b.b.v.c.l.b.b.b.v.v.v.v.v.n.n.v.v.b.b.b.v.v.v.l.l.b.b.z.c.z.z.c.c.v.v.V.C.b.b.n.b.S.:XP.r.7.q.0.Y E a.r.r.s.!.6XH.b.b.b.c.b.c.z.z.c.c.c.l.c.c.z.z.b.b.b.v.b.c.C.R.OX^.C.b.x.x.x.x.x.x.c.x.l.l.n.G.l.l.l.l.l.j.l.l.v.v.v.v.v.v.v.v.G.J.b.b.b.b.b.b.V.V.b.b.b.l.b.C.P.:X@XC.a.a.0.j.I ) z.j.a.e.c.$XJ.c.G.V.V.V.b.b.c.c.c.c.c.v.b.c.z.z.z.z.b.^.^.b.c.c.c.c.c.l.z.J.D.g.u.l.l.G.`.OX+XOX|.`.`.'.`.^.!.!.!.^._.^.(.'.'. X`.!.'.OX%X*X=X>X6X6XwXwXuXJ.k.`.6X,XqX`.z.p.0.7.] +.q.a.`.%X Xk.k.`.j.*.3.3.2.-.&.=.&.&.+.+.+.o.} } ] ] ' ' / / ~ ~ ' Y I L F m m V V V B B N b z d e i b G ! / ] o.o.+.&.1.3.9.q.7.$.a.z.N.C.Z.F.F.J.J.J.J.",
"`.`.).~.~.!.!.I.J.J.F.a.a.N.z.a.a.9.3.3.&.$.o.] ~ J n e l B F L I G V N B Z G P ! _ ' ] ] ] ] ] ] o.o.o.o.} o.o.&.&.=.=.&.;.2.2.3.3.7.F.+Xk.`.:X%X).C.a.&.` u.G.d.f.~.6XqXiX|.a.OXwX7X>X>X>X>X>X>X>X7X>X*XOX'.`.!.!.I.H.H.!.I.I.R.!.^._.'.'.|.OX%XOX X!.J.A.R.OX=X`.J.F.G.G.G.G.J.R.G.J.R.R.R.!.6X7X`.!.!.!.!.R.R.R.R.R.L.J.H.I.5Xa.0.w.q.a.G +.a.0.a.N..XwX`.D.G.G.G.G.G.A.A.G.C.C.C.C.C.C.b.b.b.b.b.b.C.c.C.C.b.b.b.b.b.b.b.b.v.b.D.D.b.b.b.b.b.b.b.b.b.b.b.b.b.b.G.b.b.v.v.v.G.G.z.c.z.z.c.c.v.v.V.C.b.b.n.b.S.:XJ.r.7.q.0.~ E a.r.r.s.!.6XH.b.b.C.G.b.b.z.z.c.c.c.c.c.c.z.z.b.b.c.v.b.b.J.4XhX7XR.x.x.x.x.x.x.x.c.l.l.l.v.b.l.l.l.l.c.c.x.x.v.v.v.v.v.v.v.v.b.G.b.b.b.b.b.b.V.V.b.b.v.l.b.C.P.:X@XC.a.a.0.j.L o.G.z.a.e.c.OXH.D.F.C.b.b.b.b.b.z.z.z.z.c.b.c.c.c.c.c.C.[.^.b.c.c.c.c.c.c.b.R.E.v.l.l.l.G.`.OX+XOX|.`.`.`.!.!.R.!.^.!._.^.^.(.!.`.'.'.OX%X=X>X>X5X6X6XqXuXiX Xa.|.6XqXqX XN.s.e.4.] $.k.c.|.%XOXk.s.~.j.*.3.3.2.;.=.&.&.&.+.+.+.o.o.} ] ] ' ' ) ) ) ) ) U L G G B B B B B B B N b z d e i b G ! / ] o.o.+.&.1.3.9.q.7.$.a.z.N.C.Z.F.F.J.J.J.J.",
"|.`.`.~.~.!.!.!.J.J.F.a.a.N.k.a.a.9.7.3.$.#.o.' ~ F l w l B F L G B m B B Z P ~ / ' ] ] ] ] ] ] o.o.o.o.} ] } o.%.&.=.=.&.;.2.2.3.3.7.F.%XN. X>X*X|.J.k.-.` u.G.v.V.`.tXiXiX!.C.wXwX7X>X=X=X=X=X>X>X5X5X>X%X+X X`.!.!.I.!.!.!.!.R.R.!.!.`.`.|.OX%XOX X!.R.G.!.7XwX XJ.S.S.F.G.G.H.`.(.R.!.!.!.!.oX*X`.`.!.!.!.!.!.^.^.^.R.H.I.!.0Xa.q.q.q.a.G +.a.q.k.Z.%XuX XG.G.G.G.G.F.G.D.m.C.C.C.Z.Z.C.b.b.C.C.b.b.b.b.b.b.b.b.b.b.b.b.b.b.b.b.G.G.b.b.b.b.b.b.b.b.b.b.b.b.b.b.G.b.b.n.v.b.R.J.b.c.b.b.b.b.v.b.b.C.b.b.b.b.F.:XJ.r.7.a.a./ E a.e.p.s.!.6XH.V.b.z.z.b.b.c.c.c.c.c.c.z.z.z.z.c.c.c.c.C.b.b.`.7X8XW.n.v.c.c.c.c.c.l.l.v.j.l.v.l.l.l.l.c.c.c.c.v.v.v.v.v.v.v.v.b.b.G.b.b.b.b.b.b.b.b.b.b.c.b.C.P.:X*XC.a.a.0.j.L ' j.j.a.e.c.OX!.J.H.Z.V.V.b.b.b.c.b.Z.V.c.c.v.v.v.b.b.C.E.b.b.c.c.c.c.c.b.b.L.L.m.v.n.v.E.'.OX+XOX X`.!.!.R.!.!.^.^._.(.^.!.).). XOXOX%X*X>X>X>X5X6XqXqXiXfXtXC.`.6XwXqX$XJ.z.r.4.} 3.V.J.OX%X+Xz.s.!.a.&.;.;.-.&.&.&.&.&.&.+.+.o.} } ] ] ' ' ' ' ' ) ) ~ U G I G V B B B B N N b z d e a b J ! _ ] o.o.+.&.1.3.9.q.9.$.a.c.N.C.Z.F.F.J.J.J.J.",
"|.`.`.~.~.!.!.!.J.J.F.a.a.N.z.a.a.9.7.3.&.#.o.' Y F h 8 l N F L S m m V N G ~ } _ ' ] ] ] ] ] ] o.o.o.o.} } } o.%.&.=.=.&.&.2.2.3.3.7.F.%XC. X>X>X X!.N.5.' u.A.V.Z.OXiXgXwXF.!.hXwX7X>X=X=X=X=X*X*X:X>X*X:X>X*X*XOX'.`.!.!.!.!.^.^.^.^.!.!.`.OX%XOX X!.R.^.*XzX0X).J.F.S.D.G.G.J.&X[.R.^._.`.|.'.'. X'.!.!.!.^.!.!.(.(.^.H.H.(.0Xk.u.u.q.a.G %.a.u.k.Z.%XuX XJ.G.G.G.J.J.F.G.C.C.C.C.Z.Z.Z.C.b.C.C.b.b.G.(.D.b.b.b.b.b.b.b.b.b.b.b.D.D.b.b.b.b.b.b.b.b.b.b.b.b.b.b.b.v.b.b.b.b.(.R.C.c.b.b.b.b.b.b.b.C.b.b.b.b.F.:XJ.r.3.r.a.' E a.e.r.s.!.6XH.V.b.C.C.b.b.c.c.c.c.c.c.z.z.z.z.c.c.b.b.b.b.b.b.W.^.G.n.n.b.b.b.x.x.z.z.z.j.j.z.z.z.l.l.l.l.c.c.v.v.v.b.b.v.v.v.b.b.J.G.b.b.b.b.b.b.b.b.b.c.b.b.P.:X@XC.a.a.q.j.) ~ 9.z.a.e.c.OX(.L.H.D.V.b.b.b.C.b.C.H.H.C.c.b.v.v.b.b.b.b.b.b.v.c.c.c.v.b.c.C.C.b.b.G.b.R.'.%XOXOX X`.!.H.R.!.^.^._.`.^.!.`.OX%X=X=X*X*X*X>X>X7X6X6XqXqXiXfXgX~.P.6XwXqX%XI.N.p.3.} 7.C.!.|.OX+XM.s.!.j.*.3.3.2.-.&.=.&.&.&.+.+.o.} } ] ] ' ' ' ' ' ' ' ) ~ L L U G B m N N m N b h d e a b G ! ^ ] o.o.+.&.1.3.9.q.9.&.a.c.N.C.Z.F.F.J.J.J.J.",
"'.`.`.).!.!.!.P.J.J.F.e.a.N.z.a.u.0.9.3.-.&.o.' ~ F h i h b F L V N N B Z U o.U ~ ' ] ] ] ] ] o.o.o...o.o.] o.o.$.&.&.&.&.1.2.3.5.3.3.V.OXJ.OX*X:X X!.C.9.' a.!.V.H.+XiXfX>XN.%XiXqX>X:X>X:X%X%X*X*X*X=X=X%X=X=X%X%X%XOX'.`.!.I.!.!.!.!.!.H.!.|.+X+X X~.!.!.5XmXrX'.J.F.D.D.G.G.G.^._.J.!.!.OX%XOX X XOX|. X|.).).).(.(.!.K.K.).5Xj.a.a.q.a.J %.a.q.k.N.%XuX XF.G.G.J.J.G.J.F.C.C.C.Z.Z.C.C.C.C.C.b.b.C.R.'.G.b.C.C.C.b.b.b.b.b.b.b.b.b.b.b.b.b.b.b.b.b.b.b.b.b.b.b.b.b.c.b.D.b.G.b.b.b.b.b.v.b.b.b.b.b.b.b.b.b.Z.5XF.r.0.q.a.' ~ a.p.r.k.!.6X!.V.b.J.C.b.b.c.c.c.c.c.c.c.c.v.v.v.c.v.b.b.b.b.b.m.m.m.m.G._.E.c.x.x.z.z.l.l.l.l.z.z.l.l.c.b.z.c.b.c.c.v.v.v.b.b.b.b.C.G.b.b.b.b.b.b.b.C.b.c.c.b.`.5X:XS.a.a.q.z.~ U 9.l.a.r.C.*X(.D.J.D.b.b.b.b.c.c.D.`.`.D.c.b.v.v.v.v.b.b.b.b.b.b.b.b.b.b.b.b.c.z.b.C.R.!.'.OXOX X`.!.H.R.!.!.^.^.!.!.'.OX*X*X>X*X*X*X*X*X=X=X5X6X6XqXqXuXfXgX:XM.6XuX6X*X).Z.p.8.&.q.D.!.|.OX%XC.k.!.a.;.;.3.;.*.&.$.$.$.#.#.+.o.o.o.} ] ' ' ' ' ' ' ) ) ) ) J U U J B n n b c c h d i a M J Y ) ] o.#.#.$.*.3.8.r.0.$.a.z.N.N.C.F.F.D.F.F.J.",
"'.`.`.).!.!.!.P.J.J.F.0.a.N.z.a.u.0.9.9.3.&.o.' ~ F h i h M G G m m m B P ~ Y ~ ~ ' ] ] ] ] ] ] ] ] ] ] o.o.o.o.$.&.&.&.&.1.2.3.3.3.3.V.OXF.OX>X:X X~.Z.e.] a.!.H.!.$XuXgX>XS.6XwX6X>X:X>X:X=X=X=X*X*X=X=X=X%X%X*X%X%X%X$XOX'.`.!.I.H.I.!.I.!.OX+X+X X~.F.J.OXfX5X).J.F.D.D.G.G.G.!.^.R.^.`.OX%XOXOX$X$X+X%X%XOX|.).!.!.!.U.K.).5Xj.a.a.a.a.J %.a.q.k.N.%XuX XF.G.G.J.J.J.F.F.Z.C.C.Z.Z.C.C.C.C.b.C.b.C.G.G.C.b.C.C.C.C.b.b.b.b.b.b.C.C.C.b.b.b.b.C.C.b.b.b.b.b.b.b.b.b.b.D.D.c.v.v.v.b.b.b.b.A.b.b.b.b.E.G.b.v.S.6XF.r.7.q.a.' ~ a.p.r.s.!.qX!.C.c.^.G.b.b.c.c.c.c.c.c.m.v.b.G._.G.b.b.D.b.D.b.b.b.m.m.G.{.E.b.x.c.z.l.l.l.z.z.l.l.l.l.z.c.b.R.D.v.c.c.v.v.b.b.b.b.b.b.b.b.b.b.b.b.b.C.C.b.c.C.~.5X:XS.y.a.q.k.E U 9.k.a.e.V.*X(.D.D.C.b.b.b.C.b.c.C.J.F.V.c.c.v.v.v.v.b.b.b.b.b.b.b.b.b.b.b.b.b.z.V.C.R.!.'.OXOX X`.R.!.!.~.~.!.^.`.`.OX%X>X>X*X*X*X*X*X*X=X=X5X6X6XqXuXuXfXlXfXZ. X6XqX:X XF.s.8.&.q.F.~. X+X=XS.z.!.u.;.*.3.;.*.&.$.$.$.%.#.o.o.o.o.o.} ] ' ' ' ' ' ) ) ) ) U U U U G N n k c c n d e a M J Y ) ] o.#.#.$.*.3.8.r.0.$.a.z.V.N.C.F.F.F.F.J.J.",
"'.`.`.).!.!.!.P.J.J.F.0.a.N.z.a.a.u.0.9.3.&.%.] ! F h i h B G B c c N G U U U ~ ) ' ] ' ] ] ] ] ] ] ] ] ] o.+.+.$.&.&.&.&.1.2.2.5.3.3.V.'.F.$X>X*X X).J.a.' 7.c.H.J.`.qXiX XI.wXqX>X:X*X7X:X5X5X6X>X*X=X>X=X*X%X*X*X%X%X*X%X%XOX`.!.I.H.!.!.).OX+X+X X(.J.F.^.OX'.R.J.G.D.D.G.G.J.R.!.!.`.OX%X$X%X*X:X:X<X,X,X:X+X X`.).(.!.U.`.>Xk.j.a.a.k.G o.a.u.k.N.;XuX XF.G.G.J.J.4X{.H.C.C.C.Z.Z.Z.Z.Z.Z.C.C.C.C.b.c.b.b.C.C.C.C.b.b.b.b.b.b.m.b.b.b.b.b.C.b.b.b.b.b.b.b.b.b.b.C.b.D.D.c.z.b.b.b.b.b.C.C.b.b.b.b.^.E.b.v.F.6XF.0.1.0.j.] ~ a.p.r.a.!.qX!.C.b.R.C.b.b.b.b.v.v.v.v.c.c.D.E.$XE.D.D.G.D.m.b.b.b.m.m.b.R.C.l.z.z.z.z.z.z.z.z.l.z.l.l.z.b.C.^.D.v.c.c.v.v.b.b.b.b.b.b.b.b.b.b.b.b.C.C.C.b.b.C.).5X=XS.0.a.0.k.T Y 0.k.a.r.N.*X!.D.C.c.c.c.b.b.V.V.C.V.c.c.b.c.c.b.v.v.b.b.b.b.b.b.b.b.b.b.b.b.b.C.R.!.H.!.`.OXOX+XOX).~.~.^./.'.'.OXOX%X*X*X*X*X*X*X*X*X%X=X>X5X6XqXqXwXwXiXfXlX!.~.wXwX>X%X).z.7.$.q.J.`.OX%X>XF.c.!.u.;.*.3.;.*.&.$.$.$.%.#.] } } } } } ] ' ' ' ' ' ) ) ) ) / U U U I F n a h b c g i a m J Y ) ] o.#.%.$.*.3.8.r.0.$.a.z.N.N.C.F.F.F.J.I.I.",
"'.`.`.).!.!.!.P.J.J.F.0.a.c.z.a.a.a.0.0.3.-.%...! F h i h B J B c m V I L U Y _ ' ' ] ' ] ] ] ] ] ] ] ] ] o.#.#.$.&.&.&.1.1.2.2.5.5.3.V.`.D.$X,X$X X).P.7.' 0.F.!.P. XiXlX).+XlX6X>X:X*X:X>X6X6XqX7X*X=X7X>X*X+X%X*X*X*X*X*X*X*XOX X`.!.`.`.`.'.+X+X X(.^.!.!.R.!.J.G.G.D.D.G.G.L.E.!.^. X%X:X$X;X:X3XqXyXyXtX,X:X%XOX X).(.U.'.>Xk.j.a.k.k.G o.a.q.k.N.;XuX XF.F.G.F.J.-X`.H.J.C.C.C.C.Z.Z.Z.Z.C.C.C.C.C.C.b.b.C.C.C.C.b.b.b.b.b.b.b.b.b.b.b.b.C.b.b.b.b.b.b.b.b.b.b.C.z.C.D.b.C.G.G.C.b.b.b.z.b.b.b.b.E.G.b.v.J.6XD.0.1.0.a.] ~ a.p.r.a.!.qX!.b.C.b.z.b.b.b.b.b.v.v.v.v.b.m.G.G.G.D.G.G.D.m.b.b.b.b.m.m.b.j.z.z.l.z.z.z.z.z.z.z.z.l.l.c.b.b.G.b.v.c.b.b.v.b.b.b.b.b.b.b.b.b.b.b.b.C.C.D.C.C.Z.).6X=XS.0.a.0.k.I Y y.k.a.e.N.*X(.C.c.x.c.c.b.b.N.N.V.V.V.c.c.b.b.b.v.v.b.b.b.b.b.b.b.b.b.b.b.b.b.R.&XOXJ.!.`.'.+X%X X!.!.~.{.OXOXOXOXOX%X%X*X*X*X*X*X*X%X=X=X>X>X5XqXqX6X6XqXwXlX X|.kXiX*X).F.N.4.o.0.J.`.+X%X>XF.c.(.u.;.*.3.;.*.&.$.$.$.%.#.] ] } o.' ' _ _ ' ' ' ' ) ) ) ) ' Y U J U J N i g b b g i a m J Y ) ] o.#.#.$.*.3.8.r.0.$.a.z.N.N.C.F.F.J.H.I.I.",
"!.!.!.!.!.F.C.F.I.!.F.0.a.N.a.a.u.u.0.0.9.-.%.] ~ F h i z B P Z c c U Y G ! ~ / ' ' ' ' ' ' ) ' ] ] ] ] ] o.#.#.&.&.&.&.1.1.2.2.5.5.3.C. XF.`.>X%X X|.!.4.) 0.J.).OXqXbXmX`.5XlXqX5X:X:X=X=X=X:X=X=X=X%X6X7X=X=X7X=X*X%XOX%X%X%X%X%X%X%X X X|. XOXOX X(.`._.!.D.G.G.D.D.D.D.G.G.E.R.E._.OX6X6X>X>XqXyXiXdXxXpXuX,X:X+X|. X`.U. X>Xk.j.j.z.k.F o.u.w.j.N.;XuX XF.F.G.J.J.J.J.J.J.G.C.Z.Z.G.G.G.A.C.C.C.D.C.C.C.b.C.b.C.J.G.b.b.D.G.D.b.b.b.b.b.b.C.C.b.b.b.b.b.b.b.b.C.C.b.J.J.G.C.C.C.C.b.b.C.J.A.C.b.b.v.b.G.R.OX6XN.q.0.0.a.' / a.p.r.a.!.qX_.b.b.b.b.b.b.b.b.b.b.b.v.b.D.G.D.D.G.D.G.G.D.D.b.b.b.b.b.b.v.b.c.z.z.z.z.z.z.z.c.z.z.z.z.C.b.c.b.b.v.b.b.b.b.b.b.b.b.b.b.b.b.b.b.b.C.C.C.C.C.C.Z.!.6X5XS.a.a.0.k.U ~ u.a.a.0.N.>X(.c.c.c.c.c.b.b.b.V.C.V.c.c.b.b.b.b.v.v.b.b.b.b.b.b.b.b.b.b.b.b.z.R.^.J.F.R.!.`.+XOX X X+X@X@X@XOXOXOXOXOX*X*X%X+X:X:X=X*X=X:X>X>X5X6X6X6XqXwXwXbX>X~.nXmXiX+X|.~.s.&.9.!.'.OX%X>XF.z.J.j.3.;.;.-.=.$.$.$.&.#.#.] ] o.} o.' ) ~ ) ' ' ' ) ) ) ) / ~ ~ F J J S i g b b s i s M P ~ ' ] o.#.&.$.*.3.8.r.8.+.a.z.V.N.C.F.F.H.I.J.N.",
"p.k.V.Z.H.J.Z.c.Z.I.H.r.a.c.a.a.0.0.9.9.5.&.%.] ~ F h i n B U F F B V B z U ~ ~ ' ' ' ' ' ' ~ ' ] ] ] o.o.+.#.#.$.&.&.1.1.1.2.2.5.5.3.C.OX). X>X%XOX|.!.7.' u.H.`.+XqXbXbX|.wXbXqX5X>X:X=X=X%X%X*X*X%X+X7X>X:X>X6X7X=X*XOXOX%X%X%X%X%XOXOXOXOXOXOXOX'.(.(.^.R.G.G.G.G.D.D.D.G.G.E.R.^.(.OX>X6X6XwXyXsXxXvXvXMXdXyX6X:XOX X`.U.1X>Xk.j.j.k.a.G +.a.0.a.N.;XuX XF.F.G.F.F.F.F.F.F.G.G.Z.Z.G.G.G.G.G.G.G.G.G.C.C.C.C.C.b.b.b.b.D.G.G.D.D.b.b.b.b.b.C.C.C.b.b.b.b.b.b.b.C.C.G.`.G.V.C.C.C.C.C.b.C.G.G.A.b.b.v.b.G.J.OXqXC.r.0.0.a.' / a.p.r.a.P.6X_.b.b.b.b.b.b.b.C.C.b.b.b.b.D.G.D.D.G.G.G.G.D.D.b.b.b.b.b.b.v.c.c.c.c.c.c.z.z.x.l.z.z.b.b.b.c.c.b.b.b.b.b.b.b.b.b.b.b.b.b.b.b.b.b.b.C.C.C.C.C.C.C.!.6X5XS.a.a.0.k.E ~ u.a.a.0.N.>X`.c.c.c.c.c.C.C.b.b.C.V.c.c.b.b.v.v.v.v.b.b.b.b.b.b.b.b.b.b.b.b.b.C.b.l.G.R.).`.$XOXOX X+X+X@X@XOXOXOXOX%X*X%X%X%X*X:X=X*X=X:X>X>X>X6X6X6XqXwXwXbX<XU.nXmXiX+X X~.s.&.0.H. X+X%X=X!.!.^.l.7.;.;.-.*.&.$.$.&.#.#.o.o.o.} o.} ' / ) ) ) ) ) ) ) ) / ~ Y n N U B y b B N h i s M H ~ ' ] o.+.$.$.&.3.9.0.7.+.a.c.V.N.C.N.N.z.r.&.$.",
"!.J.c.a.0.k.c.c.V.!.I.8.r.c.a.0.3.3.3.2.-.&.+...~ G z a c B U U U V B d 8 U / ' ' ' ' ' ' ' I ' ] ] ] o.o.#.#.&.&.&.&.1.2.2.2.3.3.3.7.C.%X$X*X>X%X+X|.!.0.] a.!.OX%XqXbXbX%XgXbXqX5X:X>X%X%X%X%X%XOXOXOX%X*X=X:X7X=X*X%XOXOXOX%X%X%X%X%X+X+X+X+XOXOX'.(.R.L.G.G.G.G.G.G.G.G.L.L.E.R.!.(. X*X6XwXpXsXcXvXmXmXmXMXaXqX>X%XOX|.!.$X0Xz.j.j.a.a.G &.a.u.k.N.;XuX XF.F.G.F.F.F.F.F.F.G.G.C.Z.G.G.G.G.F.F.G.G.G.G.D.C.C.G.G.J.].J.b.G.D.D.m.m.b.b.b.b.b.C.D.D.C.C.b.b.b.C.C.C.^.=XJ.C.C.C.D.C.C.C.C.G.G.G.C.C.b.G.G.G.).6XF.r.0.0.a.' / a.r.r.p.P.6X^.b.b.b.b.C.C.C.D.G.D.b.b.b.D.G.D.m.G.G.G.D.D.D.b.b.b.b.b.b.b.b.b.b.b.b.v.v.v.v.c.c.v.b.b.b.z.c.b.b.b.b.b.b.b.b.b.b.b.b.b.C.C.b.b.b.C.C.C.C.b.C.C.!.6X5XS.a.a.0.j.~ ` u.a.a.0.N.>X`.c.c.c.c.N.C.C.b.b.b.b.c.c.c.c.c.v.v.v.b.b.b.b.b.b.b.b.b.b.b.b.b.A.G.G.Z.H.(. X+X+X$X+X+X+X+X+X+XOXOXOX%XOXOX7X:X%X%X=X=X=X>X7X>X>X6X6XqXqXwXwXbXqXXXnXmXfX%XOX`.k.1.q.!. X+X%X=X'.$X$Xc.9.5.-.*.-.&.$.$.$.&.#.o.o.o.o.o.} ] ) ) ) / ) ) ) ) ) ' / I a n ~ B i F V N h i s M H ~ ' ] o.+.#.&.&.2.7.0.7.&.a.a.9.7.3.$.o.1.0.z.C.",
"'.`.!.!.J.c.0.&.7.C.F.1.8.c.a.9.2.-.&.&.&.&.o...~ G z a c B U Y Y V V g 7 U ~ ' ' ' ' ' ' ' G ) ] o.o.+.+.#.#.$.&.&.&.2.2.2.2.3.3.3.7.C.*X,X:X>X%X+X|.!.q.] a.^.OX:XtXxXmX>XgXgXqX6X>X:X@X+X+X+XOXOXOX XOXOX%X*X=X*XOXOXOXOXOXOXOXOXOXOX+X+X+X+XOXOX'.(.E.G.G.G.G.G.G.G.G.G.L.R.E.R.!.). X*X,XyXpXkXcXmXmXmXvXMXaX6X>X+XOX X~.$X0Xz.j.j.a.a.G $.a.u.k.N.;XuX XF.F.G.F.F.F.F.F.F.J.J.G.G.G.G.G.G.F.F.G.G.G.G.G.D.G.C.C.J._.G.D.G.D.D.m.m.b.b.b.b.b.C.G.G.b.b.b.b.C.C.C.C.^.&XF.C.C.C.D.D.C.C.C.G.G.G.C.C.C.G.G.G.J.7XC.r.0.0.a.' / k.r.r.r.J.7X^.b.b.b.b.C.C.D.G.G.G.b.b.b.D.G.D.D.G.G.G.D.D.D.b.b.b.b.b.b.b.b.b.V.V.b.b.v.v.v.v.b.b.b.b.z.l.c.b.b.b.b.b.b.b.b.b.b.b.b.b.C.C.b.b.b.C.C.C.C.b.C.C.!.6X5XS.a.a.0.j.) ' a.a.a.0.N.>X`.c.c.c.N.N.C.C.b.b.b.b.c.c.x.x.c.v.v.v.b.b.b.b.b.b.b.b.b.b.b.b.b.G.R.G.C.H.`. X$X+X%X%X+X+X+X+X+XOXOXOX X XOXwXwX%X+X%X%X=X=X>X>X>X6X6XqXqXwXwXlXkX;XbXmXgX*XOX`.z.1.a.!.OX%X%X>XOX*X=XC.w.5.-.*.-.*.$.$.$.$.#.o.} o.o.o.} ] ' / ~ ) ) ) ) ) ) ' / G 8 b ~ N g L V b d i s M H ~ ) ] o.+.+.$.$.1.4.9.3.&.r.1._ o.1.0.a.C.F.F.F.",
"`.).).).U.U.H.N.V.F.z.+.' &.5.3.9.9.5.=.&.+.o.o.~ G n s n B P U Y F L B 8 U ~ ' ' ' ' ' ' ~ F ~ o.o.o.+.#.#.%.$.=.&.-.2.2.3.3.3.5.3.7.C.*X>X,X>X*X+XOX(.q.o.a._.*X5XpXbXmX5XlXlXuX6X>X=X%X%XOXOX XOXOX X X X X XOXOX X X XOX%X*X%X%X+X+X+X+X%X%X+XOX X(.L.G.G.G.G.G.G.G.^.4X[.^.R.R.!.). X$X<XqXpXxXmXmXmXmXvXxXiXtX>X;X+X|.~.:X,Xk.j.a.a.a.B &.a.u.k.N.;XuX XF.J.F.G.G.G.F.F.F.J.J.G.G.G.G.G.G.F.F.J.J.G.G.G.G.G.G.C.G.G.G.G.G.G.G.D.C.C.C.b.b.b.C.G.G.G.b.b.b.C.C.C.D.Z.Z.C.C.C.C.C.G.G.G.A.G.G.G.G.G.G.D.G.G.H.-XD.a.9.9.k.../ k.r.r.r.P.*X!.C.C.C.C.b.C.C.G.G.R.C.G.G.C.G.D.D.D.m.m.m.b.D.C.C.C.C.b.b.b.b.b.V.V.b.b.b.b.c.b.b.b.b.b.c.c.b.b.b.b.b.b.b.b.b.b.b.b.b.b.b.b.b.b.C.C.C.D.C.C.V.V.!.6X5XS.a.a.q.j.) ' 0.u.a.0.C.qX`.c.b.b.b.b.b.b.b.b.b.b.b.v.c.c.l.c.v.v.v.b.b.C.b.b.b.b.v.v.v.b.R.G.b.l.C.R.`.'.$X%X%X%X%X@X+X+XOXOXOX XOXOXOX*X%X%X%X*X%X*X%X=X=X7X6X6XqXqXwXiXkXgXqXbXmXgX6X+X).B.1.q.U. X%X>X6X%XOX6XF.9.;.5.*.*.*.&.$.$.$.$.o.o.o.+.o.o.] ' ` ` ' ' ) ) ) ) ' ~ F 8 N Y S m G G m h i d M H ! ) o.o.o.o.o.o.] o.~ ' O.a.a.a.z.z.M.V.C.Z.F.F.",
"`.).).).!.!.!.U.!.).H.9...o.' ' ..%.-.-.;.+.o...~ G n s n B P U Y F L B 8 Y ) ' ' ' ' ' ] ) Y ' o.o.o.o.#.#.$.$.=.*.-.-.2.3.3.3.5.5.7.C.*X>X,X>X%X%XOX(.a.#.d.`.*X5XpXbXmX>XgXgXuX6X>X=X*X%X%X%XOXOX X X`.`.`.`.`.`.`.`.`. XOX+X%X+X+X+X+X%X%X%X+X+XOX!.J.G.G.G.G.G.G.G.OXrX4XE.R.R.!.). X$X<X3XpXxXmXmXmXmXvXxXiXqX>X%XOX|.).:XqXk.a.a.j.k.V =.a.u.k.N.;XyX XJ.J.J.G.G.G.F.J.J.J.J.G.G.G.G.G.G.F.F.J.J.G.G.G.G.G.G.G.G.G.G.G.G.G.G.C.C.C.C.b.b.C.C.G.G.G.b.b.b.C.C.C.C.Z.Z.C.C.C.C.C.G.G.G.G.G.G.G.G.G.G.D.G.G.J.-XD.a.9.0.a.' / k.r.r.a.P.:X!.C.C.C.C.b.C.C.G.G.A.C.[.^.G.D.D.D.D.m.m.m.b.D.C.C.C.C.b.b.b.b.b.V.V.b.b.b.b.c.b.b.b.b.b.E.].C.b.b.b.b.b.b.b.b.b.b.D.D.D.b.b.b.b.C.C.C.D.C.C.C.V.!.6X5XS.a.a.u.j.) o.a.a.q.0.C.qX`.c.b.b.b.b.b.b.b.b.b.b.b.v.b.b.J.D.b.v.v.b.b.C.b.b.b.v.v.v.b.G.R.J.A.b.G.E.].'.$X%X%X%X%X@X+XOXOXOX X XOXOXOXOX%X*X*X*X*X*X*X=X=X7X6X6XqXqXwXiXkXkXyXbXmXgX6X+X).N.3.r.U. X%X>X6X%XOXwXJ.9.3.-.3.*.*.*.&.$.$.$.#.+.o.+.o.o.] ' ' ' ' ] ) ) ) ) ' ~ G 8 N Y G V G G m h i g v H ~ ~ ] ] ' ) ~ Y F N _ &.3.k.k.a.k.z.N.C.F.F.F.J.",
"`.).).).U.I.I.P.!.`.!.r.5.&.o.../ E ~ ..&.+.o.o.~ G n d n B P Y Y F L B 8 ! ' ] ' ' ' ' ] ' ' o.o.o.o.o.#.#.$.$.&.-.-.-.2.3.3.3.5.5.9.C.*X>X,X>X%X+XOX).a.%.j.`.%X6XpXgXnX:XgXkXuX6X>X>X%X*X*X*X*X%X X X X X`.`.`.`.`.`.`.`.'.|. XOX%X%X%X%X%X%X%X%XOX!.G.G.G.G.G.F.F.F.R.&XOXJ.R.R.!.). X+X;X,XaXdXvXvXvXvXxXdXyX6X:X+X X`.).>XqXz.k.j.k.k.V *.a.a.k.N.<XyXOXJ.H.J.G.G.J.F.J.J.G.G.G.G.G.G.G.G.G.G.J.J.G.J.J.J.J.G.G.G.J.J.J.J.G.G.G.C.G.G.G.G.D.C.D.D.b.D.b.b.b.C.D.D.C.D.C.C.C.C.G.G.G.G.G.G.G.A.G.G.G.G.G.G.J.-XD.a.q.9.a.` ) k.r.r.k.I.>X(.C.C.C.C.C.C.C.G.b.G.C.R.G.D.D.G.D.D.D.D.b.b.b.D.b.b.C.b.b.b.b.b.b.b.b.b.b.b.b.b.b.b.b.b.E.].D.b.b.b.b.b.b.C.C.C.b.b.D.D.b.D.b.b.C.G.G.G.G.C.C.C.!.6X5XS.a.a.u.j.~ o.u.u.9.7.C.qX'.V.C.C.b.b.b.b.b.b.b.b.b.b.b.b._.J.C.b.b.b.b.C.b.b.C.b.b.A.G.G.R.L.G.A.G.^.'.OX$X%X%X%X+X+X X XOXOXOX XOXOXOXOX+X%X*X*X*X*X*X=X=X7X6X6XqXwXuXiXbXbXiXbXmXgX5X+X`.N.3.a.!. X%X>XqX>X X7XG.0.5.-.3.*.*.*.&.$.$.$.&.+.o.+.o.o.] ' ' ' ' ' ' ) ) ) ' / G 8 N Y S S G G m h i d M H ~ ~ / ~ m B V G ~ o.&.3.7.z.k.a.k.z.V.S.F.J.J.J.",
"`.).).).I.I.J.F.H.).!.r.3.-.=.o.o...~ Y `  ...+.~ G n d n B P U Y F L B i ~ ' ] ' ' ' ' ' ' ] +.o.o.o.o.#.$.$.&.&.-.-.2.2.3.3.3.5.3.7.C.:X:X,X>X%X%XOX).a.%.l.{.*X6XpXpXxX%XgXkXuX6X5X>X%X*X*X=X*XOX X X X X`.`.'.'.'.'.).).).`.`. XOX$X%X%X%X%X*X%XOX!.F.G.G.G.G.F.F.F.H.J.R.J.R.E.!.(.`. X*X,XBXpXxXxXMXxXdXiXyX6X:X+X X`.).6XwXc.z.k.k.j.G *.j.a.k.N.<XyXOXJ.H.J.J.G.F.F.J.J.G.G.G.G.G.G.G.G.G.G.J.J.G.J.J.R.J.J.J.J.J.J.J.J.F.G.G.C.G.G.G.G.D.D.D.b.b.D.m.b.C.D.C.D.C.D.C.C.C.C.G.G.G.G.G.G.A.G.G.G.G.G.G.G.J.-XD.a.q.9.u.~ ) k.r.e.k.I.7X(.C.C.C.C.C.C.C.G.G.G.G.b.b.C.b.b.D.D.D.D.b.b.b.b.b.b.b.b.b.b.b.b.b.b.b.b.b.b.b.b.b.b.b.b.c.c.b.b.b.b.b.b.C.C.C.C.D.D.G.D.D.D.b.b.G.G.G.G.G.C.C.C.!.6X5XS.a.a.u.j.Y ' 0.9.7.7.C.qX'.C.C.C.c.c.b.b.b.b.b.b.b.b.b.b.G.b.z.b.b.b.b.C.C.C.A.A.C.G.G.G.J.G.G.A.G.^.'.OX%X%X%X%X+XOX X X|.OXOX XOXOXOXOX+X+X%X%X%X*X*X=X=X7X6X6XqXwXuXiXbXbXpXbXmXgX6X+X|.C.7.a.!.OX*X>X6X6X). Xb.9.9.7.3.2.*.*.*.&.$.$.&.$.+.o.o.o.] ' ' ` ) ) ) ) ) ) ' / G 8 B I B N G G m h i s M H ( ~ ~ Y B G U Y ' &.&.&.3.z.k.a.a.z.C.F.J.J.J.J.",
" X).).`.!.I.I.H.J.I.J.r.3.*.&.#...' ' ' ..' ..o.) G h s n B U ~ Y F L B i ~ ' ] ] ] ] ] ' ] ] o.o.+.+.+.#.$.$.&.&.-.-.-.5.5.3.5.5.9.9.C.%X<X,X>X*X%X+X).k.=.l.`.*XwXxXpXpX6XMXbXiXqX6X>X*X*X%X%XOXOX X X X'.`.`. X+XOX'.`.`.`.`.(.'.'.`. XOX%X%X*X%XOX!.J.J.J.G.G.G.G.G.G.G.J.J.R.R.!.!.). X X;X3XyXyXpXpXpXpXyXqX<X%X+X|.).U.*X:Xk.a.k.a.k.G 3.j.a.k.N.:XyXOXJ.H.J.J.G.G.G.F.J.G.G.G.G.G.G.F.F.G.J.J.J.J.E.!.R.E.E.J.J.J.J.J.J.J.F.G.G.G.G.G.G.G.C.D.b.b.b.D.b.C.C.C.C.D.D.D.D.C.C.C.C.G.G.G.G.D.D.G.G.G.G.G.G.R.=XH.a.q.q.a./ ) a.r.e.k.I.6X!.C.C.C.C.G.G.C.C.G.G.D.C.C.C.b.b.b.b.D.G.D.D.b.b.b.b.C.C.b.b.b.b.b.b.b.b.b.b.b.b.b.b.b.b.b.b.b.b.C.C.C.C.C.C.C.C.C.D.D.D.C.b.D.G.G.G.G.G.G.C.F.C.).>X5XS.a.a.u.j.' ) 0.7.7.3.Z.>X`.z.C.J.D.D.C.b.C.C.b.b.b.b.b.b.b.b.b.b.C.b.b.C.C.A.A.A.G.C.D.G.U.J.D.b.J.^.'.OX%X;X@X+X%X+X X X|.|.OXOX XOXOXOXOX+X%X%X%X*X*X-X=X7X5X6XqXwXuXiXbXbX;XsXbXgX6X:X XC.7.a.!.+X*X>X6X6XH.J.k.9.9.7.3.5.2.*.*.&.$.$.&.$.#.+.o.o.] ' ' ' ) ) ) ) ) ) _ ~ G 8 B I N B G G N h a g c H ~ U Y ~ L G ~ ) } &.&.1.3.k.k.k.N.V.C.Z.H.F.F.J.",
").).).`.(.I.I.J.J.I.J.r.3.*.&.#...] ' ` ] ' ..o.` G h d n B U ~ Y G I B i ~ ' ] ] ] ] ] ] ] o.o.o.+.+.+.#.$.$.&.&.-.-.-.5.5.3.3.5.9.9.C.%X<X,X>X*X%X+X).z.-.v.[.:XtXxXiXgXxXmXkXiXqX6X>X*X*X%X%XOXOXOX X X X`.`. XOXOX`.`.`.`.`.`.'.'.(. X XOX%X*X*X+X).R.F.J.G.G.G.G.G.G.G.J.J.E.R.!.^.(.`. X+X:X,X6XyXuXyXyXyX,X:X+XOX'.).H.$X-Xk.a.a.a.a.G ;.j.a.k.Z.:XuXOXJ.H.H.J.J.G.G.J.J.G.G.G.G.G.G.F.F.G.J.J.J.R.^.^.R.E.E.E.R.J.J.J.J.J.F.G.G.G.G.G.G.G.G.D.D.D.D.D.D.C.C.C.C.D.D.G.G.G.G.G.G.G.G.G.G.D.D.G.G.G.G.G.G.R.=XH.a.q.q.a./ ) a.r.e.s.P.6X!.C.C.C.C.G.G.G.G.A.G.D.C.C.C.b.b.b.b.D.G.D.D.b.b.C.C.C.C.b.b.b.b.b.b.b.b.b.b.b.b.b.b.b.b.b.b.C.b.C.C.C.C.C.C.C.C.C.D.D.D.C.D.G.G.G.G.G.G.G.C.G.N.~.>X5XF.a.a.q.j.~ U 9.0.7.3.N.:X`.c.D.J.G.D.C.b.C.C.b.b.b.b.b.b.b.b.b.C.C.C.b.C.C.A.A.C.G.D.D.J.(.).(.G.J.^.'.OX%X;X@X+XOX X X X|.).OX|. XOXOXOXOX+X*X*X%X*X*X-X=X7X5X6XqXwXuXiXbXbX.XiXbXpX6X:X XC.7.a.U.+X*X>X6X6XI.H.k.9.9.7.3.5.3.*.*.&.$.$.&.$.#.+.o.o.] [ ' ' ) ) ) ' _ _ _ ~ G 0 B I N B J G N h a g c H ~ U Y ~ L G ~ ) } &.&.1.3.k.k.k.N.V.C.Z.F.F.F.J.",
"`.`.).!.(.U.I.H.J.I.J.r.3.*.&.#.o.] ) ~ ' ' o.#.` G h d n B U ~ Y G I B i ~ ' ] ] ] ] ] ] } o.o.+.#.#.+.#.$.&.&.-.-.-.2.3.5.3.3.5.9.9.C.%X:X,X>X*X%XOX).z.-.v.[.:XtXxXiXbXbXmXbXiXqX6X>X*X*X*X%XOXOXOXOX X X X X|.|.'.`.`.`.`.].`.'.'.'.'.'. XOX*X*X+X`.R.!.J.G.G.G.G.G.G.G.G.G.L.E.E.!.^.).`.OX%X*X*X,X6X,X6X0X*X%XOXOX X(.J. X*Xz.a.a.r.a.V *.u.0.k.Z.<XuX+XP.R.R.R.J.J.J.J.J.J.J.G.G.F.G.G.G.G.J.J.E.^.^.^.R.R.J.R.R.J.J.J.J.J.G.G.G.G.G.G.G.G.G.G.D.D.D.D.D.C.C.C.C.G.G.G.G.G.G.G.G.G.G.G.G.G.G.G.G.G.G.F.F.R.4XH.a.q.q.a./ ) a.r.e.s.I.6X!.C.D.D.D.G.G.G.G.G.A.G.C.C.C.b.b.b.b.D.G.D.C.b.b.C.C.C.C.b.b.b.b.C.C.C.b.b.b.b.b.b.b.b.b.b.b.b.b.C.C.D.G.G.C.C.C.C.C.D.D.D.G.G.G.G.G.G.G.G.C.G.C.).>X5XJ.a.a.q.j.U G 0.w.9.8.N.:X).C.G.G.G.D.C.C.C.C.b.b.b.b.b.b.b.b.C.D.G.C.b.b.G.G.G.D.D.D.D.F.).1X X!.L.(.'.%X%X;X@X+X XOX%X>X:X).OX|. XOXOX+X+X%X=X*X*X*X*X-X=X7X5X6XqXwXuXiXbXxX.XiXbXpX6X:X XC.7.a.!.OX*X>X6X6X!.!.k.0.9.7.9.5.3.-.*.&.$.$.&.$.#.+.} } ] ] ] ' ' ) ' ' _ _ _ ) J 7 B I N V L J N h a g c H ~ U ~ ~ L J ~ ) } &.&.2.3.k.k.k.N.V.C.Z.F.F.C.c.",
"C.J.!.!.(.U.I.H.J.I.J.r.3.*.&.#.o.] ) ~ ' ' ] #.` G h d n B U ~ Y G L B i ~ ' ..] ] ] ] } o.o.+.#.#.#.+.$.$.&.*.-.-.-.3.3.5.3.3.3.9.9.C.%X:X,X>X*X%X+X).k.=.l.`.:XtXxXiXbXkXmXbXiXqX6X>X*X*X*X%XOXOXOXOX X X X X'.`.`.`.`.`.`.]._.`.OX*X'. XOX%X*X*X%X|.OX4XR.G.G.G.G.G.G.G.G.G.G.L.R.E.!.(.`.'.OXOXOX%X$X%X*X*X$XOXOX X'.(.F.'.*Xz.k.r.q.a.V =.w.0.k.Z.:XuX+XJ.R.R.R.J.J.J.J.J.J.J.G.G.F.G.G.G.G.J.J.E.^.^.^.R.J.J.R.J.J.J.J.J.J.G.G.G.G.G.G.G.G.G.G.G.G.G.G.G.G.G.G.G.G.G.G.G.G.G.G.G.G.G.G.G.G.G.G.G.G.G.F.F.H.=XJ.a.q.q.a./ ) j.r.e.s.I.6XU.C.D.D.D.G.G.J.R.A.A.G.C.C.C.b.b.b.b.C.G.D.C.b.b.C.C.C.C.b.b.b.b.C.C.C.b.b.b.b.b.b.b.b.b.b.b.b.b.G.G.G.G.G.C.C.C.C.C.D.D.G.G.G.G.G.G.G.G.C.G.R.J.).>X5XJ.a.a.q.j.U L a.0.0.7.Z.%X).C.J.D.D.D.C.C.C.C.b.b.b.b.b.b.b.b.D.D.J.G.b.b.G.G.G.G.D.D.D.J.). X X(.H.`.OX%X%X;X@X@X+X+X+X@X%XOX+X|.OXOXOX+X+X%X>X*X*X*X*X-X=X7X5X6XqXwXyXiXkXxX.XpXbXpX6X:X XC.8.a.!.+X*X>X6X6X(.`.z.0.9.7.9.5.3.-.*.&.$.$.&.$.#.+.] ] ] ] ..' ' ' ' ' ' _ _ ) J 6 V U B S J J N h a g c H ~ Y ~ ~ L J ~ ) o.&.&.2.3.k.k.k.N.V.C.Z.N.z.0.1.",
"7.7.0.a.k.V.F.J.H.H.F.a.3.3.*.&.#.] ) ~ ) ' ] o.' F h d z Z Y / ~ F L V i ~ [ ..] ] ] ] } o.+.#.+.+.+.+.&.&.=.&.*.1.3.3.3.3.3.7.3.7.0.F.:X:X,X6X:X+XOX).q.%.b.{.:XuXgXxXmXiXcXcXpXwXqXqX<X:X%X$X%XOXOXOXOXOXOX%X|.'.'.`.`.`.`._.(.`.'.[.'.'.OX%X*X*X%X|.6XOXR.G.G.G.G.G.G.G.G.G.J.L.H.R.^.(.`.'._.`.[.OXOXOXOXOXOX X'.`._.(.H.OX*Xz.k.k.a.a.V =.w.a.k.Z.;XuX+XJ.R.R.R.J.J.!.R.J.J.J.J.J.F.F.R.J.J.J.H.H.R.R.R.R.L.L.H.H.H.H.H.L.J.G.G.G.G.G.G.G.D.D.D.G.G.G.E.rX`.G.D.G.G.G.G.G.G.G.G.G.G.G.G.G.G.G.G.G.G.G.F.F.U.>XF.k.a.a.z.' ' j.r.t.k.I.6XY.G.G.G.G.G.G.A.G.G.G.G.A.C.b.b.b.b.b.C.C.C.C.b.b.C.C.C.C.C.C.b.b.b.b.b.D.b.b.b.b.b.b.b.b.b.b.b.D.C.C.G.G.G.C.D.C.C.C.G.G.G.G.G.G.G.G.G.G.b.G.!.F.`.qX6XF.a.a.0.c.U L 0.0.9.4.Z.<X|.F.J.D.D.D.D.C.C.C.b.b.b.b.b.b.C.C.C.D.D.D.C.C.G.D.F.J.D.D.D.H.!.!.).`./.`.OX+X:X:X:X:X:X@XoX|.@X@X+XOXOXOXOX+X%X%X*X*X*X*X=X=X>X5X6X0XqXwXyXiXkXkX;XiXnXpX6X:X XZ.7.a.^.OX=X5X6X:X X'.z.0.9.9.3.5.2.-.-.-.&.=.$.$.#.#.o.o.] o.o.] ' ' ' ' ' ' ' _ G 3 V U B V L J N g i d n J ~ Y ! ! J G U _ o.&.$.*.3.z.c.z.a.a.7.7.&.$.&.7.",
"!.J.z.9.&.&.1.0.a.c.C.q.3.7.3.&.#.] ~ Y ' ) ] o._ F h s h B Y / ~ Z L V i E ' ..] ] ] ] } o.+.#.+.+.+.%.&.&.=.&.*.3.3.3.3.3.3.7.7.7.0.F.:X:X,X6X:X+XOX).a.&.b.{.=XuXgXxXnXiXcXMXiXwXwXqX>X:X*X$X%X%XOXOXOXOX%X%X X X'.'.`.`.`.`.`.`.'.'.'.'.OX%X*X*X*X|.OX!.J.F.G.G.G.G.G.G.G.G.J.H.H.E.^.(.).`.(.`.'.'. X X X X X`.`._.^.^.J.'.*Xz.k.k.a.a.V =.y.u.k.Z.;XuX+XJ.R.!.^.^.F.-X-XG.J.J.J.J.J.J.!.!.H.J.H.H.R.R.R.R.L.L.H.H.H.H.L.L.J.J.J.J.J.G.G.G.D.D.D.G.D.G._.nX$XE.G.G.G.G.G.G.G.G.G.G.G.G.G.G.G.G.G.G.F.F.F.F.F.*XD.k.r.a.k.` ' j.r.t.k.Y.,XI.F.F.F.G.G.G.A.G.G.G.G.A.C.C.b.b.b.b.C.C.C.C.b.b.C.C.C.C.C.C.C.b.b.b.b.D.D.D.m.b.b.b.b.b.v.D.b.D.D.C.C.G.G.G.D.C.C.C.D.D.C.C.G.G.G.G.G.G.G.G.H.C.).0X6XF.j.u.w.z.U U y.u.9.4.Z.<X|.F.J.D.D.D.D.C.C.C.b.b.b.b.b.b.C.C.C.C.D.D.C.D.D.G.G.D.F.F.J.I.J.H.!.!.`.{.+X:X:X>X:X<X>X@X+X.X@X@X+XOXOXOXOX+X%X*X*X*X*X*X=X=X>X5X6X0XqXwXyXiXbXbXtXkXmXgX6X:X XC.7.a.!.OX*X>X6X:X X Xz.0.9.9.3.3.3.-.-.-.&.=.$.$.&.#.+.o.} ] ] ] ] ' ' ' ' ' ' _ G 3 V U B V L J N g i d n L ~ ~ ~ ~ J G U _ o.&.*.*.$.9.3.&.] ' ' &.r.k.C.Z.",
"`.`.!.J.H.F.k.0.$.+.$.+.o.+.#.&.] ` / ~ ' / ] o.' F h d z Z Y / ~ F L V i ~ [ ..] ] ] ] o.o.+.#.+.%.%.%.&.&.=.&.*.3.3.3.3.3.7.7.7.7.0.F.*X:X>X5X:X@XOX`.k.&.b.{.:XtXgXxXbXyXbXbXpXuXwXqX,X>X*X%X%X%X+X+X+X+X%X%XOXOX'.'.`.`.`.`.`.`.'.'.'.'.OX+X*X*X%X|.!.R.J.J.F.F.F.F.G.G.G.G.J.H.H.!.^.^.!.(.(.(.(.`.`.`.).).).).(.(.^.!.F.'.*Xz.k.k.a.a.V =.y.u.z.Z.;XuX+XJ.R.!.^.^.J.OX[.G.J.J.J.J.J.J.!.!.H.H.H.H.R.R.R.R.L.L.H.H.L.L.L.L.J.R.H.R.J.J.F.G.D.D.G.G.D.G.J.7XR.G.G.J.G.G.G.G.G.G.G.G.G.G.G.G.G.G.G.G.J.J.H.J.J.$XC.z.q.q.a.~ ' j.r.e.k.Y.6XI.J.J.J.J.G.G.G.G.G.G.A.G.G.C.C.C.C.C.C.C.C.C.C.C.C.C.C.C.C.C.C.C.C.C.C.D.G.G.G.D.b.b.b.b.G.G.b.G.G.G.G.G.G.G.G.G.G.G.D.D.G.G.G.G.G.G.G.G.G.G.J.c.(.6XqXJ.j.q.w.c.~ Y a.a.9.4.Z.<X|.F.J.D.m.D.D.D.C.C.b.D.b.D.D.D.C.C.b.D.C.C.D.G.D.G.G.J.^.R.J.H.S.F.J.J.!.`.+X:X<X<X<X<X<X:X;X;X@X@X+XOXOXOXOX+X%X*X*X*X*X=X=X=X>X5X6X0XqXwXyXiXbXmXxXbXmXgXqX<X XZ.7.a.^.OX=X5X6X:X'. Xz.0.9.9.3.3.5.2.-.-.*.&.$.$.$.#.#.#.o.} ] ] ] ' ' ' ' ) _ _ L 6 V U B V L L B g i s n L ~ ~ ~ ~ G F U _ #.o.~ Y Y ] ] o.$.9.V.F.F.H.!.!.",
"`.!.!.`.`.!.H.H.Z.c.k.9.' Y L U L L U ~ ' ~ ' o.' F h s z Z Y / ~ F L V i ~ [ ..] ] ] ] o.o.+.+.%.%.+.%.&.&.=.&.1.3.3.3.3.7.7.9.7.7.0.J.*X*X>X6X:X%X+X'.c.2.C.{.:XtXgXxXbXyXxXxXiXwXqXqX,X>X*X%X%X%X%X%X+X%X%X%XOXOXOX'.`.`.`.`.'.'.'.'.'. XOX+X*X*X%X'.R.J.J.J.F.F.F.F.G.G.G.G.J.H.H.!.^.^.^.^.^.^.^.^.^.!.!.!.!.!.(.(.^.!.F.'.*Xz.k.k.a.a.V =.w.u.z.Z.;XuX+XJ.R.R.R.R.R.J.J.J.J.J.J.J.J.J.R.J.H.H.H.H.R.R.R.R.L.L.H.H.L.L.L.L.J.H.R.R.R.J.F.G.G.G.G.G.G.G.G.G.G.C.J.J.G.G.G.G.G.G.G.G.G.G.G.G.G.G.G.G.H.H.H.H.(.*XC.z.q.q.j.) ' j.r.e.k.Y.6XI.J.J.J.J.G.G.G.G.G.G.G.G.G.A.C.C.C.C.C.b.C.C.C.C.C.C.C.C.C.C.C.C.C.C.C.D.D.D.D.b.b.b.b.b.G.G.D.].E.L.G.G.b.D.G.L.G.G.G.G.G.G.G.G.G.G.G.G.D.C.J.b.!.6XqXJ.a.q.w.z.( ~ a.d.9.4.Z.:X|.Z.J.D.m.D.D.D.C.C.b.D.b.D.D.D.C.b.b.b.C.C.C.G.G.G.G.`.&X`.J.G.A.S.J.H.H.~.oX@X<X,X<X<X<X<X:X:X;X@X+XOXOXOXOX+X%X+X*X*X*X=X=X*X>X5X6X0X0XwXyXiXkXmXkXmXmXkXqX>X XC.4.a.^.OX=X5X6X>X'.'.z.0.9.9.3.3.3.3.-.-.-.&.$.$.$.&.#.#.+.o.o.] ] ' ' ' ' ) _ _ L 6 V U B V L L B g i s n L / / / ~ J N c M c b J ] 3.q.q.a.Z.Z.F.Z.F.H.H.F.",
"`.`.`.`.!.I.F.Z.Z.C.D.z.q.7.$.Y b c g B ' ) ' o.' P c h M Z Y ~ ! B G F i Y ' [ ] ] o.o.o.o.o.+.%.%.%.+.%.&.&.&.*.3.3.3.3.3.7.7.3.7.0.C.:X*X>X6X5X=X+X`.z.-.C.[.:XtXgXbXbXqXpXpXiXwXqX6X,X>X*X%X%X%X%X%X%X%X:X%XOXOXOX'.`.`.`.'.'.'.'.'.'. X+X+X*X*X%X'.!.R.J.F.G.J.G.G.J.J.J.J.J.J.J.J.H.H.!.!.H.H.!.!.!.!.U.U.!.!.^.^.(.E.J.'.*Xz.k.z.j.a.V *.a.a.z.F.;XuX%XH.R.R.R.R.R.H.E.R.J.J.J.J.J.J.L.L.J.R.E.E.R.R.R.R.L.L.H.H.H.H.H.J.J.F.H.R.R.F.F.G.G.G.G.G.G.G.G.G.G.G.G.G.G.G.G.J.F.F.G.G.G.G.G.G.G.G.G.G.F.J.H.F.I. XJ.k.a.a.j.E ` j.r.e.k.Y.qXJ.J.J.D.G.G.G.G.G.G.^.E.G.G.G.Z.Z.R.E.b.b.C.C.D.D.D.D.D.D.C.C.C.C.D.D.D.G.D.D.D.D.D.D.D.b.C.G.G.E.}.G.m.G.G.G.G.[.(.G.G.G.G.G.G.G.G.G.G.G.D.C.G.b.(.qXqXH.a.q.0.c.~ Y a.k.r.1.F.<X).D.D.D.D.D.D.D.G.G.G.D.G.b.D.D.C.C.b.b.b.D.G.G.G.G.G.E.[.E.W.G.J.J.J.J.F.!. X%X<X,X,X,X,X<X;X;X@X+XOXOXOXOXOX+X%X+X*X*X=X=X=X=X>X5X6X0XqXwXyXiXbXmXkXmXmXgXqX:X XC.8.a.!.%X:X5X6X>X`.OXk.u.y.9.9.3.5.5.2.-.-.&.&.$.$.$.#.+.+.o.o.] ] ' ' ' ' ) ' ' L 7 B U B N L L B l a g c I ~ ~ / / Z c b F ~ ] &.3.7.q.q.k.C.Z.F.F.J.J.J.J.",
"`.`.`.`.!.I.F.Z.C.C.C.z.9.q.q.3.&.' z g ' ) ' o.o.Y N n M Z Y ~ U M V B y Y [ ] o.o.o.o.o.o.+.+.%.%.%.%.%.%.&.&.*.3.3.3.3.3.7.7.3.9.0.C.:X%X<X6X6X:X+X/.z.2.C.[.:XtXgXmXbXyXkXkXiXwXqXqX,X>X*X%X%X%X%X%X:X:X>X>X%XOXOX'.'.`.`.`.`.'.'.'. XOX%X+X*X*X%X`.R.H.J.F.G.G.G.G.J.J.J.J.J.J.J.J.H.H.!.R.H.H.E.!.!.!.!.U.!.^.^.^.^.!.J.'.*Xz.k.z.j.j.S *.a.a.z.F.;XuX%XH.R.R.R.R.R.H.J.J.J.J.J.J.J.H.L.L.R.R.R.R.R.R.R.R.L.L.H.H.H.H.H.H.J.J.J.H.!.!.G.J.J.J.G.G.G.G.G.G.G.G.G.G.G.G.J.J.F.F.G.G.G.G.G.G.G.G.G.G.G.J.J.F.I. XP.k.a.a.j.E ` j.r.e.k.Y.qXI.J.F.F.F.G.G.G.G.G.E.J.G.G.G.Z.D.]._.G.C.C.C.D.D.D.D.D.D.C.C.C.C.G.G.G.G.G.G.G.G.G.G.G.b.D.C.C.G.L.G.b.b.G.G.D.E.E.G.G.G.G.G.G.G.G.G.G.G.G.G.G.V.!.qXqXH.a.q.0.z.~ Y a.k.a.3.J.>X`.D.D.D.D.D.D.D.G.G.G.D.G.b.D.D.C.C.b.b.b.D.G.G.G.G.G.E.R.G.G.R.J.J.G.G.J.!. X;X,X2X2X2X9X,X<X;X+X+XOXOXOXOXOX+X+X+X*X*X=X=X=X=X>X5X6X0XqXwXyXpXbXmXkXmXmXgXqX<X XC.4.a.!.OX:X5X6X>X`.'.k.u.y.9.9.3.5.5.2.-.-.&.&.$.$.$.#.+.o.o.o.] ] ] ' ' ' ) ' ' L 7 B U N N L P B l s l b U ~ ~ ~ ~ M B U ~ ] #.3.7.7.q.q.k.V.C.Z.F.F.F.F.F.",
"`.).`.`.!.I.F.Z.V.V.V.k.0.q.7.7.3.&.m g ) ) ' #.o.! B b M F Y ~ U b B B 9 U ] o.o.o.o.o.o.o.#.#.%.%.&.&.%.%.=.&.*.3.3.3.3.7.7.7.7.0.0.D.:X*X<X6X7X=X+X`.c.2.A.[.:XqXgXmXbXyXbXxXiXwXqXqX,X>X*X%X%X%X@X@X:X5XuXlX:XOX[.'.'.'.'.'.'.'.'.'.OXOX%X*X*X*X%X`.R.J.G.G.G.G.G.G.G.G.J.J.J.J.J.J.H.H.H.H.H.H.!.!.!.!.!.!.!.^.^.^.!.(.J.`.*Xz.k.z.z.k.G 3.a.a.z.F.;XuX%XH.R.R.E.E.J.J.J.J.R.H.R.R.H.H.L.L.R.R.R.R.R.R.R.R.L.L.H.H.H.H.H.H.[._.R.J._.=X^.G.G.J.J.J.G.G.G.G.G.G.J.J.G.G.G.G.F.F.G.G.G.G.J.J.G.E.E.G.F.H.H.J.I.+X!.j.a.a.j.E ` k.a.r.B.Y.wXY.J.J.F.F.G.G.G.G.G.E.G.G.G.G.G.A.J.J.G.G.D.C.C.D.C.C.D.D.G.G.G.G.G.G.G.G.G.G.G.G.G.G.G.G.G.G.G.b.J.(.E.G.G.G.G.G.G.G.G.G.G.G.G.G.G.G.G.G.G.G.F.C.).qX6XI.a.q.0.z.~ Y a.k.a.3.P.5X`.D.D.G.D.D.D.D.G.G.G.G.G.D.D.G.G.G.D.b.C.D.G.G.G.G.G.G.G.G.G.G.G.R.R.J.H.!.OX;X2XBXtXaXaXtX,X<X+X+X+XOX+XOXOX+X%X+X*X*X*X=X=X=X>X5X6X0XwXwXyXpXbXmXkXmXmXgXqX<X XC.7.a.!.%X:X5X5X>X).`.z.u.y.0.9.9.3.3.2.-.-.&.&.&.$.$.#.#.+.o.o.o.] ] ' ' ' ' ' ' L 7 B U N N L P B h g l M U ~ ! Y U b J ~ ' +.&.3.9.7.q.q.k.N.V.C.Z.F.F.F.F.",
").).`.`.!.I.F.Z.c.c.V.j.q.q.3.7.3.&.m h / / ] &.} U N n M F Y ~ U M V B 9 U ] o.o.o.o.o.o.o.#.#.%.%.&.&.&.&.=.&.*.3.3.3.3.3.7.9.9.0.r.F.>X:X>X6X7X=X+X/.c.2.A.[.:XqXgXmXbXiXbXbXpXwXwXqX,X>X:X*X%X%X@X@X%X:XuXbX5XOXOX'.'.'.'.'.*XOX'.`.$XOX%X*X*X*XOX`.J.J.G.G._.^.G.G.J.G.G.J.J.J.J.J.H.H.H.H.H.H.!.!.!.!.!.!.!.^.^.^.!.(.H.).*Xz.k.z.k.k.G 3.a.a.z.F.;XuX%XH.H.R.E.E.J.J.J.J.R.R.R.R.R.H.L.L.R.R.R.R.R.R.R.R.H.L.H.H.H.H.H.H.[.^.R.R.!.&X`.J.J.J.J.J.G.G.G.G.G.G.J.J.G.J.G.G.F.F.G.G.G.G.J.J.E._._.R.J.!.!.H.Y.%X!.j.a.a.j.E ` j.a.t.B.Y.wX!.J.J.F.F.G.G.G.G.G.J.G.G.G.G.G.G.C.G.C.G.C.C.C.C.C.C.G.C.G.G.G.G.G.G.G.G.G.G.G.G.G.G.G.G.E.G.G.G.G._.^.C.G.G.G.G.G.J.G.J.G.G.G.G.G.G.G.G.G.G.J.C.).qX6XI.a.q.0.c.~ ! a.k.j.7.I.6X`.D.D.G.D.D.D.D.G.G.G.G.G.D.G.G.G.G.G.D.b.D.G.G.G.G.G.G.G.G.G.J.J.R.W.G.H.!.+X;X2XBXaXNXNXaX2X<X+X+X+X+X+XOXOX+X$X%X%X*X*X=X=X=X>X5X6X0XwXwXyXpXbXmXkXmXmXgXqX:X XC.7.a.!.%X:X5X6X*X!.!.z.u.y.0.9.9.3.3.2.2.-.&.&.&.$.$.#.#.+.o.o.o.] ] ' ' ' ' _ ' L 7 B P B N L L B l g h M U ~ U U J M H ~ ] #.&.3.9.7.q.q.k.c.N.V.C.Z.D.D.Z.",
"!.!.(.!.!.H.F.C.Z.C.c.a.u.0.0.u.9.%.B h ~ ~ ' $...U N n N F Y ~ U m V N 0 U ] o.o.o.o.+.+.+.+.$.&.$.$.$.&.&.&.&.-.2.5.3.3.9.9.0.0.r.p.J.:X:X<X6X6X=X+X).z.2.C.[.>XqXgXmXbXiXmXcXpXuXyXqX,X>X:X:X%X%X%X+X%X>X6XqX*XOXOX X X X'.'.*XOX X X%XOX%X%X=X=X%X).J.G.G.G.!.J.G.G.J.G.G.J.J.R.E.J.R.R.R.R.E.E.E.E.!.!.!.!.!.H.R.^.^.^.H.`.6Xc.j.k.k.l.G 3.j.j.z.F.:XuX%XJ.H.H.H.H.R.R.R.R.L.L.H.H.E.E.R.R.R.R.R.R.R.R.R.R.L.H.H.H.H.H.H.H.H.H.H.H.F.H.R.J.J.J.J.J.J.J.J.J.J.J.G.G.'.R.G.J.J.J.J.J.G.G.J.J.J.J.J.J.J.J.R.H.I.:X!.k.a.a.c.E ` j.a.t.k.).pX!.J.J.F.F.G.J.R.G.G.J.G.G.G.G.G.G.G.G.G.G.G.G.G.G.G.G.G.G.G.G.G.G.{.[.^.G.G.G.G.G.G.G.G.G.G.G.G.G.J.J.J.J.J.J.G.L.J.J.G.J.G.G.G.G.G.G.G.G.R.J.J.C.).qX0XI.a.a.a.c.~ ~ k.j.j.0.I.6X`.D.G.G.G.G.G.G.G.G.G.G.G.D.G.!.4X_.C.G.C.J.G.G.G.G.G.G.G.G.G.J.J.J.G.G.R.!.OX<X2XBXaXNXNXaX2X<X+X+X+XOX+X+X+X+XOXOX%X*X%X=X=X=X>X6X6XqXqXwXyXpXbXmXxXmXmXgXwX:X XC.7.a.(.%X:X5X6X*X XOXb.0.0.0.9.3.3.5.3.2.2.&.&.&.&.&.$.+.+.o.o.o.} ] ] ' ' ' ) _ L 7 B P B B L L B h s h N ! ! P G J N P ~ o.#.&.3.3.q.9.q.k.c.C.Z.Z.Z.S.D.Z.",
"Y.Y.!.!.!.R.F.A.C.V.z.a.a.u.0.0.7.#.B c ~ ~ ' $...U N n N F Y ~ Y N V B 8 U ] o.o.o.+.+.+.+.+.$.&.$.$.$.&.&.&.&.*.-.3.5.3.7.9.0.0.r.p.J.:X:X<X6X5X=X+X~.z.1.Z.[.>XqXgXmXbXpXmXbXgXuXuXwX,X>X:X-X*X%X%X+X+X>X>X:X%XOXOXOX X X'.'.OXOX-X0X%XOX%X%X:X:X%X).F.G.G.G.J.G.G.J.J.G.G.J.R.R.E.E.E.R.R.R.E.E.E.E.!.!.!.!.!.'.`.R.^.^.!.`.qXV.k.z.j.j.G 3.j.a.c.F.:XuX%XJ.H.H.H.H.R.R.R.R.L.L.H.H.R.R.R.R.R.R.R.R.R.R.R.R.L.H.H.H.L.H.H.H.I.H.H.H.J.J.H.J.J.J.J.J.L.L.J.J.J.J.G.G._.R.J.J.J.J.R.E.L.L.J.J.J.J.J.J.R.E.R.H.!.<X!.k.a.a.z.E ` j.a.t.B.XXkX).J.J.J.J.J.J.R.R.G.J.J.G.R.E.E.G.G.G.G.G.G.G.G.G.G.G.G.G.G.G.G.G.E.^.R.G.G.G.G.G.G.G.G.G.G.G.G.G.J.J.J.J.J.J.G.G.J.J.G.J.G.G.G.G.G.G.G.G.R.J.J.C.).qX0XI.a.a.a.z.) ) z.l.a.0.!.5X`.F.G.G.G.G.G.G.G.G.G.G.G.G.J.R.[.R.G.J.G.OX^.G.G.G.G.G.G.G.J.J.J.J.G.G.R.(.$X>X2XaXaXNXNXaX2X:X@X+X+X+X+X+XOXOX%XOX*X=X=X=X=X=X>X6X6XqXqXwXyXpXbXmXxXmXmXgXwX:X XC.7.a.!.+X:X5X6X%X XOXC.y.y.0.9.3.3.5.2.2.2.&.&.&.&.&.&.+.+.o.o.o.} ] ] ' ' ' ) _ U 8 B P B M J J N h a g B ! ! P G P v H ~ ..+.*.7.9.9.9.a.k.k.c.N.V.V.C.C.C.",
"Y.Y.!.!.!.Z.e.a.k.j.a.u.y.0.9.5.7.#.V n ~ ~ ] $...U N k N F Y ~ ~ B F V y Y o.o.o.+.+.+.+.+.$.&.$.$.$.$.&.&.&.&.&.-.2.5.3.9.9.0.0.r.p.J.:X:X<X6X5X*X+X~.c.2.F.OX>XqXgXmXmXgXmXmXkXiXyXuX,X>X:X-X:X%X+X+X+X7X5X%X+XOXOXOX X X'.'.'.OX=XwX%XOXOX%X:X:X%X).F.G.G.G.G.G.J.J.J.G.L.E.J.L.J.E.E.E.R.R.H.H.E.E.!.!.!.!.!.[.{.R.^.^.!.'.6Xc.j.k.j.j.G 2.j.j.c.F.:XuX%XJ.H.H.H.E.R.R.R.R.R.R.R.R.R.R.E.E.E.E.E.E.E.E.R.R.R.R.E.L.L.L.R.E.R.H.H.H.H.L.J.J.J.J.J.J.L.J.J.J.J.J.L.L.E.J.J.J.H.R.R.E.L.L.J.J.R.E.E.L.E.E.L.H.).6X(.a.a.a.z.Y ` j.a.t.B. XkX`.J.J.J.J.J.J.R.W.J.J.J.J.E.^.E.G.G.G.G.G.G.G.G.G.G.G.G.G.G.G.G.G.G.J.G.J.R.J.J.J.G.G.G.G.G.G.G.G.J.J.J.J.J.J.G.G.J.J.J.J.J.J.J.J.J.J.J.J.R.J.J.C.`.6X0XI.a.a.a.c.~ ~ z.j.a.9.P.>X`.F.G.G.G.G.G.G.G.G.G.G.G.G.G.J.J.G.G.G.H.4X_.G.G.G.G.G.J.J.J.J.J.J.E.R.R.`.%X,X,XtXaXNXaXBX,X;X@X@X@X+X+XOXOXOX+X+X=X7X7X=X*X=X>X6X6XqXqXyXyXpXbXmXxXmXmXgXwX:XOXF.7.j.!.+X:X5X5X%X XOXG.a.u.0.7.3.3.3.*.*.2.1.&.&.&.&.&.$.#.+.o.o.o.} } ] ' ' _ ' U 9 Z P B m G G N h a g B ! ~ U J U b J ~ ..o.*.3.3.7.9.9.0.2.2.9.z.V.V.C.C.",
"!.!.(.!.`.H.3.+.&.=.=.%.2.5.7.-.3.#.V m ~ ~ ] $...U N k N F Y ~ ~ B G V y E o.+.o.+.+.+.+.+.$.&.$.$.$.$.&.&.&.&.&.*.-.5.3.9.9.0.0.e.p.J.:X:X<X6X5X*X+X~.z.2.F.OX>XqXgXmXmXsXmXmXkXiXiXuX,X>X:X:X:X%X%X+X+X5X5X+X+XOXOXOXOX X'.'.OXOX$X*X%XOXOX%X:X:X%X).F.G.G.G.G.J.J.J.J.J.L.^.J.J.R.E.R.E.R.R.H.H.E.E.!.!.!.!.!.!.^.^.E.^.R.'.>Xk.a.a.j.j.G 2.j.j.c.F.:XuX%XJ.H.I.H.K.R.R.R.R.R.R.R.R.R.R.E.E.E.E.E.E.E.E.R.R.R.E.E.E.J.L.R.E.H.L.L.L.!.L.J.L.R.L.J.J.L.L.J.J.J.J.L.L.G.J.H.H.R.R.R.E.E.E.J.J.R.E.E.L.L.L.L.H.`.6X(.a.a.a.z.Y ` j.a.t.B.XXkX`.J.J.J.J.J.J.G.R.R.J.J.J.J.J.J.J.J.J.J.J.G.G.G.G.G.G.G.G.G.G.G.G.J.R.J.R.R.R.J.J.J.J.G.G.G.G.G.G.J.J.J.F.J.J.G.G.J.J.J.J.J.J.J.J.J.J.J.J.R.J.J.C.`.6X0XI.a.a.a.c.Y Y a.a.a.9.P.>X`.F.G.G.G.G.G.G.G.G.G.G.G.G.J.G.G.J.J.J.H.&X_.G.G.G.G.G.J.J.J.J.J.J.E.E.R.`.*X,X,XtXaXNXaX9X,X;X@X+X+X+XOXOXOXOX+X%X=X6X6X=X*X=X>X6X6XqXwXyXyXpXbXmXxXmXmXgXwX:XOXF.7.a.!.+X:X5X5X*X XOXJ.a.u.0.7.3.3.3.&.*.2.1.&.&.&.&.&.$.#.+.o.o.o.o.} ] ' ' _ ' U 9 Z P M c G G M g a g B ! ) U J U b J E ] o.*.*.+.] ] ) ~ ~ 3.k.V.V.Z.Z.Z.",
").!.!.!.!.!.J.Z.z.a.5.+.' E Y ` o.] V z ~ ~ ] +.o.U N n N F Y ~ ~ B I V y ~ o.o.o.o.+.+.&.$.&.&.$.$.$.$.&.*.&.&.&.&.-.3.3.9.9.0.0.p.a.F.>X%X,X6X6X:X+X).z.&.F.OX:XqXgXmXmXxXmXmXkXiXuXqX,X>X:X-X*X%X%X@X*X*X*X%XOXOXOXOXOX X'.'.OXOXOX%X*X%X%X*X=X=XOX`.J.J.G.G.G.J.J.J.J.J.J.E.H.H.L.L.R.R.R.R.H.H.H.H.^.R.E.R.!.^.^.E.R.R.R.`.=Xz.a.j.j.j.V 7.j.j.c.C.>XuX%XI.R.R.R.R.!.!.R.R.R.R.R.R.R.L.E.E.E.E.E.!.!.!.R.R.R.E.E.E.L.L.R.R.R.R.R.H.R.R.L.R.R.J.J.J.J.J.J.J.E.E.E.E.R.J.J.R.R.R.R.R.E.E.E.E.R.R.R.E.^.^.E.!.).6X!.k.q.a.j.Y ` j.r.t.B.Y.wX'.!.!.E.E.E.R.G.R.R.J.R.R.J.J.J.J.J.J.J.J.J.J.J.J.(.G.G.L.J.G.G.E.R.R.R.R.R.R.J.E.J.J.G.G.E.E.E.R.R.R.J.J.J.J.G.G.G.J.J.J.J.J.J.J.J.J.J.J.R.R.R.Z.`.7X0X!.a.z.a.c.Y U a.a.a.0.C.*X`.J.G.G.G.J.J.J.G.G.J.J.J.J.J.G.J.J.J.J.J.J.J.J.J.J.J.J.J.J.J.J.J.J.E.E.!.`.%X>X,X2XtXaX9X<X;X+X+XOX%XOXOXOXOXOX+X*X*X*X*X*X*X=X>X6X6XqXtXyXiXpXmXmXxXmXmXgXqX:X|.C.3.a.!.+X:X5X5X*XOXOXF.u.0.9.7.3.3.3.3.2.1.1.&.&.&.&.&.$.#.+.o.o.o.o.} ] ] ' ' ' U 8 Z U B N I I B n h z B ~ ^ U J U b F J Y U J B G ~ o.&.3.a.k.V.C.Z.Z.Z.Z.",
").!.!.!.!.R.J.A.F.G.b.a.y.5. .I B I B h ~ ~ ] +.o.I b n N F Y ~ ~ B I V y ~ o.o.o.o.+.+.&.$.&.&.$.$.$.$.&.&.&.&.&.&.-.3.9.9.0.0.0.a.a.S.>X%X,X6X6X:X+X).k.&.F.OX*XqXgXmXmXxXmXmXkXiXuXqX,X>X:X-X*X%X*X@X@X*X%X+XOX XOXOXOX X'.'. XOXOX%X*X*X*X:X:X:XOX`.J.E.G.G.G.J.J.J.J.J.J.J.H.H.H.L.R.R.R.R.H.H.H.H.^.R.(.E.^.^.E.E.R.R.R.`.=Xz.a.j.j.j.V 7.j.a.z.C.>XwX*XI.R.H.R.R.!.!.R.R.R.R.R.R.E.R.E.E.E.E.E.!.!.!.R.R.R.R.E.E.R.R.R.R.R.R.R.R.R.R.L.R.R.J.J.J.J.L.L.L.E.R.E.E.E.R.^._.!.R.R.R.E.E.E.E.R.R.R.E.^.^.E.!.!.*XI.a.a.a.u.I ' z.a.t.B.Y.wX'.!.^.^.E.E.J.G.R.R.J.R.J.J.J.J.J.J.J.J.J.J.J.J.J.E.G.G.G.R.R.G.E.R.R.R.R.R.R.J.E.J.J.G.G.E.E.R.R.R.R.H.H.J.J.J.G.J.J.J.J.J.J.J.J.J.J.J.J.R.R.R.Z.`.7X0X!.a.z.a.V.! ! j.a.a.0.C.*X`.J.G.G.G.G.G.G.G.G.J.J.J.J.J.J.J.J.J.J.J.J.J.J.J.J.J.J.J.J.J.J.J.J.E.E.!.`.%X>X,X,X9X9X6X>X:X*X%X%XOXOXOXOXOXOX+X+X*X*X*X*X=X=X>X6X6XqXtXyXiXpXmXmXjXmXmXgXqX:X XF.3.a.(.+X:X5X5X*X XOXG.u.0.9.7.7.3.3.3.2.1.1.&.&.&.&.&.$.#.+.o.o.o.o.} ] ] ' ' ' U 8 Z U B N U U Z n h z B ~ ^ U G U N N n h N ~ &.3.0.a.z.z.c.N.V.C.Z.Z.Z.Z.",
").!.!.!.Q.H.J.F.G.G.C.c.a.j.0.%.' ~ F n ~ ~ ] +.o.I b n N G E ~ ~ B I V 9 ~ o.o.o.o.+.$.$.&.&.&.$.$.&.&.*.*.*.*.&.-.-.3.9.9.0.0.a.a.a.C.:X%X6XqX6X:X@X).k.&.F.OX*XqXgXmXmXpXxXbXiXyXyXqX6X>X:X-X*X%X*X@X+X*X+X+XOX XOXOXOXOXOXOX X X XOX*X*X-X*X:X:X+X`.^._.G.G.G.J.J.J.J.R.R.E.H.L.L.L.H.L.H.L.H.H.H.H.R.^._.^.^.^.E.E.E.E.R.'.=Xz.a.j.j.j.V 7.j.a.c.S.>XwX*XI.R.R.E.!.!.!.E.R.R.R.R.R.^.R.L.E.E.E.R.!.!.!.R.R.R.R.R.R.R.R.R.R.E.E.E.E.L.L.L.L.R.R.R.E.R.R.L.L.L.L.E.E.E.E.(.`.!.!.R.R.E.E.R.R.E.E.E.E.^.^.!.!.H.%XI.a.k.a.u.U ..c.k.k.B.Y.qX!.^.^.^.^.E.W.G.R.L.G.J.J.J.J.J.J.J.J.J.J.J.J.J.J.E.L.G.G.R.^.J.R.R.R.R.R.R.R.E.E.J.J.J.J.E.R.R.R.^.!.!.!.H.H.J.J.R.R.J.E.J.J.J.R.R.R.R.R.R.R.R.Z.).>XqX!.k.f.a.F._ ) k.j.a.0.C.*X(.J.G.G.J.J.J.J.J.J.J.J.J.J.J.J.J.J.J.J.J.J.J.J.J.J.J.J.J.J.E.E.J.J.E.E.!.`.%X>X,X<X,X5X<X>X>X>X*X&XOXOXOXOXOXOXOX+X%X*X*X*X=X=X5X6X6XqXtXyXiXpXMXxXiXMXmXgXqX:X XF.7.j.(.%X:X5X5X*X'.'.C.q.0.9.9.7.3.3.3.1.1.1.&.&.&.&.&.&.#.#.+.o.o.o.} ] ' ' ' ' U 8 Z U B N U U Z c g z Z ~ ^ U G U n h B ~ #.3.q.q.j.z.c.k.c.V.C.C.C.C.C.C.",
").!.!.!.H.H.J.F.J.J.G.b.a.k.a.3.] ' U c ~ ~ ] +.o.I b n N G E ~ ~ V I V 9 ~ o.o.o.o.+.$.&.&.&.&.$.$.&.&.*.*.*.*.&.-.-.3.9.9.0.0.a.a.a.V.%X%X6XqX6X:X+X).k.&.F.OX*XqXgXmXbXtXiXpXyXqXqXqX6X>X:X*X*X%X%X+X+X+X+XOXOX X XOXOXOXOXOX X X XOX%X*X*X*X:X:X$X`.'.[.E.G.G.J.J.J.J.R.R.E.H.H.L.H.H.L.L.L.H.H.H.H.R.^.`.^.^.^.E.E.E.E.R.'.=Xk.a.a.j.j.V 7.j.j.c.S.>XwX*XI.R.R.E.!.!.!.E.R.R.R.R.R.(.R.L.L.E.E.R.!.!.!.R.R.R.R.R.R.R.R.R.R.E.E.E.E.L.L.L.L.R.R.E.^.^.R.J.L.L.H.E.E.E.R.^.!.!.R.R.R.E.E.R.R.E.E.E.E.^.^.!.!.I.*XI.k.z.a.j.` ..c.k.k.B.Y.6X!.^.^.^.!.W.W.G.R.L.J.J.J.J.J.J.J.J.J.J.J.J.J.J.J.E.L.G.G.^.`.R.R.R.R.R.R.R.R.E.R.J.J.G.G.E.R.R.R.^.!.!.!.!.H.E.R.E.E.E.E.J.J.J.J.R.R.R.R.R.R.R.Z.).>XqX!.k.d.a.H.' ' z.j.a.0.C.*X(.J.G.L.R.R.R.R.J.J.J.J.J.J.J.J.J.J.J.J.J.J.J.J.J.J.J.J.J.J.E.E.J.J.E.E.!.`.$X>X,X,X>X:X:X:X:X>X-X$XOXOXOXOXOXOXOXOXOX%X*X*X=X=X5X6X6XqXtXyXuXpXxXpX6XxXmXgXqX:X XF.7.j.(.%X:X5X5X%X`.`.V.q.0.9.9.7.7.3.3.1.1.1.&.&.&.&.&.&.#.#.+.o.o.o.} ] ] ' ' ' U 8 Z U B M U U F c g z Z ~ ^ U F U n h J ] *.9.q.9.a.z.c.z.c.V.C.C.C.C.V.C.",
"!.!.!.!.!.!.R.H.J.F.Z.c.r.k.s.3.o.o.Y g ~ ! ] $.] L b c m G Y ~ ~ B U B 0 ~ o.o.o.+.#.&.$.$.&.&.&.&.&.&.&.&.&.&.&.2.2.3.6.9.0.0.0.u.a.k.).|.6X6X6X:X+X).k.1.J.'.*XqXgXmXbXqXkXbXpXwXqX3X6X>X>X:X=X%X%X+X+X+X+X+XOXOX X X X X XOX X XOXOXOXOXOX%X:X>X*X'.&X$XE.G.J.L.L.L.L.L.R.E.H.H.L.H.R.H.R.E.R.R.R.!.!.^.!.!.E.E.!.!.!.R.H.'.$Xk.a.a.j.a.V *.j.a.c.C.<XwX%XI.!.!.R.R.R.R.H.H.R.R.R.R.R.R.E.E.E.E.!.!.!.^.R.J.E.E.R.R.R.R.R.R.R.R.R.R.R.R.R.R.E.E.E.!.!.R.R.!.`.R.L.R.E.E.E.R.!.R.R.R.R.!.^.E.E.E.E.E.E.E.E.R.!.$X!.N.C.z.z.' ` k.p.e.B.Y.>X!.R.R.E.E.E.R.R.R.J.L.H.H.R.H.H.H.R.R.J.J.J.J.J.E.R.E.J.J.!.E.R.H.R.R.R.H.J.R.R.R.E.R.R.J.E.E.L.R.^.!.OXiX0X^.^.W.E.E.R.E.E.R.R.R.E.E.L.J.J.R.G.G.).>X0X(.z.j.a.V./ _ k.a.a.7.Z.>X(.J.J.E.J.^.R.J.L.L.J.J.J.J.J.J.J.J.J.J.R.R.J.J.R.J.J.J.J.J.J.J.L.L.E.E.!.`.%X:X>X:X%X+X:X%X%X%XOXOXOXOXOXOXOXOXOXOX%X%X%X*X=X=X5XqXwXqXwXwXyXyXpXtX;XjXmXgX6X:X XI.9.j.).$X>X5X>X%X!.~.c.0.0.0.0.9.7.7.3.3.1.1.*.*.*.&.$.&.#.#.o.} } } ] ] ] ' ' ' G e J U m B Y U Z c h z Z ! / P F U h j U o.&.0.q.9.a.z.z.z.z.z.c.N.Z.C.C.C.",
"!.!.!.!.!.!.R.H.J.F.Z.c.r.k.s.4.o.o.Y g ~ Y ] +.] J b c m G Y ~ ~ B J B 4 Y o.o.o.#.#.$.$.$.$.$.&.&.&.&.&.&.&.&.&.2.2.3.6.9.0.0.0.a.a.k.I.`.6X6X6X:X+X).k.1.J.|.*XqXgXmXbXtXxXbXpXwXqX3XqX,X>X:X=X%X%X+X+X+X@X:X+XOX X X X X XOX X XOXOXOXOXOX%X:X>X*X'.'.].L.L.L.R.R.R.L.L.R.R.R.!.R.R.R.H.E.!.R.R.R.R.!.!.!.!.E.E.!.!.!.R.H.'.%Xk.j.a.j.a.V 3.a.a.c.C.<XwX%XI.!.!.E.E.R.R.!.!.R.R.R.R.R.E.E.E.E.E.!.!.!.^.E.J.E.R.R.R.R.R.R.R.R.R.R.R.R.R.R.R.E.E.E.E.E.R.!.!._.R.R.R.E.E.E.E.R.R.R.R.R.R.R.R.^.E.E.E.E.E.E.R.!.$X!.N.V.z.z.` ` k.a.p.B.~.5X!.R.R.R.R.E.R.R.R.J.L.H.H.H.H.H.J.E.R.J.J.J.J.E.E.E.E.J.R.E.E.R.H.R.R.R.R.J.R.^.^.E.E.E.R.E.E.L.R.!.^.7XmXbX`.!.^.E.E.R.E.E.R.R.R.E.E.L.L.(._.R.J.).-X0X^.z.k.j.C.~ _ c.a.a.9.S.:X).J.J.R.!._.J.J.L.L.J.J.J.J.J.J.J.J.J.J.R.R.J.J.J.J.J.J.L.J.J.J.L.L.E.E.!.`.OX:X>X:X%X+X%X%X%XOXOXOXOXOXOXOX$XOX$XOX+X%X%X*X=X=X>XqXwXqXwXwXyXyXgXpX6XjXmXgX6X:X XH.7.j.).$X*X>X>X:X~.`.v.p.0.0.0.9.7.7.3.3.1.1.*.*.*.&.$.&.#.#.o.} } } ] ] ] ' _ ' J 8 G U M B Y U Z c h z Z ! / P F U j n Y o.&.0.q.9.a.z.z.z.z.c.N.V.Z.C.C.V.",
"!.~.!.!.!.!.I.H.J.J.Z.c.a.k.a.3.] ] U g Y U ' o.] L m c N G ~ ) ! N J N 3 Y O.O.+.#.&.$.$.$.$.$.&.&.&.&.1.1.1.1.2.2.2.3.6.9.0.0.u.a.k.z.I.OXqXqX,X*X+X).k.1.J.|.=XqXgXmXmXyXbXnXiXwXqXqXqX>X>X*X:X=X%X%X+X+X*X=X+XOX X X X X X XOX XOXOXOXOXOX*X:X>X*X'.!.E.E.E.L.R.R.R.R.R.R.R.J.^.R.R.R.E.!.!.R.R.R.!.!.!.!.!.E.E.^.^.^.R.H.'.*Xz.k.j.z.j.F 3.a.a.c.F.:XwX%XI.!.(.(.(.!.!.!.!.!.!.!.!.R.R.E.E.!.!.E.E.^.`.`.!.R.R.R.Q.Q.!.R.R.R.R.R.R.R.R.R.R.E.E.!.E.E.E.^.^.^.R.R.R.E.E.E.E.E.E.E.R.E.E.E.E.^.^.E.E.E.E.R.R.!.$X!.N.c.z.z.` / k.a.s.B.~.6X!.R.R.R.R.E.E.E.E.J.L.E.E.J.J.J.J.R.R.J.J.J.J.J.J.E.E.R.R.E.E.H.H.H.H.H.H.R.OX7XOX^.E.R.E.R.R.E.!.!.^.=XbXiX`.^._.E.E.E.E.E.E.E.E.E.E.E.E._.`.R.L.).-X0X^.z.k.j.C.~ / c.j.a.0.F.:X).J.J.R.{.OXG.H.L.L.E.J.E.E.J.J.L.L.L.L.E.E.E.L.J.J.E.E.L.L.L.J.H.H.L.L.!.`.OX:X:X:X+X+X%X%XOXOXOXOXOXOXOXOX%X%X%XOXOX%X%X*X=X=X>XqXwXqXqXwXyXyXxXMXuXbXmXgX6X:X|.J.3.j.(.$X*X>X>X:X~.|.v.p.0.0.0.9.7.3.3.3.1.*.*.*.*.&.$.&.#.#.o.} } } ] ] ] ' _ ' G 3 B U M m U U C z h n Z ! ~ P F U n n Y +.*.0.q.9.a.z.c.c.c.N.V.C.Z.C.C.V.",
"!.!.!.!.!.!.I.H.J.J.Z.c.a.k.a.3.] ] U g Y U ' o.] L m c N G ~ ) Y N G N 3 Y O.$.#.#.$.$.#.#.#.$.&.&.&.1.1.1.1.1.2.2.2.3.6.9.0.0.a.a.z.c.).*XtX6X,X*X+X).k.1.J.|.=XqXgXmXmXuXcXnXiXwXqX6XqX,X>X*X:X%X%X=X=X+X+X%XOXOX X X X X X$XOX XOXOXOXOXOX*X:X>X%X'.E.E.E.E.L.R.R.R.R.R.R.R.J.^.R.E.E.^.!.!.R.!.!.!.!.!.!.!.E.E.^.^.^.!.R.[.*Xc.k.k.z.j.G 3.a.a.c.F.:XwX%XI.).(.(.(.^.(.^.^.^.^.^.!.!.E.R.R.!.E.E.E.R.`.`.!.R.!.Q.Q.Q.Q.!.R.R.R.R.R.R.R.R.R.E.!.!.E.E.E.E.E.R.E.R.R.E.E.!.!.E.E.!.E.R.].].R.^.^.E.E.E.E.R.R.!.$X!.N.k.k.z.~ ~ a.a.k.B.~.6X!.R.R.R.R.E.E.E.E.L.E.E.E.R.J.J.J.R.R.R.R.J.J.J.J.E.E.R.R.E.E.H.H.H.H.H.H.!.qXmXeX^.^.E.R.R.R.E.!.!.!.`.*X'.(._.E.E.E.E.E.E.E.E.E.E.E.E.E.R.^.R.L.).>XqX!.z.j.a.N.! / c.j.a.a.I.>X).J.J.R.!.R.H.!.L.L.E.E.R.E.E.R.L.L.L.L.E.E.E.E.J.J.R.R.R.E.L.L.H.H.L.L.!.`.OX:X:X%X+XOX%X+XOXOXOXOXOXOX XOX*X*XOXOXOX%X%X*X=X=X>XqXwXqXqXwXyXyXbXmXjXMXmXgX6X:X|.J.3.a.(.OX*X:X>X:X/.OXv.p.0.0.0.9.7.3.3.3.1.*.*.*.*.&.$.&.#.#.o.} } } ] ] [ ' ) ' G 1 v U M m U U C z g n Z ! ! G F U n b E #.&.0.q.9.a.z.c.c.N.V.C.C.Z.Z.C.V.",
").`.`.!.!.!.I.H.I.J.F.k.a.V.a.7.$.+.! h U U ' o.' L m c N L Y ) Y N G h % Y +.o.#.#.#.#.+.#.&.&.&.&.&.1.1.1.1.1.2.2.2.3.6.9.0.0.a.u.c.C.OX%X>X6X6X*X+X).k.4.J.|.%XqXkXmXmXpXcXnXpXyXqX6X6X>X>X=X:X%X%X5X*X+XOX+XOXOXOXOXOXOXOX$X$XOXOXOXOXOX%X*X<X:X*X'.(.R.R.R.R.R.R.R.R.R.R.R.^.^.E._.^.E.R.R.!.!.!.!.!.!.!.!.E.^.^.^.^.^.!. X$Xc.k.z.c.j.B 3.j.j.c.F.:XiX*XY.(.(.(.(.(.!.!.!.^.!.!.!.E.E.!.!.!.!.E.!.!.R.R.R.R.!.Q.Q.Q.Q.!.R.E.E.E.R.R.R.R.R.(.^.!.!.R.R.E.E.R.R.E.E.!.!.!.!.^.^.^.!._.4X4X_.^.^.^.E.E.E.E.E.!.*X!.c.a.k.z.~ ~ z.a.s.B.~.5X!.!.!.!.!.R.R.E.E.E.E.E.E.E.E.E.E.R.J.J.J.L.J.J.E.E.E.E.E.R.R.H.H.H.H.H.H.'.6XqX*X^.^.R.R.R.R.!.!.!.!.R.!.!.R.^.E.E.E.E.E.E.E.E.E.E.E.E.E.R.R.R.H.(.>XwX!.z.j.k.c.Y _ V.a.k.a.I.>X).H.J.E.!.!.!.H.L.L.E.E.R.R.R.J.L.L.L.L.E.E.E.E.E.E.R.R.E.E.R.R.H.H.L.L.!.(.OX:X:X:X@X+X+X+XOXOXOXOXOXOX XOX*X>X%X%X%X%X*X*X=X=X>XqXqXqXqXwXyXiXbXmXbXmXbXgXqX:X`.C.7.a.(.OX*X>X:X:X`.oXv.a.y.0.9.7.7.3.3.3.1.*.*.*.&.&.=.$.&.#.o.} } } ] ] ' ' _ ' G - l H N B U U C z h c Z ! ! G Z U n b E #.$.9.j.0.a.k.c.c.N.V.C.C.Z.F.Z.Z.",
").`.`.!.!.!.I.H.I.J.F.a.a.c.r.7.+.o.~ h U U ' o.' L m c N L Y ) U N G h % Y +.o.#.#.#.#.+.#.&.$.&.&.&.1.1.1.1.&.2.2.3.3.0.0.0.a.u.a.Z.I.OX%X5X6X6X:X+X).s.3.J.|.%X6XkXmXmXpXbXnXpXyXqX6X6X>X>X=X=X%X%X*X%X+XOX+XOXOXOXOXOX X X$X$X$XOXOXOXOX%X*X>X<X%X'.(.R.R.R.R.R.R.R.R.R.R.R.J.R.R.[.OX_.R.R.!.!.!.!.!.!.!.!.E.^.^.^.^.^.!. X$Xc.j.z.c.j.B 3.j.j.c.F.:XyX*XY.!.R.E.K.H.H.H.R.E.E.!.!.E.E.!.!.^.^.^.^._.!.E.^.R.R.!.Q.Q.!.R.R.E.E.E.E.R.R.R.R.(.^.!.!.R.R.E.E.^.E.E.E.!.!.!.!.^.^.E.!.R._._.R.^.^.!.E.E.E.E.E.!.*X!.c.a.k.z.~ / c.a.a.B.~.5X!.!.!.!.!.R.R.E.E.E.E.E.E.E.E.E.R.J.R.J.J.L.J.E.R.E.E.E.E.R.R.H.H.H.H.H.H.^.'.[._.^.^.R.R.R.R.!.!.!.!.!.R.E.E.E.E.E.E.E.E.E.E.E.E.E.E.R.E.R.R.R.H.(.>XwX!.z.j.k.c.Y _ V.k.k.a.P.>X).H.J.R.!.!.R.H.L.L.E.E.R.R.J.J.L.L.L.L.E.E.E.E.E.E.R.R.E.E.R.R.H.H.L.L.!.(.OX:X>X:X@X+X+X+XOXOXOXOXOXOX XOXOX$X%X%X%X%X*X*X=X=X>X6XqXqXqXwXyXiXMXmXbXmXbXgXqX:X`.C.3.q.).$X*X%X>X:X/.|.v.a.y.0.9.7.7.3.3.3.1.1.*.*.&.&.=.$.&.%.o.} } } ] ] ' ' ' ] G - l K N B U U C z h c Z ! ! G Z U n b ~ %.#.7.k.j.a.k.c.c.N.V.C.C.Z.F.F.Z.",
"`.'.`.!.!.!.!.I.!.J.Z.r.a.k.9.7.o.o.~ n U U ' o.' I m c N L Y ) Y N G g % Y +.o.#.#.#.#.+.#.&.$.&.&.&.1.2.2.;.&.&.2.3.4.0.0.0.r.u.a.F.!.OX%X5X6X>X>X%X~.p.2.F.|.%X6XgXmXmXgXnXmXpXyXqX6X6X>X>X=X=X%X*X*XOXOXOXOXOXOXOXOX X'.'.$X$X$XOXOXOXOX%X:X>X<X%X'.(.R.R.E.R.R.R.R.R.R.R.R.R.R.E.^.(.E.E.^.R.!.!.R.E.E.E.E.^.^.^._.^.!.!. XOXc.j.k.c.j.B 3.j.j.c.Z.*XyX*XI.!.R.E.K.H.H.R.R.R.R.^.^.E.E.!.!.^.^.^.^._.!.E.!.!.!.!.!.!.!.!.R.E.E.E.E.!.!.!.^.^.^.^.!.!.!.E.E.^.^.E.E.^.^.!.!.^.^.^._.R.R.E.E.E.E.!.E.^.E.!.!.!.*X!.c.a.k.z.~ ' c.p.r.B.~.5X!.!.!.!.!.R.R.R.R.E.E.E.E.E.E.E.E.L.L.J.R.R.E.R._.E.E.E.E.R.R.H.H.!.!.!.H.!.!.!.!.^.^.R.R.R.!.!.!.!.!.!.!.E.E.E.E.E.E.E.E.E.^.E.E.R.E.E.^.!.E.!.!.(.>XwX(.z.j.k.c.U _ V.z.k.s.Y.>X).R.R.R.!.!.R.H.L.L.E.E.E.E.E.E.E.E.E.E.E.L.E.E.E.E.E.E.E.E.R.R.L.H.L.L.!.).OX:X5X:X@X+X+X+XOXOXOXOXOXOXOXOXOXOXOXOX%X%X*X*X=X=X:X6X6X6XqXwXyXiXmXmXbXmXmXgXqX:X).N.3.q.!.%X*X%X%X%X'.`.v.a.y.0.9.7.7.7.7.3.3.*.*.*.*.&.=.$.&.%.o.} } } } ] ' ' ] } F % n U N B U U C z h c Z ! ~ P G Y b v ~ &.$.3.0.&.a.k.c.c.N.V.C.C.Z.Z.F.F.",
"`.'.`.!.!.!.!.I.!.J.C.0.a.k.7.7.o.o.~ n U U ' o.' I m c N L Y ) Y N J h % Y +.o.#.#.#.#.+.#.&.$.&.&.&.&.&.2.&.=.+.&.2.3.9.9.0.0.u.a.Z.H.OX%X6X6X>X>X%X!.e.<.F.OX*XqXgXmXmXkXnXmXpXyXqX6X5X>X=X*X%X=X*XOXOXOXOXOXOXOXOXOX'.'.'. XOXOXOXOXOXOX%X*X>X<X*XOX(.R.R.E.R.R.R.R.R.R.R.R.R.E.(.!.E.!.E.!.E.E.!.E.E.E.!.!.^.^.^.^.^.!.!. XOXc.j.k.c.j.B 3.j.j.c.Z.*XyX*XI.!.^.!.!.!.!.E.E.E.E.^.^.E.E.!.!.^.^.(.(.^.E.R.E.!.!.!.!.!.R.R.R.E.E.!.!.!.!.^.^.^.^.^.^.!.^.E.E.^.^.E.E.^.^.!.!.^.R.^._.^.R.E.^.E.E.E.E.^.^.!.!.^.*X!.c.a.k.z.~ ' c.a.e.B.!.7X!.R.!.!.!.R.R.R.R.E.E.E.E.E.E.E.E.J.L.J.R.R.R.E._.E.E.E.L.R.R.H.H.!.!.!.!.H.H.!.^.^.^.R.R.E.!.!.!.!.!.!.!.E.E.E.E.E.E.E.E.E.E.E.E.E.E.!.^.^.^.^.!.(.>XqX(.z.j.k.c.U _ C.z.k.a.I.>X`.!.R.R.R.R.R.H.H.L.E.E.E.E.E.E.E.E.E.E.L.L.E.E.E.E.E.E.R.R.R.R.H.L.L.L.E.).OX:X>X:X@X+X@X*XOXOXOXOXOXOXOXOX$X$XOXOXOX%X*X*X=X=X:X>X6X,XwXwXyXiXmXmXbXmXmXgXtX:X).N.3.q.I.'.).J.`.%XOX'.v.a.0.0.9.7.7.7.7.3.3.1.2.*.*.&.=.$.&.%.o.} } } } ] ' ' } } F % n Y B V U U B l h c Z ! ~ P G ! b N / $.*.9.9.o.a.z.c.c.N.V.C.C.Z.Z.Z.F.",
"`.|.).(.U.U.I.H.I.H.Z.a.a.a.a.a.+.o.~ b U U ' +.] U N c N U ~ ' ~ G U h % Y +.+.+.+.+.+.+.&.&.&.&.&.&.&.&.2.-.o.o.$.2.3.9.9.0.q.a.a.c.F.=X6X6X6X:X*XOXH.7.+.Z.OX*XqXbXmXmXsXbXnXlXyXqX6X6X>X=X*X*X*X%XOXOXOXOXOXOX%XOXOX[.'.'.'. XOXOXOXOXOX%X*X>X>X*XOX_.E.E.E.E.E.R.R.R.E.R.E.^.!.!.!.!.!.E.K.^.!.!.^.!.!.!.^.^.^.^.^.^.E.!.OX>XZ.j.k.c.l.B 3.j.j.c.S.*XuX*XY.!.!.!.^.^.(.(.^.^.^.E.E.^.^.!.!.^.^.^.^.!.E.E.E.^.^.^.!.E.E.E.E.E.E.!.!.^.^.^.^.^.^.^.^.!.!.E.E.^.^.!.!.!.!.!.!.^.R.^.[._._.E.E.^.^.^.^.^.^.^.^.(.-XI.k.a.k.z.` ` c.r.r.k.~.qX!.!.!.!.!.R.R.E.E.E.E.E.E.E.E.E.E.R.R.R.R.L.R.E.(.E.R.R.H.H.L.L.L.!.!.!.!.!.!.!.!.^.E.E.E.E.E.!.!.^.^.^.^.E.E.E.E.E.E.E.E.E.E.E.E.E.E.^.!.E.E.^.!.(.>XwX(.z.z.z.V.U ' V.c.k.k.!.5X`.!.E.E.R.R.E.E.!.R.].(.R.R.E.E.E.E.E.W.W.W.E.[.].].E.E.R.R.R.R.R.E.E.E.E._.OX:X>X:X%X+X*X%XOXOX XOXOXOXOXOXOXOXOXOXOXOX*X*X-X=X=X7X6X6XqXqXyXiXMXmXxXmXmXgXqX;X).N.3.q.H.H.!.!.%X>X+X`.v.u.0.0.w.9.7.7.5.5.3.*.*.*.*.*.&.&.%.+.o.o.o.o.] ] ' ' } o.F % b Y N B U U B h g c Z ! ^ P J Y b N ` =.2.9.9.9.9.k.z.c.V.V.C.Z.Z.Z.Z.G.",
"`.`.).(.!.!.U.I.H.P.F.c.s.k.z.a.#.o.~ b U U ' +.] U N c N U ! ' ~ G U h % Y +.+.+.+.+.+.+.&.&.&.&.&.&.&.&.2.-.%.&.*.3.7.9.9.q.q.a.a.c.F.=X6X6X6X=X*XOXH.7.+.C.OX*XqXbXmXmXpXcXbXlXiXqX6X6X>X=X*X*X*X%XOXOXOXOXOX*X*XOXOXOX[.'. X XOXOXOXOX%X*X:X>X>X=XOX[.].E.L.R.E.R.R.E.E.^.^.^.!.!.!.!.!.E.}.^.!.^.^.!.!.!.^.^.^.^.^.^.^.^.OX>XZ.j.k.c.l.B 3.j.k.c.S.*XwX*X!.!.!.!.!.^.(.^.^.^.^.E.E.^.^.!.!.^.^.^.^.!.!.!.!.^.^.^.!.E.E.E.E.!.!.!.!.^.^.^.^.^.^.^.^.!.!.E.E.^.^.!.!.!.!.!.!.^.!.^.{.`._._._.^.^.^.^.^.^.^.^._.=XI.k.a.k.c.` ' c.a.a.k.!.6X!.!.!.!.!.R.R.E.E.E.E.E.E.E.E.E.E.R.R.R.R.R.R.R.E.E.R.H.E.H.R.R.R.!.!.!.!.E.!.E.!.E.E.E.E.E.E.!.E.!.^.E.^.E.E.E.E.E.E.E.E.E.E.E.E.E.E.^.^.E.E.^.!.(.>XwX(.z.z.z.V.U ' V.c.k.s.!.5X'.!.E.E.R.R.E.E.!.R.].].R.R.E.E.E.E.E.E.W.E.W._.(.E.E.R.R.R.!.!.E.E.E.E.E._.OX:X>X:X%X+X+X%XOXOX*X*XOXOXOXOXOX%X+XOXOXOX*X*X*X=X=X7X6X6XqXqXyXiXmXmXbXmXmXkXqX%X).N.3.q.H.`.%X6X>X6XOX~.z.y.0.0.w.9.7.7.5.5.3.3.3.*.*.*.&.&.%.+.o.o.o.o.] ] ' ' ] o.F - b U M B U U B h g c Z ! ^ P J Y b N ' &.2.9.9.9.9.k.z.c.V.V.C.C.Z.Z.Z.G.",
"|.).(.(.!.U.U.H.H.H.F.V.k.k.V.k.#.] ~ b U U ' #.] U M c N U ! ' ~ G U h % Y +.+.+.+.+.+.$.$.&.&.&.&.-.-.-.2.-.*.*.3.7.7.9.0.q.q.a.a.c.F.=X6X6X6X>X*XOXH.3.o.V. X%X6XkXmXmXpXxXxXlXiXyX6X6X5X>X=X*X*X%XOXOXOXOXOX*X%XOX%X$XOX XOXOXOX%X*X*X*X*X:X>X>X=XOX[.].E.E.^.^.^.^.^.^.^.^.!.^.!.!.!.!.(.'.^.^.^.^.!.!.!.!.^.^.^.^.^.!.^.OX>XZ.a.k.b.l.B 3.k.k.M.S.*XwX*X!.!.!.!.^.^.^.^.^.^.^.^.^.^.^.!.!.^.^.^.^.!.^.!.!.^.^.^.^.^.!.^.^.^.^.^.^.^.^.^.^.^.^.^.^.!.!.^.^.^.^.^.!.^.^.^.^._.^._.`._._._._._._._._.(.(._._.].=XI.z.a.k.c.` ..V.a.r.k.~.6X(.E.E.E.!.R.E.E.E.E.E.E.E.E.E.E.E.E.E.R.R.R.R.R.E.R.R.E.E.!.!.E.E.^.^.^.^.E.E.!.!.E.E.E.E.E.E.!.!._.`.E.^.E.E.E.E.^.^.^.^.^.^.^.^.^.^.^.^.E.E.^.^.).,XwX).z.z.z.b.U ' V.c.z.k.!.5X'.!.E.E.!.!.!.!.!.R.R.R.R.E.E.E.E.E.E.E.E.E.E.E.E.E.R.R.E.R.!.!.E.E.E.E.(.`.%X:X5X5X:X+X*X%XOX=X6X*XOXOXOXOXOX%X+XOXOXOX*X*X*X=X=X7X6X6XqXqXyXiXmXMXiXbXmXgXqX%X).N.3.q.H.`.*XqXwXwXOX!.a.u.0.9.w.9.7.7.5.5.3.3.3.3.-.*.&.&.%.+.o.o.o.o.o.] ] ' ' } F - c U M M P P B z g b Z ! ^ P J Y b B ' o.2.9.9.9.9.k.z.c.N.V.C.C.Z.Z.Z.G.",
").).(.!.U.U.H.H.J.J.F.V.k.k.c.a.+.] ~ b U U ' #.] U N c N U ! _ ~ G U h % Y +.+.+.+.+.+.$.$.&.&.-.-.2.2.2.-.-.2.3.7.7.7.9.0.q.q.a.a.c.F.=X6X6X6X>X*XOXH.3.o.V. X%X6XkXmXmXiXxXxXlXpXyX6XqX6X7X>X*X*X%XOXOXOXOXOX%XOXOX>X$XOXOX$XOXOX%X=X>X=X*X*X>X>X:XOX'.(.^.E.^.^.^.^.^.^.^.^.!.!.!.!.!.!.(.$X^.^.^.^.!.!.!.!.^.^.^.^.^.^.^.OX>XZ.a.j.b.l.B 3.k.k.c.S.*XwX*X!.!.!.!.!.^.^.^.^.^.^.^.^.^.^.!.!.^.^.^.^.^.^.!.!.^.^.^.^.^.!.^.^.^.^.(.(.^.^.^.(.(.^.^.^.!.!.^.^.^.^.!.!.^.^.^.^._._._._.(.(._._.^.^.^.^.(.(._._._.=XI.z.a.k.c.` o.V.a.r.B.).wX`.E.!.!.E.R.E.E.E.E.E.E.E.E.E.E.E.E.E.E.!.E.E.E.E.E.R.!.!.!.!.!.!.!.!.^.^.E.E.!.!.E.E.E.E.E.E.!.!.OXOX^.^.E.E.E.E.^.^.^.^.^.^.^.^.^.^.^.^.E.E.^.^.).,XwX).z.z.z.b.U ' V.c.z.a.!.5X'.^.E.E.!.!.!.!.!.!.R.!.R.R.E.E.E.R.E.E.E.E.E.E.E.R.R.R.R.R.!.!.E.E.E.E.(.].$X>X5X5X:X+X*X%X%X>X7X*XOXOXOXOXOXOX+XOXOXOX%X*X*X=X=X7X6X6XqXqXyXiXMXyX:XkXmXkXqX%X).N.3.q.F.`.:XuXuXqXOX!.a.0.9.9.9.9.7.7.5.3.3.3.3.3.-.*.&.&.%.+.o.o.o.o.o.] ] ' ' } F - n U c M P P B n g b Z ! ~ P J Y b B ' o.1.0.9.9.9.j.z.c.N.V.C.C.Z.Z.Z.G.",
").~.!.!.I.I.H.H.H.J.F.V.k.z.z.r.+.o.~ c U U ' #.] U N b N U ~ _ ~ Z U h % ! $.+.$.$.$.$.$.&.&.&.2.2.3.3.3.-.2.3.3.7.7.9.0.0.u.u.a.a.k.V.OXwX>X6X5X:XOXJ.3.o.c.`.%X6XpXmXbXtXsXxXpXiXuXqX6X6X7X>X=X*X%XOXOXOXOXOXOXOXOXOXOXOXOXOXOXOX%X%X%X%X*X*X>X>X:XOX`.^.^.E.E.E.E.E.^.^.^.(.(.(.(.!.!.!.(.^.^.^.^.^.^.^.^.^.^.^.(.(.(.^.!.%X*XN.a.j.C.l.V 3.l.k.c.S.*XqX*X!._._.!.(.(.(.(.(.^.^.!.!.!.!.!.!.^.^.^.^.^.^.^.^.(.(.(.^.^.^.^.^.(.(.(.(._._._.(.(.(.!.!.^.^.^._._.^.^.^.^.(.(.(.!.!.(._.^.^._._.^.^._._._._._._._.7XJ.a.a.z.c.E ..V.a.r.z.`.wX`.!.!.!.!.E.E.!.!.^.^.^.^.E.E.E.E.^.^.!.E.E.E.E.R.(.!.!.(.*XwX=X_.!.!.!.!.E.J.J.E.^.^.E.E.E.E.^.^.^.^.^.E.E.E.!.^.(.^.^.^.^.^.^.^.^.^.OX[.E.^.^.!.).6XwX).z.z.z.b.J ] N.z.k.a.F.:XoX!.E.E.E.E.E.E.!.^.!.R.R.R.E.E.^.E.^.^.E.E.E.E.!.E.E.E.E.E.E.E.E.'.$X].(.'.&X7X5X5X:X@X%X*XOXOXOXOXOXOXOXOXOXOX+XOXOXOX%X*X*X*X*X>X>X5X6XqXyXpXbXyX,XlXmXkXqX*X).z.1.0.J.'.:XwXwXwXOXJ.a.9.9.9.9.7.7.7.7.7.7.7.3.3.-.&.&.$.&.%.+.o.o.o.o.] ] ] ] o.J - h U c B U U Z n z c Z ! ~ P G U B F ' ..3.9.0.0.q.j.k.z.N.V.C.C.Z.Z.Z.G.",
").~.!.!.I.I.H.H.H.J.F.V.k.z.z.0.o.o.~ c U U ' #.] U N c N U ~ ' ~ Z U h % ! $.+.$.$.$.$.$.&.&.&.2.2.5.5.3.2.2.3.3.7.7.9.0.0.u.u.a.a.a.k.|.wX5X6X5X=XOXJ.3.o.c.`.%X>XyXbXmXqXyXkXpXuXwXqX5X5X>X>X=X*X%XOXOXOXOXOXOXOXOXOXOXOXOXOXOXOX$X$XOXOX%X*X5X5X:X+X`.^.^.E.E.E.^.^.^.^.^.(.(.(.(.^.^.!.^.^.^.^.^.^.^.^.^.^.^.^.(.(.(.^.!.%X*XN.a.j.b.j.V 5.l.k.c.S.:XqX%X!._._.(.(.(.(.(.(.^.^.!.!.!.!.!.!.^.^.^.^.^.^.^.^.(.(.(.^.^.^.^.^.(.(.(.(._._.(.(.(.(.!.E.^.^.`.OX[.^._.^.(.(.(.(.!.!._._.^.(._._.^.^._._._._._._._.0XI.k.a.k.j.U ..b.a.r.z.`.wX`.!.!.(.(.!.E.!.!.^.^.^.^.E.E.E.E.^.^.E.E.E.E.E.H.E.E.(.`.zXnXfX].!.!.!.!.E.R.R.E.^.^.E.E.E.E.^.^.^.^.^.E.E.E._.`.`.(.!.!.^.^.^.^.^._.&X&X^.^.^.(.(.6XwX).z.z.z.b.B ~ z.z.z.a.J.>XOX_.^.E.E.E.E.E.!.^.^.E.E.R.E.E.E.E.^.R.E.E.E.E.!.!.E.E.E.E.E.E.!.$X=X'.(.'.&X7X5X5X:X@X%X%XOXOXOXOXOXOXOXOXOXOXOXOXOXOXOX%X*X*X*X>X7X5X6XqXyXpXmXyX*XlXmXkX6X$X).z.&.3.F.`.*X6XwXwXOXF.0.9.9.9.7.7.7.7.7.7.7.7.3.3.-.*.*.&.=.%.+.o.o.o.o.] ] ] ] o.J - h U c B U U Z n n c Z ! ! P G U B F ' ..3.9.0.0.q.j.k.z.N.V.C.C.Z.Z.Z.F.",
").~.!.!.I.I.H.J.H.J.F.V.k.c.z.7.o.o.~ c U U ' #.] U N c N U ~ ' ! B U n % ! $.+.$.$.$.$.&.&.&.*.2.3.3.5.3.1.2.3.3.7.7.9.0.0.u.a.a.a.a.a.`.wX6X6X:X%X XF.3.o.c.`.%X>XyXbXmX;XpXxXiXwXqX6X>X>X>X=X*X*X%XOXOXOXOXOXOXOXOXOXOXOXOXOXOXOX$X$XOXOX%X*X>X>X:XOX`.^.E.E.^.^.^.^.^.^.^.(.(.(.(.!.^.^.^.^.^.^.^.^.^.^.^.^.^.^.(.(.(.^.!.%X*XN.a.j.b.j.V 7.z.k.N.F.:XqX%X!._._._._._._.(._.^.^._._._._.!.!.^.^.^.^.^.^.^.^.(.(.(.(.(.(.(.(.(.(.(.(.(.(.(.(.(.(.'.&X'.!._.[.[.^._.(.(.(.(.(.!.!.^.(.^.(._._.^.^._._._._._._.`.wX).k.a.s.a.G ] c.a.r.z.`.wX).H.!.(.(.!.!.!.!.E.E.E.E.E.E.E.E._._.^.E.E.!.!.!.E.E.(.`.fXnXeX'.^.^.!.!.E.^.!.E.!.!.E.E.E.E.!.!.^.^.}.}.E.E.(.`.`.(.!.!.(.(.(.(.(.(.`.`.^.(.(._.(.5XqX(.z.z.z.V.Z ' N.N.z.a.J.>X X(.^.E.^.^.^.^.!.^.^.^.!.!.E.E.^.R.^.^.E.E.E.E.!.!.!.!.!.E.K.K.H.(.`.(.(.`.$X>X5X5X:X@X%X%XOXOXOXOXOXOXOXOXOXOXOXOXOXOXOX%X*X-X*X>X7X5X6XqXyXpXmXqX~.qXnXpX,X$X`.z.&.1.C.!.+X5XwX6X|.F.0.0.0.9.7.7.7.7.7.7.7.7.5.3.3.-.*.*.=.&.%.+.o.o.o.} } ] ] o.J - z U M Z U U Z n n c G ~ ( P G U B F ' ..2.9.0.0.q.j.k.z.N.V.C.C.Z.Z.Z.F.",
").~.!.!.I.I.H.J.H.J.F.V.a.c.k.3.o.o.~ c U U ' #.] U N b N U ~ ' Y B U c % ! $.+.$.$.$.$.&.&.&.*.2.3.3.5.2.2.3.3.7.7.7.9.0.0.a.a.a.a.a.a.~.wXwX6X:X%X XF.3.o.c.'.*X>XqXkXMX).kXxXyXwX6X6X>X:X=X=X*X*X%XOXOXOXOXOXOXOXOXOXOXOXOXOXOXOXOX$XOXOXOX*X>X>X=XOX`.^.E.E.^.^.^.^.^.^.^.(._._.(.!.!.!.^.^.^.^.^.^.^.^.^.^.^.^.(.(.(.!.!.$X*Xz.a.j.c.j.F 9.z.k.N.F.*XqX%X!._._._._._._._._.^._._._._._.!.!.^.^.^.^.^.^.^.^.(.(.(.(._._.(.(.(.(.(.(.(.(.(.(.(.E.&XzX&X_.R.^._.(.(.(.^.(.(.(.!.!.^.(.(.(.^.^.^.^._._._._._._.`.fX`.z.k.k.a.L ..c.a.r.z.`.wX).L.!.(.].!.E.!.E.E.E.E.E.E.E.^.^.OX[.(.E.!.!.E.E.(.!.!.(.[.$X$X_.^.^.!.!.E.(.(.E.!.!.E.E.E.E.!.!.^.^.}.}.}.E.E.!.(.^.!.(.(.(.(.(.(._.(.^.^.(.(._.(.6XqX(.z.j.z.V.G ' B.z.z.a.F.:X X(.E.E.^.^.^.^.^.^.^.^.^.!.^.^.[.^.E.^.E.E.E.E.!.!.!.!.!.E.E.H.E.E.(.(.(.`.$X=X5X5X:X@X%X*XOXOXOXOXOXOXOXOXOXOXOXOXOXOX%X%X*X-X*X>X7X5X6XqXyXpXbX<XU.yXbXpX>X$X`.z.$.&.N.!.OX:X6X6X'.Z.0.0.0.9.7.7.7.7.7.7.7.3.3.3.-.-.-.*.&.$.%.+.o.o.o.o.} ] ] o.J - n Y M Z U U Z c n c G ~ ( P G U B F ' ..3.9.0.0.q.j.k.z.N.V.C.C.Z.Z.Z.F.",
"`.~.!.!.!.!.I.H.H.J.F.V.a.z.k.2.o.o.~ c ! Y ' &.o.Y B c m L Y ) ~ B U b & ~ $.#.#.&.$.$.$.$.*.*.*.3.3.3.3.3.3.3.4.7.9.8.0.e.e.e.p.p.s.M.%X%X>XwX>X+X).C.3.o.z._.=XqXiXbXmX).iXkXiXqX6X>X>X>X=X=X*X*X%X$XOXOXOXOXOXOXOXOXOXOXOXOXOXOXOXOX+XOX+X*X:X:X%XOX_.^.^.^.^.^.(._.(.(.(.(._.]._.E.(.(.(.(.(.(.(.(.(.(.!.!.!.!._._._.`.!.*X%Xz.a.a.c.q.B 3.l.k.k.F.*XqX%X)._._._._._._._._._.!.(.!.!.!.!.!.(.(.(.(.(.(.(.(.(._._.(.(.(.(.(.!.!._._._._._._.(.(.].-X'._._._._._.(.(.(._._.^._._._._._._._._._._._._._._.(.(.`.qX!.k.s.z.k.Y o.z.a.a.z.`.wX).^.^.(.^.^.^.E.E.E.E.E.E.E.E.^.^.$X[._.^.E.E.!.!.^.^.!.^.!.!.!.!.!.!.E.E.!.!.!.!.!.!.!.!.^.^.E.E.^.^.^.^.^.^.!.!.(.(.(.(._._._._._._.(.(.(.(._._.`.6XqX(.z.a.j.N.Z ~ z.z.z.k.J.*X'.(.}.}.(.^.^.!.!.!.^.^.^.^.R.`.`.E.E.E.E.E.E.E.^.!.!.!.E.E.E.E.^.^.(.(.(.`.$X>X>X5X:X*X%X%X+XOXOXOXOXOXOXOXOXOXOXOXOXOXOX%X*X*X*X>X>X5X6X6XtXiXbX%X).gXbXwX,X*X).z.} $.c.!.OX=X7X`.`.F.9.0.0.9.9.9.7.7.7.7.5.5.3.3.2.2.&.&.=.&.+.+.o.o.} } ] ] } } H - z Y m V U U C n n b G ~ ( P G U N F ' ..2.9.0.0.r.k.k.c.V.V.C.Z.F.F.D.F.",
").~.!.!.!.!.I.H.H.J.F.V.k.c.k.1.o.o.~ c ~ Y _ $.o.Y B n N L Y ) Y B U c & ! $.#.#.&.$.$.$.$.*.*.*.3.3.3.3.3.3.3.4.7.9.9.e.e.e.e.p.p.s.C.%X+X*XqX>X+X`.J.9.o.z._.=XqXfXbXnXXXqXxXiXqX6X>X>X>X=X=X*X*X%X%XOXOXOXOXOXOXOXOXOXOXOXOX$X$X%X$X+XOX+X*X:X:X%XOX`.^.(.^.^.^.(.(.(.(.(.(._._._.^.^.(.(.(.(.(.(.(.(.(.!.!.!.!.^._.`.'.).*X%Xz.a.j.b.q.V 5.l.j.k.F.*XqX%X)._._._._._._._._.`.^.(.(.!.!.!.!.(.(.(.(.(.(.(.(._.`.`._.(.(.(.(.!.!._._._._._._._.(.(.]._._._.^._._._.(.^._._._._._._._._._._._._._._._._._.(.(.(.7XP.s.a.k.z.Y o.z.j.a.z.).uX).^.^.(.^.^.E.E.E.E.E.E.E.E.E.^.(._._._.^.E.E.!.!.^.^.^.^.^.^.^.^.!.!.E.E.!.!.!.!.!.!.!.!.^.^.E.E.^.^.^.^.^.^.!.!.(.(.(.(._._._._._._.(.(.(.(._._.`.6XqX(.z.a.j.C.U ' N.c.z.z.P.:X X(.}.(.(.^.!.!.^.!.^.^.!.!._._._.E.E.E.E.E.E.E.!.!.!.!.E.E.E.E.^.^.(.(.(.'.%X>X>X>X:X*X+X+X%XOXOXOXOXOXOXOXOXOXOXOXOXOXOX%X*X*X*X>X>X5X6X6XtXiXkX.X|.kXbXuX6X*X).c.} $.Z.`.%X7X6X!.!.!.k.a.u.9.9.9.7.7.7.3.3.3.3.3.2.-.&.&.=.&.+.+.o.o.} } ] ] } } H - z U m V U P C n n b G ~ ( P F U N G ' ] 3.9.0.0.r.k.k.c.V.V.C.Z.F.F.F.F.",
").~.!.!.!.!.I.H.H.J.F.V.k.c.k.&.o.o.~ c ~ ! / +.o.Y B b N L Y ) Y B P n & ! $.#.#.&.$.$.$.$.&.&.3.3.3.3.2.3.3.3.4.7.9.9.e.e.e.e.a.p.k.P.%X XOX>X>X%X`.!.9.o.j.R.$X7XqXuXlX+X XkXiXqX,X>X:X>X*X*X*X*X%X%XOXOXOXOXOXOXOXOXOXOXOXOX$X*X*X%X+X+X+X=X>X>X=XOX`.^.(.^.^.^._._.(.(.(.(._._.(._.(.(.(.(.(.(.(.(.(.(.!.!.!.!.(._.`.'.).*X%XN.k.z.C.a.V 7.l.j.k.F.*XqX%X).`._._._._._._._.!.^.`.!.(.(.(.(.(.(.(.(.(.(.(.(._.`.`._.(.(.(.(.(.(.(._._._._._._._.(.(._._.^.^._._._._._.'._._._._._._._._._._._._._._._._.(.(.^.=XJ.k.p.k.z.~ o.c.z.z.z.|.uX`.^.^._._.^.^.}.}._._.^.(.E.E.}.E.!.!.(.(.^.!.!.!.^.^.^.^.^.^.^.^.!.!.!.!.!.!.!.!.(.(.(.(.^.^.E.E.^.^.^.(.(.^.!.!.(.(.(.(._._._._._._._._._._._._.`.0XqX(.c.a.k.C.~ o.C.z.z.z.I.6X X(.(.(.(.(.!.!.!.!.^.^.E.^.].^.E.E.E.E.E.E.E.E.E.E.E.E.}.}.!.!.^.^.(.(.(.'.%X>X4X5X:X%X%X+X*X+XOXOXOXOXOXOXOXOXOXOXOXOXOX%X*X*X*X>X>X5X6X6XtXiXgX+X+XlXkXuX6XOX(.z.#.1.F.'.*X6X7XH.!.`.V.f.0.9.9.6.7.7.7.3.3.3.3.3.-.-.&.&.=.&.$.+.+.o.o.} ] ] } } H - z U m V U U B b z c G ~ ( P G U v F ' ] 3.9.0.0.a.k.k.c.V.V.C.Z.F.F.F.F.",
").~.!.!.!.!.H.H.J.J.F.C.z.N.k.&.o.o.~ c / ~ / o.o.Y B b N L Y ) Y N P c & ! +.#.#.&.$.$.$.$.&.&.3.3.3.3.*.2.3.3.3.7.9.9.0.e.e.e.s.p.k.!.%X`.|.:X>X%X|.!.5. .u.G.J.`.=XwXbX:XY.iXiXqX,X>X:X:X*X*X*X*X%X%X%X%XOXOXOXOXOXOXOXOXOXOX*X-X>X*X+X+X+X=X>X>X=XOX`.^.(.^.^.^.(.(.(.(.(.(._.(._.].(._.(.(.(.(.(.(.(.(.!.!.!.!._._.`.`.!.*X%XN.z.c.D.a.S 9.l.j.k.F.*XqX%X).`._._._._._._._.(.'.OX`.(.(.(.(.(.(.(.(.(.(.(.(.(._._.(.(.(.(.(.(.(._._._._._._._._._.(.(.(.^.^._._._._.'.OX(.^.(._._._._._._._._._._._._._.(.(.(.=XH.M.r.k.c.~ o.c.z.c.z.).uX`.^.^._.(.^.^.^.}._._._.(.E.E.}.(.!.!.^.(.^.^.!.(.^.^.^.^.^.!.!.^.!.!.!.!.!.!.!.!.(.(.(.^.^.^._.}.^.^.^.(.(.^.(.!.(.(.(.(._._._._._._._._._._._._.`.6XqX(.c.a.k.C./ o.N.k.c.c.!.qX X(.(.(.(.(.!.!.!.!.^.^.E.(.^._.E.E.E.E.E.E.E.E.E.E.E.E.}.}.(.(.^.^.(.(.(.'.%X>X4X5X:X%X%X+X*X%XOXOXOXOX XOXOXOXOXOXOXOXOX%X*X*X*X>X>X5X6X6XtXiXpX|. XuXqX:XOXU.C.r.o.3.Z.`.%X7X=XH.!.!.z.a.9.9.6.6.7.7.7.3.3.3.3.3.2.-.&.&.=.&.$.+.+.o.o.} ] ] } } H - z U m V U U B c z c G ^ ( P F U b C ' ' 3.9.0.0.a.k.k.z.N.V.C.Z.F.F.F.F.",
"`.).!.!.!.!.H.H.J.J.F.V.z.N.k.&.o.o.~ c ~ Y ~ o.o.Y m c c L ~ ) Y M G n * ! +.$.&.&.&.&.&.&.&.<.2.3.7.3.2.3.3.3.7.9.9.0.0.0.e.e.a.p.k.P.+X`. X5X:X+X|.!.3...d.z.a.V.=XfXgX%Xk.:XpXyX6X6X>X:X*X*X*X*X%X*X%X%X%XOXOXOXOX[.$XOXOX$X=X*X%XOX+XOX+X*X>X>X=XOX`.!._.^.^.^.(.(._._.(.(._._._.`.`._._.`.(.(.(.(.(.(.(.(.!.'.[.(.`.`.).%XOXN.z.z.c.q.n 0.j.j.k.C.*XwX%X`.`.`._._._._._._.(.`.'.`.(.(.(.(._._._._._._._._.(._._.(._._._._._._._._._._._._._._._._._._._.(._._._._._._._._._._._._._._._._._._._._._._.(.(.).=XJ.c.a.k.V.~ } c.z.z.B.).wX`.^.!.(.(.^.^.^.^.E._._.E.E.E.(.(.^.^.}.}.E.E.(.(.(.(.E.^.^.^.(.`.`.[.'.(.^.^.^.^.^.^.^.^._._._._.(.(.(.(._._.(.(.(._._._._._._._._._._._._._._.^.`.6XqX~.c.a.k.C.) ] c.z.c.k.P.6X`.(.(.(.(.^.^.!.^.^.^.^.^.(.(.(.(.E.E.E.E.E.^.^.E.E.E.E.(.(.(.(.(.(.(.(.(.'.%X:X>X5X:X%X5X:X*X*XOXOXOX X XOXOX%X%X+X%XOXOXOX%X*X*X=X>X>X6X6XqXpX%XZ.|.iXiX+XD.k.0.3.$.3.V.).%X6X7XF.!.!.z.a.0.0.6.6.7.7.3.3.7.3.3.2.-.-.-.-.&.=.$.+.+.o.} } } } } } P - z ! B V U U F b z c G ^ _ P F U b F ` ' &.9.0.0.a.k.k.z.V.V.C.C.Z.Z.Z.F.",
"`.).!.!.!.!.H.H.J.J.F.V.z.N.k.1.o.o.~ c ~ Y ~ o.o.Y b h b G ~ ) Y M G c * Y +.$.&.&.$.$.&.&.&.<.2.3.7.3.3.3.7.3.7.9.9.0.e.e.e.e.a.p.k.P.+X`.|.:X:X+X|.!.3.' u.l.a.z.%XuXgX:Xk.).yXyX6X,X>X>X*X*X*X*X%X%X%X%XOXOXOXOX*XOX$XOXOX$X*X*X%X%X+XOX+X*X>X>X=XOX`.!._.^.^.^.(.(._._.(.(._.(._._.^.^.].[.(.(.(.(.(.(.(.(.(.'.[._.`.`._.%X+XN.z.z.c.q.c 0.j.l.z.D.*XwX%X`.`.`._._._._._._.(.(.(.`.(.(.(.(._._._._._._._._._._._._._._._._._._._._._._._._._._._._._._._.(._._._._._._._._._._._._._._._._._._._._._._._._.`.=XJ.c.a.k.N.~ } z.k.z.M.).qX`.!.!.(.(.^.^.^.^._.]._.E.E.E.(.(.!.^.}.}.E.E.(.(.(.(.(.E.^.!.^.`.$X$X'.^.^.^.^.^.^.^.^.^.OX].E._.(.(._.(._._.(.(._._._._._._._._._._._._._._._.^.`.6XqX~.c.a.k.C.~ ] c.j.z.a.J.6X`.(.(.E.^.^.^.!.^.^.^.^.E.E.(.(.(.E.(.E.E.^.^.^.!.E.E.E.}.(.(.(.(.(.(.(.(.'.%X:X>X5X:X%X>X:X*X%X$XOXOXOX XOXOX%X%XOX%XOXOXOX%X*X*X=X>X>X5X5XqXpXN.e. XiXgXOXN.r.0.3.$.1.V.`.*X6X>XZ.!.!.z.a.0.0.6.6.7.7.3.7.7.3.3.3.-.-.-.&.&.=.$.+.+.o.o.} } } } } P - z ! B V U U F b z c G ^ _ P F P n F ' ' &.7.0.0.a.k.k.z.c.V.C.C.Z.Z.Z.F.",
"`.).!.!.!.!.!.H.J.H.J.V.k.c.z.2.o.o.~ n / Y / o.] U c h b J ~ ) Y M G n * ! o.$.&.&.&.&.&.&.<.<.2.3.7.3.3.3.7.9.9.8.0.0.e.e.e.e.p.p.k.P.%X).).%X%X X`.P.3.` 0.z.l.z.OXuXfX6XB.M.6XqXqX>X>X>X:X*X*X*X*X*X%XOXOXOXOX*X5X=X*XOXOX%X$X%X*X*X%X*X%X:X>X5X:X+X`.!._.^.^.^.(.(._._._._._.^.(._._._.(._._.(.(.(.(.(.(.(.(.'.`._._._.(.OX%XV.z.k.c.q.c 0.l.z.c.F.*XwX%X`.`.`.`.]._._._._.`.(.^.`.(.).(.`._._._._._._._._._._._._._._._._._._._._._._._._._._._._._._._._._._._._._._._._._._._._._._._._._._._._._._._._.`.=XJ.c.p.s.c.Y ' k.j.j.k.~.6X!.^.^.(._.^.^._._.]._.(.(.(.(.(.(.(.(.(.(.E.E.}.(.(.}.(.(.(.E.E.(.(.(.(.(.(.(.(.(.!.!._._.OX_.E.^._._._._.`.`.(.(._._._._._._.(.(.(._._._._._.^.!.'.6X0X!.c.k.k.Z.~ ] c.a.j.a.J.6X`.(.(.}.^.^.^.^.^.^.^.^.E.E.E.E._._._._.(.^.^.^.(.(.(.(.(.(.(.(.(.(.(.(.`. X%X:X>X>X=X%X>X*X*X$X$XOXOXOXOXOXOXOXOXOXOXOXOXOX%X*X*X=X>X>X>X6XuXqXa.a.OXuXgX|.z.r.r.8.$.1.V.).%X6X*XC.!.!.k.a.0.0.9.9.7.7.3.3.7.7.3.3.2.-.-.-.&.&.$.+.+.o.} } } } } } P - z Q M B U U F b h n G / _ P F U n F ' ' &.9.0.0.a.s.k.z.c.V.C.Z.Z.Z.F.F.",
"`.).!.!.!.!.I.H.J.H.J.V.k.c.z.3.o.o.~ n / Y / +.] U c h b J ~ ) Y M G n & ! o.$.&.&.&.&.&.&.<.<.2.3.7.3.3.7.9.9.9.8.0.0.e.e.r.r.p.p.k.P.%X).~.+X%X X).P.3.~ 9.z.l.d.OXuXiXuXF.k.>XqXqX>X>X>X:X*X*X*X*X%X$XOXOXOXOX=XqX5X>X%XOX%X$X$X*X>X%X%X*X:X>X>X:X+X`.!.^.^.^.^.(.(._._._._._._._.`._._.^.(.(.(.(.(.(.(.(.(.(.(._._._._.!.OX%XV.z.z.c.q.c 9.z.b.b.J.*XwX%X`.`.`.`.`._._._.`.`.`.`.`._.(._.`._._._._._._._._._._._._._._._._._._._._._._._._._._._._._._._._._._._._._._._._._._._._._._._._._._._._.`.`.`.`.`.=XJ.c.p.s.z.Y ' k.a.a.k.~.6X!.^.^.(._.^.^._._.[.].(._.(.(.(.(.(.(.(.(.E.E.}.(.}.}.(.(.(.E.E.(.!.!.(.(.(.(.(.!.!.!._._.^.^._._._._._._.`.[.(.`._._._._._._.(.(.(._._._._.^.^.!.'.6XqX!.c.k.k.Z.Y ] c.a.a.a.J.6X'.(.(.}.^.^.^.^.^.^.^.^.E.E.E.E._._._._.(.^.^.^.(.(.(.(.(.(.(.(.(.(.(.(.`. X%X:X>X>X=X%X:X*X%XOXOXOXOXOXOXOXOXOXOXOXOXOXOXOX%X%X*X=X>X>X5XqXfX%X0.N. XwXfX`.z.j.r.8.$.&.V.!.%X6X*XV.H.H.k.a.0.0.9.9.7.7.7.7.7.7.3.3.2.-.-.-.&.&.$.+.+.o.} } } } } } P - z U M B U U F b h z F ~ ^ P F U n S ' ' *.9.0.0.a.k.k.z.c.V.V.C.Z.Z.F.F.",
").).).!.U.U.Y.I.J.I.F.V.a.z.k.7.o.+.) n ~ Y / o.} U c h b J ~ ) E N H z & ! o.&.&.&.&.&.&.&.1.1.3.3.3.3.7.7.9.9.0.0.0.e.a.a.a.a.a.a.k.!.+X!.!.%X+XOX|.P.3./ 9.a.u.q.`.uXuXuX).e. XyXwX>X>X:X=X*X*X*X&X&X$X$X&X$X$X%X%X%X%X%XOX$XOX%X*X>X*X%X%X:X>X>X:X+X'.^.`.&X*X_._.'._._._._.`.`.`.`._.!._._.(.(.(.(.(.(.(.(.(._._._.(.(.!.OX%XN.z.z.c.q.z 9.z.b.V.F.*XqX%X`.`.`.].].`.`.`.`.`.`.`.(.(.(.`.`._._._._._._._._._._._._._._._._._._._._._._._._._._._._.(.(.(.(.[._._._._._._.`._._._._._._.].]._._.`.`.`.`.`.`.`.=XJ.k.a.k.V.~ ~ k.k.a.s.P.6X~.^.^._._.^._._.[.&X_.!.(.(.(.(.(.(.(.(.(.(.(.(.(.(.(._.(._.E.E.(._._._._._.(._._.^.^.^._._._._._._._.(.(.(.(.(.(._._._._._._._._._._._._._./././.'.6XqX!.c.k.k.Z.Y ] c.k.a.a.(.qX'.!.(.^.(.(.(.(.(.(.(.(.(.(.(.(.(.(.(.(.(.!.!.!.(.(.(.(._._.(.(.(.(.(.(.`. X%X:X5X>X=X+X=X%X+X+XOXOXOXOX+X+X+XOXOXOXOXOX&X&X&X*X*X=X>X>X5XfXgX!.3.F.OXlXfX!.a.r.a.7.o.1.C.!.OX>XOXz.H.!.k.a.0.0.9.9.9.9.9.7.5.5.3.3.2.*.*.*.&.$.#.+.o.o.} ] ] ' o.o.U - h U m B Y P Z v l l Z ! ) U G U b F ' ] 3.9.0.0.a.k.k.z.c.N.V.C.D.F.F.F.",
"`.).(.!.U.U.U.I.J.I.F.V.a.z.k.7.o.+.` n ~ E / #.} ! b n b J ~ ) Y N H z & ! o.&.$.&.&.&.&.&.1.1.2.3.3.3.7.7.9.9.0.0.0.e.a.a.a.a.a.a.k.!.+X!.!.+XOX X).J.2.~ 7.u.a.q.(.uXyXuX Xr.F.qXuX5X>X:X=X*X*X*X*X&X&X&X&X&X$X%X%X%X$X%XOX%X%X%X*X>X*X%X%X:X>X>X:X+X`.^.{.&X4X`.`.`._._._._.`.`.`.`._.!._._.(.(.(.(.(.(.(.(.`._._._.(.(.!.OX%XN.z.z.c.q.h 7.j.b.V.F.*XqX%X`.`.`.].].`.`.`.`.].`.`.`.(._.`.`._._._._._._._._._._._._._._._._._._._._._._._._._._._._.(.(.(.(.{._._._._._._.`._._._._._._.].]._._.`.`.`.`.`.`.`.=XJ.j.a.k.c.~ ' c.z.k.s.P.5X`.^.^._._.`._._.`.[._.(._.(.(.(.(.(.(.(.(.(.(.(.(.(.(.(.(.(.^.E.(._._._._._.(._._.^.^.^._._._._._._._.(.(._._.(.(._._._._._._._._._._._._././././.'.6XqX!.c.k.k.Z.Y ] c.k.a.a.(.0X'.!.(.^.(.(.(.(.(.(.(.(.(.(.(.(.(.(.(.(.!.(.!.!.(.(.(.(._._._._.(.(.(.(.`. X%X>X5X>X=X*X%X%X+X+X+X+X+X+X+X+X+X+X%X%X%X%X*X*X*X*X*X=X>X>XqXfXwXk.6.H.OXfXwXI.r.q.r.3.] &.V.!. X=XOXk.H.!.k.a.0.0.9.9.9.5.5.5.-.-.3.3.3.3.*.*.&.$.#.+.o.o.} ] ] ' } o.P - z U m V Y P Z v l g Z ! ~ U G U b G ' ] 2.9.0.0.a.k.k.z.c.N.V.C.D.F.F.F.",
").).!.!.!.!.!.U.H.I.J.V.k.z.z.7.o.+.` k ~ E _ #.o.! M c c G ~ ) Y B H l & ! o.&.$.$.$.$.$.&.*.1.1.3.3.3.7.7.9.9.0.0.0.e.p.p.a.a.a.s.k.!.OXP.Y.OX|.`.~.S.&.~ 5.9.a.9.F.6XqXqX$Xk.k.:XqX6X>X>X=X*X%X%X*X*X*X&X*X*X%X%X%X%X+X+X+X+X%X*X>X5X*X%X%X:X5X5X>X%XOX'.`.'.OX_.`.(.(.(._._._._._._._._._._.).).(.(.(.(.).).`.`.`._.(.(.!.OX%XN.z.k.c.a.h 7.j.c.c.C.*XqX%X).`.`.`.`.`.`.`.`.].].].`.`.`.`.`.`.`._._._._._._._.`.`._.`.`._._.].]._._.`.`.`.`.].].].].].].`.].{.]._.`.`.`.`.`._._._._._.`.`.].`.`.`.`.`.`.`.`.`.=XF.j.a.k.z.U ] M.z.a.s.P.5X`.!.!._.`.]._.`._._._.(._._.(.(.(._._._._.(.(.(.(._._._._.^.^.(.(._._._._._._._._._._.`._.`.`._._._._._._._._.]._._._._._._._._._._._._.`.`.`././.|.6X6X!.c.z.j.D.Y ' c.k.k.a.!.5X'.!.(.(.(.(.(.(.(.(.(.(.(.(.(.(.(.(.(.(.(.(.`.(._._._._._._._._._._.(.(.`.OX%X>X5X:X=X*X%X@X+X+X+X+X+X+X%X%X%X%X%X%X*X*X*X*X*X*X*X=X>X7X6XgX+X6.0.!.*XwX6XF.e.r.r.&.~ &.c.H.'.*XOXk.I.`.k.r.0.0.0.9.9.3.3.2.-.-.3.3.3.2.*.*.&.$.#.+.o.o.} ] ] ' ' ] J - z U m V Y P Z c l l C ! ~ U G U b G ' ..2.9.0.0.a.k.k.z.N.V.C.Z.D.F.F.J.",
").).(.(.!.!.!.!.H.I.J.V.k.z.z.7.#.+.` k ~ E _ $.o.! M c c G ~ ) Y B H l & ! o.%.$.$.$.$.$.&.*.*.1.1.2.3.7.7.9.9.0.0.0.e.y.p.a.a.a.s.k.!.OXP.P. X`.).!.C.+.Y -.5.9.3.z.:X6X6X;XM.0.).wX6X>X>X=X*X%X*X*X*X*X*X*X*X%X%X%X%X+X+X+X+X*X:X>X6X:X%X%X:X5X5X>X%X'.'.'.'.`.^.`.`.).).(.(._._._._._._._._.).).(.(.(.(.).).`.`.`.`._.(.(.OX%XN.z.z.c.a.h 7.j.z.c.C.%XqX%X).`.`.`.`.`.`.`.`.].].].].`.`.`.`.`.`._._._._._._._.`.`._._.`.`.`.].`._._.`.`.`.`.].].].].].].].].{.]._.`.`.`.`.`.`._._._._.`.`.].`.`.`.`.'.'.'.'.`.=XF.a.a.a.k.P ' z.a.q.a.P.7X!.^.^.^._.^._.{.`.`._.(.(.(.(.(.(._._._._.(.(.(.(._._._._.(.(.(.(._._._._._._._._._._.`._.`.`._._._._._._.].].]._._._._._._._._._._._._.`.`.`././.`.6X6XY.c.z.j.D.Y ' c.k.z.k.!.>X'.(.(.(.(.(.(.(.(.(.(.(.(.(.(.(.(.(.(.(.(.(.`.'._._._._._._._._._._._.(.`.OX%X>X5X:X=X%X%X+X+X+X+X+X+X+X%X%X%X%X%X%X*X*X*X*X*X*X*X=X>X7XuXfXJ.&.a.`.*XqX>XF.e.0.0.o.! $.z.J.`.%X'.k.H.`.k.r.0.9.0.9.9.3.5.2.3.3.3.3.3.3.*.*.&.$.#.+.o.o.} ] ] ' _ ] J - z U m V Y P Z c l l C ! ~ U G U b J ' ..1.9.0.8.a.k.k.z.V.C.Z.S.D.F.F.J.",
").).).(.!.!.!.!.H.H.F.V.k.z.k.8.$.$.' k ~ ~ ' #.#.! B b M G ~ ) Y B H l - ! #.%.$.$.$.$.=.*.*.;.*.*.*.3.3.7.9.9.0.0.0.0.0.p.a.a.a.a.k.!.OXC.F.+X XP.F.k.+.~ %.5.9.9.a.%X6X>X*XF.7.C.>XwX7X>X=X=X=X*X*X*X%X%X%X*X+X+X%X%XOXOXOXOX%X%X:X>X>X*X:X>X6X6X>X+XoX`.`.`._.`.`.`.(.(.(.(._._.].].].].].].`.`._._._._.(.(._._._._._.(.(.'.=XM.z.k.k.7.h 5.j.c.z.N.%XqX%X).`.`.`.`.`.`.'.`.`.`.].`.`.`.`.`._._._.]._._._._._._._._.`.OX`._.`.`.`.`._.`.`.`.].].`.`.`.`.].].`.`.`.`.`.`.`.`.`.`.`.`.`.`._._._.`.].].'.[.'.`.'.=XJ.j.a.a.r.G ^ r.9.3.e.J.>X!.!._._.`.`.`._._.`.`.`.`.(.`.`.(._._._._._._._._._._._._._.(.(.(._._._._._._._._._._.`._.!._.`.`.`.`._._.].].`.].`.`.`.`._._.].`._._.`.`.`.`./.~.|.6X6X!.V.k.j.F.~ o.Z.j.a.z.!.6X`.!.(.(.(.(.(.(.(.(.(.(.(.(.(.(.(.(.(.(.(.(.).(._._._._._._._._._._.`.`.`.OX%X5X5X:X=X=X:X*X+XOX+X+X+X+X+X+X+X+XOX%X%X%X%X*X*X*X%X*X=X=XwXOX0.+.Z.`.*X7X Xa.3.0.0.o.~ o.a.Z.V.+X'.k.P.`.k.r.0.9.0.9.9.3.5.9.9.9.3.3.3.*.*.*.$.$.#.#.+.o.} ] ] ' / ] F 1 z U m V ! U G z l l Z Y ~ U G U b J ' ..1.9.0.8.r.k.k.z.V.C.Z.Z.Z.F.F.F.",
").).).(.!.!.!.!.H.H.F.V.k.z.k.4.+.#.` k ~ ~ ' #.#.! B b M G ~ ) Y B H l - ! #.%.$.$.$.$.=.=.*.;.3.*.*.3.7.7.9.9.0.0.0.0.0.0.a.a.a.a.k.!.OXC.F.*XOXS.B.r.o.~ %.5.7.9.r.|.:X%X%XP.0.7.`.=X=X=X5X5X=X=X=X=X*X%X%X+X+X+X%X%XOXOXOXOXOX%X*X*X5X:X:X,X6X6X>X%X{.`._.`._.`._.`._._._._._.].]._.].].].].`.`._._._._.(.(._._._._.(.(.(.).%Xz.k.k.x.w.c 9.k.b.c.C.*XwX%X`.`.`.'.'.'.'.'.'.'.`.`.`.`.`.`.`.`.`.].].].].`.`.`.`.`.`.`.[.`.`.`.`.`.'.`.`.`.`.].].].].].].].].`.`.`.`.`.`.`.`.`.`.`.`.`.`._._.{.{.'.'.[.OX[.`.`.=XF.k.a.a.r.J ' a.r.0.r.J.>X(._.`.`.`.`.`._._.`.`.(.(.`.`.`.(._._._._._._._._._._._._._._._._._._._._._._._._._._.`.`.`.`.'.[.`.`.(.(.`.`.`.`.`.`.`.`._.`.'.`._._.`.`.`.`./.~.`.5X5X!.V.k.j.F.~ $.F.a.a.z.U.5X`.!.(.(.(.(.(.(.(.(.(.(.(.(.(.(.(.(.(.(.(.(.).(._._._._._._._._._._.`.`.`.OX%X7X5X:X=X=XwX:X+XOX+X+X+X+X%X%X%X%X%XOXOXOX*X>X=X%X%X*X=X=X*Xk.+.&.F.`.@X7X).r.3.0.8.o.~ o.a.z.a.'.`.s.P.`.a.0.8.9.0.9.9.3.5.3.3.3.3.*.*.&.&.&.$.$.#.#.+.o.o.} ] ] / ] F 1 z U m V ! U G z l l Z ! _ U J U b J ' ' *.0.0.9.0.k.z.z.V.C.Z.Z.D.F.F.F.",
").).).!.!.!.!.!.H.H.F.V.k.z.k.3.o.o.~ h ~ ~ ' #.#.! B b M J ~ ) Y B H l - ! #.&.$.$.&.&.=.=.*.;.3.2.3.7.7.7.9.9.0.0.0.0.a.a.a.a.a.a.k.!. XN.N.OX Xk.e.0...E o.2.7.7.7.I.+X+X%X).r.#.7.$X5X=X=X=X4X=X=X=X*X*X%X+X+X+X%X%X%X$XOXOXOXOX%X*X=X*X*X>X6X6X>X%X'.^.^._._.`.`.`._._._._.]._._._._._._._.(.(.].].].(.].]._._._._.(.(.!.^.%Xk.j.j.x.q.m u.k.c.c.N.*XqX%X`.`.`.`.`.$XOX[.'.'.`.'.`.`.`.`.`.`.].].].].].].].`.`.`.`.'.`.!.`._.`.'.[.[.'.`.`.`.`.`.`.`.`.`.`.`.`.'.'.`.`.'.'.'.'.'.'.`.`._._.'.'.'.'.'.[.[._.(.$XZ.z.a.a.r.J ' k.a.a.r.C.*X(.`.`.`.`.`.`.`.`.`.`.`.`.`.`.`.`._._._._._._._._._._._._._.].].]._._._._._._._._._._.`.`.'.'.OXOX'.`.).).`.`.`.`.`.`.`.`._.[.OX[.`.`.`.`._.`.`.~.`.6X6X!.V.k.d.F.~ %.Z.a.a.k.I.*X`.!.(.(.(.(.(.(.(.(.(.(.(.(.(.(._._.(.(.(.(.).(._.].].].].].].]._._.`.`.`.OX%X7X5X:X:X=XfX7X+X+X%X%X%X%X%X%X%X%XOXOX%X%X>X>X*X%X*X=X>X7X!.o.U &.J.'.&X=XJ.0.4.7.7.] ! } 0.r.3.!.!.a.H.`.k.r.0.8.0.9.9.3.3.3.3.3.1.$.$.$.*.*.$.$.#.#.+.o.o.o.o.} / ] F 1 z U m V ! U G z l z G ) _ U H U n G ' ..*.9.0.9.0.a.c.c.V.C.Z.Z.Z.F.F.F.",
").).!.!.U.U.!.!.H.H.F.V.k.z.k.3.o.o.~ g ~ ~ ' #.#.! B b M J ~ ) Y B H l - ! +.&.$.$.$.$.=.&.*.2.3.3.3.3.7.7.9.9.0.0.0.a.a.a.a.a.a.a.k.!. Xz.k.!.).0.8.e.] U o.-.3.3.3.C.|.+X%X Xc.#.' D.*X$X`.(.(.(.E.!.*X&X%XOX+X+X%X%X%X$XOXOXOXOXOX$X*X$X$X*X6X6X>X%X`.!.!._._.`.`._._._._._.].].]._.]._._._.(.(.].].].].].]._._._._.(.(.^.^.%Xz.k.j.z.w.N a.a.z.k.N.%XqXOX!.`.`.`.`.*X%XOX'.'.'.'.'.'.'.'.'.`.`.`.`.`.`.].`.'.'.'.'.'.`.!.`._.`.[.OXOX[.`.).`.`.`.`.`.`.`.`.`.`.'.'.`.`.'.'.`.'.'.'.'.`.`.`._.`.`.`._.`._.^.!.OXC.c.s.s.p.H } z.z.k.p.C.*X`.`.`.`.`.`.`.`.`.`.'.'.'.`.`.`.`._._._._.`.`.`.`._._._._.`.`.`.`.`.`.`.`._._.`.`.`._.`.`.`.`.|.|.'.`.`.`.`.`.`.`.`.`.`.`._.OX$X[.`.`.`.`._.`.`.!.`.6X5X!.V.k.j.G.~ ` k.a.k.k.J.%X`.!.!.(.(.(.(.(.(.(.(.(.(.(.(.(.(.(.(.(.(.).).)._._._._._._._._.`.`.`.`.`.OX%X7X5X4X:X=XuX:XOX*X%X%X%X%X+X+XOXOX XOX*X>XOX).!.).|.OXOXOXF.&.' 3.H.'.OX*XC.7.7.4.3.] Y ] 3.3.&.F.I.0.J.`.s.0.0.9.0.9.9.3.5.5.5.5.*.#.o.$.&.&.$.$.#.#.+.o.o.o.o.} / ] F 1 z U m V ! U G z l z P _ ' ! H Y n G ' ..*.9.0.9.9.a.c.N.V.C.Z.Z.Z.F.F.F.",
"~.~.~.!.!.!.!.!.H.J.F.c.a.k.j.3.o.o.~ k ~ ~ ' &.+.~ B c N J / ' ~ B H c ; Y +.&.$.$.$.$.*.1.2.3.3.3.3.3.7.7.8.0.0.0.q.q.q.q.q.a.a.k.k.!. Xz.a.N.C.9.-.;.) G ' +.2.3.<.k.Y.).OX|.J.c.b.K.`.(.R.L.D.D.G.G.OX%X$XOX$X$X%X%X%X%X%X%X%X%X$X%X%X%X%X%X%X:X%X+X'.'.|.'.OXOXOXOX'.`.^.!._.$X$X`.^.^.^.^.^.^.^.^.^.^.^.(.E.E.!.!.(.^.!.!.OXk.k.c.z.u.B 9.c.z.k.k.$X:X X X`.`.`.`.(.).OX'.!.!.^.`.'.'.`.`.`.`.`.`.'.`.`.).`.`.`.`.`.`.`.`.`.`.|.|.|.`.).~.~.~././.`.`.`.`.`.`.`.`.`.`.`.`.'.'.'.'.'.'.'.'.'.'.'.'.'.'.'.'.|.OXZ.z.z.k.a.J / c.k.k.a.k.).).).`.`.`.`.`.'. X$XOX'.`.^.^.!.!.!.!._._._.`.`._.(.(.(.(.`.`.`.`.`.`.`.`.`.`./.~.|.'.|.|.`.`.|.`.I.!.(.).).).).).`.`.`.`.!.!.!.!.(.!.!.!.!.!.!.!.OX6X=XF.c.z.j.D.` ~ j.k.z.c.F. X X~.!.!.).(.!.!.!.!.!.!.).).).).`.`.`.`.'.`.`.).).).).`.`.`.`.).).).).). X+X%X:X5X:X@X+X+X@X%X%X%X%X%X%X%X%X%X%X%X%X=X:X|.J.F.~.~.).).).I.S.z.a.S.!.OX'.k.0.3.4.3.' Y ' 3.3.$.j.C.a.F.!.a.0.0.0.0.0.9.9.3.3.3.5.;.%.+.&.&.&.=.&.&.+.+.o.$.o.} } _ _ C 3 z U m V Y U G l l n P ' ] ! H Y n J ' ] 3.0.0.0.r.k.c.V.V.Z.D.F.F.F.F.F.",
"~.~.!.!.P.P.P.P.J.J.F.c.p.k.j.3.o.o.~ k ~ ~ ' &.+.! B c N J / ' ~ B H c ; Y o.&.$.$.&.&.$.&.&.1.2.3.3.3.7.7.8.0.0.0.q.q.q.q.q.a.a.a.k.!. Xz.a.z.N.7.=.=.~ G ' &.3.1.<.s.Z.M.Y.).'.$X-X$X$X$X*X*X7X5X6X0X6XwXqXqX6X,X,X,X,X,X,X,X6X,X>X,X6X6X6X6X6X6X6X5X5X5X6X6X6X6X7X7X4X=X*X%X*X=X5X5X=X=X=X=X*X*X*X*X-X-X=X=X-X=X-X-X4X4X=X-XF.a.z.z.z.u.B 3.c.z.k.k.F.|.:X*X%X*X*X*X*X*X6X=X XOX$X=X7X7X7X7X7X7X7X7X6X5X>X:X>X7X:X:X6X6X6X5X5X5X6X6X>X:X*X:X:X>X>X>X>X>X>X>X>X>X=X=X>X>X>X>X5X5X5X>X:X:X:X:X:X:X=X%X*X*X*X*XOX`.c.j.d.a.a.J ~ z.j.j.k.z.I.6X6X6X6X6X7X7X6XqX5X7X=X=X=X=X=X=X=X4X4X=X=X=X=X=X=X=X=X>X6X5X5X>X5X5X5X5X6X5X5X5X6X6X6X6X7X7X7X7X%X*X=X=X=X=X=X=X=X=X=X=X$X$X$X$X$X$X$XOX%X%X%X%X7X=X`.c.c.z.j.D.` E k.z.z.z.N.I.+X*X>X%X%X%X*X*X=X=X=X=X*X*X*X*X=X=X=X=X5X5X:X:X:X:X>X>X:X:X:X:X*X*X*X*X>X>X6XqXwX6X5X:X:X>X5X5X6X6X6X6X6X6X6X6XwXwX6X6X5XOXOX5X5X6X6X5X>X%XOXOXOX'.!.c.7.2.1.1.3.' Y ) $.&.o.q.V.a.Z.!.a.0.0.0.0.0.9.9.9.3.3.3.2.&.+.&.=.=.=.&.$.+.+.+.o.o.o.} { ' Z 3 z U m V Y U Z l l n P _ } ! H ! l J ' ] 3.0.0.0.r.k.c.V.V.Z.Z.F.F.F.F.J.",
"~.~.!.!.P.P.P.P.J.J.F.c.a.k.j.3.o...~ k ~ ~ ' &.+.~ B c N L ) ' ~ B H c < Y +.&.$.$.&.&.&.&.&.&.3.3.3.4.7.7.8.0.0.0.q.q.q.q.q.a.a.a.k.U. Xk.r.k.z.3.%.&.~ L ] 1.3.<.&.&.4.s.J.P.J.H.(.).I.!.).`. X XOX+X:X5X>X>X*X*X*X*X%X%X%X%X%X%X%X%X%X@X@X@X+X+X+X X.X X.X X XoX|.|.|.|.|.`.`.`.`. X`.`.`.`.|.|. X X X X X X X X`.`.`.!.H.F.k.k.k.k.v.u.B 9.c.z.k.k.s.N.P.!.).'. X X X X$X X%X+X$X*X*X*X*X*X%X%X%X%X*X*X%X%X+X%X%X+X+X+X+X+X+XOX+XOXOXOXOXOXOXOX+X+X+X+X%X%X%X*X*X*X*X*X*X*XOXOXOXOX X X X X).).).).!.!.!.!.!.C.u.a.a.a.a.K ~ z.j.j.k.V.N.).`.`.`.`.`.'. XOXOXOX[.[.$X$X$X$XOXOXOXOXOXOXOXOX X X X X+XOXOX X XOXOXOX+X+X+X+X+XOXOXOXOXOXOXOXOXOX$X$X$X$XOXOXOXOX X X'.'.'.'.`.`.).).).~.~.).).Y.C.z.c.z.k.Z.~ E k.c.N.k.k.N.C.Y.`.`. X XOX+X+X+X+X+X+XOXOXOX+X+X+X+X@X+X+X+X X X X X+X+X+X+X+X%X%X%X+X%X%X%X+X+XOXoXoXOX+X+X+X+X+X+X+X+X+XOXOX X'.'.`.!.!.`.`.`.~.~.!.Y.H.J.V.C.s.3.&.1.3.3.1._ U / o.+.' 7.N.r.C.!.s.0.0.r.y.0.0.9.9.9.9.3.2.&.+.=.=.=.=.&.$.+.+.o.o.o.o.o.} } Z 3 z P m V U P C h l n P _ } ! H ! n J ' o.3.0.0.8.r.k.c.V.V.Z.D.F.F.F.F.F.",
"!.~.!.!.P.P.J.J.J.J.F.c.a.a.j.3.o...~ k ~ ~ ' $.+.~ B c m L ) ' ~ B H c < Y +.&.$.$.&.&.$.&.&.1.3.3.3.4.7.9.8.0.0.q.q.u.q.q.q.a.a.a.k.U. Xk.0.a.k.*.#.#.E L o.2.3.3.O.~ o.4.2.1.3.r.a.k.z.z.c.c.c.M.C.C.Z.F.S.S.C.N.Z.Z.Z.Z.Z.S.S.Z.C.Z.S.S.S.S.Z.S.Z.M.C.N.C.Z.C.C.C.V.C.S.S.Z.C.D.F.F.C.C.D.S.S.S.F.F.F.F.F.F.S.C.B.z.z.c.c.c.z.k.j.k.b.a.S 9.z.z.k.s.z.s.k.z.z.N.C.F.N.N.D.c.C.C.J.U.I.I.I.I.F.F.F.F.J.F.F.Z.F.F.F.F.F.F.F.F.F.F.F.F.D.D.F.J.C.Z.S.S.S.S.F.F.F.F.F.F.Z.Z.Z.Z.M.M.M.M.C.C.S.S.Z.Z.F.F.N.N.V.V.V.a.a.a.a.a.a.U / z.k.k.z.M.c.k.M.M.N.c.c.N.V.C.C.Z.C.Z.V.V.C.C.C.C.C.C.C.C.D.D.D.D.D.F.F.F.F.F.Z.Z.Z.Z.Z.S.F.J.F.F.F.F.F.S.F.F.F.F.F.D.D.D.D.D.C.D.N.N.c.c.M.M.c.z.z.k.k.k.k.k.k.k.k.z.c.k.s.Z.~ E z.V.C.k.a.s.k.M.M.C.F.S.C.C.C.C.C.C.C.C.C.C.C.C.C.C.C.C.M.M.Z.Z.Z.Z.Z.Z.S.Z.D.D.F.F.F.F.F.F.F.S.S.S.C.S.S.J.J.J.J.J.S.S.Z.Z.C.C.D.D.F.N.z.N.C.N.k.s.r.0.3.1.&.3.3.$.+.1.7.7.*.) U ~ o.o.' 3.c.0.V.I.k.0.0.r.u.y.0.0.9.9.9.3.2.&.&.&.=.=.=.&.$.+.+.o.o.o.o.o.O.} Z 3 z P m V U P B g l n P ' ] ! H ! n J ' } 3.0.0.8.r.k.c.V.V.C.D.F.J.F.F.F.",
"~.~.~.!.!.I.J.J.J.!.J.c.0.a.j.3.o.' ~ k ~ ~ ' $.+.~ Z n M L ~ ' ~ N H c < ( +.+.$.$.&.&.&.&.1.2.3.3.4.7.7.9.0.0.0.q.q.q.q.q.q.q.a.a.k.I. Xk.a.a.a.&.#.#.E I ..&.2.2.&.o.&.&.&.&.3.3.9.0.p.a.a.a.a.a.s.a.a.a.a.k.j.k.a.a.k.k.k.k.k.z.k.a.c.c.z.z.c.c.M.M.c.c.N.N.c.c.c.c.b.b.c.z.V.C.C.V.c.c.c.c.Z.Z.Z.Z.H.Z.F.D.C.N.z.z.k.k.k.z.c.z.k.z.c.d.B 9.V.k.s.s.k.s.s.a.k.k.z.z.k.z.z.z.a.a.z.c.Z.V.c.k.k.k.k.k.k.z.c.c.c.M.c.c.k.z.c.V.z.B.z.s.k.k.k.z.f.f.k.k.k.k.k.k.c.c.c.c.z.c.c.z.z.z.z.z.k.k.a.a.c.c.c.c.V.V.V.V.V.V.b.z.j.z.a.J / z.k.z.z.k.a.a.k.k.k.k.k.k.z.z.c.c.z.z.z.z.z.c.z.z.N.N.N.N.z.z.z.c.M.N.N.N.N.N.B.B.B.z.C.B.k.B.N.N.N.N.N.N.N.N.V.C.C.D.C.V.b.c.z.z.N.N.N.N.N.N.C.N.N.z.k.k.k.k.k.s.s.k.M.M.k.Z./ ) c.C.C.k.s.k.a.z.z.V.V.V.V.V.V.V.V.V.V.c.c.c.z.z.z.z.a.j.c.j.z.z.z.z.z.z.k.z.z.z.z.z.z.z.z.c.N.C.V.z.k.k.k.k.k.z.s.r.a.a.k.k.j.z.z.C.G.z.a.j.z.a.0.q.7.7.3.3.4.3.3.2.&.2.7.7.2.' L ) ] ' ] 3.r.0.c.I.k.r.r.r.u.0.0.0.0.9.9.3.2.;.&.&.&.&.&.=.$.+.o.o.o.o.o.o.} o.U 3 c U M Z ~ U M l h z J _ ] ! H ! n J ' } 3.9.0.8.r.z.V.V.V.C.Z.Z.Z.Z.F.J.",
"~.~.~.!.!.I.J.F.J.!.J.c.0.a.j.3.o.' ~ k ~ ~ ' $.+.~ Z z N L ~ ' ~ N H c < ( +.+.$.$.&.&.&.&.1.2.3.3.3.7.7.9.0.0.0.q.q.q.q.q.a.a.a.k.k.!.OXz.a.a.0.+.] o.Y L ..&.3.3.*.&.*.3.7.0.u.a.a.a.a.a.k.k.a.k.k.a.a.k.k.k.k.k.z.k.z.z.z.z.z.c.z.k.c.c.c.V.V.V.V.V.V.V.V.N.V.c.c.c.c.c.z.z.b.C.C.V.c.V.V.C.C.C.C.C.V.k.c.c.z.z.z.z.z.z.z.c.c.c.k.z.z.z.N y.F.V.z.c.C.c.V.v.z.z.c.c.c.z.z.z.a.k.c.c.z.c.c.c.z.z.k.k.z.k.k.a.k.k.k.k.a.a.c.V.C.C.N.k.k.z.B.N.V.C.C.C.z.z.c.c.V.V.V.V.b.D.J.F.C.C.C.C.Z.Z.V.V.V.C.Z.C.Z.Z.A.A.Z.G.C.C.b.b.C.U / V.V.N.k.s.a.a.k.k.k.k.a.a.k.k.k.k.a.a.k.k.k.a.k.z.c.c.c.z.z.z.z.z.z.z.z.N.C.F.N.C.C.Z.C.V.M.M.V.V.V.V.V.V.C.C.c.V.V.C.V.c.c.z.k.z.z.c.V.C.C.C.C.C.V.N.z.z.z.c.z.k.k.M.M.k.M.S.Y ` F.M.C.c.s.s.k.c.z.V.M.M.M.c.c.c.c.c.c.c.z.z.z.c.c.c.j.a.k.a.k.z.z.c.c.z.z.z.z.x.x.z.z.z.x.c.V.C.V.c.k.c.V.C.F.S.c.a.a.k.N.C.c.b.z.c.C.z.l.z.x.j.0.7.9.9.7.7.0.0.0.7.7.7.9.7.7.o.U / ' ' ' *.0.0.c.!.k.r.r.r.u.0.0.0.9.9.9.3.2.2.-.-.-.*.&.&.$.+.+.+.+.+.o.o.} } U 3 c ! B G ~ U B l g l J _ ' ! H ! n J ' } 3.9.8.8.r.z.V.N.V.C.Z.Z.F.F.H.H.",
"~.~.~.!.I.P.J.S.J.!.J.c.e.a.j.3.o.' ~ h ~ ~ ' $.+.! Z z N L / ' ~ N H c < ( +.+.$.$.&.&.&.1.2.3.3.4.7.7.7.9.9.8.9.9.0.q.r.a.a.a.a.k.k.!.%XN.k.k.3.o.] o.) L ' ] o.#.o.] ..o.%.$.=.-.-.3.9.9.9.0.0.a.u.0.0.a.r.0.0.q.a.a.a.a.a.a.a.a.a.a.a.a.k.z.k.k.z.k.k.a.k.a.k.k.a.a.r.r.q.q.q.a.a.r.r.a.a.j.c.c.c.c.a.u.a.j.z.c.c.k.z.z.z.c.C.V.b.V.J.V.S 0.R.Z.c.z.f.a.k.k.d.d.d.d.d.a.a.a.a.a.a.a.a.k.k.z.z.z.z.z.z.z.k.k.a.a.a.a.7.9.a.a.k.k.r.7.4.8.e.p.p.p.p.p.r.a.j.j.j.j.j.j.a.z.c.c.z.k.a.a.k.j.a.a.0.0.0.0.0.0.y.0.a.a.a.a.j.j.j.Y o.C.c.c.k.k.z.z.z.z.z.z.k.z.c.c.k.k.j.a.a.a.q.q.a.a.a.a.z.z.c.z.V.z.j.a.a.a.k.z.k.c.V.V.M.k.f.k.c.c.c.c.c.c.c.c.c.c.b.b.c.z.k.k.k.a.a.a.a.k.c.z.k.j.a.a.a.a.a.a.a.u.a.a.z.C.c.k.N ~ C.M.z.z.s.a.a.a.a.a.d.f.a.a.a.a.a.a.a.a.a.a.a.a.a.a.p.a.k.a.a.a.a.a.k.k.k.k.k.k.z.k.k.j.z.z.c.V.c.k.a.k.z.M.C.V.k.r.p.a.s.k.a.a.9.9.q.q.0.w.q.7.3.3.1.1.&.&.3.3.2.&.+.+.$.+.#.) U / ] ' ' &.4.7.z.!.k.0.0.r.0.0.0.9.9.9.9.9.3.3.-.-.*.*.&.&.$.+.+.+.+.+.o.o.} } P 1 c U B G ~ U B n l n H ^ ' ! H ! c P ' o.3.9.9.9.0.k.c.c.N.V.C.Z.F.F.J.H.",
"~.~.~.!.P.J.F.S.H.!.J.N.r.s.k.7.o.' ~ h ~ ~ ' $.+.! Z z N L / ' ~ B H c < ( +.+.$.&.&.&.&.1.2.3.3.3.7.9.9.9.9.8.9.9.9.0.q.q.r.a.a.k.k.U.%XN.z.z.3.o.] o.~ B N n G I I L I L I I I I U U E E ~ ~ ~ / ~ ~ ! ' _ ~ Y ~ ) ' ' ' ' ' ' ' ' / _ ' } o.] } } } ' ' ' ' ) ) ) ) ! ! ! Y ! ~ ~ ! ~ ~ ' ' ] ] ] ] ' ) ] ] ' o.[ E G L L J J J F G U G 0 ` o./ U K H H Y Y ! ! ~ ~ ~ ~ ~ ~ / / ~ ~ ~ ~ ~ / / _ _ _ ' ' ' ' ' ' ' ' ' ' ] ] } ' ~ U P U ( ^ ( ( ~ ~ ' ' o.o.] ] ] ] ' ] ] ' ' ' ~ ~ / ~ ~ ~ J J J J G G G G J J J G S S N 8 h Y Z J U U Y ~ ~ ~ ~ ~ ~ / _ ' ' ] ' ' ] ' ` ~ ~ / / ' ' '  .o.o._ Y U Y Y Y Y / ' ]  . .' / ' +.+.+.+.] ] ] ] ' ' ' ' ' ` / / ~ ~ R Y ~ ' ..' ` / ~ ~ ~ E E ~ ~ E E ~ / ~ c J n B ~ U G U ! U Y ! U U ~ ~ ~ ~ ~ ~ ~ ~ ~ ! Y Y U U U U Y ~ } ' ) ! U U ! ! ! ! ! ! ~ ~ ~ ~ ) _ ' ] ' ) ' ' ' ' ' ' _ ~ ' ' ^ ~ ~ / ! ~ U U L G V B V G Z V B B B B B M n b B B G J J ) +.] ' *.2.3.z.!.k.0.e.r.0.0.0.9.3.9.9.9.5.2.-.-.*.*.&.&.$.+.+.+.+.+.o.o.} } P 1 c U B G / U B c l n J ^ ' Y H ! b P ' o.3.9.9.9.0.k.c.z.c.V.C.C.V.V.Z.Z.",
"~.!.!.!.P.P.J.J.P.P.H.N.z.N.z.7.o.' / k ~ ~ { $.$.! Z M B L ` ' ~ B K c < ~ $.&.&.&.&.&.&.1.2.3.3.3.7.9.9.9.8.8.9.9.0.0.0.0.q.a.a.j.k.!.+XM.k.k.3.] ] [ ~ G ` ' ` ` [ ..` ` ` ` ~ ~ ` ` ] o.+.%.*.*.3.3.9.7.3.*.3.5.5.5.9.9.9.9.9.9.9.9.a.a.r.r.r.r.r.r.e.0.q.q.q.q.q.r.r.r.0.0.0.0.0.0.0.0.0.0.0.0.0.0.7.9.0.0.9.9.7.7.3.3.3.3.9.2.2.2.-.&.i &.3.3.2.2.<.&.1.1.1.1.2.2.2.2.3.3.8.0.2.3.9.0.0.u.u.u.u.u.u.u.u.u.u.a.a.a.a.a.a.a.a.a.a.9.7.9.9.9.6.3.3.4.0.0.u.d.a.a.a.a.a.a.q.9.7.7.7.3.3.7.q.q.7.3.3.2.3.3.3.3.2.3.3.3.5.2.0.Z M #.&.2.7.7.3.3.7.7.0.0.0.0.r.a.a.a.a.a.a.a.y.0.p.p.y.y.a.a.d.z.a.a.u.0.a.0.5.6.9.9.0.0.a.0.0.0.a.a.a.a.r.0.0.9.0.0.a.a.r.r.r.r.p.V.V.0.a.a.a.r.9.9.8.8.7.7.7.7.7.3.7.9.9.9.e.r.N F a.9.9.7.7.0.e.e.0.0.0.0.y.0.0.0.y.0.0.0.0.q.9.q.a.j.z.a.a.a.a.r.0.7.7.7.7.7.7.7.7.8.8.8.9.9.q.q.7.7.3.3.3.3.7.7.7.7.3.3.2.*.3.3.*.*.1.&.&.&.&.$.$.#.o.} ] ' / _ _ / ~ ] o.o.#.~ G ) $._ ' $.3.q.z.R.V.0.q.q.q.0.9.9.9.9.9.9.3.2.2.;.&.1.&.&.&.$.+.+.#.o.o.} } } U < b ! B J ` Y B n h n J ) ' Y H ! c U ' } 3.q.r.0.r.k.c.z.V.V.Z.V.V.V.Z.F.",
"`.`.).~.~.~.!.!.P.P.J.c.z.N.z.7.#...` n ~ ~ { $.#.! C M B L ` ' ~ Z U c < ^ $.&.&.&.&.<.&.1.2.3.3.3.7.9.9.9.8.8.9.0.0.q.q.q.q.a.a.a.s.!.+XM.k.k.7.#.#.o.~ G ` ....#.%.%.%.-.,.w.q.a.a.a.c.c.V.V.V.c.c.c.k.z.c.c.b.b.b.b.b.b.b.c.c.c.c.c.c.c.c.z.z.z.k.k.z.z.z.z.z.z.z.z.z.z.z.k.z.c.c.z.z.z.z.z.k.k.z.z.k.k.z.z.z.k.k.a.a.a.a.a.k.a.k.V.C.k.B y.V.c.z.k.k.a.k.k.k.k.z.z.k.k.k.k.z.c.a.a.a.a.d.k.k.k.k.k.z.k.k.k.k.k.k.k.z.z.z.z.V.V.c.k.s.a.s.s.a.p.p.a.f.a.z.V.c.C.C.N.Z.C.V.c.c.z.z.z.k.z.c.V.z.z.k.k.k.k.k.k.k.k.z.k.z.V.J.~ ' F.Z.C.k.k.a.a.a.a.k.k.k.k.z.c.c.c.c.M.c.c.c.k.k.k.z.k.v.z.c.V.C.V.c.z.V.c.f.z.V.V.c.c.V.z.k.z.V.Z.Z.V.c.c.z.z.c.c.c.c.c.c.c.c.S.`.~.C.C.z.k.k.a.a.a.a.a.r.r.a.a.a.a.j.z.c.V.V.Z U D.Z.V.c.c.V.V.V.V.V.V.V.V.V.z.z.v.b.V.V.V.V.c.C.Z.D.C.c.c.N.C.V.N.z.z.c.N.N.c.N.N.N.C.N.V.V.V.V.z.k.a.a.a.a.j.j.j.j.k.k.j.j.j.a.a.a.a.a.a.a.k.k.s.a.a.a.a.a.0.7.1.+.o.&.3.&.+.Y G ' $._ ' $.*.9.c.(.V.0.q.q.q.0.9.9.9.9.9.9.3.2.2.;.1.1.&.&.&.$.O.+.o.o.o.} } } U < b ! B G ` Y B n h n J ) ' Y H ! c P ' ] 3.q.r.0.a.c.V.c.V.Z.Z.Z.Z.A.F.J.",
"~.~.~.!.!.!.!.!.!.J.F.z.k.c.z.7.%...' n ~ ~ { $.#.! B M B I ` ' / F U b < ^ $.&.&.&.<.<.1.1.3.3.3.3.7.9.8.8.9.8.0.0.q.q.r.r.r.a.a.a.s.!.+XM.k.M.r.*.&.$.` S ` %.o.o.o.o.#.;.w.j.z.c.V.V.c.z.z.z.z.k.k.k.a.z.N.Z.V.C.C.C.C.C.C.C.Z.Z.C.C.V.V.V.V.N.V.c.c.c.c.b.b.c.c.c.c.z.z.z.z.c.c.z.z.c.c.c.c.c.c.b.b.z.z.c.c.k.k.a.a.r.r.e.r.e.0.a.z.Z.k.N 0.V.c.k.k.s.a.k.k.k.k.k.k.k.k.j.j.k.c.f.z.a.a.d.z.z.z.z.z.z.z.z.z.l.l.z.z.z.z.z.z.z.b.c.z.k.k.k.k.f.a.a.s.k.a.s.z.z.N.N.z.N.N.N.N.V.V.c.c.c.c.c.v.c.z.k.f.f.f.f.k.a.k.k.j.a.z.C.J ~ F.z.k.k.k.a.a.a.a.s.a.k.k.z.z.z.z.z.z.z.z.N.N.M.M.c.c.M.k.k.c.V.C.V.V.C.V.c.V.V.M.c.z.z.j.d.j.c.V.V.c.c.b.V.V.V.v.v.v.k.f.f.f.z.F.S.c.N.k.a.k.k.k.k.k.s.a.a.s.j.a.a.k.N.V.C.Z.F J k.k.p.e.e.a.M.M.M.M.C.C.C.C.V.V.C.Z.V.N.V.N.N.N.V.V.z.z.z.N.N.N.c.c.N.N.N.N.N.N.N.N.C.C.V.V.V.N.z.k.j.a.a.j.c.c.c.z.z.z.x.c.N.M.c.z.z.z.z.z.z.k.k.k.k.k.a.a.a.9.&.o.o.&.&.+.o.Y J ] $.' ' $.*.9.c.(.V.9.0.0.q.0.9.9.9.9.9.9.6.3.2.2.1.1.&.&.&.&.$.O.#.o.} } } } U 3 b Y V J ` Y B b h c L ) ] Y H ! n J ' ] 3.a.a.0.a.c.V.N.C.Z.Z.Z.Z.A.F.J.",
"~.~.!.!.!.!.!.~.!.J.Z.z.z.c.z.3.%.o.' n ~ ~ { $.#.! B M B I ` ' ) F Y v < ^ $.&.&.&.<.<.1.1.3.3.3.3.7.7.7.8.8.8.0.0.q.r.a.a.a.a.a.a.k.!.OXM.M.C.r.*.*.=.` S ` =.&.&.%.%.9.u.z.b.C.A.F.F.V.N.c.z.z.k.c.N.z.N.C.F.Z.Z.Z.Z.F.F.Z.Z.S.S.C.C.S.S.S.S.S.S.C.C.V.V.b.C.V.V.V.V.z.z.c.N.V.V.V.V.c.c.c.c.c.c.N.c.z.z.c.N.V.M.z.k.k.s.s.s.r.0.r.k.C.k.B a.V.c.z.k.k.s.z.z.z.z.c.c.c.c.c.c.k.c.k.c.k.z.c.V.V.V.V.V.C.Z.Z.C.C.V.V.V.b.v.V.V.c.V.V.c.c.M.M.M.S.Z.Z.S.F.C.C.F.D.J.J.S.Z.Z.Z.S.F.F.Z.Z.Z.Z.Z.V.M.z.k.k.k.k.k.k.a.k.k.k.j.k.N.J ' J.k.z.k.k.a.a.s.k.z.c.z.z.N.N.N.N.N.N.N.N.Z.F.F.F.F.F.F.V.N.V.C.C.S.S.C.V.V.C.c.c.V.V.V.c.z.c.c.V.V.c.c.c.V.C.V.M.z.z.k.k.k.k.M.M.V.S.B.s.k.C.C.C.C.C.N.N.N.N.z.k.z.c.c.N.V.C.P P z.c.k.s.s.k.M.M.M.M.C.C.V.V.C.C.S.F.S.S.S.S.S.F.Z.Z.F.F.F.H.D.D.D.F.C.C.C.C.C.C.S.Z.F.S.S.S.F.F.C.N.C.N.N.C.C.C.Z.C.C.C.D.F.S.S.C.C.S.S.S.S.C.C.V.N.N.c.z.z.c.k.9.1.&.&.&.+.o.Y L ] $.' ' $.3.q.z.!.V.9.0.0.q.0.0.9.9.9.9.9.6.3.3.2.1.1.&.&.&.&.$.+.o.o.} } } } U 1 b Y V J ` Y B b h c L ) ] Y H ! n J _ ] 3.a.a.0.a.z.N.c.Z.Z.Z.Z.Z.Z.F.J.",
"`.`.~.~.!.~.!.!.!.J.F.c.z.C.k.3.%.o.' n ~ ~ { $.o.! B h b J ~ ' ~ F ! v ; ' &.&.&.&.<.1.1.2.3.3.3.3.7.7.7.9.0.0.0.0.q.q.a.a.a.a.u.a.a.J. XS.M.J.a.*.*.*.` B ' &.2.2.5.a.Z.b.J.R.`.'.'./.`.`. XOX X+XOX|.`.|.+X%X%X%X%X%X+XOXOX X X X X X+X+X+X+X%X%X%X*X*X*X*X%X*X%XOX X$X$X$X$X%X%X%X%X%XOXOX X X XOXOX X X X X).).).).!.I.Y.F.z.e.r.a.z.k.N 0.c.c.c.c.F.I.`. X`.|.|.|. XOX+XOX%X%X%X%X%X%X%X%X%X%X%X%X+X+X%X%X*X*X*X*X%X+X%X%X+XOX+X$X%X%X%X%X%X%X%X%X%X$X$X$X$X$X$X$X$X$X%X%X*X*X*X*X*X%XOXOX X X X X).`.`.).H.z.k.s.z.c.V.J ' C.a.k.c.C.J.I. X'.'.'.`.'.'.`.).|.`.`. X X X XOXOX$X$X$X$X%X%X%X%X%X%X%X%X%X%X%X%X%X%X%X%X%X%X%X%X$X$X$X$X$X$X%X%X%X%XOXOXOXOX%X:X%X%XOX|.|.%X:XOX XOX%X%XOX|. X`.F.z.z.z.z.F.U ! C.V.a.a.s.S.J.~.|. X X|.|.OX X X X X X X X X X X X.X.X.X.X X X X X X X X X XOXOX XOXOX%XOXOXOX+XOXOXOXOX X X|.|. X X X X XOX|.+X|.+X+XOXOXOX X X XOXOXOX%X*X`.S.Z.c.r.7.3.&.o.~ G ] 2.] ~ 3.z.q.z.!.c.9.q.q.0.0.0.0.0.9.9.9.5.3.3.2.1.1.1.&.&.&.$.+.o.o.o.} o.o.U 3 b Y B V E U Z b z c L ' ] ! H ! b J ~ ] 7.a.p.e.a.k.c.c.b.V.V.Z.Z.Z.F.F.",
"`.`.~.~.~.~.!.!.I.J.J.M.z.C.k.3.%.o.' n ~ ~ { $.o.! B h n F E ` ~ F ! v ; ' &.&.&.&.<.1.1.2.3.3.3.3.7.7.7.9.0.0.9.9.0.q.q.a.q.a.a.a.a.P.OXS.M.I.k.*.&.&.' S  .=.-.3.9.z.c.a.u.0.A.!.oX*X*X%XOXOXOXOX%X:X5XqXiXgXqXqXqXqX6X6X6X6X6X6X6X,XqXqXqXqXuXuXuXwXqXqX6X6X6X6X6X6X6X6X6X6X6X6X6X6X6X6X5X>X5X6XqXqXwXwXwXwX6X6X6X6X:X:X>X*X).k.r.a.z.k.B r.N.N.c.c.).%X>X5X:X:X:X:X*X5X6X:X>X,X,X,X,X,X,X6XqX6X6X6X6X6XqXqX6X6X6X6X>X>X>X>X>X:X<X>X,X,X,X,X6X6X6X6XqXqXqXqXqXqX6X6XwXwXwXwX6X6X6X6X6X6X7X7X>X>X5X5X5X6X6X7XOXJ.z.z.k.z.N.G ' C.a.k.M.!.%X%X>X>X>X>X>X5X5X5X>X>X>X>X>X>X,X,X:X:X>X>X>X>X>X>X>X>X>X>X>X>X>X>X>X>X>X>X>X>X>X>X>X>X>X>X>X>X>X>X,X5X5X5X5X>X>X>X6XqX6X6X6X>X5XqX6X:X%X:X%X*X:X*X6XqXOXC.k.z.k.Z.U ~ C.V.a.a.k.P.%X+X%X:X6X6X5X5X>X>X,X>X:X:X:X:X:X<X,X,X3X3X,X,X6X,X,X,X,X6X6X,X6X6X,X,X6XwXqXqXwXwXqXqXqXqXqX6X6XqXqXuX6XqXwXwXqX6X X|.+X X XOXOXOXOXOX7XOX!.k.0.r.!.M.k.r.0.&.o.~ F ] 7.] ~ r.Z.a.z.H.j.3.7.9.0.0.0.0.9.9.9.9.3.3.3.2.1.1.1.&.&.&.$.+.#.o.o.} o.o.U 3 b Y B V E U Z b z c L ' ] ! H ! b G ~ ] 7.a.p.e.a.k.c.c.b.V.V.Z.Z.Z.F.F.",
"`.`.~.~.~.~.!.!.I.J.F.c.z.C.k.3.&.o.' n ~ ~ } $.o.! B h n F E ` ~ Z ! v ; ' &.&.&.&.<.1.1.2.3.3.3.3.7.7.7.7.8.0.9.9.0.q.q.q.q.q.a.a.a.P.+XS.C.).N.7.2.2.' S  .;.3.0.q.z.a.J.F.k.r.7.a.!.+X%X:X>X*X%X>XiXkXfXwX6X,X6X6X6X*X*X*X*X*X*X*X*X>X>X>X>X>X=X%X$XOX'.'.'.`.'.OXOX'.'.'.'. X X X X X'.'.'.'.OXOXOXOXOXOXOX'. X X`. X X X%X%Xk.a.a.k.r.Z r.M.M.z.z.%X6X$X X'.'. X X'.OXOX X X X X X X'.'. X X X X X XOX+X%X X'.'.'.'.`.`.`. X`. X X X X|.|.|.|.|.|. X X'.'.'. X X X X XOXOXOXOXOXOXOX[.[.'.OXOXOXOX'.OXOX'. XOXF.k.k.k.c.F ' C.s.k.c.`.%X X X'. X X).`.`.`.).`.`.).).).`.`.).`.`.`.`.`.`.).).).`.).).).).).`.`.`.`.`.`.`.`.`.`.`.`.`.`.`.`.`.'.'.'.'.'.'.'. XOX X X`.`.'. X X X'. X!.`.'.'.OX7X$Xc.z.z.k.Z.~ ~ C.c.a.a.M.`. X!.I.(.`.`.`.'.`.`.'.'.).).(.(.).`.'.'.'.'.'.'.'.'.'.'.'.'.'.`.|.|. X'.OX5X>X:X:X:X%X%X%X+XOX X%X*X:X>X6X6XqXqXwXwXwXwX7X*XOXOXOXOXOXOXZ.&.&.&.z.J.!.C.a.0.a.7.&.' L ] 7.#./ k.J.a.z.J.a.*.3.3.9.9.9.9.9.9.9.9.3.3.2.2.1.1.1.&.&.&.&.$.#.o.o.o.o.o.U 3 M U B V Y Y Z c z c L ' ] ! H ! b G ~ ] 7.a.p.r.a.k.c.c.b.V.V.Z.Z.Z.F.F.",
"'.`.~.~.~.~.!.!.P.J.F.c.z.C.k.3.&.o.` n ~ ~ } $.o.! B h b J ~ ' ~ Z ! v ; ' &.&.&.&.<.1.1.2.3.3.3.3.7.7.7.9.8.0.9.9.0.q.q.q.q.q.a.a.a.P.+XS.C.'.H.a.0.9.' S  .;.0.a.a.a.N.OXOX).V.$.$.V. X+X*X>X6X:X:X:X5X>X%XOX$X$X$X$X%X%X%X%X$X$X$X$X*X*X*X*X>X=X*XOX'.`.`._.`.`.'.'.`.`.`.`.'.'.'.'.'.`._.(.`.`.'.'.'.'.'.'.).).).).(.).).$XOXa.a.a.a.0.G r.V.V.N.N. X6XOX(.`.`.`.`.'.OXOXOX XOXOXOX'.'.'.`.`.`.`.`.`. X XOX'.'.'.'.`.`.'.`.`.`.'.'.'.`.`.`.`.'. X'.'.'.'.'.'.'.'.'.'.'.'.'.OXOX[.[.[.[.[.{.'.'.'.'.'.OXOX'. X*XJ.a.j.k.z.V ' C.a.z.z.'.*X'.`.`.`.`.).).).).).`.`.`.'.'. X X'.'.'.'.'.`.'.`.`.`.'.`.`.`.`.`.'.'.'.'.'.'.'.'.`.`.`.`.`.`.`.`.'.'.'.'.'.'.'.'.'.'.'.'.'.'.'.'.'.'.'.'.(.`.`.`.OX>X$XJ.c.z.j.C.~ ~ C.c.k.a.V.OX'.(.!.(.`.`.`.`.`._.`.`.`.`.`.].`.`.`.'.'.`.`.'.'.'.'.'.'.'.'.'.|.|.'.'.*XwXwX6X:X:X:X:X%X%X+X X X XOX+X+X$X%X*X%X*X=X=X5X=X=X6X6X6X6X6X!.2.$.7.P.OX'.J.a.9.0.0.*.' L ] q.9.+.Z.H.0.k.H.a.*.3.3.9.9.9.9.9.9.9.3.3.3.2.2.1.1.&.&.&.&.$.$.#.o.o.o.} o.U 3 M U B V Y U Z c z c U ' ] Y J ! c G ~ ] 7.a.p.e.a.k.c.c.b.V.V.Z.Z.Z.F.F.",
"'.`.).!.!.!.!.!.H.J.F.C.z.V.k.3.$.#._ c ~ ) ] $.o.! B z c G ~ ` ~ F Q M < ' &.$.$.&.1.2.2.3.3.3.3.3.3.3.9.9.0.0.0.0.0.0.q.q.q.r.a.a.a.Q.+XJ.C. X).C.N.k.` I o.-.a.j.k.q.!.*X>X'.k.+.p.%X5X5X:X:X*X%X%X+X%X%X%X%X%X$X$X$X%X%X*X*X*X*X*X*X*X>X>X5X5X5X>X%X'.`.`.`.`.`.'.`.'.'.'.'.'.'.`.'.'.'.'.'.'.'.'.'.'.'.'.'.'.'.'.'.'.'.`.=X Xk.a.a.a.r.U 8.V.C.N.N.OX5X'.`.'.'.'.|. X X X X XOXoXoX{.OX=X6X X'.'.'.'.'.'.'. XoX'.'.[.[.[.'.'.'.'.'.'.'.'.'.'.'.[.[.[.[.[.[.'.'.[.[.[.[.[.[.[.[.[.[.'.'.'.[.OXOXOXOXOXOXOXOX'.$XF.a.a.z.V.F _ c.a.a.a.!.*X`.`.`.'.'.'.`.`.'.'.'.'.'.'.'.'.'.'.'.'.'.`.'.'.'.`.`.`.`.`.`.'.'.'.'.'.'.'.OX'.`.`.'.`.`.`.`.`.`.`.`.`.`.'.'.'.'.'.'.'.'.'.'.'.'.'.'.'.'.'.'.'.`.OX*X*XH.C.c.j.F.~ ' C.c.k.a.Z.%X`.`.`.`.'.'.`.`.`.'.'.`.].].].].'.].'.].`.`.'.'.'.'.'.'.'.`.'.OX*X$X'.`. X*X>X5X5X>X>X>X:X*X%X%X%X%X%X%X%X%X%X%XOXOX$X%X*X*X*X*X>X>X6X6X:Xz.$.8.I.:X%X).k.0.r.z.q.] J ' a.0.r.I.!.r.c.!.a.7.7.8.9.9.9.9.9.9.9.5.3.3.2.1.-.*.*.&.&.&.$.$.+.o.o.] } ' U 1 m U G J / Y G c z b P ' ] Y J P n G / ] 3.q.0.0.p.k.c.c.N.V.C.Z.Z.Z.F.F.",
"'.`.).!.!.!.!.!.H.J.F.C.z.N.k.3.&.#._ c ! ) ] $.o.! B z c G ~ ` ~ Z Q v < ' &.$.$.&.1.2.2.3.3.6.3.3.9.9.9.9.9.9.0.0.0.0.q.q.q.q.a.a.a.Q.%XP.C. X`.D.N.z.' Y &.3.a.k.j.k.'.5X7X`.r.&.~.wX5X5X:X:X*X*X%X%X%X%X%X%X%X%X%X%X*X*X*X-X*X*X*X*X>X>X6X6X5X5X:X$X'.`.].].`.`.'.`.'.'.'.'.'.`.`.'.'.'.'.'.'.'.'.'.'.'.'.'.'.'.'.'.'.'.`.=XOXz.j.j.c.9.G 8.C.C.N.N.%X0X X`.'.'. X X X X X XoXOXOXoX`.OX7XwX X'.'.'.'.'.'.'.OXOXoX'.[.[.[.[.'.'.'.'.'.'.'.'.'.'.[.[.[.[.[.[.'.'.[.[.[.[.[.[.'.[.[.[.'.'.'.[.OXOXOXOXOXOXOXOX X*XJ.a.a.z.V.L ' V.k.k.k.).=X'.`.`.'.'.OX'.'.OX'.'.'.'.'.'.'.'.'.'.'.'.`.`.'.'.`.'.`.`.`.`.'.'.'.'.'.'.'.OX'.`.`.'.'.`.`.`.`.`.`.`.'.`.'.'.'.'.'.'.'.'.'.'.'.'.'.'.'.'.'.'.'.].OX*X%XH.C.c.j.F.~ ' V.z.a.a.F.%X`.`.`.`.'.'.`.`.`.'.'.`.].].].].'.].'.].`.`.'.'.'.'.'.'.'.`.'.OX>X*XOX`. XOX%X:X5X>X>X:X:X*X%X%X%X%X%X%X%X%X%X$XOX%X%X*X*X*X*X*X*X>X5X6X6XY.4.1.P.>X*X XN.e.0.k.a.o.I ] a.r.a.!.!.a.M.!.p.9.9.0.0.0.0.0.9.9.5.3.3.3.2.*.-.*.&.&.&.&.&.$.+.o.o.] } ' U 1 m U G J / Y G c n M P ' ..Y J U c G ) ] 3.q.0.0.p.k.c.c.N.V.C.Z.Z.D.F.F.",
"'.`.`.`.~.!.!.!.H.J.F.C.z.N.k.7.$.#._ c ! ) } &.o.! B z c G ~ ` ! C P c < ' &.$.$.&.1.1.2.3.3.5.5.5.3.3.9.9.9.9.9.0.0.0.q.q.q.q.a.a.a.Q.*XP.F.OX`.F.C.c...~ 2.u.z.z.a.F.%XqX>X!.3.7.>XwX5X5X:X:X:X:X*X%X*X*X*X*X*X*X*X*X*X*X*X*X*X*X*X*X*X>X>X5X5X5X>X%X'.].].].].`.`.`.'.'.'.'.'.'.'.'.'.'.'.'.'.'.'.'.'.'.'.'.'.'.'.'.'.'.'.=XOXc.k.k.k.7.i 4.M.M.z.z.$X6X X`.'.'. X X X X X XoXoXoXOX{.oXOXOXOX'.'.'.'.'.'.'.OXOXOXoX[.[.{.[.'.'.'.'.'.'.'.'.'.[.[.[.[.[.[.[.'.'.'.'.[.[.[.[.'.'.OXOX[.[.[.[.OXOXOXOXOXOXOXOXOX*XH.k.a.j.V.U ] C.k.z.k.).=X'.'.'.'.`.OXOXOXOX'.'.'.'.'.'.'.'.'.'.'.'.'.'.'.'.`.'.'.'.'.`.'.'.'.'.'.'.OX'.'.'.'.'.'.'.`.`.'.OX[.[.'.'.'.'.'.'.'.'.'.'.'.'.'.'.'.'.'.'.'.'.[.`.OX*X*XI.C.c.j.G.Y ) c.k.a.j.J.OX`.'.'.'.'.'.'.'.'.OXOX`.].].].'.$XOX'.`.].`.`.`.'.'.'.'.'.`.'.OX).)._._.'. X%X:X5X,X>X:X:X*X*X%X%X%X%X%X%X%X%X%X%X%X*X*X*X*X*X-X=X>X6X6XuX%Xp.$.P.>X6X*XJ.r.7.a.c.=.Y o.k.k.z.!.!.a.V.!.a.0.0.0.0.0.0.0.9.9.3.3.3.3.2.*.*.*.&.&.&.&.$.$.+.o.o.] } ' U 1 m U G J / Y G b c M P ' o.~ U U c G ) ..3.q.0.0.a.k.c.M.N.V.C.Z.D.F.F.F.",
"'.`.`.`.!.!.!.!.H.J.F.C.z.N.k.7.$.#._ c ! ) } &.o.! N z c G ~ ` Y B P c < ' &.$.$.&.1.2.2.3.3.6.5.5.3.3.3.3.3.3.9.9.9.0.q.q.q.q.a.a.a.Q.*XI.F.$X XF.C.c...` 7.a.c.z.a.I.*XqX*XJ.$.N.uXwX5X5X:X:X>X:X=X*X*X*X*X*X*X*X*X*X*X*X*X*X*X*X*X*X%X*X*X*X5X5X>X%X'.`.`.].].`.`.`.'.'.'.'.'.'.'.'.'.'.'.'.'.'.'.'.'.'.'.'.'.'.'.'.'.'.'.=XOXc.k.z.V.3.8 3.V.M.z.c.*XqXOX'.OXOXOXOX X X X XoXoXOXOXOXOXOXOXOX'.'.'.'.'.'.'.OXOXOXOX[.{.{.[.'.'.'.'.'.'.'.'.'.[.[.[.[.[.[.[.'.'.'.'.[.[.[.[.'.'.OXOXOXOX[.[.OXOXOXOXOXOXOXOXOX=XH.k.a.j.c.Y ] C.z.c.k.).=X'.'.'.`.`.'.OXOX'.'.'.'.'.'.'.'.'.'.'.'.'.'.'.'.'.`.`.'.'.'.'.'.'.'.'.'.'.OX`.'.'.'.'.'.'.(.`.'.OX[.[.[.[.'.[.[.{.'.'.'.'.'.'.'.'.'.'.'.'.'.'.[.`.OX*X*XI.C.c.a.D.U ) c.k.a.k.H.OX`.'.'.'.'.'.'.'.'.OXOX'.'.'.'.'.6X4X'.].].].`.`.'.'.'.'.'.`.'.OX X'.`.).'.OX*X>X6X,X>X:X:X*X*X%X$X%X%X%X%X%X%X*X%X*X*X*X-X-X-X=X>X5X6XqXuX6XS.1.P.5XqX6X~.a.e.a.D.7.~ #.k.z.V.!.).a.C.~.s.0.0.e.0.0.0.0.9.9.5.3.3.3.2.*.*.*.&.&.&.&.$.$.+.o.o.] } ' U 1 m U G J / Y G c c M P _ o.~ U U b G ) ] 3.q.0.0.a.k.c.M.N.V.C.Z.Z.F.F.F.",
"'.`.`.`.).!.!.!.H.J.F.C.z.N.k.6.&.+./ n ! ~ } $.#.! N g b G ~ ` ~ B P c ; ' &.*.*.*.1.1.2.2.3.3.3.3.3.3.5.5.3.3.9.0.9.q.q.q.r.q.a.a.a.P.%XI.J.*X XI.J.V.%...9.z.F.V.k.|.6XiX*XN.<. XuX6X5X5X5X5X>X:X:X=X=X=X=X=X-X-X*X:X*X*X:X*X*X*X*X*X%X%X%X*X6X6X>X*X'.`.`.].`.'.'.`.'.'.'.'.'.'.'.'. X X X X'.'.'.'.'.'.'.'.'.'.'.'.'.'.'.=X*Xk.z.z.V.7.a 3.V.N.z.z.*X6XOX`. X X X X X XOXOXOXOXOXOXOXOX[.OXOXOXOXOXOX'.'.OX'.OXOXOX[.[.[.[.'.'.'.'.'.'.'.'.[.[.[.[.[.[.[.[.OXOX[.'.[.[.[.[.OX*X*XOXOXOXOXOXOXOXOXOXOX$XOXOXOX=X!.c.k.a.c.~ o.D.z.z.N.).7X`.[.[.[.[.'.'.'.'.'.'.'.'.'.'.'.'.'.'.'.'.'.'.'.'.`.`.'.'.'.'.`.`.OXOX'.'.'.'.'.'.'.'.'.'.'.`.'.*XOX[.'.'.'.[.{.{.'.'.'.'.'.'.'.'.'.'.'.'.'.OX[.].OX*X*X!.C.c.j.G.L Y z.z.a.s.J.OX X'.'.'.'.'.'.'.'.$X$X'.'.'.[.[.4X-X[.].'.'.'.'.'.'.'.'.'.'.'.'.'.'.`.`. X+X:X5X6X5X:X%X%X%X%X%X%XOXOXOXOXOX%X%X*X*X*X>X>X>X5X6X6X6XqXwXuXqX X8.B.6XqX6X+XM.3.k.J.9.) $.c.Z.J.~.OXc.H.).s.0.0.a.0.0.0.9.9.5.3.3.3.3.3.2.*.&.&.$.&.&.&.$.#.o.} ] _ ] ! 3 M Y B V ! U F b c N U ' o.~ U U c G ) ] 3.q.0.0.a.c.z.c.V.C.Z.Z.Z.F.F.F.",
"'.`.`.`.).!.!.!.H.J.F.C.c.C.c.0.&.&.' b ! ~ } $.$.~ B h b G ~ ` ~ B P c < ' &.*.*.&.1.1.2.2.3.3.3.3.3.7.5.5.9.9.9.0.0.q.q.q.r.q.a.a.a.P.%X!.J.*XOX!.P.Z.-.#.w.c.J.C.C.%XuXiX Xa.0.:XuX6X5X5X5X6X7X>X:X=X=X*X*X%X*X*X*X*X*X*X:X:X*X*X*X*X*X*X*X:X6X6X>X*X'.'.`.`.`.'.'.`.'.'.'.'.'.'. X X X X X'.'.'.'.'.'.'.'.'.'.'.'.'.'.'.'.=X*Xk.z.z.V.7.d 7.V.V.V.N.*X6X+X'. X X X X X XOXOXOXOXOXOXOXOX[.[.OXOXOXOXOX[.OX*X4XOXoX{.[.[.[.[.'.'.'.'.'.'.'.'.[.[.[.[.[.[.[.[.OXOX[.'.[.[.OX[.OX$X$XOXOXOXOXOXOXOXOXOX=X=X$X'.OX=X!.c.k.a.c.~ o.Z.z.k.z.(.>X`.[.[.[.[.'.'.'.'.'.'.'.'.'.'.'.'.'.'.'.'.'.'.'.'.`.`.'.'.5X$X'.[.OXOX'.'.'.'.'.'.'.'.'.'.'.`.'.$X[.[.[.'.[.[.{.{.'.'.'.'.'.'.'.'.'.'.'.'.'.'.[.`.OX=X=X!.D.b.j.G.` ' V.c.k.k.I.*XOX'.'.'.'.'.'.'.'.OXOX'.'.'.[.[.OXOX{.].{.'.'.'.'.'.'.'.'.'.'.'.'.'.`.`. X+X:X5X6X5X>X:X*X*X*X*X*X%X%X%X%X%X*X*X*X*X*X*X>X>X5X6X6X6XqXwXyXpX:Xs.a.*XwXuX:XF.8.k.J.9.' *.N.F.!.'.OXM.H.).a.0.0.a.0.0.0.9.9.5.3.3.3.3.3.2.*.&.&.$.&.&.$.$.+.o.o.] _ ] ! 1 m Y B V ! U F b n N U ' o.! U U b G _ ] 3.q.r.0.a.c.z.c.V.C.Z.D.Z.F.F.F.",
"'.`.`.`.`.!.!.!.H.J.F.C.c.C.c.0.&.&.' b ! _ } &.$.~ B h n G ~ ` ! B U v < ' &.*.*.*.1.1.2.2.3.3.3.3.9.9.9.9.9.9.9.0.0.q.r.q.r.q.a.a.a.Q.=X!.I.>X*X).~.J.0.-.j.Z.H.C.I.6XiXwX).0.J.uXuX6X5X5X5X5X7X7X:X:X=X=X=X=X:X:X:X:X>X>X>X>X>X>X>X>X>X>X*X>X6X6X>X*X X'.`.].'.OXOX X|.|.'.'.'.'.'.'.'.'.'.'.[.OXOXOX'.'.'.'.'.'.'.'.OX'. X=X*Xz.z.z.c.9.h 0.b.C.Z.F.*X6X+X|.OXOX X X X XOXOXOXOXOXOXOXOX[.[.OXOXOXOXOX[.OX*X*XOXOXOXOXOX[.[.OXOXOXOX'.'.'.'.[.[.OXOXOXOXOXOXOXOX[.[.[.[.[.[.OXOXOXOXOXOXOXOXOXOXOXOX=X=X$X'.OX=X!.c.k.k.V./ o.Z.z.k.z.(.>X`.[.[.[.[.'.'.'.'.'.'.'.'.OXOXOXOX'.'.'.'.'.'.'.'.'.'.[.[.wX*X'.'.[.[.OXOX'.'.'.'.'.'.'.'.'.'.'.OX{.{.[.[.[.[.[.{.'.'.'.'.'.'.'.'.OXOXOXOX$XOXOXOX%X>X>X!.D.C.l.J.o.o.D.V.N.V.!.>XOX'.'.'.'.'.'.'.'.'.'.'.'.'.'.[.[.[.{.{.{.{.'.'.'.'.'.'.'.'.'.'.'.'.`.`. X+X:X5X6X5X5X5X>X>X>X>X=X=X=X=X=X=X*X=X*X*X*X*X:X:X>X,X6X6XqXwXpXgXiXP.e. XwXiX6X~.s.M.F.9.' 2.C.P.`.+XOXN.I.`.k.0.0.a.0.0.0.9.0.5.3.3.7.3.3.3.*.*.&.$.&.&.$.$.#.o.} ] ] } Y > m U M B Y U F b n N P ' } Y U ! M J ' ..7.a.r.r.a.c.z.c.V.C.Z.Z.F.F.F.F.",
"'.`.`.`.`.!.!.!.H.J.F.C.z.N.k.6.$.+./ n ~ _ } &.#.! N g n G ~ ` ! B U M < ' &.*.*.*.1.1.2.2.3.3.3.3.3.9.9.9.9.9.9.0.0.q.r.q.r.r.a.a.a.Q.=X!.I.>X>X|.).I.u.7.l.G.I.C.).wXiX6X!.0.%XuX6XqX5X5X5X5X5X7X5X>X7X7X7X7X6X5X5X5X6X6X6X6X0X0X6X6X>X:X:X>X5X6X6X*X X'.'.`.'.OXOX X X X'.'.'.'.'.'.'.'.'.'.[.OXOXOX'.'.[.'.'.'.'.'.OX'. X=X*Xz.z.z.c.9.h a.b.Z.F.J.*XqX%X XOXOXOXOX X XOXoXOXOXOXOXOXOX[.[.OXOXOXOXOX'.'.OXOXOXOX'.OXOX[.[.OXOXOXOX'.'.OX[.[.[.OXOXOXOXOXOXOXOX[.[.[.[.[.OXOXOXOXOXOXOXOXOXOXOXOXOXOX$XOXOXOX=X!.c.z.z.Z.) o.Z.k.z.z.).7X`.[.[.[.[.'.'.'.'.'.'.'.'.OXOXOXOX'.'.'.'.'.'.'.'.'.'.[.OXOXOX[.[.'.[.OXOX'.'.'.'.'.'.'.'.'.[.'.'.`.{.[.[.[.[.[.[.'.'.'.'.'.'.'.'.OXOX[.[.7X*X$XOXOX=X=X!.D.b.l.G.[ ] C.V.V.C.).7XOX'.'.'.'.'.'.'.'.'.'.'.'.'.'.'.$XOX{.{.{.[.'.'.'.'.'.'.'.'.'.'.'.'.`.`. X+X:X5X6X5X5X6X5X5X5X5X7X=X>X>X:X:X>X>X5X*X*X*X:X:X>X,X6X6XqXwXpXiXiX$Xr.`.wXiXuX|.B.C.F.9.] 3.Z.!. X:XOXN.I.`.k.r.a.a.0.0.0.9.0.5.3.3.7.3.3.3.2.*.&.$.&.&.&.$.$.+.} ] ] } Y : m U M B Y U G b z M P _ ] Y U ~ M J ' o.7.a.r.r.a.c.z.c.V.C.Z.Z.F.F.F.F.",
"'.`.`.`.`.!.!.!.J.J.F.C.z.b.z.&.+.o.~ c ~ _ } *.$.U c h c V Y _ ~ V U C 1 _ &.1.*.*.*.*.*.3.3.3.3.3.4.4.9.9.7.7.9.9.0.0.u.u.u.q.q.a.a.P.*X!.).>X>XOX|.P.c.9.k.F.!.J.+XuXwX6XC.M.wXuXtXqXqXqXqXqXwXwXqXqXqXqXqXqXqX6X6X5X6X6X6X6X7X>X>X>X>X=X:X4X6X6X5X=XOX[.[.'.'.OXOX X X X'.'.[.[.[.[.[.[.[.[.[.[.[.[.OXOXOXOXOXOXOX[.[.[. X=X*Xz.z.z.c.0.N 0.b.G.F.I.*XqX%XOXOXOXOX[.[.OXOX[.OXOXOXOXOXOXOXOXOXOXOXOXOXOXOXOXOXOXOXOX[.[.[.OXOXOXOXOXOXOXOXOXOXOX[.OXOXOXOXOXOXOXOXOXOXOXOXOXOXOXOXOXOXOXOXOXOXOXOXOX%X%X%XOXOX>X).N.z.N.V.o.] V.k.s.z.(.>X`.OX[.[.[.[.[.'.[.'.'.'.'.[.[.[.[.'.'.'.'.[.[.[.'.'.[.[.OXOXOXOXOXOXOX[.[.[.'.'.'.'.'.'.'.[.[.[.OXOX[.OX'.[.[.[.OX[.[.[.[.OXOX X XOXOX[.[.$X$X%XOXOX=X6X!.D.b.l.G...' Z.C.C.c.!.>XOX X'.'.'.'.'.'.[.[.[.'.[.'.'.'.[.[.[.[.[.[.[.[.[.[.'.'.'.'.'.'.'.'.'.'.OX$X:X6X6X5X>X>X>X>X*X*X=X=X*X=X>X5X6X6X,X6XqXqXqXqX6X,X6X6XqXqXpXgXpXwXF.P.6XuXuX%XS.Z.C.9.+.a.!.`.OX5X%XC.I.'.c.a.0.0.0.0.0.0.0.9.3.3.7.7.7.3.2.*.&.$.&.&.&.$.$.+.o.} o.} U : c P N B Y Y G c h m L ' ] ~ Y ( M J ' o.7.a.r.r.a.M.z.z.V.C.Z.Z.F.F.J.J.",
"'.`.`.`.`.!.!.!.J.J.F.C.c.V.k.%.o.o._ c ~ _ } *.$.U c h c V ! ' ~ V Y C 3 _ &.1.*.*.*.*.*.2.3.3.3.3.3.6.6.6.7.7.9.9.0.0.u.u.q.q.q.a.a.P.:X~.).>X,X+X|.Q.V.9.k.J.).).>XiXuX%XM.J.iXpXuXtXtXtXyXyXwXwXwXqXqXqXqXqX6X5X>X:X:X:X*X*X=X=X=X=X=X=X=X:X6X6X7X>XOXOXOX[.'.'. X X X X'.'.[.&X&X[.[.[.[.[.[.[.[.[.OXOXOXOXOX$X$XOX[.[.OX=X=Xk.z.z.C.a.G a.b.G.F.I.:XqX*XOXOXOXOXOX[.[.OX[.OXOXOXOXOXOXOXOXOXOXOXOXOXOXOXOXOXOXOXOX[.OX[.OXOXOXOXOX-X$XOXOXOXOX[.OXOXOXOXOXOX[.OXOXOXOXOXOXOXOXOXOXOXOXOXOXOXOXOXOX%X%X%X%XOX5X).C.z.k.V.&.+.Z.k.s.N.).6X'.[.[.[.[.[.[.[.[.'.'.'.'.[.[.[.[.'.'.'.'.[.[.[.[.'.OX[.OXOXOXOXOXOXOX[.[.[.'.'.'.[.[.[.OX[.[.[.[.[.OXOX=X4X$X[.OX[.[.[.[.OXOX X XOXOXOX[.OXOXOX XOX=X6X~.F.V.z.J.o.' Z.C.Z.N.!.5XOX X'.[.'.'.'.'.[.[.[.'.[.'.'.'.[.[.[.[.[.[.OX[.[.[.[.[.[.'.'.'.'.'.'.'.OX$X:X6X6X5X>X>X*X*X*X%X*X*X%X%X*X*X>X>X>X,X6X6X6X6XqXwXrXiXiXfXgXpXgXgX).F.+X6XuX>X!.H.F.u.-.k.`.OX%X6X%XS.!.'.c.a.0.0.0.0.0.0.0.9.9.3.3.7.3.3.*.*.&.&.&.&.&.&.$.+.o.o.o.} U < M P B B Y Y G c n m L ' ] ~ Y ( M J ' o.7.a.r.r.a.M.z.z.V.C.Z.Z.F.F.J.J.",
"'.`.`.`.`.!.!.!.J.J.D.C.b.C.j. .] o.' c ! _ o.*.o.U b n m G ~ ' ~ V Y B 3 / &.1.*.*.*.*.2.3.3.3.3.3.4.6.6.6.6.6.9.9.0.0.0.0.0.0.q.a.a.I.:X~.).6X6X%XOX!.A.9.k.!.OX*X6XiXwX XN. XgXiXuXtXqXqXqXqXqXqX6X6X6X6X6X6X>X*X*X*X*X*X*X*X*X*X*X=X=X*X%X=X6X6X5X=XOX[.[.'.'.'. X X X X X XOX*X*XOXOXOXOXOXOXOXOXOXOXOXOXOXOX$X$XOX[.OXOX*X=Xz.c.z.Z.z.U a.c.G.F.I.:XwX*XOXOXOXOXOXOX[.OXOXOXOXOXOXOXOXOXOXOXOXOXOXOXOX+XOXOXOXOXOXOXOX[.OXOXOXOXOX=X*XOXOXOXOXOXOXOXOXOXOXOXOX*XOXOXOX$X$XOXOXOXOXOXOXOXOXOXOXOXOX%X+XOX%X+X6X`.Z.z.k.c.o.o.Z.k.k.F. XqX[.[.OX[.[.[.[.'.'.OXOXOXOXOXOXOXOX[.OX[.[.[.[.[.[.[.OX[.[.OXOXOXOXOXOXOXOX[.[.[.[.[.OXOXOXOX[.OXOXOXOX'.*X=XOX[.OX[.OXOXOXOXOXOXOXOXOXOXOX[.OX$XOXOX=X6X~.F.V.z.J.o.' Z.C.Z.N.!.5XOX X'.[.[.[.[.[.OX[.[.OX[.[.[.[.OXOXOXOXOXOX[.[.[.[.[.[.[.[.[.'.'.'.[.[.OX$X>X6XtX6X>X>X>X*X%X%X%X%X%X%X%X*X*X*X>X>X>X7X5X6XqXwXwXwXiXpXgXiXiXgX%XT. X>XiXwX*X`.R.z.0.V.OXOX%XqX%XJ.).'.V.p.r.0.y.0.0.0.0.0.9.9.3.3.3.*.*.*.*.*.&.&.&.$.+.+.+.+.o.} U < M P B B Y Y G b n m I ' } ~ ! ( M P ' o.7.a.a.r.a.M.z.c.V.C.Z.Z.F.F.J.J.",
"'.`.`.`.).!.!.!.H.J.D.C.v.D.l.` ' o.' c ( _ o.&.o.U M c m G ~ ] ~ V Y B 3 / &.1.*.*.*.*.2.3.3.3.6.6.6.6.6.6.6.6.9.0.0.0.0.0.0.9.q.a.a.I.:X~.`.6XqX%XOX~.G.9.k.!.OX5XqXuXuX$XF.>XiXuXqX6X6X6X,X,X5X5X>X*X*X>X>X*X*X*X*X*X*X%X$X$X*X*X*X*X*X*X%X=X6X6X7X:XOXOXOX'.'.'. X X X X X XOX$X$XOXOXOXOXOXOXOXOXOXOXOXOXOXOXOXOXOXOXOXOX*X=Xz.c.z.C.z.U a.b.G.F.I.:XwX*XOXOXOXOXOX=X$XOXOXOXOXOXOXOXOXOXOXOXOXOXOXOXOX+X+XOXOXOXOXOXOX[.[.OXOXOXOXOXOXOXOXOXOXOXOXOXOXOXOXOX&X6X%XOXOX$X$XOXOXOXOXOXOXOXOXOXOXOXOXOXOXOXOX+X6X`.S.z.c.z.` ] C.z.M.J. XqX[.[.OX[.[.[.[.'.'.OXOXOXOXOXOXOXOXOXOX[.[.[.[.[.[.[.[.[.[.OXOXOXOXOXOXOXOX[.[.[.OXOXOXOXOXOXOXOXOX[.OXOXOX[.[.OXOXOXOXOXOXOXOXOXOXOXOXOXOXOXOX&XOXOX=X6X~.Z.b.z.G...' Z.C.C.M.!.>XOX X'.OXOXOX[.[.[.[.[.OXOX[.[.[.OXOXOXOXOXOX[.OX[.[.[.[.[.[.[.'.[.OX[.[.OX*X>X6XtX6X>X>X6X>X*X%X%X%X%X%X%X%X*X*X*X=X:X:X7X6X6XqX6X6XqXwXuXyXyXyX<XU. X>X6X6X*XOX!.b.0.V.OX+X%X6X*XI. X XV.a.a.a.y.0.0.0.0.0.0.9.7.3.2.*.*.*.*.&.&.&.$.$.+.+.+.+.o.} U < c U B B Y Y G b h m I ' } ~ ! ( M P ' o.7.r.a.r.a.M.z.c.V.C.Z.Z.F.F.J.J.",
"'.`.`.`.`.!.!.!.U.J.D.C.c.c.j...o.+._ l ^ ' o.&.} U M z B J / ] ) V Y B 3 ~ &.1.*.*.*.*.3.3.3.3.6.6.6.9.9.6.6.6.9.9.0.y.0.0.9.9.0.a.s.P.>X). X6X6X>X|.!.J.0.a.c.F. X%XqXkX*XU.gXiXuXtXtX6X6X,X>X6X>X*X>X>X>X*X*X*X*X*X*X*X%X%X$X*X*X*X-X*X*X%X:X6X6X6X>XOXOXOX'.'.'. X X XOXOXOXOXOXOXOXOXOXOXOXOXOXOXOXOXOXOXOXOXOXOXOXOXOXOX*X=Xz.c.c.C.C.~ 0.b.G.D.I.:XwX*X|.OXOXOXOX$XOXOXOXOXOX&X4X&XOXOX#XOXOXOXOXOXOXOXOXOX*X&X=X&XOXOXOXOXOXOXOXOXOXOXOXOXOX$X$X%X%XOXOXOXOXOX%X+XOX%X%XOXOX%X%XOXOXOXOXOXOXOXOXOXOXOXOX+X6X`.S.z.c.z.` ] C.z.M.F. XqX[.OX#X#X&X[.[.[.[.OXOXOXOXOXOXOXOXOXOX[.[.OXOXOXOX[.[.OXOXOXOXOXOX*XOXOXOXOXOXOXOXOXOXOX5X%XOXOXOXOXOXOXOXOXOXOXOXOX[.OXOXOXOXOXOXOXOXOXOX$X$X*X'.OX>X6X~.Z.b.x.L.o.] F.Z.F.M.!.>X+XOXOXOXOXOXOXOXOXOXOXOXOXOXOXOXOXOXOXOXOXOX&XOXOXOXOX[.OX[.'.'.OXOXOXOXOX%X>X6XtX6X>X7X6X=X*X%X*X*X%X%X%X*X*X*X=X=X=X=X7X7X7X6X6X6XqXqXqXyXyXiXpX X.XyXiX6X X`.!.G.a.C.OX+X%XqX>X~. XOXZ.a.a.a.u.y.y.y.0.0.9.9.7.3.2.2.3.2.*.*.&.&.&.&.+.+.+.o.o.o.U 1 c U B F ~ ! G b z M I ] } ~ ! ( M J ] o.7.q.a.0.a.c.c.c.V.C.Z.F.F.F.F.F.",
"'.`.`.`.`.!.!.!.U.J.F.C.z.z.j.-.%.+./ l ^ ' o.$.o.U N c B J / ] ) V Y B 3 / &.*.*.*.*.*.3.3.3.3.6.6.6.9.6.6.6.6.9.9.0.0.0.9.9.9.q.a.a.J.:X`.+X6X6X*X~.J.J.9.a.z.J.:X;XtXbX%X XkXiXuXuXtX6X6X,X>X5X>X6XqX>X>X*X*X*X*X*X*X*X*X%X%X*X*X*X-X*X*X*X:X6X6X6X=XOX[.[.'.'.[.OXOXOXOXOXOXOXOXOXOXOXOXOXOXOXOXOXOXOXOXOXOXOXOXOXOXOXOXOX*X*Xz.c.c.D.S.^ r.b.A.D.P.:XwX*X|.OXOXOXOXOXOXOXOX&XOX&X-X&XOXOX&XOXOXOXOXOXOXOXOXOX%X*X7X7X&XOXOXOXOXOXOX$XOX$X$XOXOX$X%X$X$XOXOXOXOXOXOX%XOXOXOXOXOX%X%XOXOXOXOXOXOXOXOXOXOXOXOX+X6X`.S.z.c.z.` ] C.z.M.F. XqX[.OX#X#X&XOXOX[.[.OXOXOXOXOXOXOXOXOXOX[.[.OXOXOXOX[.[.OXOXOXOXOXOX=X%XOXOXOXOXOXOXOXOXOX:X>XOX X XOXOXOXOXOXOXOXOXOX[.OXOXOXOXOXOXOXOXOXOX$X$X&X'.OX>X6X~.Z.b.c.L.o.] F.Z.F.N.!.>X+XOXOXOXOXOXOXOXOXOXOXOXOXOXOXOXOXOXOXOXOXOX&X&XOXOX$X$XOXOX[.[.OXOXOXOXOX%X>X6XtX6X>X7X5X=X*X%X*X*X%X%X%X*X*X*X=X=X=X=X7X7X7X6X6X6XqXqXqXyXyXiXbX;X|.pXbXiX%X'.`.J.a.V.|.OX*X6X>X).OX%XF.a.a.y.y.y.y.y.0.0.9.9.7.3.3.2.3.2.*.*.&.&.&.&.+.+.o.o.o.o.U 1 c U B F ~ ~ G b n M I ] } ~ ! ( v J ] o.7.q.a.0.a.c.c.c.V.C.Z.F.F.F.F.F.",
"'.`.`.`.`.!.!.!.U.H.F.C.z.z.j.0.&.o.~ l ^ ' o.$.#.! B b B G / ] ' F ! B 3 ' 2.1.2.2.2.2.3.3.7.7.3.3.6.6.6.6.9.9.9.9.0.0.0.9.9.0.a.a.a.F.:X|.%XqX6X%XP.M.z.*.j.H. XqXyXpXbX%X:XlXiXyXuXtXqX6X6X,X>X>X6XwX=X=X-X-X-X-X*X*X-X*X*X*X&X*X-X-X*X*X%X:X6X6X6X=XOXOXOX[.[.OXOXOXOXOXOXOXOXOXOXOXOXOXOXOXOXOXOXOXOXOXOXOXOXOXOXOXOXOX X*X*Xz.c.N.Z.Z.^ 0.z.C.C.J.:XuX*X|.OXOXOXOXOXOXOXOXOXOXOX&X&X&X#X&XOXOXOXOXOXOXOXOX%X>X=X*X-XOXOX$XOXOXOX$X$X$X$XOXOXOXOX$XOXOXOXOXOXOXOX+X+X+XOXOXOXOXOX%XOXOXOXOXOXOXOXOXOXOX%X%X+X6X`.S.z.c.z.` ] C.z.N.F. XqX[.[.#X#X#X$XOXOXOXOXOXOXOXOXOXOXOXOXOXOXOX[.[.OXOXOXOXOXOXOXOXOXOX=X%XOXOXOXOXOXOX[.OXOX%X$X XOXOXOXOXOXOXOXOXOXOXOXOXOXOXOXOXOXOXOXOXOXOX%X$X&X'.OX>X6X).Z.b.c.L.o.] F.F.F.V.!.>XOXOXOXOXOXOXOXOXOX[.OXOXOXOXOXOXOXOXOXOXOXOX&X&XOXOX$X$XOXOXOXOXOXOXOXOXOX%X>X6XtX6X5X7X=X=X*X*X*X*X%X%X%X*X*X*X*X=X=X:X6X5X6X6X6X6XqXqXqXyXyXiXbXqXXXkXmXgX*X X'.R.a.k.`.OX*X6X>X|. X%XF.a.a.0.u.0.y.y.0.0.9.9.7.3.3.3.3.3.*.*.&.&.&.&.+.+.o.o.o.} U 1 m U B F ~ ~ J M c M I ' o.~ ! ~ M J ] o.7.r.a.0.a.c.c.N.C.C.Z.F.F.F.F.F.",
"'.`.`.`.`.(.!.!.U.H.F.C.k.k.a.0.*.o.! l ^ ' o.$.#.~ B b M J / ] ' F ! B 3 ] 3.*.*.*.2.2.3.3.7.7.3.3.3.6.6.6.9.9.9.9.0.0.0.9.9.0.a.j.a.F.%X X:XqX6X$XF.k.a.$.j.(.*X5XpXkXmX%XwXnXiXyXtXtXqX6X6X,X5X>X5X0X=X=X-X-X-X-X*X*X-X*X*X*X*X=X-X=X*X%X%X:X6X6X6X>X$XOXOX[.OXOXOXOXOXOXOXOXOXOXOXOXOXOXOXOXOXOXOXOXOXOXOXOXOXOX$XOXOXOX X*X%Xz.c.c.c.N.! 7.z.C.C.J.:XuX*X XOXOX$XOXOXOXOXOXOXOXOXOX&X&X#X&XOXOXOXOXOXOXOXOX%X*XOXOX&X&X&XOXOXOXOX$X$X$X$XOXOXOXOXOXOXOXOXOX$X%X%X%X+X%XOXOXOXOXOXOXOXOXOXOXOXOXOXOXOXOX%X%X+X6X`.S.z.c.z.` ] V.z.N.F. XqXOXOX#X&X&XOX$X$X$X$X$XOXOXOXOXOXOXOXOXOXOX[.OXOXOXOXOXOXOXOXOXOXOX*XOXOXOXOXOXOXOXOXOXOXOXOXOX&XOXOXOXOXOXOXOXOXOXOXOXOXOXOXOXOXOXOXOXOXOX%X$X$X[.OX>X6X).Z.V.c.L.o.] F.D.F.N.I.>XOXOXOXOXOXOXOXOXOX[.[.OXOXOXOXOXOXOXOXOXOXOX&X&XOXOX$X$XOXOXOXOXOXOXOXOXOX%X>X6XtX6X5X7X-X*X*X*X*X*X%X%X%X*X*X*X*X*X=X:X6X5X7X7X6X6XqXwXwXyXyXiXmXpX;XbXmXkX<X+X'.!.a.a.!.OX*X6X6X X).|.Z.r.a.a.u.0.0.y.0.0.9.9.7.7.3.3.3.2.*.*.&.&.&.&.+.+.o.o.o.} U 1 M Q B F ~ ~ G M b N L ' o.~ ! ~ M J ] o.7.r.a.e.a.c.c.N.C.C.D.F.F.F.F.F.",
"`.`.).).).(.!.I.!.H.F.C.s.k.z.q.$.#.Y h ' / +.&.&.~ C b N F ~ o._ Z Y V 6 ] &.*.-.-.2.3.5.5.5.5.3.3.7.7.7.9.9.9.9.0.0.9.9.9.9.9.a.j.a.P.>X>X,XtX6X%X!.Z.j.=.z.).:X6XpXbXmXuXkXcXpXyXyXqXqX6X6X6X6X5X>X=X>X>X*X*X*X*X*X*X*X*X*X*X=X=X*X*X*X%X:X>X6X6X6X:XOXOXOXOXOXOXOXOXOXOXOXOXOXOXOXOXOXOXOXOXOXOXOXOX$XOX$X$XOXOXOXOXOXOX X*X%XC.C.C.D.C.! 7.b.C.C.I.>XuX>XOXOXOXOXOXOXOXOXOX+X+XOXOX@XOXOXOX&XOXOXOXOX$X$X$XOX+X+X+X%X%X$XOXOXOXOX%XOXOXOXOX$XOXOXOX+XOXOXOX$X$X$X$X=X*XOXOXOX$X$X$XOXOXOXOXOXOXOXOX%X%X%X%X%X6X`.C.z.c.c...$.V.N.N.F.|.wX%XOXOXOXOX%XOX$X$X$X$XOXOXOXOXOXOXOXOXOXOX$X-XOXOXOXOXOXOXOXOXOXOX*XOXOXOXOXOXOXOXOXOXOXOXOXOXOXOXOXOXOXOXOXOXOXOXOXOXOXOX$X*X*XOXOXOXOXOX$XOX$X$XOX>X6X`.Z.C.c.L.o.#.D.c.M.z.I.>X$XOXOXOXOXOXOXOXOXOXOXOXOXOX$X$XOXOXOXOXOXOXOXOXOXOX$XOXOXOXOXOXOX=X=X$X$X*X>X6XtX6X5X5X*X*X*X*X*X*X*X*X*X%X=X=X*X*X*X*X>X>X5X5X6XqXqXwXqXwXyXyXxXxXpXcXbXpX>X%X X!.u.q.!. X*X:X,XOX`.).C.a.a.a.r.q.q.q.9.9.9.7.7.3.3.3.3.2.*.&.&.&.&.$.+.+.+.o.o.} U < v Q C F ~ Y G M b B I ' o.~ ! ~ M P ] o.7.r.p.e.a.V.V.C.C.Z.F.F.F.F.J.J.",
"`.`.).).).(.!.Y.!.P.S.C.s.z.z.q.=.#.~ n ' / +.&.&.~ B n N F ~ o._ Z Y V 6 ] &.2.2.3.5.5.5.5.5.9.3.3.7.7.7.9.7.9.9.0.0.0.9.9.9.9.q.a.s.!.>X>X6XqX6X%X).J.z.3.N. X>XqXiXxXmXxXxXvXpXuXyXyXqXqX6X6X6X5X>X=X>X>X*X*X*X*X*X*X*X*X*X*X=X=X*X*X%X%X:X>X6X6X6X:XOXOXOXOXOXOXOXOXOXOXOXOXOXOXOXOXOXOXOXOXOXOXOXOXOXOX$X$XOXOXOXOXOXOXOX>X%XC.N.C.F.F.^ 0.V.C.V.I.<XuX:XOXOXOXOXOXOXOXOXOX+X+X@X@XOXOXOXOXOXOXOXOX$X$X$X%XOX+X+X+X+X%XOXOX%XOXOX%XOXOXOX%X$X$X%X%X%X%X%X+X*X*X%X%X*XOXOXOXOX$X$X$XOXOXOXOXOXOXOXOX%X%X%X%X%X6X).C.z.z.z...$.N.N.N.F.|.tX+XOX*X:X>X%X%X$X$X$X&XOXOXOXOXOXOXOXOXOXOX$X-XOXOXOXOXOXOXOXOXOXOXOXOXOXOXOXOXOXOXOXOXOXOXOXOXOXOXOXOXOXOXOXOXOXOXOXOXOXOX=XqX*XOXOXOXOXOXOXOXOXOX+X7X6X/.S.V.c.L.o.#.D.c.M.z.I.>X$XOXOXOXOXOXOXOXOXOXOXOXOXOX$XOXOXOXOXOXOXOXOXOXOXOX$X$XOXOXOXOXOX=X*X$X$X*X>X6XtX6X5X5X*X*X*X*X=X*X*X*X%X%X=X=X*X*X*X*X>X>X5X6X6XqXqXwXwXwXyXyXnXnXsXmXbXpX>X%X XI.u.q.!.'.%X:X>X*X*X XC.a.a.a.q.q.q.0.9.9.9.7.7.3.3.3.3.*.*.&.&.&.&.$.+.+.+.o.o.} Q < v Q C F ~ Y G M b N I ' o.~ Y ~ M P ] o.7.r.a.0.a.V.V.C.C.Z.F.F.F.F.J.J.",
" X`.`.).).(.!.I.!.P.J.C.s.z.z.q.*.$.~ n ' / +.&.$.~ B n N F ~ o._ Z ! V 3 ' *.3.5.5.5.5.5.5.9.9.3.3.3.3.7.7.9.9.9.9.0.0.0.0.9.9.q.a.s.!.:X5X6X6XqX:X XU.c.7.C.OX,XtXuXkXmXxXxXvXsXiXiXyXqXqXqX6X6X5X>X>X>X>X=X*X*X*X*X*X:X:X:X-X=X=X*X*X%X%X:X>X6X6X6X7X*XOXOXOXOXOXOXOXOXOXOXOX$XOXOXOXOXOXOX$X%X%XOXOXOXOX$X$X$X$XOXOXOXOX$X>X%XN.N.C.F.F._ r.b.V.C.I.>XuX:XOX@X@XOXOXOXOXOXOX+X+X&X@XOXOXOXOXOXOXOXOXOXOX%X%XOXOXOXOXOXOXOXOX$X$X%X*X%X%X%X%X*X*X*X*X%X%X%X+X%X*X%X$XOX*X%XOXOX$X$X$XOXOXOXOXOX$X$X*X%X%X%X%X%X6X).C.z.z.c...$.V.N.N.F.|.wX@X@X6XiXpX>X%X%XOXOXOX$XOX%XOXOXOXOXOXOXOXOX*XOXOXOXOXOXOXOXOXOXOXOXOXOXOXOXOXOXOXOXOXOXOXOXOX+X+XOXOXOXOXOXOXOXOXOX$X$X$X$X*XOX*X$X$XOXOX$X$XOXOX+X5XwX`.S.C.c.L.%.&.D.N.M.z.I.>X$XOXOXOXOXOXOXOXOXOXOXOXOXOX$X$XOXOXOXOXOXOX$X$X$XOX$X$XOXOXOXOXOX*X*X$X$X*X>X6XtX6X5X5X-X-X>X>X=X=X=X*X=X=X=X=X>X>X=X>X>X>X6X6X6XqXqXwXwXwXyXyXmXnXsXmXbXgX>X%X XI.u.q.!.'.%X*X>X3X,X$XC.a.a.a.q.q.q.0.0.9.9.7.7.3.3.3.3.*.*.&.&.&.&.$.+.+.+.o.o.} U < v ! Z G ~ Y G M b B I ' o.~ Y ~ N L ] o.7.r.a.0.k.V.V.C.C.Z.F.F.F.F.J.J.",
" X`.`.).).(.!.I.!.H.F.C.s.z.z.q.-.$.~ b ' / +.&.$.! B n N F ~ o._ Z ! V 3 ' *.3.5.5.5.5.5.5.9.9.3.3.3.3.7.7.9.9.9.9.0.0.0.0.0.0.a.a.a.P.:X5X6X6XqX:X X(.z.3.N. X6XqXuXgXmXyXsXcXkXiXiXiXqXqXqX6X6X5X>X>X>X>X>X*X*X*X*X*X:X*X:X:X=X=X*X*X%X%X:X:X6X6X6X7X*XOXOXOXOXOXOXOX$XOXOXOX$XOXOXOXOXOX$X$X%X%XOXOXOXOX$X$X$X$XOXOXOXOX%X0X$XN.N.C.C.C.~ r.b.V.C.I.<XuX:XOX@X&X$XOXOXOXOXOX+X+X&X@XOXOXOXOXOXOXOXOXOXOXOX$XOXOXOXOXOXOXOXOX$X$X%X%X%X%X*X*X*X*X*X*X%X%X%X+X%X%X%X%XOX>X7XOXOX$X$X$X$XOXOXOX$X$X$X*X$X%X%X%X%X6X).C.z.z.c...$.V.N.N.F.|.wX@X:XfXmXmXpX>X%X%XOXOX$X%X%XOXOXOXOXOXOXOXOX*XOX%XOXOXOXOXOXOXOXOXOXOXOXOXOXOXOXOXOXOXOXOXOXOXOXOXOXOXOXOXOX$XOXOXOX$X$X$XOXOX$X$X$XOXOXOX$X$XOXOX+X5XwX`.S.V.c.L.%.$.J.N.M.k.I.>X$XOXOXOXOXOXOXOXOXOXOXOXOXOX$X$XOXOXOXOXOXOX$X$X$X$X$X$X$XOXOXOXOX$X$X$X$X*X>X6XqX6X5X5X=X=X>X>X>X=X=X=X=X=X=X=X>X>X=X>X>X>X6X6X6XqXqXwXwXwXyXyXmXbXiXmXbXgX5X%X XI.u.q.R.'.OX*X>X,X,XOXC.a.a.a.q.q.0.0.9.9.7.9.7.3.3.3.2.*.*.&.&.&.&.$.+.+.+.o.o.} U < M Q Z G ~ Y G M b N I ' o.~ Y ~ N L ] o.7.r.a.0.s.V.V.C.C.Z.F.F.F.F.J.J.",
" X`.`.).).).!.U.!.J.F.M.k.N.z.0.2.#.~ b ' / #.&.&.Y B B N F ~ o._ G / B 3 ' *.3.3.3.3.3.3.3.3.3.3.3.3.3.7.7.9.9.9.9.0.0.0.0.0.0.r.a.a.I.:X>XqX6X6X>X*X`.b.9.D. X,XtXiXgXmXyXMXcXsXpXiXyXwXqXqX6X6X6X>X>X>X>X>X>X*X*X=X*X*X*X*X*X=X=X*X*X*X*X:X>X6X6X6X>X*XOX$XOXOXOXOXOXOXOXOXOX$XOXOX$X$X$XOXOX%XOXOXOXOXOX$X$X$X$XOXOX$XOX%X0X*XN.N.C.D.D.P 0.z.V.C.!.<XuX:XOX@X@XOXOX%X%X%X%X+X+X@X@X@X@X&X&X%XOX$XOX%X%X%X%X%X%X%X%X$X$X$X$X$X$X*X*X*X*X*X*X*X*X*X*X%X%X*X*X%X%X%X%X%X%X%X%X$X$X$X$X$XOX$X$X$X$X$X$X%X%X%X%XOX6X XC.N.c.V.o.#.V.z.V.F. X6X+X:XkXmXmXiX:X%X%X%X%X%X%X$X$XOX&XOXOXOXOXOXOXOXOXOXOXOXOXOXOXOXOXOXOXOXOXOXOXOXOXOXOXOXOXOXOXOX$X$X$X$X$XOXOX$XOXOXOXOXOXOXOX$X$X$X$X$X$X$X$X*XOX+X5XwX`.S.V.c.H...#.C.N.N.z.Y.>X*X%XOXOXOXOXOXOXOXOXOXOXOXOX$X$X$X$X$X$XOX$X$X$X$X$X$X$X$XOXOX$X$X$X%X%X%X*X>X6XqX6X6X>X>X*X>X>X>X=X=X=X=X=X=X=X>X>X=X>X5X5X6X6X6XqXqXwXwXyXyXiXmXbXyXmXbXyX5X%X`.J.w.a.!.$X*X*X>X,X>X XN.k.a.r.q.q.0.0.9.7.7.9.9.7.3.3.2.1.*.&.&.&.&.&.+.o.o.} ] o.! 1 M ! V G ~ Y Z v b N L ' o.~ Y ~ N I ] o.3.r.j.r.a.N.N.V.V.C.Z.F.F.J.J.J.",
" X`.`.).).).(.!.!.H.F.M.k.M.z.0.3.#.~ b ' / #.&.&.Y B B N F / o._ G / B 3 ' *.3.3.3.3.3.3.3.3.3.3.3.3.3.7.7.9.9.9.9.0.0.0.0.0.0.r.a.a.I.5X%X6XtX6X>X*X`.V.9.D. X>XtXpXxXmXyXcXMXkXpXiXyXwXqXqX6X0X6X5X>X>X>X>X>X*X*X=X*X*X*X*X*X=X=X*X*X*X*X:X>X6X6X6X>X%XOX$XOXOX$X$XOXOXOXOXOX$X$X&X$X$X$X$X$XOXOXOXOX$X$X$X$X$X$XOXOX$XOX%X0X:XN.c.C.H.D.P a.z.V.C.!.<XuX:XOX@X@XOXOX%X%X%X%X+X+X@X@X@X@X&X&X%X$X$XOX%X%X%X%X%X%X%X%X$X$X$X$X$X$X*X*X*X*X*X*X*X*X*X*X*X+X+X*X%X%X%X%X%X%X%X%X$X$X$X$X$X$X$X$X&X$X$X$X%X%X*X%X%X6X XC.N.V.V...#.b.c.N.D. X6X+X*XwXpXgXqX:X%X%X*X%X%X$X$X&X&X$XOX&XOX%X%X%X%X%X*X%XOX%XOXOX$X$X$XOXOXOXOXOXOXOXOXOXOXOXOXOX%X$X$X$X$X$X$XOX$X$X$XOXOXOX$X$X$X$X$X$X$X$X$X$X*XOX+X5XwX/.S.V.z.L.` #.G.C.N.c.Y.>X=X%XOXOXOXOXOXOXOX&XOXOXOXOX$X$X$X$X$X$XOX$X$X$X$X$X$X$X$XOX$X$X$X$X%X%X%X*X>X6XqX6X6X>X>X*X>X>X=X=X=X=X=X=X:X=X>X>X=X>X6X6X6X6X6XqXqXwXyXyXiXiXmXbXiXmXbXiX5X%X XJ.q.a.(.%X*X:X>X,X>X XN.k.a.r.q.0.0.0.r.0.7.9.9.7.3.3.2.1.*.&.&.&.&.&.+.o.o.o.] o.! 1 M ! S G ~ ! G M v B U ' o./ Y ~ N I ] o.3.r.a.r.a.N.N.V.V.C.Z.F.F.J.J.J.",
" X X`.`.).).).!.!.H.F.V.s.M.z.9.3.#.~ b ' ~ +.&.&.! B B N F / o._ G / B 3 ' *.5.3.3.3.3.3.3.3.3.3.3.3.3.7.7.9.9.9.9.9.9.9.9.q.q.r.a.s.I.>X X6XuXqX6X:X XC.w.F.OX>XtXgXbXmXiXmXxXsXpXiXyXwXqXqXqXqX0X6X5X>X>X>X>X>X>X>X>X>X>X>X>X=X=X:X:X*X*X:X>X6XwX6X5X*X$X$X$X$X$X%X%X%X%X%X%X$X*X*X$X$X$X$X$X%X%X$X$X$X$X$X$X$X$X&X&X$X$X%X0X>XC.c.N.D.c.G a.z.b.Z.!.:XuX:XOX@XOXOXOX%X%X*X%X+X+X@X@X@X@X&X&X%X%XOXOX%X*X%X*X$X$X$X$X$X$X$X$X$X$X*X*X*X*X*X*X*X*X*X*X*XOX*X:X*X%X%X%X*X*X*X*X$X$X$X$X$X$X$X$X&X$X$X&X%X%X*X*X%X6X XC.N.C.V.' o.D.c.c.D.'.0X%X*X6X6X6X*X*X%X$X$X&X$X&X$X-X&X&X&X&X*X@X+X%X*X*X6X*XOXOX$X$X$X$X$X$X$X$X%X%X%X%XOX%X%X%X*X*X*X*X$X$X*X*X7X&XOXOX&X$X$X$X$X$X$X&X$X$X$X$X$X*X*X%X+X5X6X/.F.V.z.D.) #.J.N.N.c.I.>X=X%X$XOXOXOXOXOXOX&X$XOXOX$X$X$X$X$X$X$XOX$X$X$X$X$X$X$X$X$X&X&X$X$X%X%X%X*X>X6XqX6X6X>X:X*X:X:X=X=X=X=X=X:X:X>X>X>X>X6X6X6X6X6X6XqXqXwXyXiXpXpXmXmXiXbXbXuX5X%X XH.a.j.`.*X:X>X,X,X>X XN.k.a.r.0.0.0.0.a.0.7.9.9.7.3.3.2.1.*.&.&.&.&.&.$.+.+.o.] o.! 1 B ! S G ~ ~ G B b B U ] #.) ~ ~ B U ] o.3.r.a.r.a.N.N.V.V.C.S.F.J.J.J.J.",
" X X`.`.).).).!.!.H.J.C.s.c.z.9.3.#.~ b ' ~ +.&.&.! B B N G ) o._ G / B 3 ' *.5.3.3.3.3.3.3.3.3.3.3.3.3.7.7.9.9.9.9.9.9.0.0.q.q.r.a.s.I.:X|.qXtXqX6X>X XC.q.J.$X>XuXxXmXmXiXmXxXsXpXiXyXwXqXqXqXqXqX6X6X>X>X>X>X>X>X>X>X>X>X>X>X>X:X:X:X*X*X:X5X6XwX6X5X*X$X$X$X$X*X*X%X%X%X%X%X$X=X=X$X$X$X&X$X*X%X*X$X$X$X$X$X$X$X&X&X*X$X$X0X,XN.z.c.z.k.G k.z.b.Z.!.:XiX:XOX@X+XOXOX%X%X*X*X+X+X@X@X@X@X&X&X%X%XOXOX%X*X*X*X$X$X$X$X$X$X$X$X$X$X*X*X*X*X*X*X*X*X*X*X*X+X%X6X=X*X%X%X*X*X*X*X$X$X$X&X*X*X*X*X$X$X$X&X%X%X%X%X%X6X XC.N.Z.V.` ..D.c.c.D.'.0X$X*X=X>X*X%X%X&X$X$X&X&X&X$X-X-X&X&X*X*X@X+X+X%X*X=X$XOXOX$X$X$X&X&X$X&X$X%X%X%X%X%X%X%X%X*X*X*X*X*X*X*X*X7X$X$X*X*X*X*X$X$X$X$X&X$X$X$X$X$X*X*X%X+X5X6X/.F.V.j.D.` $.F.z.N.c.I.>X=X%X$X$XOXOXOX$X&X&X&X$X$X$X$X$X$X$X$X$XOX$X$X$X$X$X$X$X$X&X&X*X$X$X%X%X%X*X>X6XqX6X6X>X:X*X:X:X=X=X=X=X>X:X7X7X7X6X5X6X6X6X6X6X6XqXqXwXiXiXpXsXbXmXpXbXbXiX>X%X XI.a.j.`.=X>X>X,X,X>X XN.j.a.r.0.0.0.9.9.9.7.9.9.7.3.3.2.1.*.&.&.&.&.&.&.$.+.+.o...! 1 B ! S G ~ ~ H B N B U ] #.) ~ ) B U ] o.3.r.a.r.a.N.N.V.V.C.S.F.J.J.J.J.",
"OX|.'.`.`.).(.!.!.H.J.C.k.N.c.a.3.&.] Z _ ~ +.1.$.! B N b J / } ~ G _ B 3 ' *.3.3.3.3.3.3.3.3.3.3.3.3.3.7.7.9.0.9.9.9.9.0.0.0.r.q.a.a.!.+X+XtXqXyXqX>X XC.q.J.$X>XyXkXmXmXsXmXxXkXpXiXuXuXwXqXqXqX0X6X6X>X>X>X>X>X>X>X>X>X>X>X>X>X>X>X>X%X%X:X5XqXqXqX5X*X$X$X$X$X$X$X$X$X$X$X$X%X*X*X%X%X%X$X$X%X%X%X$X$X$X$X$X$X$X$X$X*X$X*X,X>XN.c.N.N.z.P k.k.c.Z.!.:XuX>XOX+XOX%X$X$X$X%X%X%X%X%X$X$X$X$X$X*X*X*X%X%X%X%X%X%X%X%X%X$X$X&X&X*X*X*X*X*X*X*X*X*X*X*X*X=X*X*X*X*X*X*X*X*X*X*X*X*X*X*X*X*X*X*X*X*X*X*X*X%X%X&X*X$X6X XZ.N.N.G.o.o.D.b.c.D.'.0X$X&X*X*X*X*X&X&X&X&X*X*X&X$X&X&X&X$X%X+X+X+X+X*X&X&XOXOX@X@X*X*X*X&X*X*X%X$X$X$X%X$X$X$X$X$X$X*X*X*X*X*X*X*X*X%X*X&X&X*X*X&X$X$X$X*X*X%X%X%X*X*X$X+X>XqX).F.C.c.J.] $.N.N.N.z.I.>X:X%XOX$X$X$X$X$X&X&X&X&X&X&X$X$X$X$X$X$X$X$X$X$X%X%X%X%X%X%X&X&X$X$X$X$X%X*X,XqXqX6X6X>X=X*X=X=X>X>X>X>X>X>X6XiXiX6X5X6X6X6X6X6XqXqXqXyXpXpXpXxXbXnXkXmXmXiX,X*XOX!.j.z.`.*X:XqX>X,X:X|.V.a.a.a.0.0.0.9.9.9.9.9.9.9.3.3.3.2.1.*.&.&.&.&.&.&.+.o.} ..! 3 B ! S G ~ ~ H B B B J } $._ ~ / B U ..o.3.a.k.a.a.V.N.z.C.Z.F.F.J.J.J.J.",
"OX|.'.`.`.).!.!.!.I.J.C.a.N.c.q.3.&.] Z _ ~ #.1.$.! B N b J _ } ' P _ B 3 ' *.3.3.3.3.3.3.3.3.3.3.3.3.3.7.7.9.0.9.9.0.0.0.0.0.r.q.a.a.!.+X+XtXqXyXqX>X XV.q.H.$X>XyXkXmXmXkXmXcXkXpXiXuXuXwXqXqXqX0X6X5X>X>X>X>X>X>X>X>X>X>X>X>X>X>X>X>X:X*X>X5XqXqXqX5X*X$X$X$X$X*X*X$X$X$X$X$X%X%X*X%X%X%X$X$X$X%X%X%X%X%X$X$X$X$X$X$X*X%X%X3X<XN.c.V.C.c.U a.k.c.Z.!.:XuX>XOX+X+X%X$X$X$X%X%X%XOX$X$X$X$X$X$X*X*X%X%X%X%X%X%X%X%X%X%X$X$X&X&X*X*X*X*X*X*X*X*X*X*X*X*X=X*X*X*X*X*X*X*X*X*X*X*X*X*X%X%X*X*X*X*X*X*X*X*X%X%X&X&X*X6X XZ.B.V.G.o.%.G.V.V.F. XqX$X&X*X*X*X*X&X&X&X*X*X*X*X&X&X&X&X$X%X%X%X%X*X*X&X&XOX@X*X*X*X*X*X*X*X*X%X%X$XOX$X$X$X$X$X$X$X*X*X*X*X*X*X*X*X*X*X&X&X&X*X*X$X$X$X*X*X*X%X%X*X*X$X+X>XqX).F.C.c.J.] $.N.N.N.M.Y.>X:X*XOX$X$X$X&X&X&X&X&X&X&X&X$X$X$X$X$X$X$X$X%X%X%X%X*X*X%X%X&X&X&X$X$X$X%X*X,XqXqX6X6X>X>X=X>X>X>X>X>X>X>X>X6XuXwX6X>X6X6X6X6X6XqXqXqXyXpXpXpXxXmXmXxXmXmXpX,X;X$X!.k.z.`.*X:X6X>X:X5X XM.a.a.a.u.0.0.9.9.9.9.9.9.9.3.3.3.2.*.*.&.&.&.&.&.&.+.o.o.] ! 3 B ! S G ~ ~ H B b b F ] $._ ~ / B U ..o.3.a.f.a.r.c.N.N.C.Z.F.F.J.J.J.J.",
"OX|.|.'.`.!.!.H.H.!.P.C.k.V.N.a.3.&.] Z _ ~ #.1.$.! B v B U / ] ~ G _ B 3 ' 2.3.3.3.3.3.3.3.3.3.3.3.3.3.7.7.9.0.0.0.0.0.0.0.0.0.q.a.a.!.+XOXtXqXyX6X>X XV.r.H.$X,XyXkXmXmXkXmXcXxXgXpXiXuXwXqXqXqX0X6X5X>X5X5X>X>X>X>X>X>X>X>X>X>X>X>X>X5X>X5X5XqXtXqX6X*X*X$X$X$X*X*X$X$X$X%X%X*X*X*X*X*X*X&X&X$X%X%X*X-X*X$X$X$X%X&X&X*X*X%X3X,XZ.V.C.D.F.~ a.k.c.F.!.:XuX5XOX%X%X%X$X&X&X*X*X%X%X$X$X$X$X$X$X*X*X*X*X*X*X%X%X%X%X%X%X*X*X*X*X*X*X*X*X*X*X*X*X*X*X*X*X=X*X*X*X*X*X*X*X*X*X*X*X*X*X%X%X%X%X*X*X*X*X*X*X%X*X&X&X&X6XOXF.Z.Z.z./ &.F.C.C.F.OXwX*X*X*X*X*X*X*X*X*X*X*X*X*X*X*X*X*X*X%X*X*X%X*X*X&X*X$X*X>X7X*X%X*X*X&X*X*X*X*X*X*X$X$X$X$X*X*X*X*X*X*X*X*X*X*X*X*X*X*X*X*X*X*X*X*X*X*X*X*X*X*X*X%X+X>XqX).F.C.c.J.] $.N.C.D.N.!.6X>X*X$X$X$X*X*X*X*X*X&X$X*X*X*X*X%X%X*X*X*X*X*X*X*X*X*X*X*X*X&X&X&X&X$X$X%X:X,XqXqX6X6X>X5X>X>X>X>X>X>X>X>X>X6XqX6X6X6XqXqXqXqXqXqXqXqXuXpXpXpXxXmXmXMXmXmXsXqX:X*X).z.c.'.=X>X6X6X:X%X Xc.a.a.u.u.0.0.9.9.0.0.0.9.7.3.3.3.3.3.*.1.&.&.&.&.&.O.o.o...! 3 B Y S S ~ ~ H B n c Z ] &.' ~ ^ B Y o.%.2.a.a.0.7.k.N.C.Z.F.F.J.J.J.J.J.",
"OX X|.'.`.!.!.H.H.!.I.V.k.V.N.a.3.&.] Z _ ~ #.1.$.! B v B U / ' P B ~ B 3 ' 2.3.3.3.3.3.3.3.3.3.3.3.3.3.7.7.9.0.0.0.0.0.0.0.0.0.q.a.a.!.+XOXtXqXyX6X>X XV.r.P.$X,XyXkXmXmXkXmXcXxXgXpXiXuXwXqXqXqX0X6X5X>X5X5X>X>X>X>X>X>X>X5X5X>X>X>X>X6X5X5X5XqXtXqX6X*X*X$X$X$X*X*X$X$X$X%X%X*X*X*X*X*X*X&X&X$X$X%X%X=X-X*X$X$X$X$X&X*X*X*X,X,XZ.V.Z.D.H._ r.k.c.F.!.:XuX5XOX%X%X*X&X&X&X*X*X*X*X*X*X*X$X$X$X*X*X*X*X*X*X%X%X%X%X%X%X*X*X*X*X*X*X*X*X*X*X*X*X*X*X*X*X=X*X*X*X*X*X*X*X*X*X*X*X*X*X%X%X%X*X*X*X*X*X*X*X%X%X&X&X*X6XOXF.z.M.a.~ $.F.Z.Z.J.OXwX*X*X*X*X*X*X*X*X*X*X*X*X*X*X*X*X*X%X%X%X%X%X*X*X&X*X*X=X6X6X%X%X=X&X&X*X*X*X*X*X*X*X&X$X$X*X*X*X*X*X*X*X*X*X*X*X*X*X*X*X*X*X*X*X*X*X*X*X*X*X*X*X%X+X>XqX).F.C.c.J.' $.N.N.F.N.!.6X>X*X$X$X$X*X*X*X&X&X&X$X*X*X*X*X%X%X*X*X*X*X*X*X*X*X*X*X*X*X&X&X&X&X$X$X%X*X,XqXqX6X6X5X5X>X5X5X6X5X5X>X>X>X6X6X6XqXqXwXwXwXqXqXqXqXqXuXpXpXpXxXmXmXmXmXmXkXqX<X*X).c.V.OX=X:X>X,X>X).).c.a.a.u.u.0.0.9.0.0.0.0.9.7.3.3.3.3.2.*.1.&.&.&.&.$.O.o.o...! 3 B Y S S ~ ~ H B n n G o.$.' ~ ^ B U ..%.2.e.a.0.3.k.N.F.Z.F.F.J.J.J.J.J.",
"OX|.|.`.`.).^.!.!.!.I.Z.a.V.C.a.1.o.' F / ~ +.&.$.~ B b N U _ ' U Z ^ G 3 o.2.3.3.3.3.3.3.3.3.3.3.3.3.3.3.7.9.9.0.0.0.0.0.0.0.0.q.a.k.J.+X%XqXuXqX,X:X|.V.a.I.$X6XuXkXmXmXsXmXvXxXgXpXiXuXwXqXqX0X0X6X5X5X5X5X5X5X>X>X>X>X>X6X6X6X6X6X6XqX6X5X5X6XqXqX6X*X*X$X$X*X*X*X*X$X%X%X*X*X*X*X*X*X*X&X&X*X*X*X*X*X*X*X*X$X$X&X&X*X*X*X>X>XF.Z.Z.D.V.~ 0.b.c.Z.!.:XwX5XOX%X%X*X*X*X*X*X*X*X*X*X*X*X&X&X&X*X*X*X*X*X*X*X*X*X*X*X*X*X*X*X*X*X*X%X%X%X%X%X%X=X=X=X=X%X*X*X=X*X*X*X*X*X*X*X*X*X*X*X*X*X*X*X*X*X*X:X6X=X=X=X=X-X6XOXF.k.a.s.] &.F.V.V.F.OXwX%X&X*X*X*X*X*X*X*X*X*X%X%X*X*X*X*X%X%X%X%X%X*X*X*X-X-X*X=X=X%X*X*X*X%X*X*X%X*X*X*X&X&X&X&X*X*X*X*X*X*X*X*X*X*X*X*X*X*X*X*X*X*X-X-X*X*X*X*X*X*X*X%X%XqX6X).C.C.b.J.' #.C.C.N.C.U.6X>X*X$X&X*X&X*X*X*X$X$X$X%X%X*X*X%X$X*X*X*X*X-X-X=X=X=X=X*X*X*X*X*X*X%X$X%X*X6XqXqXqX6X6X5X>X5X6X6X6X6X5X5X6X6X6XuXqXqXwXiXwXqXqXqXwXtXuXpXpXpXxXmXmXmXmXmXxXqX<X$X(.k.c.'.*X>X>X6X:X).`.z.a.a.u.u.0.0.9.0.0.0.0.7.7.7.3.3.3.2.*.1.&.&.&.&.$.+.o.o.o.~ 7 G / L S ~ ~ H B c l F } &.' ~ / B U ..o.3.a.a.0.9.z.N.C.Z.F.F.J.J.J.J.J.",
"OX X|.`.`.`.!.!.!.!.I.Z.k.Z.Z.a.3.o.' N ~ ~ +.&.$.! B b N U ^ ' ^ P ' Z 3 o.2.3.3.3.3.3.3.3.3.3.3.3.3.3.3.7.9.9.0.0.0.0.0.0.q.q.q.a.s.J.%X%XqXyXqX,X:X|.C.a.I.$X6XwXkXmXmXsXmXvXxXgXpXiXuXwXqXqX0X0X6X5X5X5X5X6X6X6X6X6X5X5X6XqXqXqXqX6XqX6X5X6X6XqXqX6X*X*X%X$X*X*X*X*X$X%X*X*X*X*X*X*X*X*X&X&X*X*X*X*X*X*X*X*X*X*X&X&X*X*X*X>X>XF.Z.A.G.C._ r.b.c.Z.!.:XwX5XOX%X%X*X*X*X*X*X*X*X*X*X*X*X*X&X&X*X*X*X*X*X*X*X*X*X*X*X*X*X*X*X*X*X*X%X%X*X%X%X%X=X=X=X=X%X*X*X*X*X*X%X*X*X*X*X*X*X*X*X*X*X*X*X*X%X*X=X6X=X=X=X=X=X6XOXF.z.j.j.' &.F.V.V.F.OXwX%X&X*X*X*X*X*X*X*X*X*X*X%X*X*X*X%X%X%X%X%X%X*X-X-X-X-X*X*X%X*X*X*X7X=X*X*X*X*X*X*X&X&X&X&X*X*X*X*X*X*X*X*X*X*X*X*X*X*X*X*X*X*X-X-X*X*X*X*X*X*X*X%X%XqX6X).S.Z.b.J.' $.C.C.N.C.I.>X>X*X$X$X*X*X*X*X*X&X$X$X$X%X*X*X$X$X*X*X*X*X*X*X=X=X=X=X=X*X*X*X5X5X=X$X%X*X6XqXqXqX6X5X5X5X0XwX6X6X5X5X5X6X6X6XwXqXqXwXiXqXqXqXqXwXyXuXpXpXpXxXmXmXmXmXmXxXqX:X$X(.k.c.'.*X>X>X6X>X).`.c.a.a.a.u.0.0.9.0.0.0.0.7.7.7.3.3.3.2.*.1.&.&.&.&.$.+.o.o.o.~ 7 G / I S ~ ~ P B c n F ' o._ Y ~ B U ] o.2.a.a.a.0.c.C.C.Z.F.F.F.J.J.J.J.",
"OXOX|.|.'.`.(.^.!.!.I.Z.c.F.Z.a.1.] ~ M ~ ~ o.&.+.Y N n N U _ ' ~ Q } G 3 o.2.3.3.3.3.3.3.3.3.3.3.3.3.3.3.7.9.9.0.0.0.y.y.y.q.q.q.a.s.J.%X%XqXqXqX,X:X|.C.a.I.$X6XwXkXmXmXsXmXvXxXgXgXiXuXwXqXqX0X0X6X5X6X6X6X6X6X6X6X6X6XqXwXwXwXwXqXqXqX6X5X6X6XqXqX6X>X*X*X*X*X*X*X*X$X$X*X*X*X*X*X*X*X*X*X*X*X*X*X*X*X*X*X*X*X*X*X&X*X*X*X>X>XF.Z.A.G.C.' a.b.c.Z.!.:XwX5XOX%X%X*X*X*X*X*X*X*X*X*X&X*X*X*X*X*X*X*X*X*X*X*X*X*X*X%X%X*X*X*X*X=X=X=X=X*X=X%X%X=X=X=X=X%X%X%X%X*X*X=X*X*X*X*X*X*X*X*X*X*X*X*X*X%X*X*X=X=X=X=X=X=X6XOXF.N.k.a.) =.F.V.c.F.OXwX$X&X*X*X*X*X*X*X*X*X*X*X*X*X*X*X*X*X*X*X%X%X*X*X-X*X*X*X*X*X*X%X%X6X>X*X*X*X*X*X*X*X*X*X*X*X*X*X*X*X*X*X*X*X*X*X*X*X*X*X*X-X-X-X-X*X*X*X*X*X*X*X*X%XqXqX).F.F.C.R.' $.C.C.C.C.Y.6X>X*X$X*X*X*X*X*X*X*X*X*X*X*X*X*X*X*X*X*X*X*X*X*X=X=X=X=X=X=X*X*X0X6X=X*X*X=X6XqXqX6X6X5X6X5X6XwX6X6X6X5X5X6X6X6XqXqXqXqXwXqXqXqXwXwXuXiXpXpXkXbXmXmXmXmXmXxXyX,X$X(.k.z.'.*X>X>X6X6X|.`.c.a.a.a.r.0.9.9.8.8.8.8.7.7.7.3.3.3.2.*.1.&.&.&.&.$.+.o.o.o.~ 7 G _ I S ~ ~ P B n n G ' } / Y ~ F U ] o.&.0.a.a.a.C.C.C.F.F.J.F.J.J.H.H.",
"OXOX|.|.'.`.`.(.!.!.I.Z.z.Z.V.0.&.' / B ~ ~ +.&.$.! B b N U ^ ' U U } G 3 } 2.3.3.3.3.3.3.3.3.3.3.3.3.3.7.7.9.9.0.0.0.y.y.y.q.q.q.p.s.J.:X%XqX6X6X,X:X|.V.a.I.$X6XwXkXmXmXsXmXvXxXgXgXiXuXwXqXqXqX0X6X5X6X6X6X6X6X6XqXqXqXqXuXuXuXuXuXyXqX6X6X6X6XqXqX6X>X*X*X*X*X$X*X*X$X$X%X%X*X*X*X*X*X*X*X*X*X*X*X*X*X*X*X*X*X*X*X*X*X-X%X>X>XF.Z.Z.D.C.' k.b.v.Z.~.:XwX5XOX%X*X*X*X*X*X*X*X*X*X*X&X*X*X*X*X*X*X*X*X*X*X*X*X*X%X=X%X=X*X*X*X=X=X=X=X=X=X%X%X=X=X=X=X%X%X%X%X*X*X=X=X=X*X%X%X*X*X*X*X*X*X*X*X=X%X%X%X=X=X=X=X=X6XOXF.N.k.a.) =.J.V.c.F.OXwX$X&X*X*X*X*X*X*X*X*X*X*X*X*X*X*X*X*X*X*X%X%X%X%X-X*X*X*X*X*X%X%X%X7X=X*X*X*X*X*X*X*X*X*X*X*X*X*X*X*X*X*X*X*X*X*X*X*X*X*X*X-X-X-X-X-X*X*X*X*X*X*X*X%XqXqX).J.F.C.R.' #.C.C.C.C.Y.6X>X*X$X*X*X*X*X*X*X*X*X*X*X*X*X*X*X*X*X*X*X*X*X*X%X%X=X=X=X=X-X*X=X=X-X$X*X=X6XqXqXqX6X5X6X>X7X6X6X5X6X5X5X6X6X6X6XqXqXqXqXqXqXqXwXwXuXiXpXpXkXbXmXmXmXmXmXxXyX,X$X(.k.z.'.*X>X>X6XqX X`.c.a.a.a.r.0.9.9.8.8.8.8.7.7.7.3.3.3.3.*.1.1.&.&.&.$.+.o.o.o.~ 7 G _ I S ~ ~ P B c v G ^ o._ ~ ' F U ..o.&.0.s.a.k.Z.D.D.F.F.F.F.J.J.H.H.",
"|.'.|.|.'.`.`.).!.H.H.Z.k.z.0.+.! U Y L ) ~ +.$.o.! B c M U ) ' ~ U o.G 4 o.*.3.3.3.3.3.3.3.3.3.3.3.3.9.9.9.9.0.0.0.0.q.q.q.q.q.a.a.a.F.:X%X6XyX6X,X%X|.S.a.!.*X6XiXlXmXmXbXmXvXsXpXpXiXyXwXwXqXqX0X6X6X6X6X6X6X6X6X6XqXqXuXgXMXMXxXpXuXuX6X6XqXqXwXqX6X>X*X*X*X*X*X*X*X*X*X*X*X*X*X*X*X*X*X*X*X*X*X*X*X*X*X*X*X*X*X*X*X-X-X$X>X>XF.S.G.J.C.$.z.V.V.F.U.:XwX>X%X*X*X*X*X*X*X*X*X%X*X*X%X*X*X*X*X*X*X*X*X*X*X*X*X5XgXgX>X=X=X*X-X=X=X=X=X=X=X=X=X%X%X%X%X=X=X=X=X=X=X=X=X=X=X-X*X*X*X*X*X*X:X*X*X*X*X*X*X*X:X*X*X-X>X XZ.N.k.c.' *.J.V.N.F.OXwX%X&X*X*X*X*X*X*X*X-X-X-X=X=X=X%X%X*X*X*X*X*X*X*X*X-X-X=X=X%X%X%X%X*X*X*X*X*X*X*X*X*X*X*X*X*X*X*X*X*X*X*X*X*X*X*X*X*X*X*X*X*X*X*X*X*X*X=X=X=X*X%X%X%XqXqX|.F.D.C.!.` %.F.V.C.C.).6X>X*X*X*X%X%X%X%X*X%X*X*X*X*X*X*X=X=X=X%X*X*X=X=X*X*X*X*X=X6X>X%X-X*X*X%X*X>X6XqXqXqX0X,X,X>X>X>X5X5X5X5X6X6X6X6X6XwXqX6XqXqXqXqXwXwXuXiXpXgXkXbXmXmXMXmXmXxXyX,X*X).k.N.'.*X>X5X0X6X%XOXc.a.a.a.r.0.0.0.8.8.8.9.9.6.3.3.3.3.2.2.*.*.&.&.$.#.#.o.o.} ! 6 G _ L S ~ ~ P B b v G ` o.] / _ F U ! ~ ] &.7.0.a.Z.F.F.J.J.H.H.P.H.H.H.",
"OXOXOXOX'.`.).!.J.D.D.c.7.*.] Y Y ! ) U ' ) #.&.o.! B n M U ) ' ~ U o.G 4 o.1.3.3.3.2.2.3.3.3.3.3.3.3.9.9.9.9.0.0.0.0.q.q.q.q.q.r.a.k.P.;X%X,X,X6X5X*X|.V.p.!.OX6XiXlXmXmXbXmXmXsXpXpXiXyXwXwXqXqX0X6X6X6X6X6X6X6X6XqXqXuXpXMXmXvXMXxXpXyX6X6X6XqXwXqX6X>X*X*X*X*X*X*X*X*X*X*X*X=X=X-X-X*X*X*X*X*X*X*X*X*X*X*X*X*X*X*X*X-X=X$X>X>XS.S.G.D.C.o.k.V.V.F.U.;XuX>X%X*X*X*X*X*X*X*X*X%X%X=X=X*X*X*X*X*X*X*X*X*X*X*X*XiXmXmXqX=X=X-X-X=X=X=X=X=X=X=X=X%X%X%X%X=X=X=X=X=X=X=X=X=X=X-X*X*X*X*X*X*X*X*X*X*X*X*X*X:X:X*X*X-X=X XZ.N.M.V.' $.F.V.N.F.OXwX%X&X*X*X*X*X*X*X*X-X-X-X-X=X=X%X%X*X*X*X*X*X*X*X*X%X-X=X=X*X%X%X%X*X*X*X*X*X*X*X*X*X*X*X*X*X*X*X*X*X-X-X-X*X*X*X*X*X*X*X*X*X*X*X*X*X=X=X=X=X=X%X%X%XqXqX|.F.Z.b.R.` %.G.V.C.N.).6X>X*X*X*X%X%X%X*X*X*X*X*X*X*X*X*X=X=X=X=X=X=X=X=X*X*X*X*X=X5X>X*X-X*X*X%X*X>X6XqXqXqX6X,X,X>X>X>X5X5X5X5X6X6X6X6X6XqXqX6XqXqXqXqXwXwXuXiXpXgXkXbXmXmXMXvXmXxXyX,X*X(.k.N.'.*X>X5X6X6XOXOXc.a.a.a.r.0.0.0.8.8.8.7.6.3.3.3.3.5.-.-.*.*.&.$.&.#.#.o.o.} ! 4 H _ L V ~ ~ P B b v G ` o.o.~ ~ Y Y U G P ~ o.+.0.V.Z.Z.Z.Z.J.!.!.I.I.H.",
"%XOX X'. X`.!.!.c.a.9.&.' ] o.&.$.o.) U ..' #.&.o.! N n M U ) ' ~ U o.G 4 o.1.3.3.3.3.3.3.3.3.3.3.3.9.9.9.9.9.9.0.0.0.0.r.r.r.r.q.a.k.S.+X%XqX,X6X5X%X|.V.a.!.OX6XiXbXmXmXmXmXmXsXpXpXiXyXwXwXqXqXqX6X6X6X6X6X6X6X6XqXqXiXkXmXmXmXvXxXxXyXqX6XqXqXuXwX6X>X*X*X*X*X*X*X*X*X*X*X*X=X=X=X-X-X*X*X*X*X*X*X*X*X*X*X*X*X*X*X*X=X=X%X5X>XS.Z.G.C.C.] k.V.C.F.Y.;XuX6X%X*X*X*X=X=X=X=X=X%X%X%X%X=X=X=X=X*X*X*X*X*X*X*X*XiXmXbXqX>X=X=X=X=X=X=X=X=X=X=X=X%X%X=X=X=X=X=X=X=X=X=X=X=X=X=X-X*X*X*X*X*X%X*X>X*X*X*X:X:X:X*X*X-X=X XZ.N.N.C.' #.C.N.N.F.OXwX%X&X-X*X*X*X=X=X*X*X*X%X%X=X%X%X%X*X*X*X*X*X*X*X*X%X*X=X=X*X=X%X%X*X*X*X*X*X*X*X*X*X*X*X*X*X*X*X*X*X*X-X-X*X*X*X*X*X*X*X*X*X*X*X*X%X=X:X:X:X=X:X:X%XqXqX|.F.C.b.R.` %.G.V.C.N.(.6X=X*X*X*X*X*X*X*X*X*X*X*X*X*X*X*X=X=X=X=X=X=X>X=X*X*X*X*X-X-X-X*X*X*X*X%X*X>X6XqXwXqXqX,X,X,X>X>X5X5X5X5X6X6X5X5X6X6X6X6X6XqXqXqXwXwXuXiXgXgXkXbXmXmXMXMXmXxXyX,X*X(.k.N. X=X>X6X6X>XOXOXc.a.a.a.r.0.0.8.8.8.9.7.6.3.3.5.5.5.-.-.*.&.$.$.$.#.#.o.o.} ! 4 H _ U G ~ ~ P B c v F ` o.o./ ~ Y U ~ / ~ ' ' ' ] $.2.7.a.a.C.J.!.!.!.I.",
"OXOX`.`.J.Z.c.k.a.a.c.k.j.a.q.9.1.} U U o.' #.#.o.! N n M U ) ' ~ U o.G 4 o.1.3.3.3.3.3.3.3.3.3.3.5.9.9.9.5.5.9.0.0.0.0.r.r.r.r.r.a.r.k.|.+XqXqX6X5X%X|.V.a.).OX6XiXbXmXmXmXmXmXsXpXpXiXyXwXwXqXqXqX6X6X6X6X6X6XqXqXqXuXiXkXbXmXmXmXxXxXyXqX6XqXqXuXwX6X>X*X*X*X-X-X*X*X*X-X-X-X>X>X=X=X-X*X*X*X*X*X*X*X*X*X*X*X*X*X*X*X=X=X+X5X>XS.Z.G.b.C.' k.V.C.F.I.;XuX6X%X*X*X=X=X=X=X=X=X%X%X%X%X=X=X=X=X*X*X*X*X*X*X*X*X>XuXuX>X:X=X=X=X=X=X%X=X=X=X=X=X*X%X=X=X=X=X=X=X=X=X=X=X=X=X=X=X*X*X*X*X:X*X>XqX*X*X*X:X:X:X*X*X*X=X XC.N.Z.D.' o.C.N.N.F.OXwX*X&X-X*X*X*X=X=X*X%X%X%X%X*X%X%X%X*X*X*X*X*X*X*X*X%X*X*X=X=X=X%X%X*X*X*X*X*X*X*X*X*X*X*X*X*X*X*X*X:X:X>X-X-X*X*X*X*X*X*X*X*X*X*X*X=X=X:X:X:X:X:X:X%XqXqX|.Z.C.c.J.` %.G.V.C.N.(.6X=X*X*X*X*X*X*X*X*X*X*X*X*X*X*X*X=X=X=X=X=X=X=X=X*X*X*X*X*X*X*X*X-X*X*X*X*X>X6XqXwXqXqX,X,X,X>X>X5X5X5X5X6X5X5X5X6X5X6X6XqXqXqXqXwXwXuXiXgXgXkXbXmXMXxXMXmXxXyX,X*X(.k.V. X=X>X6X5X>XOX Xc.a.a.a.r.0.0.8.8.8.7.3.3.3.3.5.3.5.-.-.&.$.&.&.&.#.#.o.o.} ! 4 H _ I S ~ ~ P B b v G ` o.o./ Y P B ~ o.&.*.3.3.3.3.$.&.&.&.7.k.C.F.!.!.",
"~.P.S.V.C.J.P.I.H.H.F.k.k.q.9.7.3.] B Y ..' +.&.o.~ M a z P ' ' / ( o.H 7 ' 2.2.1.1.1.2.2.2.2.2.3.3.9.9.9.3.3.3.0.0.0.r.r.r.r.r.r.a.k.k.~..XyXqXqX5X=X|.A.z.!.%X6XyXbXmXmXMXmXmXkXpXgXiXyXwXwXwXqXqX6X0X6X6X6X6XqXqXqXuXgXbXmXmXmXmXMXgXyXqX6XqXqXuXtX6X>X*X*X-X-X-X*X*X*X-X-X-X=X=X=X=X=X=X=X=X*X*X*X*X*X*X*X*X6X=X*X=X%X=X%X5X:XP.Z.G.G.b._ c.C.C.F.I.;XuX5X%X=X=X=X=X=X=X=X=X=X=X=X=X=X=X=X=X*X*X*X*X*X*X*X*X-X-X*X*X=X=X=X=X=X=X%X%X=X=X=X=X=X=X=X=X=X=X=X=X=X=X=X=X=X=X=X=X*X*X*X*X>X>X5XqX6X>X>X:X:X:X:X:X:X>X XD.N.F.F.Y ' F.N.N.S.OXwX*X*X=X>X7X*X=X=X*X%X=X=X=X=X=X=X=X*X*X*X*X*X5X5X*X%X*X*X%X=X=X=X=X=X=X=X=X=X=X*X*X*X*X*X*X*X*X*X*X>X>X>X>X*X*X-X:X*X*X*X*X-X-X-X-X=X=X:X:X>X=X:X:X%XqXwX|.F.C.C.J.) $.D.c.C.N.).6X>X*X*X*X*X*X:X:X*X*X*X5X5X>X*X*X%X=X=X=X:X:X=X=X*X*X-X-X*X*X*X*X*X*X*X*X*X>X6XqXwXqXqX6X6X,X,X,X5X>X5X5X6X6X5X5X6X6X6X6X6XqXqXqXqXwXuXiXgXgXkXbXmXmXxXMXmXbXyX,X:X!.j.c.'.*X>X5XqX*X!.'.N.a.p.a.a.e.0.0.9.9.7.4.3.3.3.5.5.3.;.-.&.$.&.#.#.#.#.o.+.o.! 3 H _ U G ~ ! P B v v J ` o.o./ / U b ~ o.$.$.*.*.9.a.k.k.z.C.C.z.p.0.9.8.",
"`.`.`.`.|.'.~.!.H.D.C.a.a.9.3.*.&.Y c ' ..' +.&.o.~ N s z P ' ] ) ~ o.H 3 ' 2.3.1.1.1.2.2.2.3.2.3.5.9.9.9.3.3.3.0.0.0.r.r.r.r.r.r.a.s.B..X;XyXqXqX5X=XoXZ.z.!.OX6XyXbXmXmXMXmXmXxXpXgXiXyXwXwXwXqXqX6X0X6X6X6X6XqXqXqXuXkXbXmXmXmXMXxXpXyXqX6XqXqXuXwX6X>X:X*X-X>X>X=X-X-X-X-X-X=X=X=X=X=X=X=X=X*X*X*X*X*X*X*X*X6X=X*X=X=X:X%X6X:XP.A.G.G.b.' c.C.C.F.I.;XuX5X%X=X=X=X=X=X=X=X=X=X=X=X=X=X=X=X=X*X*X*X*X*X*X*X*X-X-X*X*X=X=X=X=X=X=X=X=X=X=X=X=X=X=X=X=X=X=X=X=X=X=X=X=X>X>X=X=X*X*X*X*X>X6XqXiX6X>X>X:X*X:X:X:X:X>X XD.F.F.D.I ' F.N.N.Z.OXwX*X*X=X>X7X*X=X=X*X%X=X=X=X=X=X=X=X*X*X*X*X*X*X*X*X%X=X=X*X=X=X=X=X=X=X=X=X=X=X=X=X*X*X*X*X*X*X:X*X>X>X>X>X*X*X-X:X*X*X*X*X-X-X-X-X=X=X=X=X=X=X:X:X%XqXwX|.F.C.C.J.` *.J.C.C.N.).6X>X*X*X*X*X*X:X:X*X*X*X>X>X>X*X*X=X=X=X=X:X:X=X=X*X*X-X-X*X*X*X*X*X*X*X*X*X>X6XqXwXqXqX6X6X,X,X,X5X5X5X5X6X6X5X5X6X6X6X6X6XqXqXqXwXwXuXiXpXgXkXbXmXmXdXmXmXbXyX,X:X!.j.c.'.*X>X5X6X%X!.`.N.a.p.a.r.e.0.0.9.9.7.4.3.3.3.3.5.3.;.-.&.$.&.#.#.#.#.o.o.o.! 3 P _ U G ~ ~ U B v v J / o.o./ / Y b ! ] #.$.$.*.3.q.z.V.C.J.!.H.!.!.I.F.",
"%X+XOXOX|.`.!.P.J.Z.V.a.a.9.3.*.$.L h o...' &.&.o.~ N s z U ] o.' ! o.U 7 ' 2.3.2.2.2.2.3.3.3.3.3.3.5.5.5.3.3.9.0.0.0.r.r.r.r.r.r.s.a.Z.;X;XyXqX6X5X=X|.C.f.!.OX6XuXlXmXmXxXmXmXxXgXgXpXyXwXwXwXwXqX0X0X6X6X6X6X6XqXqXyXgXkXbXMXxXxXxXpXuXqX6XqXwXuXuX6X>X:X*X-X>X>X=X-X-X-X*X*X=X=X=X=X=X=X=X=X*X*X*X*X-X-X-X-X:X:X=X>X=X:X%X6X:XP.F.G.G.C.' z.C.C.F.Y.;XuX5X%X=X=X=X=X=X:X:X=X=X=X=X=X=X=X>X>X*X*X*X*X*X*X*X*X-X-X*X*X=X=X=X=X=X=X>X>X>X=X=X=X=X=X:X:X=X=X=X=X:X:X=X=X>X>X=X=X*X*X*X*X>X6XqXqX6X>X>X>X*X*X:X:X>X5X XF.F.F.D.L ' F.N.N.C.OXwX*X*X=X>X>X=X=X=X=X=X=X=X=X=X=X=X=X:X:X:X:X*X*X*X*X=X7X7X=X=X=X=X=X=X=X=X=X=X=X=X=X>X>X:X:X*X*X*X*X=X>X>X>X*X*X*X*X-X-X*X*X*X*X-X-X=X=X=X=X=X=X:X:X%XqXwX|.F.C.C.J.' *.J.C.C.N.).6X:X-X*X*X:X:X:X:X*X>X:X-X*X>X*X*X=X=X=X=X:X:X:X:X:X:X-X-X-X-X*X*X*X*X-X*X*X>XqXwXyXqXqX6X6X,X,X,X>X5X5X5X6X5X5X6X6X6X6X6X6XqXqXqXwXwXuXiXpXgXgXkXmXmXpXMXmXbXyX,X:X!.a.c.'.*X>X>X6X%X!.`.V.a.a.a.q.q.0.9.9.9.7.3.3.3.3.3.5.3.;.-.&.$.&.#.#.#.#.o.o.} U 1 P _ U G ~ ~ U B c M J ~ o.o.~ ~ ~ b U ] #.#.$.$.3.q.z.C.C.J.!.!.!.!.`.!.",
"%X+X+X+X|.'.).~.J.Z.V.a.a.9.3.*.&.U z o.] ' &.+.o.~ N d z U o.#.' Y } U w ] 1.$.3.3.2.2.3.3.3.3.3.3.5.5.3.3.5.9.0.0.0.r.r.r.r.r.r.s.a.F.+X%XqXwX6X5X=X|.C.a.!.OX,XuXlXmXmXpXMXmXkXgXgXpXyXwXwXwXwXqX0X0X6X6X6X6X6X6X6XqXuXiXpXpXdXdXjXpXiXtX6X6XwXuXuX6X>X:X*X-X-X-X-X-X-X-X*X*X=X=X=X=X=X=X=X=X*X*X*X*X-X-X-X-X=X:X>X>X=X:X%X6X:XP.F.G.G.b.' z.C.C.F.Y.;XuX5X%X=X=X=X=X=X:X:X=X=X=X=X=X=X=X>X>X*X*X*X*X*X*X*X*X-X-X*X*X=X=X=X=X=X=X7X6X>X>X:X:X:X=X=X:X=X=X=X=X:X:X=X=X>X>X=X=X:X*X*X*X:X>X>X*X5X>X>X>X:X:X:X:X>X5X XF.C.F.F.Y ] F.N.N.C.OXwX*X*X=X>X>X=X=X=X=X=X=X=X=X=X=X=X=X:X:X:X:X*X5X5X*X=X7X7X=X=X=X=X=X=X=X=X=X=X=X=X=X>X>X>X>X:X:X*X*X=X>X>X>X*X*X*X*X:X-X*X*X*X*X*X-X=X=X=X=X=X=X:X:X%XqXwX|.F.C.C.J.) $.D.c.C.N.).6X:X-X*X*X:X:X:X:X>X>X>X*X*X*X*X*X=X=X=X=X:X:X:X:X:X:X-X-X-X-X*X*X*X*X-X*X*X>XqXwXyXqXqX6X6X,X,X,X>X5X5X5X6X5X5X6X6X6X6X6X6XqXqXqXwXwXuXiXpXpXgXxXmXmXpXMXmXbXyX,X:X!.a.c.'.*X:X>XwX*X!.OXV.a.p.a.a.q.0.9.9.7.7.3.3.3.3.3.5.3.-.-.&.$.&.#.#.#.#.o.o.] U 1 P _ U G ~ ~ P B c M J ~ o.o.~ ~ _ b U ' o.#.$.$.7.u.z.c.F.F.H.!.`.!.!.!.",
"%X%X+X+X X`.).!.J.F.C.q.9.7.3.*.;.~ m #.' o.$.$.o.~ B d M Y } $.~ Y ' ~ n o.1.2.1.2.2.2.2.2.2.3.3.3.3.3.3.3.7.9.9.0.q.q.q.q.q.r.a.a.a.S.OX%XyXyX6X6X=X'.Z.a.!.+X,XwXlXmXmXpXmXmXkXgXgXpXyXwXwXwXqXqXqX6X6X6X6X6X6X6XqXqXqXwXuXiXiXiXiXiXiXtX6X6XyXuXtX6X>X:X-X-X-X-X*X*X*X>X>X*X*X*X*X*X*X*X*X*X*X*X-X-X*X*X*X*X>X>X>X>X*X>X%X6X:XP.F.G.G.C.' z.V.C.F.U.;XuX6X*X*X-X-X:X:X>X>X*X*X:X*X*X*X*X*X:X:X:X:X:X:X:X:X:X>X>X>X>X7X=X=X=X=X4X7X4X4X7X=X>X:X:X=X=X=X=X=X=X*X*X*X*X>X>X>X>X>X*X*X>X>X>X:X:X>X>X>X>X:X:X:X:X>X6X XF.D.J.H.) #.F.N.Z.F.+XwX*X*X=X=X>X=X=X=X=X*X*X*X*X*X*X*X*X>X>X>X:X:X*X*X*X=X:X>X*X*X-X-X*X*X*X:X:X:X:X>X>X>X>X>X>X>X>X>X>X>X>X>X>X=X=X=X=X:X:X:X:X*X*X*X*X=X=X=X=X=X=X*X*X:XqXwX|.Z.C.C.J.' *.C.N.C.N.).uX>X*X*X*X>X>X>X>X>X>X>X>X>X>X>X>X:X:X*X*X=X=X=X=X>X>X>X>X*X*X*X*X=X>X=X-X*X>XqXuXuXwXqX6X6X5X5X5X>X>X>X>X5X6X6X6X,X6X6X6XqXqXqXqXwXiXiXiXpXpXgXkXMXmXxXmXmXbXyX,X;XU.a.z.`.*X>X5XqX*X`.OXC.a.a.r.a.r.0.9.7.7.3.3.3.3.3.3.3.3.2.*.&.$.$.#.#.#.#.o.o.] ~ e U _ U G ~ ~ U B c M G ~ o.o.) ' ] B Y ' o.#.&.$.3.a.z.C.F.H.!.!.!.!.!.!.",
"%X%X+X+X X`.).!.H.J.Z.q.9.5.3.*.$...Y #.o.#.&.&.o.~ B d M U ] o.~ Y ' ^ P $.2.3.1.2.2.2.2.2.2.3.3.3.3.3.3.3.7.9.0.0.q.q.q.q.q.q.a.a.a.S.+X:XuXuX6X6X=X'.C.a.!.+X,XwXkXmXmXpXmXmXkXgXpXpXyXwXwXwXqXqXqX6X6X6X6X6X6X6X6XqXqXqXqXuXyXyXyXyXiXtXqX6XyXuXtX6X>X:X:X-X=X=X=X=X>X>X>X>X*X*X*X*X*X*X*X*X>X>X>X>X*X*X*X=X>X>X=X=X*X>X;X6X:XP.F.G.G.C.' z.C.C.F.Y.;XuX6X*X*X:X-X-X-X>X>X:X*X*X-X*X*X*X-X:X:X:X:X:X:X:X:X:X>X=X>X>X>X>X4X4X4X4X4X4X7X7X>X>X:X=X=X=X=X=X=X=X*X*X*X*X>X>X>X>X*X>XqXiXqX>X>X6X>X>X>X:X:X:X:X:X>X6X XF.D.F.I.] &.H.Z.S.F.+XuX:X*X=X=X>X=X=X=X=X*X*X*X*X*X*X*X*X>X>X>X>X:X:X*X*X:X:X=X*X-X-X*X*X*X*X:X:X:X:X>X>X>X>X>X>X>X>X>X>X>X>X>X>X>X>X=X>X:X:X:X:X>X>X>X>X>X>X>X>X:X=X*X*X:XwXwX|.D.C.C.J.' &.C.N.Z.N.).uX>X*X*X*X>X>X>X>X>X>X>X:X>X>X>X>X:X:X*X*X>X>X=X=X=X>X>X>X*X*X*X*X=X>X=X-X*X>XqXyXuXwX6X6X6X5X>X>X>X>X>X>X5X5X6X6X,X6X6XqXqXqXqXqXuXfXgXpXpXpXgXxXmXmXMXmXmXbXyX,X:X!.a.z.`.*X>X,XqX*X'.OXV.a.a.r.a.r.0.9.3.3.3.3.3.3.3.3.3.3.2.*.&.$.$.#.%.#.#.o.} ] ~ s U _ U G ~ ~ U B c B G ~ o.+.' ' _ V U ' o.#.&.&.3.a.c.C.F.H.!.!.!.!.!.!.",
"%X%X+X+X X`.).!.!.H.D.a.7.3.*.=.#.] [ #.$.&.&.&.o./ B d v U _ ' Y U ] ] } &.<.2.1.2.2.2.2.2.2.3.3.3.3.3.7.7.7.9.0.0.q.q.q.q.q.q.a.a.a.S.%X:XwXwX6X6X=X'.V.a.P.OX>XwXkXmXmXpXmXmXbXgXgXpXyXyXwXwXqXqXqX6X6X6X6X6X6X6X6XqX6X6XqXqXtXtXtXtXuXqXqXqXtXuXtX6X,X:X:X-X=X=X>X>X>X>X>X>X>X>X>X>X=X*X>X>X>X>X>X>X>X>X=X=X>X>X=X>X>X5X:XqX:XP.F.G.G.C.' k.V.C.F.U.%XuX6X*X*X:X-X*X-X>X>X:X:X-X*X*X*X*X*X*X:X:X>X>X:X:X7X7X=X=X=X=X>X7X7X7X>X>X>X>X>X>X>X:X*X*X>X>X>X>X=X=X:X:X:X>X>X>X>X>X:X>XwXfXqX5X>X6X>X>X>X:X:X:X:X:X5X6XOXF.J.D.J.[ *.I.C.Z.P.+XuX:X=X>X>X>X>X=X=X:X>X>X>X>X>X>X>X>X>X>X>X>X>X>X>X>X:X:X:X-X>X>X>X>X>X:X>X>X>X>X>X>X:X>X>X>X>X>X>X>X>X>X>X>X>X>X>X>X>X>X>X>X>X>X>X>X>X>X>X>X>X>X*X*X:XwXwX XD.C.C.J.) $.N.z.Z.C.).uX5X>X*X*X>X>X=X=X>X>X:X:X>X>X>X>X>X>X:X:X>X>X=X=X=X>X>X>X>X*X*X*X=X>X=X-X*X>XqXyXuXwX6X6X6X5X>X>X>X>X:X>X>X5X6X6X0X0XqXqXqXqXqXqXwXfXgXiXpXpXgXxXmXmXMXmXmXMXqX,X:X!.a.z.`.*X>X6XwX=X'.%XC.a.a.r.a.r.0.9.7.7.4.4.3.3.3.3.3.3.2.*.&.$.$.#.#.#.#.o.o.' ! c U _ U G ~ / U B c M G ~ o.#.' o.) G U ) o.+.&.&.3.a.c.Z.F.H.!.!.!.!.!.!.",
"%X%X+X+X X`.).!.!.I.F.a.7.;.=.$.` L Y ] &.1.&.&.o./ B h b H ~ _ U U ] o.o.&.1.1.1.1.1.1.2.2.3.3.3.3.3.3.3.7.7.7.9.0.q.q.q.q.q.r.a.a.a.S.%X:XwXqX6X6X=X'.V.a.P. X>XwXkXmXmXpXMXmXbXgXgXpXyXyXwXwXqXqXqX6X6X6X6X6X6X6X6X6X6X6X6X6X6XqXqXqXyXqXqXqXtXuXtX6X>X:X:X-X=X=X>X>X>X>X>X>X>X>X>X>X>X*X=X>X>X>X>X>X>X>X=X=X>X>X>X>X>X6X:XqX:XP.F.G.G.C.' k.V.C.F.U.%XuX6X*X*X:X*X*X-X>X>X:X:X-X-X-X*X*X*X*X:X:X:X:X7X7X5X7X>X=X=X=X>X5X6X7X>X>X>X>X>X>X>X>X>X>X6X6X>X>X=X=X>X>X:X*X=X>X>X>X>X>X5XqX6X5X>X>X>X>X>X>X:X:X:X:X5X6XOXF.J.C.N.~ *.J.N.M.P.+XuX:X=X>X>X>X>X=X=X>X:X:X>X>X>X>X>X>X>X>X>X>X>X>X>X>X:X:X:X:X>X>X>X>X>X>X>X>X>X>X>X>X>X>X>X>X>X>X5X>X>X>X>X>X>X>X>X>X>X>X>X>X>X>X>X>X5X5X7X7X7X>X*X%X:XwXwX XD.C.C.J.) $.c.z.Z.N.).wX5X>X:X>X>X>X=X=X>X>X:X:X:X>X>X>X>X>X:X:X>X>X=X=X=X=X>X>X>X>X*X*X=X=X=X-X*X>XqXyXuXwX6X6X6X5X>X>X>X>X:X:X5X5X6X6X0X0X6X6XqXqXqXqXwXiXiXiXpXpXgXxXmXmXMXmXmXMXqX,X:X!.a.z.`.*X>X6XwX=X X*XV.a.a.r.r.e.0.7.7.7.7.4.7.3.3.3.3.3.2.*.&.$.$.#.#.#.+.o.+.] ~ c U ^ U G ~ ~ U M c M G ~ o.#.] o.' U I ~ o.+.&.&.3.a.c.Z.F.H.!.!.!.!.!.!.",
"%X%X+XOX X|.).~.).H.J.q.$.[ Y G m L ~ #.7.3.<.&.o./ B h b J _ _ ! ~ ] o.+.&.1.1.1.1.1.1.1.1.1.1.1.3.3.3.3.3.7.7.0.0.q.q.q.q.q.q.q.r.a.P.:X:XwXwX6X5X*X'.Z.a.P. X>XwXkXmXmXkXbXmXxXgXgXpXyXyXwXqXqXqXqX6X6X6X6X6X6X6X6X6X6X6X6X6X6X6XqXqXqXqXqXqXyXuXtXqX>X>XqX6X=X=X>X>X>X>X>X>X>X>X>X>X5X*X*X6XwX>X>X>X>X>X=X=X=X=X>X5X5X6X>XqX:XP.J.G.G.Z._ k.V.V.F.Y.*XuX6X*X*X*X*X*X>X>X>X=X>X>X=X=X=X=X*X*X:X:X:X:X5X5X5X5X>X>X>X>X>X5X7X7X7X>X>X>X>X>X>X>X>X>X0X6X>X>X>X>X5X>X=X*X=X>X>X>X>X>X>X>X>X5X>X>X5X5X5X5X5X5X5X5X6X6X XJ.F.F.C.) *.H.N.N.P.+XuX>X=X>X>X>X>X6X6X>X>X>X>X>X>X>X>X>X>X>X>X>X>X>X>X>X>X>X=X=X>X>X>X>X>X>X>X>X>X6X6X6X5X5X>X>X5X5X5X5X>X>X>X>X>X>X>X>X>X>X>X>X>X>X>X>X>X>X>X>X>X7X>X*X:XwXwX XF.F.D.H.] 1.C.z.C.N.).wX5X>X>X>X>X>X>X>X>X>X>X>X>X>X>X>X>X>X>X>X>X>X>X>X>X>X>X=X>X>X0XqX=X>X=X-X:X5X6XtXuXwXqX6X6X5X>X*X*X>X>X>X>X5X6X6X,X,X6X6XqXqXqXwXwXuXuXiXpXpXgXxXmXmXMXmXmXkXqX,X:XJ.a.N.`.*X>X5XwX>X%X*XV.a.r.r.r.e.0.9.7.7.4.3.3.3.3.3.3.2.*.*.&.$.$.&.&.#.#.o.o.] Y h H ' Z F ~ / U v c M H U ' o.#.#.+.' G b F ~ o.o.2.a.V.Z.Z.J.!.!.~.~.).).",
":X:X%X+XOX X|.~.H.C.c.3.) G B G ~ o.7.9.7.3.<.&.o./ B h b G _ _ ! ~ ] o.' &.1.1.1.1.1.1.1.1.1.1.1.3.3.3.3.7.7.7.9.0.q.q.q.q.q.q.r.r.a.P.:X*XeXyX6X5X*X'.Z.a.P. X>XwXkXmXmXkXMXmXxXgXgXiXyXyXwXqXqXqXqX6X6X6X6X6X6X6X6X6X5X6X6X6X6X6XqXqXqXqXqXqXyXyXtXqX,X6XqX6X=X=X>X>X>X>X>X>X>X>X>X>X5X=X*X5XqX>X>X>X>X>X>X>X>X7X5X5X5X6X>XqX:XS.F.Z.G.Z./ a.V.V.F.Y.*XyX,X*X*X*X*X>X>X>X>X=X>X>X>X>X=X=X>X>X:X:X:X:X5X5X5X>X>X>X>X>X>X>X7X7X7X7X>X>X>X>X>X>X>X6X6X5X>X>X>X>X>X>X=X=X=X>X>X>X>X>X>X>X>X>X>X>X5X5X5X5X5X5X5X5X6X6X XJ.F.F.C.) *.I.N.C.P.+XwX>X=X>X>X>X>X6X6X>X>X>X>X>X>X>X>X>X>X>X>X>X>X>X>X>X>X>X=X=X>X>X>X>X>X>X>X>X>X6X6X6X6X6X6X6X5X5X5X5X>X7X>X>X>X>X>X>X>X>X>X>X>X>X>X>X>X>X>X>X>X7X>X*X:XqXwX XF.F.D.H.] 1.C.c.C.N.).qX6X>X>X>X>X>X>X>X>X>X>X>X>X>X>X>X>X>X>X>X>X>X>X>X>X>X>X>X>X>X6X0X=X>X=X-X:X5XqXtXuXwX6X6X6X5X>X*X>X>X>X>X>X>X6X6X,X,X6X6XqXqXqXwXwXuXuXiXpXpXgXxXmXmXMXmXmXgXqX,X*XJ.a.N.`.*X>X5XwX=X XOXV.a.r.0.r.e.0.9.7.7.4.3.3.3.3.3.3.2.*.*.&.$.$.&.&.#.#.o.o.] Y d H ' G J ~ / U v c B P U ' o.+.#.$.&.] Y F B B ~ &.7.k.F.J.!.!.!.!.).`.).",
":X*X%X X`.~.P.Z.k.a.a.&.o.#.;.7.7.0.q.q.9.3.&.&.o./ B h b J _ _ ! ~ ] o.Y &.1.1.1.1.1.1.1.1.1.1.2.2.3.3.3.7.9.9.0.0.q.q.q.q.q.q.r.r.s.J.+X%XwXeX6X5X*X|.Z.a.H. X>XwXkXmXmXkXMXmXbXkXgXiXyXyXeXqXqXqXqX6X6X6X6X6X6X6X6X6X5X5X6X6X6X6XqXqXqXqXqXqXyXuXtXqX6X6XqX>X=X=X>X>X>X>X>X>X>X>X>X>X>X>X>X>X5X>X>X>X>X>X6X6X6X6X5X5X5X6X>XqX:XS.S.C.G.C.~ a.V.V.F.!.;XyX,X*X*X*X*X>X>X>X=X=X>X>X>X>X>X>X>X>X:X:X:X5X5X5X>X>X>X>X>X>X>X>X>X>X7X7X>X>X>X>X>X>X>X,X,X>X:X:X:X:X>X>X>X=X>X>X>X>X>X>X5X5X>X>X>X>X5X5X5X5X5X5X5X5X6X6X XJ.F.F.C.) 3.!.C.Z.J.+XwX>X=X7X7X7X7X6X6X>X>X>X>X>X>X>X>X>X>X>X>X>X>X>X>X>X>X>X=X=X>X>X>X>X>X>X>X>X>X>X6X6XuXqX6X5X5X5X5X5X7X>X>X>X>X>X>X>X>X>X>X>X>X>X>X>X>X>X>X>X=X7X>X*X>XqXwX XF.F.F.H.] 1.C.c.C.C.`.wX6X>X>X>X>X>X>X>X>X>X>X>X>X>X>X>X>X>X>X>X>X>X>X>X>X>X>X>X>X>X>X>X>X>X=X-X>X5X6XtXuXqXqX6X5X>X>X>X>X>X>X>X>X>X6X0X6X6X6X6XqXqXqXwXwXuXuXiXpXpXgXxXmXmXMXmXmXpXqX,X*XP.a.N.`.*X>X6XwX*X!.`.V.a.r.0.r.e.0.8.7.7.4.3.3.3.3.3.3.2.*.*.&.$.$.&.&.#.#.o.o.} U i G ^ G J / / U v c v P U ' ] o.o.$.&.*.&.$.] ~ ~ 1.3.9.r.c.F.I.J.!.!.!.!.",
"+X+X X).P.C.z.p.a.a.z.9.7.q.j.a.a.a.q.0.9.3.&.$.o./ F h b J _ _ ! ~ ] o.F &.&.1.1.1.1.1.1.1.1.1.2.2.3.3.7.7.9.9.0.0.q.q.q.q.q.q.r.r.a.J.|. X6XqXqX5X%X|.Z.a.J. X>XqXkXmXmXxXMXmXbXkXgXiXyXyXwXqXqXqXqX6X6X6X6X6X6X6X6X6X5X5X5X6X6X6X6XqXqXqXqXqXyXuXtXqX>X>X>X*X=X=X>X>X>X>X>X>X>X>X>X>X>X>X>X>X=X>X>X>X>X>X6XqX0X6X6X5X5X6X>XqX@XS.Z.C.D.b.~ a.V.V.F.U.;XuX,X*X*X*X>X>X>X>X=X>X>X>X>X>X>X>X>X>X:X:X5X5X5X>X>X>X>X>X>X>X>X>X>X>X7X7X>X>X>X>X>X>X>X>X>X>X:X:X:X:X>X>X>X>X>X>X>X>X>X>X>X5X>X>X>X>X5X5X5X5X5X5X5X5X6X6X XJ.F.F.C./ 3.!.C.Z.P.+XwX:X=X7X7X7X7X6X6X>X>X>X>X>X>X>X>X>X>X>X>X>X>X>X>X>X>X>X=X=X>X>X>X>X>X>X>X>X6X>X>XqXuXqX6X>X5X5X5X5X>X>X>X>X>X>X>X>X>X>X>X>X>X>X>X>X>X>X>X>X=X7X>X*X>XqXwX XF.D.F.H.] 1.C.c.C.C.`.wX6X>X>X>X>X>X>X>X>X>X>X>X>X>X>X>X>X>X>X>X>X>X>X>X>X>X>X>X>X>X>X>X>X>X=X-X>X5X6XqXuXqX6X6X5X>X>X>X>X>X>X>X>X>X6X6X,X6X6X6XqXqXqXwXwXuXuXiXpXpXgXxXvXmXxXmXbXpXqX6X*XJ.a.N.`.*X>X6XwX%XF.!.V.a.r.0.r.e.0.8.7.7.4.3.3.3.3.3.3.3.2.*.&.$.$.&.&.#.#.o.o.o.U 8 C ( B F ) _ U M l v G L ) ] o.o.#.#.*.3.7.9.0.7.9.a.a.0.3.r.k.c.C.F.J.H.",
"!.P.C.M.C.C.F.!.!.J.!.k.j.k.j.c.z.j.a.u.9.3.&.&.o.) V g b G ' ' / ) ] ' B ' &.*.*.*.*.*.*.*.3.3.2.3.5.5.3.7.7.9.0.0.0.q.r.r.r.r.r.a.a.I. X~.6XwX6X5X>XOXZ.q.J. X:XqXkXmXmXxXMXmXbXjXgXiXiXuXwXwXqXqXqX6X6X6X6XqX6X6X6X6X6X6X5X5X6X6X6XqXqX6X6XqXtXuXtX6X>X>X>X=X>X>X>X>X>X>X>X>X>X>X>X>X>X>X>X>X>X>X>X>X>X>X6X6X6X6X7X7X>X6X>XqX:XF.C.C.C.G.' a.c.V.F.!.:XuX6X*X=X=X-X-X>X>X>X>X>X>X>X>X>X>X>X>X5X5X5X5X>X>X>X>X5X5X>X>X5X5X5X5X7X7X>X>X>X>X>X>X>X>X>X>X>X>X>X>X>X>X>X>X>X>X>X>X>X5X5X5X>X>X5X5X5X5X5X5X6X6X6X6X6X6X`.F.F.J.F.' &.H.C.S.J.+XwX*X>X6X6X6X>X5X5X>X>X>X>X>X>X>X>X>X>X5X5X5X>X>X>X5X6X5X5X>X>X>X>X>X>X>X>X>X>X>X>X>XqX6X>X>X5X5X5X5X5X5X5X5X>X>X>X>X>X>X>X>X>X>X>X>X>X>X>X>X>X>X=X:X>XqXwX XF.D.C.J.' &.C.k.F.F.).wX6X>X>X5X>X>X>X>X>X>X>X>X>X>X>X5X>X>X5X5X5X>X>X>X>X>X>X>X>X>X>X>X>X>X=X=X>X5XqXyXuXtX6X6X>X>X>X>X>X>X5X5X5X5X6X6X,X,X6X6XqXqXqXwXwXwXuXuXpXgXgXkXbXmXxXbXcXiXqXqX%XP.a.N.).%X*X>XqXOXF.).V.a.r.0.q.q.0.9.9.9.9.3.3.3.3.3.3.3.3.*.&.$.$.#.#.#.+.o.$.o.Y i B U c L ' _ U v n c G U ~ ] +.$.&.*.3.3.4.0.7.4.9.0.c.D.k.k.a.a.a.a.k.z.",
"J.P.~.).|.`.`.'.H.Z.H.r.a.z.k.c.z.j.a.u.9.3.&.+...) V d c J ' ] / ) ] ' N ' &.*.*.*.*.*.*.*.3.3.-.3.5.5.3.7.7.9.9.0.0.q.r.r.r.r.r.a.a.I.|.~.,XqX6X>X:X XC.q.F. X:XqXkXmXmXxXMXmXbXjXgXiXiXuXwXwXqXqXqX6X6X6X6XqX6X6X6X6X6X6X6X6X6X6X6XqXqX6X6XqXtXuXtX6X>X>X>X=X>X>X>X>X>X>X>X>X>X>X>X>X>X>X>X>X>X>X>X>X>X>X5X5X5X5X7X7X5X6X,XyX:XD.C.C.C.F.' a.c.b.F.!.:XuX6X*X>X>X>X>X>X>X>X>X>X>X>X>X>X>X>X>X5X5X5X5X>X>X>X>X5X5X>X>X5X5X5X5X7X7X>X>X>X>X>X>X>X>X>X>X>X>X>X>X>X>X>X>X>X>X>X>X>X>X5X5X>X>X5X5X5X5X5X5X6X5X6X6X6X6X`.F.S.J.J.' +.J.C.F.J.OXwX*X>X5X5X6X>X6X6X>X>X>X>X>X>X>X>X>X>X>X>X5X>X>X5XqX6X5X>X>X>X>X>X>X>X>X>X5X>X:X>X5X5X>X5X5X5X>X5X5X5X5X5X5X5X>X>X>X>X>X>X>X>X>X>X>X>X>X>X>X>X>X-X-X>XqXtX XJ.C.C.J.' 1.F.c.Z.Z.~.wX5X>X>X>X>X>X>X>X>X>X>X>X>X>X>X>X>X>X5X5X5X>X>X>X>X>X>X>X>X>X>X>X>X>X=X=X>X5XqXyXuXtX6X6X,X>X>X>X>X>X5X5X5X5X6X6X>X,X6X6XqXqXqXwXwXwXuXuXiXpXpXkXMXbXkXcXbXiXqXqX%XJ.s.N.).%X*X>XqX%X!. XV.a.r.0.q.q.9.9.9.5.3.3.3.3.3.3.3.3.2.*.&.$.$.%.#.#.+.o.o.} Y i V G h L ] ' P c n c G U ~ ] +.$.&.*.3.3.4.8.4.e.7.$.r.H.I.H.J.J.C.N.N.c.",
" X X X'.!.F.V.c.c.c.J.0.0.z.z.c.c.j.a.u.0.3.&.%.] ~ B s b L ] ] ~ ) ] ' m ' *.&.*.*.*.*.*.*.2.2.3.3.3.3.3.3.7.7.0.0.0.r.r.r.r.r.r.a.a.I. X`.qX6X,X<X*X|.V.0.F. X>XqXkXmXmXxXvXmXMXxXpXiXiXuXwXwXqXqXqX6X6X6X6XqXqXqX6X6X6X6X6X6X6XqXqXqXqX6X6XqXtXyXqX6X5X7X7X7X>X>X>X>X>X>X>X>X7X7X>X>X>X>X>X>X>X>X>X>X>X>X5X5X5X5X7X6X>X6X,XwX:XD.C.C.C.F.' a.z.b.J.~.:XuX,X-X>X>X7X7X>X>X>X>X:X5X6X>X>X>X>X>X>X>X5X5X>X>X>X>X5X5X5X5X5X5X5X5X6X6X>X>X5X5X5X5X>X>X>X>X5X5X5X5X>X>X>X>X>X>X>X>X>X>X5X5X>X>X5X5X5X5X5X5X5X5X5X5X5X6X`.F.S.J.J.' o.J.C.C.F.OXyX:X>X6X6X6X>X6X6X>X5X5X5X5X>X>X>X>X>X>X5X>X>X>X5X6XqX6X>X6X>X>X>X>X5X>X5XqXgXqX5X6X>X5X5X5X>X>X5X5X5X5X5X>X6X6X>X>X>X>X>X>X>X>X>X>X>X>X>X>X>X>X>X>X>XqXwX XJ.D.C.J.' 1.F.V.V.C.~.uX5X5X5X>X>X>X>X>X>X>X5X>X>X>X>X>X>X5X6X6X6X5X5X5X>X>X>X>X>X>X>X>X=X>X=X=X>X5XqXyXyXyX6X6X,X>X>X>X>X>X5X5X5X5X6X6X>X,XqXqXqXqXqXwXwXwXuXuXiXpXpXgXbXbXkXMXbXpXqXqX%XJ.a.N.).%X*X>XqX*X X+XV.a.r.0.q.q.9.9.9.5.3.3.3.3.3.3.3.2.*.*.&.$.$.%.#.#.+.o.] ] U i V V h G / ~ U v n c G U ~ ] +.$.&.*.3.3.7.7.4.a.r.$.9.C.J.H.I.I.I.I.H.H.",
"'.`.!.I.S.Z.F.H.!.H.!.9.9.z.c.c.c.j.a.u.0.3.&.%.' ~ B a b J ' ] / ) ] ' m ] 2.&.*.*.*.*.*.*.2.2.3.5.7.7.3.7.7.7.8.0.0.e.r.r.r.r.r.a.a.I.$X XwXqX>X<X%X|.V.0.D.`.>XqXkXmXmXxXmXmXMXxXpXiXuXyXwXqXqXqXqX6X6X6X6XqXqXqX6X6X6X6X6X6XqXqXqXqXqX6X6XqXtXyXqX6X5X7X7X4X>X>X>X>X7X7X>X>X7X7X>X>X>X>X>X>X>X>X>X>X>X>X5X5X5X5X6X6X>X6X,XqX:XD.C.C.C.F.' a.c.b.J.~.:XuX,X*X>X>X7X7X7X>X>X>X>XqXqX6X>X>X>X>X>X5X5X5X>X>X>X>X5X5X5X5X5X5X5X5X6X6X>X>X5X5X5X5X>X>X5X5X5X5X5X7X5X5X>X>X>X>X>X>X>X>X>X>X>X>X>X5X5X5X5X5X5X5X5X5X5X6X`.F.F.J.J.' o.H.V.c.F.OXyX>X>X6X6X6X>X5X6X>X5X5X5X5X>X>X>X>X>X>X>X5X5X>X>X5X6XqX6X>X>X>X>X>X5X>X6XuXlXwX5X6X5X5X5X5X>X>X5X5X5X5X>X>X6XwXwX>X>X>X>X>X>X>X>X>X>X>X>X>X>X>X>X>X>XqXwX XJ.D.C.J.~ &.D.c.b.V.!.wX5X5X>X>X>X>X>X>X>X>X>X>X>X>X>X>X>X5X6X6X6X5X5X5X>X>X>X>X>X>X>X>X=X>X=X=X>X5XqXyXyXyX6X6X,X,X>X>X>X>X5X5X5X5X5X5X>X,XqXqXqXqXqXwXwXwXuXuXiXiXpXpXbXbXkXMXnXiXqXqX%XJ.s.N.).%X*X>X5X%XOX%XV.a.r.0.q.q.9.9.9.5.5.3.3.3.3.3.3.*.*.&.&.$.$.%.#.#.+.o.' ' U i B V b V G G F B n c G U ~ ] o.&.$.*.3.3.8.4.4.s.0.2.q.c.N.N.C.D.H.I.U.!.",
"!.).`.'.).!.!.!.!.!.!.r.9.Z.C.C.c.k.a.u.0.3.&.%.' Y V g N U ) ' Y ~ ' ) m ) *.*.*.*.*.*.*.*.*.2.3.3.3.3.7.7.7.7.9.0.0.e.r.r.r.r.0.a.k.I. X XqXqX6X<X%X'.c.9.D. X>XwXkXmXmXxXMXmXbXkXgXiXuXyXqXqXqXqXqXqX6X6X6X6X6X6X6X6X6X6XqXqXqXqXqXqXqXqXqXqXyXyXuXqX5X7X7X=X7X7X7X7X7X7X7X7X7X7X>X>X>X>X>X>X>X>X>X>X5X5X5X5X6X5X6X6X5X6X>XqX-XD.C.C.C.Z.Y r.z.b.J.~.:XuX:X*X>X>X7X>X7X7X7X7X>XqXqX6X>X>X>X>X>X>X>X>X5X5X5X5X5X5X5X5X5X5X5X5X>X5X5X>X5X>X5X5X5X5X5X5X5X5X5X5X5X5X5X5X5X5X>X5X5X5X5X5X5X>X5X5X5X5X6X6X6X6X5X5X5XqX|.F.Z.J.F.' o.F.V.V.F.OXyX,X>X5X6X6X>X5X6X6X5X5X5X5X5X5X5X5X5X5X5X5X5X5X>X>X6X6X5X5X5X5X>X>X5X5X5X5XwX6X5X5X5X5X5X>X>X5X5X5X5X5X>X>X6X5X5X5X>X>X>X>X>X>X>X>X>X>X5X5X>X>X>X>X:X6XqX XJ.D.Z.H.' 2.F.z.c.N.!.uX6X5X>X>X5X5X5X5X>X>X>X>X5X5X5X5X5X5X5X5X5X5X5X5X5X5X5X5X>X>X>X>X>X>X=X=X>X6XqXyXyXyXyXqX6X6X,X>X5X5X5X5X5X5X6X6X,X6XqXqXqXqXqXqXwXwXuXuXiXiXpXgXbXkXpXbXnXiXqX>X%XF.s.N.~.%X>X6X6XOX X Xc.a.r.r.q.q.0.9.9.3.3.3.3.3.3.3.3.*.*.&.$.&.#.#.#.o.o.} o.' P g F G Z B m V G c h M V U ~ ] o.#.$.*.3.7.e.8.4.s.9.e.z.c.N.N.C.C.C.D.F.F.",
").`.'.'.`.).!.!.!.!.!.r.0.S.V.V.c.k.a.y.0.3.&.%.' Y V h N U ) ' ~ ~ ' ' G U +.&.*.*.*.*.*.*.*.*.2.5.3.3.7.3.4.7.9.9.0.0.e.r.r.r.e.a.k.J.(.).qXwX6X>X%X'.c.0.F. X>XqXkXmXmXxXmXmXbXgXpXuXuXqXqXqXqXqXqXqX6X6X6X6X6X6X6X6X6X6XqXqXqXqXqXqXqXwXyXyXyXyXuXqX5X7X7X=X7X7X7X7X7X7X7X7X7X7X>X>X>X>X>X>X>X>X>X>X5X5X5X5X6X6X6X6X5X6X>XqX-XD.C.C.C.z.U a.z.b.J.~.:XuX:X*X>X>X>X>X7X7X7X7X>X6X6X5X>X>X>X>X>X>X>X>X5X5X5X5X5X5X5X5X5X5X5X5X5X5X5X>X5X5X5X5X5X5X5X5X5X5X5X5X5X5X5X5X5X5X>X>X5X5X5X5X5X>X5X5X5X5X5X5X6X6X5X5X5XqX|.F.C.F.J.] +.J.V.V.F.OXyX,X>X5X6X6X>X>X6X6X5X5X5X5X5X5X>X>X5X5X5X5X5X5X>X>X6X6X5X5X5X5X5X5X5X5X5X5X5X5X>X>X5X5X5X5X>X5X5X5X5X5X>X>X5X5X5X5X>X>X>X>X>X>X5X5X>X>X6X6X>X>X>X>X:X6XqX|.J.D.D.H.' 2.F.z.c.V.~.uX6X5X>X>X5X5X>X>X>X>X>X>X5X5X5X5X5X5X5X5X5X5X5X5X5X5X5X5X5X>X>X>X>X>X>X=X>X6XqXyXyXyXtXqXqX6X6X6X6X6X5X5X6X6X6X5X,X6XqXqXqXqXqXqXwXwXuXuXuXiXiXpXlX<X;XbXxXyXqX>X%XF.s.M.).%X*X>XqXOX X`.c.a.r.r.q.q.9.9.9.3.3.3.3.3.3.3.*.*.&.$.&.%.#.#.+.o.o.] ] ~ M n P U J B B F G c h M V U ~ ' o.#.$.*.3.7.e.7.7.r.4.p.c.N.C.D.F.F.F.F.J.J.",
"`.'.|. X'.`.`.!.!.!.!.r.r.F.V.c.c.j.a.y.9.5.=.+.] ~ G h B U ) ' ~ ~ ' o.] ~ ' #.*.*.*.*.*.*.*.*.2.3.3.3.3.3.4.7.7.9.0.0.e.r.e.e.r.a.a.F.J.!.6XuX6X>X%X'.k.9.F.OX>XqXkXmXxXyXcXxXgXiXiXuXuXqXqXqXqXqXqXqX6X6X6X6X6X6X6X6X6XqXqXwXwXwXwXwXwXwXyXqXyXyXuXqX6X>X>X=X>X>X>X>X>X>X>X>X>X>X5X5X>X>X>X>X5X5X5X>X5X5X6X6X6X6X6X6X6X6X>XqX:XD.C.C.C.j.Y a.c.b.J.~.:XuX:X*X>X>X7X>X7X7X7X7X>X5X>X>X>X>X>X>X5X5X5X5X5X5X5X5X5X5X5X5X5X5X5X5X5X5X5X5X,X,X,X,X6X6X6X6X5X5X5X5X6X6X6X6X5X5X5X>X5X5X5X5X5X5X5X5X5X5X5X5X6X6X6X5X6XqX|.F.V.S.J. .&.Q.C.V.F.OXyX,X>X6X6X6X>X>X5X6X6X5X5X5X5X5X5X5X5X5X5X5X5X5X5X>X6X6X6X6X5X5X5X5X5X5X6X5X5X5X7X6X5X5X5X5X5X5X5X5X5X5X5X5X5X5X5X5X5X5X5X5X>X>X5X5X6X6X6X6X6X5X>X>X>X6XqX|.J.F.D.J.' 2.F.z.V.C.).uX6X5X>X>X5X5X5X5X>X5X>X5X5X5X5X5X5X5X5X5X5X5X5X>X5X5X5X5X5X5X>X>X5X6X7X>X>X6XqXyXuXyXqXtXyXqXqXqXqX6X6X6X6X6X6X6X6XqXqXqXqXqXqXqXwXwXyXuXuXiXiXpXkX.X).kXxXyXqX*X%XF.s.M.!.OX*X>X6XOX`.).c.a.r.r.q.q.0.9.3.3.3.3.3.3.3.3.*.*.&.$.#.#.#.#.o.o.} ] ' J z Z Y U J B V J J n g M V U ~ ] o.#.$.*.7.7.e.7.8.0.3.s.V.C.F.F.F.J.J.H.I.Y.",
"'.'. XOX'.'.`.).!.!.!.r.r.F.c.z.c.k.a.0.9.5.=.+.] ~ G h B U ) ' ~ Y ' +.&.#.' +.*.*.*.*.*.*.*.*.2.2.3.3.3.3.3.4.7.9.8.0.0.e.e.e.r.a.a.C.J.Y.,XqX6X>X%X|.k.9.F.OX>XwXkXmXpX;XpXgXiXuXuXuXuXqXqXqXqXqXqXqX6X6X6X6X6X6X6X6XqXqXwXwXwXwXwXwXwXwXqXqXyXuXuXwX6X>X>X=X>X>X>X>X>X>X>X>X>X>X>X>X>X>X>X>X5X5X5X5X5X5X6X6X6X6X6X6X6X6X>XqX:XF.C.C.C.c._ a.c.b.J.~.:XuX:X*X>X>X>X>X7X7X7X7X5X6X5X5X5X>X>X>X5X5X5X5X5X5X5X5X5X5X5X5X5X5X5X5X5X5X5X5X,X,X,X,X6X6X6X6X5X5X5X5X6X6X6X6X6X6X5X5X5X5X5X5X6X5X6X5X5X5X5X5X6X6X6X5X6XqX|.F.V.S.J. .&.!.C.N.F.OXiX,X5X6X6X6X>X>X5X6X6X5X5X5X5X5X5X5X5X5X5X5X5X5X5X5X6X6X6X6X5X5X5X5X5X5X6X5X5X5X6X6X6X5X5X5X5X5X5X5X5X5X5X5X5X5X5X5X5X5X5X5X>X>X5X5X6X6X0X6X6X5X>X>X>X6XqX|.J.F.D.J.' 2.F.z.C.C.`.uX6X5X>X>X5X5X5X5X>X>X>X6X6X6X>X>X5X5X5X5X5X5X>X5X>X5X5X5X5X5X5X5X6X6X7X>X>X6XqXyXuXyXqXtXuXuXwXwXwXqXqX6X6X6X6X6X6XqXqXqXqXqXqXqXwXwXyXyXuXiXiXiXsX XY.pXkXyXqX*X%XF.p.N.J. X*X6X=X X`.`.c.a.r.r.q.q.0.9.3.3.3.3.3.3.3.3.*.&.&.&.#.#.#.o.o.o.} ] Y B F U Y Y U G G L J n g M V U / ] o.#.$.*.7.7.0.7.7.e.7.k.V.Z.C.F.F.F.H.I.I.U.",
"`. X X X`.`.).(.!.!.!.r.e.F.c.c.z.k.a.q.9.3.$.+.] / F n B U ` ' ' ~ ' +.*.2.&.#.&.&.&.&.&.&.&.&.*.1.&.<.1.2.3.4.7.9.9.9.0.0.q.q.r.0.a.!.*XOX:XqX6X>X%X!.e.3.F. XqXqXgXmXbX XyXkXpXuXuXtXuXuXwXwXwXqXqXqXqX5X6XuXyXuXwXwXwXuXuXyXuXyXuXqX6X6XqXqXuXuXuXqX6X7X7X7X>X>X>X5X5X5X>X>X>X5X5X5X5X5X5X5X5X5X5X5X5X5X6X6X6X6X6X6X6X5X>XqX,XF.C.C.C.D._ e.c.C.J.!.:XyX:X>X>X>X>X>X>X>X>X>X5X5X5X5X5X5X5X5X>X>X>X>X,X,X,X6X6X6X5X5X5X5X5X5X5X5X5X5X6X6X6X6X5X5X5X5X6X6X6X6X6X6X6X6X6X6X5X5X5X6X6X6X6X>X6XiX,X,X6X6X6X6X,X,X6XqX XJ.C.S.F.o.2.!.V.V.F.OXuX5X5X6X6X5X5X5X5X6X5X5X6X6X5X5X5X5X5X5X5X5X5X5X6X6X6X6X6X6X5X5X5X5X6X6X5X5X5X5X6X6X5X5X6X6X5X5X5X5X5X5X5X>X5X5X5X5X6X5X5X5X5X5X5X5X6X6X6X5X5X5X7X7X>X6XqX|.!.!.F.J.' 3.F.z.Z.Z.~.uX6X5X>X>X5X5X5X5X6X6X6X6X6X6X5X5X5X6X6X6X6X6X5X5X6X5X6X6X5X5X5X5X6X6X5X>X>X6XwXyXuXuXqX6X6XqXuXuXiXuXuXuXwXqX6XqXqX6X6XqXqXqXqXqXwXwXyXuXuXuXiXiXgX<X;XkXnXkXqX*XOXI.r.a.Z.OX=X5X>XOX*X>XF.a.0.0.q.0.9.7.3.3.3.3.3.3.3.3.-.&.=.%.#.#.#.o.o.] ' ~ N H ~ Y U Y U U G J J M h N G Y ) ] o.#.$.*.7.9.0.7.a.r.7.k.V.Z.F.F.J.H.I.!.!.!.",
"`. X X X`.`.).(.!.!.!.r.e.J.c.c.z.k.a.q.9.3.$.+.] / F n B U ` ' ' ) ) ' ] &.3.&.$.&.&.&.&.&.&.&.*.&.&.<.<.2.3.4.7.9.9.9.0.0.q.q.0.r.k.!.wX$X%X,X6X>X%X!.0.3.C.`.:X6XpXnXbX%XqXbXpXiXuXtXuXtXwXwXqXqXqXqXwX6XqXuXpXiXiXyXyXyXuXuXuXwX6X>X:X>X6XqXuXuXuXqX6X7X7X7X5X5X5X5X5X5X>X5X>X5X5X5X5X5X5X5X5X5X5X5X5X5X6X6X6X6X6X6X6X5X>XqX>XF.C.b.D.V.Q 3.c.D.J.!.:XyX:X>X>X>X>X5X>X>X5X5X5X5X5X5X5X5X6X6X>X>X>X>X,X,X,X,X6X5X6X6X5X5X5X5X5X5X6X6X6X6X6X6X5X5X5X5X5X6X6X6X6X6X6X6X6X6X5X5X6X6X6X6X6X5X6XwX,X,X6X6X6X,X,X,X6XqX XF.C.F.F.o.3.!.Z.A.J.OXuX5X5X6X6X5X5X5X5X6X5X6X6X6X5X5X5X5X5X5X5X5X5X5X6X6X6X6X6X6X5X5X5X5X6X6X6X5X5X5X6X6X5X5X6X6X5X5X5X5X5X5X5X>X5X5X5X5X6X5X5X5X5X5X6X6X6X6X6X5X5X5X5X5X>XqXqX|.!.H.F.J.' 3.D.z.Z.Z.~.uX6X5X5X5X5X5X>X5X5X5X6X6X6X6X5X5X5X5X5X5X6X6X5X5X5X6X6X6X5X5X5X5X6X6X5X>X>X6XwXyXuXuXqX6X>X,XqXuXiXiXuXuXuXuXuXwXqXqXqXqXqXqXqXqXwXwXuXuXyXyXuXiXxX5X,XbXnXkXqX%XOXH.0.a.Z.OX=X5X>X*X>XqXZ.a.r.r.q.0.9.7.3.3.3.3.3.3.3.2.-.&.=.%.#.#.o.o.o.' _ Z Z Y ~ Y Y U U U G L J M g M F Y ) ] o.#.$.*.7.9.8.9.k.r.7.k.C.Z.F.F.J.H.H.I.!.!.",
"`. X X X`.`.).(.!.!.!.r.e.J.N.c.z.k.a.q.9.3.$.#.} / F n B U ` ' ' ) ) ) ~ ] &.3.$.&.&.&.&.&.&.&.&.&.&.&.&.<.3.3.7.9.9.9.0.0.0.0.0.r.k.H.6X X%XqX5X:X+X!.0.-.c.!.OX>XiXbXbX<X%XbXgXpXuXuXtXtXqXqXqXqXwXwXwXwXuXuXpXpXiXiXyXwXwXqXqX6X>X>X>X6XqXqXuXuXuXqX6X7X5X5X6X6X5X5X5X5X5X5X6X6X6X6X6X6X6X6X5X6X6X6X5X6X6X6X6X6X6X6X6X6X>XwX:XF.V.b.C.N.U 3.c.D.J.!.:XyX>X>X5X5X5X5X6X6X6X6X6X6X5X5X6X6X6X6X,X,X,X,X,X,X,X,X6X6X5X5X5X5X6X6X6X6X6X6X6X6X6X6X6X6X6X6X6X6X6X6X6X6X6X6X6X6X6X6X6X6X5X6X6X5X6X6X,X,X6X6X6X6X,X,X6XqX XF.S.J.H.+.2.!.G.F.J.OXuX6X5X6X6X5X6X6X6X6X5X5X6X6X6X6X6X6X5X5X5X6X6X6X6X6X6X6X6X6X5X5X5X5X6X6X5X5X5X5X6X6X5X5X6X6X6X6X5X5X6X6X5X5X5X5X5X5X6X6X6X6X6X6X6X6X6X6X6X5X6X5X5X5X>XqXqX|.J.J.G.J.' 1.C.c.Z.Z.`.uXqX6X>X5X6X6X6X6X5X5X5X5X5X5X6X6X5X5X5X5X6X6X6X6X5X5X5X6X5X>X5X5X6X6X5X>X5X6XwXyXiXuXqX6X:X>X,X6XqXuXuXuXuXuXiXuXuXuXqXqXqXqXtXqXwXwXyXyXtXuXuXiXxX6X6XmXmXkX>X X`.F.9.a.Z.OX=X5X6X$X`.'.V.a.a.r.q.0.9.7.7.3.3.3.3.3.5.2.-.&.$.%.#.#.o.o.o./ U F Y ~ ~ Y ! Y U U L L J c a b V Y ) ] o.#.$.*.7.7.8.e.z.r.9.z.Z.F.F.F.J.H.J.H.!.).",
"`. X X X`.`.).(.!.!.!.r.p.J.V.c.z.k.a.q.9.3.$.#.} ~ F n B U ` ' ' ) ) ' ~ ~ ] *.&.$.&.&.&.&.&.&.&.&.&.1.&.&.2.3.7.9.9.9.0.0.0.0.0.r.r.N.*X X$X:X5X:X+X!.0.&.k.H.`.:XiXkXxX;X).kXkXpXiXuXtXtXqXwXwXqXqXqXuXuXiXiXiXiXyXuXwXqX6X>X:X:X>XqXqXqXqXqXuXuXuXqX6X7X5X5X6X6X5X5X5X5X5X5X6X6X6X6X6X6X6X6X6X6X5X6X5X6X6X6X6X6X6X6X6X6X>XwX:XD.V.c.C.V.! 9.c.D.J.!.:XyX>X>X5X5X5X5X6X6X6X6X6X6X6X6X6X6X6X6X6X6X,X,X,X,X,X,X6X6X5X5X5X5X6X6X6X6X6X6X6X6X6X6X6X6X6X6X6X6X6X6X6X6X6X6X6X6X6X6X6X5X5X5X5X5X6X6X,X,X6X6X6X6X,X,X6XqX XF.S.J.H.+.&.H.C.F.J.OXuX5X5X6X6X5X6X6X6X6X5X5X6X6X6X6X6X6X5X5X5X6X6X6X6X6X6X6X6X6X5X5X5X5X6X6X5X5X5X5X6X6X5X5X6X6X6X6X5X5X6X6X5X5X5X5X5X5X6X6X6X6X6X6X6X6X6X6X6X5X6X5X5X5X>XqXqX|.J.F.G.J.' &.V.c.Z.Z.`.wXqX6X7X7X6X6X5X6X5X5X5X5X>X5X6X6X6X5X5X5X6X6X6X6X5X5X5X5X5X>X>X5X5X6X5X>X5X6XwXyXiXuXqX6X:X:X>X,X6X6XqXuXuXuXiXiXiXiXuXuXuXqXqXqXwXwXyXyXtXuXyXuXgX,X,XmXmXkX>X|.!.Z.9.a.Z.OX=X5X0X%X!.!.c.a.a.r.q.0.9.7.7.7.3.3.3.3.5.-.&.=.$.%.#.o.o.] ' ~ C Y _ ~ ! U Y Y Y U U I G n i c V Y ) ] o.#.$.*.7.7.8.r.c.r.9.c.Z.F.F.F.J.H.J.H.!.`.",
"`.|. X X`.`.).(.!.!.!.s.p.J.V.c.z.j.q.9.3.3.&.#.} ! Z z B U ` ' ' / ~ ' ' ' ' #.&.&.&.1.&.' / / +.&.&.1.&.*.3.7.9.0.0.0.0.0.0.0.r.r.r.c.OX`.*X6X6X:X%X`.z.&.a.J.!.%XuXbXnXyXF.qXlXfXuXuXtXtXtXtXwXuXiXiXiXiXiXiXyXuXwXqX6X,X>X>X>X6XqXwXwXqXqXqXuXiXuXwX6X6X5X5X6X6X6X5X6X6X6X6X6X6X5X5X6X6X6X6X6X6X6X6XqX6X6X6X6X6X6X6X6X6X,XwX,XS.C.c.C.c.} a.c.C.J.!.:XqX:X:X5X5X5X5X6X5X6X6X6X6X6X6X6X6X6X6X6X0X6X6X6X6X6X,X6X6X6X6X6X6X6X6X6X6X6X6X6X6X6X6X6X6X6X6X6X6X6X6X6X6X6X6X6X6X6X6X6X6X6X6X6X6X6X6X,X6X6X6X6X6X6X,X,XtXOXP.J.J.H.o.=.R.Z.F.P.OXwX5X6X6X6X6X6X6X6X6X6X6X6X6X6X6X6X6X6X6X6X6X6X6X6X6X5X6X6X6X6X6X6X6X6X6X6X6X6X6X6X6X6X6X6X6X6X6X6X6X6X6X6X6X5X5X5X5X6X6X6X6X6X6X6X6X6X6X6X6X6X6X6X6X>XqXqX|.P.H.G.!.' &.V.c.Z.J.`.uXqX6X6X6X6X6X6X6X6X6X6X5X6X6X6X6X6X6X6X6X6X6X6X6X6X6X6X6X5X6X6X5X5X6X6X5X5X6XwXiXiXuXqX6XqXqX,X,X5X>X>X>XqXwXuXiXiXiXiXiXiXiXuXuXwXwXuXuXuXuXyXuXgX~.;XmXmXiX%X`.!.C.3.a.J.OX=X5X6X%X!.H.k.a.a.r.q.0.9.9.7.7.7.3.3.3.2.;.-.&.=...] [ ' ] ~ P J ! ' ( ! Y ~ ! Y Y U U F d 8 n V Y ~ ] o.#.$.1.7.9.9.r.M.r.9.N.F.F.F.F.J.F.J.H.!.).",
"|. X X`.`.`.).(.!.!.!.s.p.J.V.c.z.j.q.9.3.3.&.#.} ! Z n B U ` ' ' / ) ' ' ' ' ' &.&.&.&.o.Y F F ' $.1.1.*.3.3.7.9.0.0.0.0.0.0.0.r.r.r.c.OX`.%X6X5X:X@X`.v.5.C.`.I.!.>XbXbXqXZ. XgXfXiXiXiXuXuXuXuXfXiXiXiXiXiXiXwXqX6X6X6X,X,X,X6XqXqXwXqX6X6XqXuXiXuXwX6X6X5X5X5X5X6X5X6X6X6X6X6X6X5X5X6X6X6X6X6X6X6X6XqX6X6X6X6X6X6X6X6X6X,XwX,XF.N.N.C.c.' r.c.Z.F.!.:XyX>X>X5X5X5X5X6X6X6X6X6X6X6X6X6X6X6X6X0X0X6X6X6X6X,X,X6X6X6X6X6X6X6X6X6X6X6X6X6X6X6X6X6X6X6X6X6X6X6X6X6X6X6X6X6X6X6X6X6X6X6X6X6X6X6X6X6X6X6X6X6X6X6X,X,XtXOXP.J.J.H.o.=.R.Z.F.P.OXwX5X6X6X6X5X6X6X6X6X6X6X6X6X6X6X6X6X6X6X6X6X6X6X6X6X5X6X6X6X6X6X6X6X6X6X6X6X6X6X6X6X6X6X6X6X6X6X6X6X6X6X5X5X5X5X5X5X6X6X6X6X6X6X6X6X6X6X6X6X6X6X6X6X>XqXqX|.P.H.G.!.o.3.D.C.Z.J.`.tX6X6X6X6X6X6X6X6X6X6X6X6X6X6X6X6X6X6X6X6X6X6X6X6X6X6X6X6X5X5X6X6X6XqX6X6X5X6XwXiXiXuXqX6XqXqXqX6X6X5X>X:X5X6XqXwXuXuXiXiXpXpXiXiXiXyXuXyXuXuXiXiXuXP.<XxXgX6X X!.(.J.*.a.J.OX=X5X6XOXH.H.j.a.a.r.q.0.9.9.7.7.7.3.3.3.2.=.&.=.%.` E ~ ) ' / ! ! ^ ^ ( ( ~ ~ ~ Y Y U P F d 8 n V Y ~ ' o.#.$.1.7.9.9.r.M.r.9.N.F.F.F.F.F.F.J.H.!.!.",
"|. X X`.`.`.).).!.!.!.s.p.F.N.z.k.a.0.7.3.3.&.#.o.! Z z B U ` ' ' ) / ) ' ' ' ' o.&.&.&.} U Z P ' $.1.*.*.3.7.9.9.0.0.0.0.0.0.0.r.r.r.c. X).$X>X5X%XOX/.V.0.J.'.N.a.).uXkXqXN.F.fXfXfXuXiXiXiXiXiXiXiXiXuXuXyXqX6X6X6X6X6X6XqXqXqXqXqXqX6X,X6XyXuXiXuXwX6X6X5X7X6X6X5X5X6X6X6X6X5X5X5X5X6X6X6X6X6X6X6X6XqXqX6X6X6X6X6X6X6X6X6XwX,XF.N.N.C.V.~ 0.C.D.F.I.:XyX>X>X6X5X6X6X6X6X6X6X6X6X6X6X6X6X6X6X,X,X6X6X6X6X6X6X6X6X6X6X6X6X6X6X6X6X6X6X6X6X6X6X6X6X6X6X6X6X6X6X6X6X6X6X6X6X6X6X6X6X6X6X6X6X6X6X6X6X6X6X6X6X6X6X,XqXOXP.J.J.J.o.=.R.Z.F.P.OXwX5X5X6X6X5X6X6X6X6X6X6X6X6X6X6X6X6X6X6X6X6X6X6X6X6X6X6X6X6X6X6X6X6X6X6X6X6X6X6X6X6X6X6X6X6X6X6X6X6X6X6X6X6X5X5X5X5X6X6X6X6X6X6X6X6X6X6X6X6X5X5X6X5X>XqXqX|.P.H.G.!.o.3.F.Z.F.J.`.tX6X6X6X6X6X6X6X6X6X6X6X6X6X6X6X6X6X6X6X6X6X6X6X6X6X6X6X6X5X6X6X6X6XqXqXqX6XqXwXiXiXuXqX6XqXqXqXqXqX6X5X5X5X>X5X6XqXwXuXiXiXiXpXpXpXiXiXiXiXiXpXpX|.S.6XpXqX%X!.F.a.J.0.0.J.OX=X6X6X XF.H.a.a.r.0.q.0.9.9.9.7.7.7.6.3.-.&.#.%.%.` ) ) ' ' ] ] ' ' ^ ^ ~ ~ ~ ~ Y U U U F d 8 n V Y ~ ' o.#.$.1.7.9.8.r.M.r.9.V.F.F.J.J.F.F.H.H.H.P.",
" X X`.).`.`.).).!.!.!.s.r.F.c.z.j.a.9.7.3.3.&.&.o.! Z n V Y ` ' ' ' ~ ~ ~ ' ' ' ' &.&.&.o.~ ~ o.+.&.*.2.3.7.7.9.9.0.0.0.0.0.0.0.0.r.r.c. X).+X>X>X%XOX/.V.0.G.!.s.0.~.6XiXqXF.N.uXgXgXiXfXiXfXfXfXfXiXfXuXqXqX,X,X,X,X,XqXqXqXqXqXqXqX6X6X,X6XyXuXiXuXwX6X6X5X7X6X6X5X5X5X5X6X6X5X5X5X5X6X6X6X6X6X6X6X6XqXqX6X6X6X6XqXqX6X6X6XwX,XF.N.N.C.C.! 0.Z.F.F.H.:XyX>X>X6X6X6X6X6X6X6X6X6X6X6X6X6X6X6X6X,X6X6X6X6X6X6X6X6X6X6X6X6X6X6X6X6X6X6X6X6X6X6X6X6X6X6X6X6X6X6X6X6X6X6X6X6X6X6X6X6X6X6X6X6X6X6X6X6X6X6X6X6X6X6X6X,XqXOXP.F.J.J.o.=.R.Z.F.P.OXwX5X5X6X6X6X6X6X6X6X6X6X6X6X6X6X6X6X6X6X6X6X6X6X6X6X6X6X6X6X6X6X6X6X6X6X6X6X6X6X6X6X6X6X6X6X6X6X6X6X6X6X6X6X5X5X5X5X6X6X6X6X6X6X6X6X6X6X6X6X5X5X5X5X>XqXqX|.P.H.G.!.o.2.D.C.F.J.|.tX6X6X6X6X6X6X6X6X6X6X6X6X6X6X6X6X6X6X6X6X6X6X6X6X6X6X6X6X5X6X6X5X6X6X6X6X6XqXwXiXiXuXqX6X6X6X0XqXqXqX6X6X6X6X5X5X6X6XqXqXqXuXuXuXiXpXgXiXpXpXiXpXB.F.qXiX,X XF.k.q.D.j.a.J.OX=X6X6X'.Z.H.a.a.q.q.0.0.9.9.7.3.3.7.6.3.;.%.%.o.%.o.........+.+.o.} _ ' / ~ ~ ! Y U U U F d 8 n V Y ~ ' o.#.$.*.9.9.8.a.M.r.9.M.F.F.J.J.J.F.H.H.J.J.",
"OX X|.).`.`.).).~.!.!.s.a.F.c.z.j.a.0.9.9.3.&.&.] Y V h V Y ' ' ' ' ' ' / ) ) ) ] o.+.#.o.] o.#.$.$.&.*.3.7.7.9.9.9.0.0.0.0.0.e.0.r.r.V.OX). X:X%X+XOX/.C.5.c.F.0.a.).qXiXqXU.k. XgXgXuXgXpXiXiXfXiXuXwXqX6X,X,X6XqXqXqXqXqXqXqX6X6X6X6X6X6X6XyXuXuXuXtX6X6X6X6X6X6X6X6X6X6X6X6X6X6X6X6X6X6X6X6X6X6X6X6X6X6XqX6XqXqXqXqX6X6X6XwX6XF.N.N.V.k.U 9.Z.F.F.H.*XwX6X0X6X6X6X6X6X6X6X6X6X6X6X6X6X6X6X6X6X6X6X6X6X6X6X6X6X6X6X6X6X6X6X6X6X6X6X6X6X6X6X6X6X6X6X6X,X,X6X6X6X6X6X6X6X6X6X6X6X6X6X6X6X6X6X6X6X6X6X6X6X6X6X6XqXqX XP.F.F.J.+.&.H.Z.F.I.OXqX>X6X6X6X5X6X6X6X6X6X6X6X6X6X6X6X6X6X6X6X6X6X6X6X6X6X6X6X6X6X6X6X6X6X6X6X6X6X6X6X6X6X6X6X6X6X6X6X6X6X6X6X6X6X6X6X6X6X6X6X6X6X6X6X6X6X6X6X6X6X6X6X6X6XwXqX`.P.H.D.!.' &.F.N.F.S.~.tXqX6X6X6X6X6X0X6X6X6X6X6X6X6X6X6X6X6X6X6X6X6X6X6X6X6X6X6X6X6X6X6X6X6X6X5X6XqXwXyXyXyXqXqX6X6X6X6XqXqXqXqXqX6X6X5X>X>X>X5XqXqXyXuXiXiXpXpXiXpXxX.X8.`.qXyX,X~.N.a.V.a.9.r.J. X*X>X6X!.H.!.k.a.q.0.0.w.0.9.9.3.3.3.3.3.&.&.&.&.$.#.#.o.o.] o.o.o.] _ _ _ _ ~ ~ Y U Y U G z 8 n V Y ~ ' o.#.$.*.7.9.9.r.c.e.4.M.F.F.J.J.H.I.!.!.I.I.",
" X X`.`.`.`.).).!.!.P.s.a.F.c.z.j.a.q.9.7.3.&.&.] Y V h V Y ' ' ] ' ' ' ' ] ' ~ ~ ' o.#.o.] +.#.&.&.*.2.3.7.7.7.9.9.0.0.0.0.0.e.0.q.r.V.OX!. X:X%X+XOX~.z.-.a.V.0.a.~.6XgXqX`.k.k.wXiXgXiXiXuXuXuXwXqXqXqX6X6X6XqXwXwXwXwXqXqX6X6X6X6X6X6X6X6XyXuXuXuXqX6X6X6X6X6X6X6X6X6X6X6X6X6X6X6X6X6X6X6X6X6X6X6X6X6X6X6X6XqXqXqXqX6X6X6XwX>XZ.N.N.C.z.U 0.C.D.F.H.*XwX,X6X6X6X6X6X6X6X6X6X6X6X6X6XqX6X6X6XqX6X6X6X6X6X6X6X6X6X6X6X6X6X6X6X6X6X6X6X6X6X6X6X6X6X6X6X,X,X6X6X6X6X6X6X6X6X6X6X6X6X6X6X6X6X6X6X6X6X6X6X6X6X6X6XqXqX|.P.F.F.J.+.&.H.Z.F.P.OXqX6X6X6X6X6X6X6X6X6X6X6X6X6X6X6X6X6X6X6X6X6X6X6X6X6X6X6X6X6X6X6X6X6X6X6X6X6X6X6X6X6X6X6X6X6X6X6X6X6X6X6X6X6X6X6X6X6X6X6X6X6X6X6X6X6X6X6X6X6X6X6X6X6X6XwXqX`.H.H.D.!.] &.F.N.F.S.~.uXqX6X6X6X6X6X0X6X6X6X6X6X6X6X6X6X6X6X6X6X6X6X6X6X6X6X6X6X6X6X6X6X6X6X6X5X6XqXwXyXyXyXqXqX6X6X6X6X6XqXqXqXqXqXqXqX6X5X>X5X,X6XqXqXyXyXiXpXiXpXpXF.r. XtXyX,XY.N.a.V.r.3.a.J. X*X:X7X!.H.!.k.a.q.w.w.w.0.9.9.3.3.3.3.3.*.*.&.&.$.+.o.' o.o.o.o.} ' / / / / ~ ~ Y U Y U F h 8 n V U ~ ' o.#.$.*.7.9.9.r.c.0.4.c.F.F.J.J.H.I.!.!.I.!.",
" X X|.|.`.|.).).!.!.P.a.a.F.c.z.z.j.a.q.3.2.$.#.] Y V h B U ) ' ] ' ' ' ] ' ) Y F ~ +.&.] ' #.$.$.$.&.*.3.3.7.7.9.8.0.0.0.0.0.e.0.0.r.V.OXI.).:X:XOX'.Q.f.&.a.c.r.a.!.*XpXuX$Xk.8.$XuXiXwXwXwXqXqXqXqXqXqXqXqXwXwXwXwXwXwXqXqX6X6X6X6X6X6X6X6XyXuXuXuXqX6X6X6X6X6X6X6X6X6X6X6X6X6X6X6X6X6X6X6X6X6X6X6X6X6X6X6X6X6X6X6X6X6X6X5XwX:XN.N.N.C.z.U 0.C.D.F.H.*XwX,X6X6X6X6X6X6X6X6X6X6X6XqXqXqXqXqXqXqX6X6X6X6X6X6X6X6X6XqXqX6X6X6X6X6X6X6X6X6X6X6X6X6X6X6X6X,X,X,X6X6X6X6X6X6X6X6X6X6X6X6X6X6X6X6X6X6X6X6X6X6X6X6X6X6X6X`.J.F.F.J.o.$.H.Z.F.P.OX<X>XqX6XqX6X6X6X6X6X6X6X6X6X6X6X6X6X6X6X6X6X6X6X6X6X6X6X6X6X6X6X6X6X6X6X6X6X6X6X6X6X6X6X6X6X6X6X6X6X6X6X6X6X6X6X6X6X6X6X6X6X6X6X6X6X6X6X6X6X6X6X6X6X6XwXqX`.H.H.D.!.} 1.J.C.F.S.~.wXqX6X6X6X6X6X6X6X6X6XqXqX6X6X6X6X6X6X6X6X6X6X6X6X6X6X6X6X6X6X6X6X6X6X5X5X6XqXwXuXiXyXqXqX6X6X6X6X6X6XqXqXqXqXyXyXtXqX6X6X,X6X6X6XqXqXyXyXtXsX*Xe.z.%XyXyX:XJ.z.z.C.0.1.r.F.'.%X*X*XH.J.!.z.a.q.w.w.w.0.9.9.3.3.3.3.*.1.*.&.&.+.o./ / o.o.} o.] ' ~ ~ ~ ~ ~ ~ Y U U L Z h 8 h B U ~ ' o.#.$.*.7.9.9.r.c.0.3.c.F.F.J.J.H.I.!.!.!.!.",
" X X|.|.|.|.).).!.I.P.a.a.F.c.z.z.j.a.q.3.1.$.+.] Y V h B U / ' ] ' ' ' ' ) Y G Y ' o.' ] ' #.&.+.#.&.$.3.7.7.7.9.8.0.0.0.0.0.e.0.0.r.N.OXH.).:X:XOX`.J.p.o.9.a.r.a.I.*XwXqX$XZ.3.B.qXlXwXqXqX6X6XqXqXqXtXwXuXuXuXwXwXwXqXqXqX6X6X6X6X6X6X6X6XyXuXuXuXqX6X6X6X6X6X6X6X6X6X6X6X6X6X6X6X6X6X6X6X6X6X6X6X6X6X6XqX6X6X6X6X6X6X5X>XqX*XN.N.N.C.z.U 0.C.D.F.H.*XwX>X,X6X6X6X6X6X6X6X6X6X6XqXqXqXqXqXqXqXqXqX6X6X6X6X6XqX6X6XqX6X6X6X6X6X6X6X6X6X6X6X6X6X6X6X6X,X,X,X6X6X6X6X6X6X6X6X6X6X6X6X6X6X6X6X6X6X6X6X6X6X6X6X6X6X6X`.F.F.F.J.#.$.H.Z.F.J. X+X+XuXqXqX6X6X6X6X6X6X6X6X6X6X6X6X6X6X6X6X6X6X6X6X6X6X6X6X6X6X6X6X6X6X6X6X6X6X6X6X6X6X6X6X6X6X6X6X6X6X6X6X6X6X6X6X6X6X6X6X6X6X6X6X6X6X6X6X6X6X6X6X6X6XwXqX`.H.H.D.!.} 1.J.D.F.S.~.wXqX6X6X6X6X6X6X6X6X6XqXqX6X6X6X6X6X6X6X6X6X6X6X6X6X6X6X6X6X6X6X6X6X6X5X5X6XqXuXiXiXyXqXqX6X6X0X6X,X,X6X6X6XqXqXyXuXuXuXtX6X6X6X6X6X6XqXyXpXyXD.1.C.:XyXuX:XF.z.c.Z.0.&.9.F.`.OX*X%XJ.J.!.z.a.w.w.w.w.0.9.9.3.3.3.3.1.1.2.&.&.o.] Y ~ o.o.} } ' _ ~ ~ ~ ~ ~ ~ Y U U L Z g 0 h B I ~ ' o.#.$.*.7.9.9.0.c.0.3.c.F.F.J.J.H.I.!.!.!.!.",
" X X X|.|.`.).).!.I.P.p.r.F.c.l.l.j.a.q.3.*.#.o.] ~ F h m U ~ ' ' ] ' ) ~ I I / o.#.' o.+.] o.o.o.' o.*.3.3.3.7.7.9.0.0.0.0.0.0.0.r.r.N.OXH.~.6X%X~.Q.c.0.] &.0.k.k.F.OXqXuX:XF.1.$. XiXiXwXqXwXuXuXuXuXuXuXuXwXuXwXwXqXqXqXqXqX6X6X6X6X6X6XqXyXyXuXuXqXqX6X6X6X6X6X6X6X6X6X6X6X6X6X6X6X6X6X6X6X6X6XqXqXqXqXqXqX6X6X6X6XqXqX6XqX%XC.N.B.c.k.Y a.C.F.F.H.OXwX6X,X6X6X6X6X6X6X6X6X6X6X6X6XqXqX6XqXqXqXqXqX6XqX6X>XqXqXqXqXqXqXqXqX6X6X6X6XqXqXqXqXqXqXqXqX6X6X6X6X6X6X6X6X6X6X6X6X6X6X6X6X6X6X6X6XqXqXqXqX6X6X6X6X>XqX(.J.J.F.H.#.#.J.C.F.P. X X XuXqXqX6X6X6X6X6X6X6X6X6X6X6X6X6XqXqXqXqXqXqXqXqX6X6X6X6X6X6X6X6XqXqXqXqXqXqXqXqX6X6X6X6X6X6X6X6X6X6X6X6X6X6X6X6X6X6X6X6X6X6X6X6X6X6X6X6X5X6XwX6X6XwXqX`.H.H.D.!.$.&.J.D.C.V.H.5X0X5X5X5X6X6XqXqXqXqXqXqX6X6X6X6X6X6X6X6X6X6XqXqX6X6X6X6X6X6X6X6X6X6X5X5X6XqXuXiXiXyXqXqX6X6X0X6X,X,X6X6X6X6XqXuXuXuXuXuXiXuXqX6X6X6X6X6XqX).0.1.I.6XwXwXOXN.k.z.z.3.o.1.C.!.!.%X*XV.H.`.z.q.w.w.0.0.9.9.9.3.3.3.3.3.3.1.&.&.$.' U U ( / ' ' ] ] _ U I Y ~ Y U I L J Z z 4 d B U ) ] o.&.$.&.3.9.8.e.a.9.2.c.C.F.J.J.H.I.!.!.!.!.",
" X X X|.|.`.).).!.!.I.p.q.F.V.z.j.a.q.0.3.*.#.o.' Y V g b U ~ ' ' ] ' ! G F ~ o.+.#.' +.$.' ) ' #.' ] *.3.3.3.3.7.9.0.0.0.0.0.0.q.r.r.M. XJ.Y.6X*XC.z.V.2.~ +.9.a.a.Z. X6XwX:XP.e.$.k.6XiXiXfXfXiXiXiXiXiXiXiXuXqX6X6X6X6X6XqXqXqXqX6X6XqXqXqXuXyXuXuXqXqX6X6X6X6X6X6X6X6X6X6X6X6X6X6X6X6X6X6X6X6X6X6X6XqXqXqX6X6X6X6X6XqXqX6XqX+XN.N.z.z.k.Y a.C.F.F.H.*XiXqX0XqX6X6X6X6X6X6X6X6X6X6X6XqXqXqXqX6X6X6X6XqXqXqX6XqXqXqX6XqXqXqXqX6X6X6X6XqXqXqXqXqXqXqXqX6X6X6X6X6X6XqXqXqXqXqXqXqXqXqXqXqX6X6X6XqXqXqXqXqXqXqXqXOX>X!.J.H.F.!.#.$.J.Z.J.S.|. X|.uXqXqX6X6X6X6X6X6X6X6X6X6X6X6X6XqXqXqXqXqXqXqXqX6X6X6X6X6X6X6X6XqXqXqXqXqXqXqXqX6X6X6X6X6X6X6X6X6X6X6X6X6X6X6X6X6X6X6X6X6X6X6X6X6X6X6X6X6X6XqXqX:XqX6X).J.J.D.!.&.&.F.F.F.C.H.*X>X5X5X0X6X6XqXqXqXqXqXqX6X6X6X6X6X6XqXqX6X6XqXqXqX6X6X6X6X6X6X6X6X6X5X5X6XqXuXiXiXyXqXqX6X6X6X6X0X6X6X,X6X,X6XwXuXuXuXuXiXiXuX6X6X>X%X X`.a.1.7.).6XwXwX`.N.k.k.a.1.] &.N.I.F. X*XN.H.(.z.q.w.w.0.0.9.9.9.3.3.5.3.3.1.*.$.+.} ! ~ U B ^ } o.o.} o./ U L U Y U I J G Z l 4 g B U ) ] o.&.$.&.3.9.8.0.a.9.2.z.C.F.J.J.H.P.!.!.!.!.",
" X X X|.|.|.`.).!.!.!.r.0.F.V.z.j.a.q.0.3.*.#.o.' Y V g c L ! _ ] ' ~ G B L ' o.o.$.] ..$.' U ~ o.' o.*.7.7.3.3.7.9.0.0.0.0.0.r.r.r.r.N. XD.P.qX5Xa.p.p.&.Y o.0.a.a.N.!.:XqX>X~.r.1.$.F.:XwXiXuXiXiXiXiXiXiXiXuXpXiXwXqXqXqXqXqXqXqXqXqXqXqXqXuXyXuXuXqXqX6X6X6X0X0X6X6X6X6X6X6X6X6X6X6X6X6X6X6X6X6X6X6X6X6X6X6X6X6X6X6X,X,X>XqX+XN.N.z.z.a.Y a.C.Z.D.J.:XwX:X%X>X6XqX6X6X6X6X6X6X6X6X6XqXqX6X6X6X6X6X6XqXqXqXqX6XqXqXqX0X0XqXqX6X6X6X6XqXqX6X6XqXqXqXqX6X6X6X6X0X0X0X0X0X0XqXqXqXqXqXqXqXqX6X6XqXqXqXqX6X6X6X6XP.OXJ.C.J.F.H.#.#.J.C.F.F.|.%X.XqX6X6X6X6X6X6X6X6X6X6X6X6X6X6X6X6X6X6X6XqXqXqXqX6X6X6X6X6X6X6X6X6X6X6X6XqXqXqXqX0X0X0X0X0X0X0X6XqXqXqXqX6X6X6X6X6X6X6X6X6X6X6X6X6X6X6X6XqX>XqX,X X,X6X).F.F.Z.!.&.+.J.F.J.C.!.$X$X=X5X0X0X6X6X6XqXqXqXqXqX6XqXqX6X6XqXqXqXqXqXqXqX0X6X6X6X6X6X6X6X6X6X6X6XqXwXyXyXyXqXqX6X6X6XqXqXqX6X6XqXqXqXuXfXfXgXgXlXgXfXwX6X=X`.C.3.&.1.k.OX6XwXwXU.z.j.a.0.$.' $.k.Z.a.!.%Xz.F.^.z.q.0.0.0.0.9.9.9.3.3.3.3.3.2.$.$.+.} ! ~ ' ~ o.O.o.} ] +.o.~ I J L I L G F C h w z B I ) ] o.$.&.&.3.9.0.0.a.9.&.z.Z.J.J.J.H.H.!.!.!.!.",
" X X X|.|.|.`.`.!.!.!.r.9.F.V.c.j.a.q.0.3.*.#.o.' Y B d c L Y ) ' ) I m G ~ ] ' ' 3.+.' #.] U L ) ] $.2.7.3.3.3.7.9.0.0.0.0.0.r.r.r.r.N. XC.F.qX>Xr.4.9.+.U +.a.a.r.z.!.*XqX,X).M.1.' O.k.P.).).|.|.|.|. X X X|. X*XwXpXqXqXqXqXqXqXqXqX,X,X6XqXyXuXuXqX6X6X6X6X6X6X6X6X6X6X6X6X6X6X6X6X6X6X6X6X6X6X6X6X,X,X,X,X6X6X6X6X*X-X-X6X+XN.N.z.z.a.Y a.C.Z.D.J.*XqX XU. X%X>X6X6X6X6X6X6X6X6X6XqXqX6X6X6X6X6X6X6XqXqX>XqXqXqXqXqXqXqXqX6X6X6X6X6X6X6X6XqXqXqXqX6X6X6X6X0X0X0X6X,X>X,X,X6X6X0X0XqXqX0X0XqXqXqXqX>X>X>X>XF.OXI.F.J.F.!.#.#.J.C.F.S.~.%X X6X5X6X6X6X6X6X6X6X6X6X6X6X6X6X6X6X6X6X6X6X6XqXqX6X6X6X6X6X6X6X6X6X6X6X6XqXqXqXqX6X6X6X6X6X6X6X6XqX6X6X6X6X6X6X6X6X6X6X6X6X6X6X6X6X6X6X6X6X>X:X X).>X6X).F.F.C.!.1.o.J.F.D.b.(.$X`.=X6XqX6X6X6X6X6XqXqXqXqX6X6X6X6X6X6X6XqXqXqXqXqXqX6X6X6X6X6X6X6X6X6X6X5X6XwXyXyXwXqX6X6X6X6X6X6X6XqXwXuX,X XP.P.~.OX%XOX).~./.!.).H.z.0.3.1.F.=X6XwXqXF.k.a.u.3.o.~ +.a.N.9.H.OXk.D.!.z.q.0.0.0.0.9.9.9.3.3.3.3.2.*.+.+.+.o./ ] ' ^ o.o.o.} ] } o.] ~ G F G J F Z B g i c B I ) ] #.$.&.*.3.9.0.e.a.9.&.z.Z.J.J.J.H.H.!.!.!.!.",
" X X X X X X|.`.~.!.).7.0.F.C.c.k.a.r.0.3.*.#.o.' Y B z N U ! ~ ' U m N ~ ] ] ) ] ' ~ Y #.&.o.' o.$.*.3.3.7.3.3.7.9.9.9.0.9.0.0.r.r.r.N. Xk.z.*X%Xr.3.2.o.U o.0.0.0.a.H.|.*X6X%XF.k.r.N.Y.~.~.Y.U.U.U.~.~.~.).).Y.XX<XiXiXiXyXyXyXyXyXyX6X,X,X,XtXtXtXtX6X6X6X6X6X6X,X,X,X6X6X6X6X6X6X6XqXqXqXqXqXqXqXqX>X>X>X>XqX6X,X>X5X*X*X6X+XC.N.z.C.c.U k.C.S.F.J.%XqX*X X X:X>X,X6X6X,X>X6X6XqXtXtXtXqXqXqXqXqXqXqXqXqXqXqXqXqXqX6X6X6X6X6X6X6X6X6X6X6X6X6X6X6X6X6X6X6X6XqXqXqXqXqXqXqXqX,X,X6X6X6X6X6X6X6X6X5X>X>X=X%XOX).'.).J.J.J.!.+.+.J.C.F.F.P.:X X+X:X>X:X5X>X5X5X6X6X6X6X6X6X6X6X6X6XqXqXqXqXqXqXqXqXqX6XqX6X6X6X6X6X6X6X6X6XqXqXqXqXqXqX6X6X6X6X6X6X6X6XtXtXtXtXqXqXqXqXqXqXqXqX6X>X:X%X+X+X+X+X+X6X6X).V.Z.C.I.3.o.J.F.F.C.K.$X|.;XtXqX6X6X6X6X6XqXyXqXqXqXqXqXqXqXqXqX6X6X6X6X6X6X6X6X>X,X6X6X,X,X5X5X,X,X6X6X6X6X6X6X,X,X,X,X,X6XqXqXiX;XJ.r.k.J.`.!.S.k.k.S.!.`.'.`. XI.k.I.5XqXqX|.N.j.u.0.5.' Y o.j.k.9.J.OXz.C.!.z.q.0.q.0.0.9.9.9.9.9.3.3.3.*.&.+.+.+.+.o.' ! ! ! ! Y Y ~ ' o.] U F V G G F B d i g M U ~ ] #.&.&.*.3.9.0.q.a.9.+.k.C.J.J.J.I.!.P.Q.Q.R.",
" X X X X X X|.`.).~.H.&.a.F.C.c.k.a.r.0.3.*.#.o.' U N g M U Y ~ ~ L V U o.o.] ~ L L J G &.3.3.*.&.*.*.3.3.3.3.3.7.9.9.9.0.0.0.0.r.r.r.N.'.k.z.`.`.9.3.1.o.Y &.a.0.y.a.F.J.C.$XqX,X>XqXiXuXiXiXuXyXyXyXyXuXyXuXuXiXiXiXkXpXpXpXpXpXpXpXpXiXiXiXiXiXiXpXpXiXiXiXpXgXgXpXiXiXiXiXiXpXpXpXiXpXiXiXiXiXiXiXiXiXiXiXiXiXiXuXwXiXwXwXiX XC.N.N.S.M.U s.C.S.S.F. XqXwXwXqXuXuXuXuXyXyXqXuXuXiXpXpXpXpXpXiXiXiXiXgXgXgXgXgXgXgXgXgXgXgXgXgXgXpXpXpXpXpXpXpXiXiXiXyXyXyXyXyXiXiXiXiXiXiXiXiXiXiXiXiXiXiXiXiXiXwXwXwXwX6X7X%XOX^.C.J.J.!.#.O.J.C.F.Z.P.<X<X6XtXiXwXiXiXiXiXiXiXiXiXiXiXiXiXiXiXiXiXiXiXpXpXiXiXpXpXpXpXgXpXpXiXiXiXuXiXpXpXpXiXiXiXiXiXiXiXiXiXiXiXiXiXpXpXiXiXiXiXiXiXiXiXiXiXuXtXyXuXuXuXqX6X%XI.V.C.C.I.3.o.J.F.F.C.J.%X6XtXiXpXiXaXiXiXuXiXpXiXiXiXiXiXiXiXiXiXpXpXpXiXiXuXuXuXtXyXuXuXuXuXuXuXuXuXuXuXuXuXuXuXuXuXuXuXuXiXiXpXkXiXwXqXwXwX6X6X5X5X5X5X>X6X6X5XqX*X`. XOX|.Y.N.p.0.9.0.5.' U ..0.0.&.b.'.z.C.!.z.q.0.q.0.0.9.9.9.9.3.3.3.3.*.&.+.+.+.+.+.' U P J F B N F ~ ' ' / Y G V V Z v a i l N U ~ ] #.&.&.*.3.9.0.q.a.q./ c.C.D.J.H.I.!.Q.Q.R.R.",
" X X X X|.|.`.).`.I.c.&.k.Z.Z.V.k.a.q.0.5.*.$.o.' U c i b J U ~ Y L U o.o.] ~ L F J U Y #.&.*.&.&.*.*.2.2.3.3.3.7.9.9.9.0.0.9.0.r.r.r.N.'.k.z.J.J.2.2.&.o.Y &.0.0.0.a.c.r.0.!.>X,XqXyXyXpXkXkXpXiXiXiXiXiXuXiXiXwXyXiXyXuXuXuXuXuXuXuXuXuXuXuXuXuXuXuXuXuXuXuXiXpXpXuXuXyXuXuXuXuXuXuXuXuXuXiXiXiXiXiXiXiXiXiXiXiXuXuXwXqX6X6X5X~.N.C.V.F.V.U a.S.C.C.N.J.|.:X>X6XqX6X6XqXwXwXyXuXuXiXiXiXiXiXiXiXpXpXpXiXiXpXiXpXpXpXpXpXpXpXpXpXpXpXpXpXpXpXpXiXiXiXiXuXuXuXuXuXuXuXuXuXuXuXuXuXuXuXuXuXuXuXuXiXiXwXwXuXwX6X7X%X'.H.C.J.J.!.+.+.J.C.F.N.T.OX:X,X6XwXqXwXqXwXwXyXuXuXuXuXuXuXuXuXuXuXuXuXuXiXiXuXuXiXiXiXiXiXiXiXuXuXuXuXaXpXpXiXuXaXaXuXuXuXuXuXuXuXuXuXuXuXuXuXuXuXuXtXtXtXtXyXyXqXqXwXwXwXwX>X%X).F.V.C.C.I.2.o.J.J.F.C.D.`.6XtXuXiXtXtXtXtXuXpXgXpXiXiXiXiXpXpXpXiXiXiXiXiXiXiXiXuXuXuXiXpXpXpXfXfXiXiXiXiXiXiXiXiXiXiXiXuXuXuXiXiXgXiXiXuXiXiXuXiXuXfXfXuXwXiXuXqX6X>X>X*X|.F.z.0.0.9.0.0.9.] U ' 3.3.o.a.(.k.Z.H.z.q.0.q.0.0.9.9.9.9.5.5.3.3.*.&.+.+.+.+.o._ U J P Z M z c G ! ~ ' ' U B B B c i 8 g M J ~ ' o.$.&.*.3.9.0.r.a.a.$.a.k.F.J.I.I.!.Q.Q.!.!.",
" X X X|.|.`.).).~.P.C.z.c.Z.D.V.k.a.q.0.5.&.$.o._ P z e n G U Y Y Y ) &.) Y G B G U ) ] +.#.$.*.&.&.*.2.2.3.3.3.7.9.9.9.0.0.9.0.r.r.r.N.`.k.z.N.V.&.1.&.o.U o.=.3.3.0.a.r.z.I. X X$X*X*X:X6X,X:X-X-X-X:X:X:X>X>X*X>X>X:X:X<X:X:X<X:X:X:X:X:X:X:X;X;X:X:X:X:X:X:X:X:X%X%X;X;X;X;X%X%X%X%X+X+X+X+X+X+X+X+X X.X.X X+X+X X X`.).).!.P.N.Z.C.H.C.U a.Z.C.N.B.Z.J.I.).`.|. X X XOX+X%X%X%X*X*X*X*X:X:X:X:X>X>X>X:X>X:X:X:X:X:X:X:X<X<X<X<X<X>X,X,X,X>X<X>X>X>X>X>X>X<X>X>X>X>X>X>X>X>X:X:X:X:X:X%X%X*X+X X X|.OX X`.).).!.J.J.F.J.!.o.o.F.N.S.F.Z.P.~.|. X%XOXOX XOX X:X:X:X:X%X%X%X:X:X:X:X:X:X:X:X:X:X:X:X:X:X;X;X;X:X:X:X:X>X,X5X6X6X,X6X,X,X,X,X,X,X5X5X5X5X5X5X,X>X>X>X>X;X:X:X:XOX+X+X+X X X X XOX|.I.Z.C.C.C.I.3.o.J.J.C.C.C.F.~.|. X.X@X+X+X+X%X:X:X:X;X;X;X;X:X:X:X:X:X:X:X:X%X%X%X%X%X%X:X<X<X>X>X:X>X:X:X:X:X:X:X:X%X%X%X%X%X:X:X>X:X:X>X:X>X,X,X,X>X:X:X>X:X>X:X%X*XOX+XOX XF.z.3.0.0.0.0.9.] I ' -.-...a.H.j.C.J.z.q.0.q.0.0.9.9.5.5.5.5.3.3.*.&.+.+.+.+.' ~ U U ! J M z h b G Y ' ' ~ J N N z e ; i b G Y ' o.&.*.2.3.9.0.r.a.j.k.q.a.C.H.I.I.!.!.!.!.!.",
"|.|. X|.`.`.).~.~.!.J.F.F.F.Z.V.c.j.q.9.3.&.+.] _ G a 8 h N Z U ~ o.' ' ~ G I Y G J ~ o.' ' ] &.#.$.&.&.2.3.3.3.7.9.9.9.0.0.0.0.0.9.r.Z.`.k.c.c.a.3.&.&.o.J ~ &.2.3.3.&.a.k.c.N.N.N.D.F.J.J.J.J.J.J.I.I.I.I.!.I.!.I.I.H.J.J.J.J.J.J.J.P.P.P.P.P.P.P.P.P.I.I.P.P.J.J.J.J.I.I.!.!.!.!.U.H.J.F.J.J.J.J.P.P.J.J.S.S.F.F.F.F.F.F.C.M.k.V.F.Z.H.z.U a.Z.C.N.N.N.N.N.N.C.Z.Z.Z.F.J.H.H.H.H.H.H.H.H.P.I.I.I.I.I.I.I.I.I.I.I.I.I.I.I.!.!.!.!.!.!.~.Y.Y.!.Y.!.!.!.!.!.~.~.!.~.~.~.~.~.!.!.!.!.!.!.!.!.!.!.P.P.J.F.F.J.H.I.H.F.F.F.H.H.!.' &.J.N.C.Z.Z.Z.F.Y.Y.Y.!.J.F.J.Y.).).~.!.).).).).!.!.!.!.!.!.!.!.!.J.J.H.H.!.U.H.I.!.!.!.!.!.!.!.~.).).).~.).~.I.!.!.!.!.!.I.J.J.J.J.J.J.D.!.!.!.!.!.H.F.H.J.J.F.F.F.Z.Z.Z.Z.C.H.2.o.H.H.J.F.D.Z.C.Z.J.P.J.H.!.(.U.I.U.I.U.U.I.I.I.I.I.I.I.~.).!.).(.!.U.I.I.!.!.!.!.!.!.!.!.!.!.!.!.!.!.!.!.!.!.!.!.!.!.!.Y.Y.!.!.U.I.P.P.P.P.T.I.I.J.J.F.F.S.C.C.z.e.3.2.3.5.5.&.~ G o.5.&.%.0.Z.z.V.H.z.r.q.0.0.0.9.9.9.3.3.3.3.2.&.&.+.o.+.] ~ _ _ ~ J Z B M M M M U ~ ' ] U B b z i < i N F Y ' o.&.*.3.7.9.9.q.a.a.j.a.j.C.F.H.I.I.!.!.!.!.",
"|.|.|.|.|.`.).).).!.H.J.F.F.Z.V.c.j.q.9.3.$.+.] ^ C a 8 h M F Y ] $.' ~ ~ G L L F Y ' ' ' ) ) ) o.$.*.*.2.3.3.3.7.9.9.9.0.0.0.0.0.9.r.S.`.k.c.k.q.*.$.#.o.J ` 3.3.&.+.} 9.0.r.r.r.a.j.k.z.z.z.z.k.z.c.N.z.N.C.N.C.N.N.N.z.z.z.z.z.z.z.z.N.N.N.N.N.N.N.N.N.N.N.N.c.c.c.c.c.N.C.C.D.C.C.N.x.c.c.c.c.c.c.N.N.N.c.z.z.z.z.z.c.M.k.k.k.V.Z.C.H.c.Y k.Z.C.N.c.c.c.c.N.c.c.c.c.c.c.V.C.c.c.c.c.c.b.c.c.V.V.V.V.V.V.V.V.V.N.c.c.N.C.C.Z.D.D.D.D.F.C.C.F.C.C.C.C.N.V.C.C.N.N.C.C.J.S.S.C.C.C.C.C.C.C.C.C.J.F.S.C.C.C.Z.Z.V.C.F.H.!.!.!./ <.!.C.C.N.N.N.N.N.M.N.N.z.k.z.C.F.S.Z.C.C.C.C.C.F.F.F.F.D.D.D.Z.D.C.N.N.N.C.C.V.C.C.C.C.C.C.Z.Z.C.C.D.D.F.J.F.C.D.Z.D.D.C.z.k.z.x.x.x.x.u.c.D.D.D.Z.C.V.V.V.N.c.c.V.C.C.C.Z.C.J.&.o.H.J.D.D.C.C.V.V.N.V.N.C.D.D.D.D.D.D.D.D.D.D.C.C.C.C.F.J.J.J.H.J.G.G.C.C.D.D.C.C.C.C.C.C.C.C.C.C.C.C.C.C.S.S.S.S.S.S.S.S.S.Z.C.N.N.B.k.k.s.s.a.r.r.r.0.0.0.8.p.8.4.2.&.-.;.5.%.~ F o.2.&.+.0.V.j.c.H.z.q.q.0.0.0.9.9.9.3.3.3.2.*.&.#.o.] ] ~ P ! ~ ~ J F Z B F B N J ~ ' } U V M l w - w b F Y ' o.&.*.3.7.9.9.q.a.a.j.j.k.C.F.H.I.I.R.R.R.R.",
" X X|.|. X|.`.).).!.!.H.F.F.Z.V.c.j.q.9.3.$.+.] ^ C i 0 d M F ! +.3.] ~ Y L U U L ' o.' ] ' ' ~ o.*.*.*.2.3.3.3.7.9.9.9.0.0.0.0.0.9.r.S.`.c.z.q.7.&.#.+...G / 3.&.&.+.+.3.7.q.r.r.r.a.j.j.j.j.j.j.k.z.z.k.z.V.N.c.N.V.V.V.N.V.V.V.V.C.C.C.C.C.C.Z.Z.Z.C.C.C.C.C.C.C.C.C.N.V.C.Z.D.D.D.D.D.D.D.D.C.Z.C.Z.Z.Z.C.V.z.z.z.z.z.M.z.c.C.F.F.Z.J.c.~ c.Z.C.N.c.c.c.N.N.c.c.c.c.z.z.c.b.z.z.z.z.l.l.z.z.z.z.z.c.c.c.c.c.b.b.b.b.b.b.C.Z.Z.Z.Z.C.C.B.z.C.N.c.N.N.k.z.N.V.C.C.C.C.F.S.Z.C.C.C.C.C.C.C.C.C.H.J.J.F.F.F.Z.Z.V.V.F.^.`.`.!.E 3.!.C.C.Z.Z.Z.Z.C.C.C.C.C.C.C.J.H.H.F.F.C.C.C.Z.Z.S.F.J.Z.C.V.c.C.Z.C.N.V.Z.Z.V.V.V.V.V.c.b.V.Z.D.D.D.D.F.J.J.D.Z.Z.Z.Z.z.j.j.z.c.c.c.c.q.c.D.C.Z.S.S.S.M.M.V.C.k.N.C.Z.F.F.Z.!.&.%.!.J.J.F.D.Z.C.C.C.C.C.C.D.D.D.D.D.D.D.D.D.D.Z.Z.C.C.F.D.F.H.J.J.G.D.D.D.G.G.F.G.G.G.G.G.G.F.F.F.F.F.F.F.A.S.Z.Z.Z.Z.Z.Z.C.C.N.M.z.z.a.a.a.r.a.a.a.a.r.r.a.a.0.9.7.2.=.&.=.-.%.~ G o.-.%.o.9.z.a.c.!.z.a.q.0.0.0.9.9.9.3.3.3.*.*.$.#.} ] ' U J Y ~ ~ ~ ! ! Y N n N G ~ ' } U B M z i < 8 n F Y ' o.&.&.2.7.9.9.q.a.a.j.z.c.C.F.H.I.I.H.H.H.H.",
" X X X|. X X`.).~.!.!.H.F.F.Z.V.c.j.q.9.3.$.#.] ~ B i 0 s b F ~ &.2.] ` U U ) / Y ' ] ] / ' ' ~ ] 3.*.#.2.3.3.7.7.9.9.9.0.0.0.0.0.9.r.Z.).c.z.9.2.+.o.o...S Y %.&.2.3.7.8.e.a.k.a.k.k.z.j.j.j.j.j.k.z.c.k.c.C.C.V.V.Z.Z.Z.Z.Z.Z.Z.Z.Z.F.F.F.F.F.F.F.F.F.D.D.D.D.F.F.F.F.V.C.Z.Z.D.G.J.J.J.J.J.J.J.J.F.F.F.G.Z.C.C.C.C.C.Z.F.G.F.H.!.!.J.F.c.~ V.Z.C.N.c.c.c.N.N.c.c.c.c.k.z.c.c.z.z.z.z.z.z.z.z.c.c.c.b.b.b.b.b.C.C.C.C.C.Z.D.F.F.F.F.F.N.z.z.N.V.V.V.V.c.V.Z.F.J.J.J.J.J.J.F.F.D.D.D.D.S.F.F.F.I.I.J.J.H.J.F.Z.F.F.H.(.OXOX_.E 0.`.F.F.P.P.J.P.J.J.J.J.S.C.S.P.R.H.J.F.J.J.J.J.H.!.!.`.!.H.F.Z.F.J.F.C.C.F.F.C.V.V.V.V.V.C.F.J.J.H.J.H.J.H.J.D.Z.Z.Z.Z.c.z.z.c.C.C.C.C.z.C.F.C.S.S.S.J.c.M.C.C.z.N.S.J.H.H.J.!.-.&._.H.!.R.J.J.F.F.D.D.F.F.F.F.D.D.D.D.G.G.F.F.J.J.J.J.J.F.J.!.H.H.J.F.Z.D.F.F.F.F.F.F.G.G.G.A.A.A.A.A.A.A.Z.Z.Z.Z.Z.Z.Z.Z.Z.Z.Z.C.V.M.k.k.a.a.a.a.k.k.a.a.k.k.a.r.9.7.=.&.%.%.&.~ G o.&.%.o.9.j.a.c.!.z.a.q.0.0.0.9.9.9.3.3.3.*.&.$.+.o.o.o.~ Y ~ ~ Y ~ ~ ~ ~ P M B Z ~ ' ] U b c c s 8 i n V Y ' o.&.&.2.3.9.9.q.a.a.j.c.V.C.F.H.I.H.J.H.H.H.",
" X X X X X|.`.).~.!.!.I.J.F.Z.V.c.j.r.9.3.$.#.} ~ C a 8 h N I ' =.5. .~ R E ' ) U ~ ] o.' ) ' ' ] #.#.#.2.2.3.7.7.9.9.9.0.0.0.0.0.8.e.S.'.k.a.3.=.o.o.o.o.` ~ ~ ] ] o.o.#.o.+.$.&.&.*.1.-.2.5.9.9.0.0.u.9.a.c.z.d.k.k.f.d.y.a.k.z.z.z.z.z.z.z.c.c.c.k.k.a.a.a.a.z.k.k.a.a.a.k.z.z.c.V.V.c.k.a.k.z.z.z.z.z.k.k.j.a.a.a.a.k.a.y.u.0.0.0.0.3.-.o.j.z.z.z.z.k.k.k.k.j.j.j.j.k.k.j.a.a.j.j.j.z.z.z.z.c.c.c.c.a.k.c.c.c.c.z.k.k.k.z.c.N.N.N.N.s.r.r.a.a.a.a.a.9.r.k.V.V.V.V.V.N.V.C.C.c.c.N.c.c.c.c.c.V.V.c.c.k.z.c.c.c.z.k.z.c.c.a.I 9.z.u.u.c.z.k.k.k.k.z.z.p.r.a.k.C.V.z.z.c.z.a.a.k.k.k.z.z.k.j.a.c.z.j.a.k.c.c.k.z.z.z.z.z.z.c.c.z.B.N.N.N.C.N.z.z.k.k.a.a.a.a.a.a.a.a.a.k.k.a.a.k.k.k.s.k.k.p.r.a.a.a.a.k.z.j.k.o.o.a.a.a.a.z.N.z.z.z.k.k.k.s.s.z.z.z.z.k.k.z.z.z.z.z.c.V.C.S.F.F.V.z.c.c.c.c.c.c.c.c.c.V.C.c.k.s.s.k.k.k.k.k.k.M.z.k.k.k.c.M.k.k.z.k.a.0.7.&.+.=.&.*.-.&.$.$.o.o.o.+.+.` ~ U J E ~ U o.&.%.%.5.q.q.z.(.c.q.q.0.9.9.7.7.3.3.3.3.1.&.&.+.o.o.o.o.] / _ ~ / / ! J G G V V ' o.o.J m M b c i e h F U ) o.#.&.*.3.7.0.a.a.a.k.c.V.C.Z.J.H.H.!.H.H.F.",
" X X X X X|.`.).~.!.I.P.J.S.C.N.c.j.r.9.3.$.o.] ( B a 8 h N L ' &.3.X./ ~ R ' ' Y ~ ] o.' / ] #.o.#.$.&.2.3.3.7.7.9.9.9.0.0.0.0.0.8.e.S.'.z.a.3.%.o.o.o...E U G U U Y ~ ~ Y Y ~ ~ ! ~ ~ ` ` ' ' ] ] ' ' ' +.&.&.&.&.&.&.+.o.o.&.%.%.%.%.=.&.+.o.&.&.&.&.+.+.%.+.&.&.&.&.+.+.+.+.+.+.&.&.&.&.&.2.2.2.2.2.2.2.&.&.&.&.=.&.o.o.' ..]  .' ' / ' ~ ~ ] } o.#.o.o.o.$.#.#.$.&.&.&.o.o.+.+.o.o.+.+.+.+.+.%.%.%.&.2.2.2.1.1.&.&.&.&.1.2.3.3.3.3.3.<.&.$.$.$.$.$.o.&.<.3.7.7.7.7.7.3.3.2.$.*.1.3.3.3.3.3.3.3.1.*.&.2.2.2.3.2.&.&.%...' I  .' / ' o.o.} } O.O.o.o.&.+.&.1.9.9.7.3.3.3.*.&.$.$.$.&.&.$.#.+.*.&.$.#.$.&.&.$.1.1.1.1.&.&.&.&.1.1.1.1.&.&.<.$.&.$.+.o.o.o.o.o.o.o.o.o.+.+.' ' o.o.} } o.o.} } } o.o.o...' ~ ` / Y R ~ o.o.o.o.o.$.&.&.$.$.} } $.$.$.$.$.$.$.$.<.<.<.<.3.1.<.&.&.&.&.&.+.+.+.&.&.&.&.&.$.&.+.o.' } } } } } } } &.O.O.o.O.&.&.o.o.+.+.} ' / ~ ~ ~ / ' ] ) ~ J B U U ~ ~ E U J F Y ~ ~ o.=.%.+.2.9.0.k.^.z.q.q.9.9.9.7.7.3.3.3.3.1.&.&.o.#.+.o.o.} _ ' ~ ~ / ( U F V V V ] #.#.Y V B v c w e h V U ) ] #.&.*.3.7.0.a.a.a.k.k.N.C.F.J.I.!.!.I.Q.H.",
" XOXOX X X|.`.).!.!.P.P.F.Z.C.c.c.j.q.9.3.$.o._ U M i w z N U ] 3.9.o.' ( U ` ' Y ) o.o.' ~ o.2.$.$.=.*.3.3.7.7.7.9.9.9.0.0.0.0.0.8.e.S.'.k.a.5.+.o.o.+.+.~ ` ' ] o.+.#.&.&.2.9.0.a.c.C.F.F.Z.Z.C.V.z.k.N.Z.F.V.C.C.Z.C.c.c.V.C.Z.D.C.C.b.b.z.k.b.V.V.V.V.V.V.C.C.C.V.V.Z.Z.Z.Z.c.V.V.C.Z.V.Z.F.F.F.F.F.C.C.V.V.V.V.c.c.z.z.k.c.b.b.c.v.b.u.Y 7.k.k.z.z.z.z.z.z.C.C.C.C.C.C.N.c.V.V.V.V.c.c.c.c.c.z.z.z.C.F.F.Z.S.S.C.C.F.J.H.P.H.H.H.H.H.H.F.Z.F.F.F.F.S.F.F.J.J.J.F.F.F.F.D.Z.C.D.J.H.D.D.D.D.F.Z.C.C.C.Z.Z.F.J.F.V.N.C.Z.^.o.%.c.G.Z.Z.C.C.C.V.V.V.V.C.V.C.F.F.F.D.D.J.J.F.F.F.J.J.J.J.F.D.D.F.J.F.F.F.J.J.F.D.D.D.D.C.C.C.C.Z.Z.F.F.V.c.V.C.C.C.c.c.c.c.c.c.c.c.c.c.C.C.z.c.C.C.V.V.c.c.c.c.b.b.V.V.V.b.b.R.o.+.H.F.F.Z.N.z.z.C.J.J.F.F.N.N.Z.Z.Z.Z.Z.Z.F.F.F.F.J.J.!.H.F.C.G.J.H.R.J.J.J.J.Z.Z.Z.Z.V.C.C.c.C.C.C.C.C.C.C.C.c.z.k.s.M.M.k.a.a.z.z.k.c.c.z.z.a.a.0.0.7.7.3.3.9.7.3.-.%.+.o.o.+.o.` o.-.&.o.;.7.9.a.!.k.0.q.9.9.9.7.7.3.3.3.3.&.$.#.o.+.#.+.o.o.' ' ~ ! / ^ ~ B B V V ] $.&.~ F F M g 8 e h B U / ] o.&.*.3.7.0.p.a.a.s.k.z.N.F.J.!.!.!.!.!.!.",
"OXOX X X X|.`.).!.I.P.J.F.C.V.c.c.j.q.9.3.$.] / U v i w z N U ' 5.0.+. .( U ~ ' ~ _ o.#.) ~ +.3.3.*.=.3.3.3.7.7.8.9.9.9.9.0.0.0.0.8.e.S.'.k.a.5.o...o.&.o.` o.-.3.3.7.9.7.0.z.F.F.H.!.`.`.`.!.!.!.!.!.I.H.!.!.F.H.H.H.H.D.F.J.J.J.J.J.F.J.F.F.G.G.G.F.J.R.R.R.J.J.F.A.Z.C.Z.J.H.J.H.R.!.!.J.F.J.F.F.F.J.J.J.F.F.F.F.Z.Z.A.A.Z.J.Z.Z.C.C.G.j.~ k.J.F.C.z.C.C.C.D.D.F.F.F.D.F.J.H.R.R.R.R.R.R.R.R.I.I.I.I.P.!.!.P.!.!.Q.P.Q.!.~.!.H.H.H.H.F.H.H.F.I.I.I.I.H.H.H.H.H.H.H.H.H.H.I.I.P.H.H.H.I.I.I.I.I.P.J.J.J.P.P.I.P.P.J.H.!.!.(.=.=.!.G.S.J.F.F.F.J.J.J.J.!.I.!.).I.I.I.I.U.!.!.!.U.!.!.!.!.Y.I.H.I.U.!.U.H.I.I.H.H.H.H.H.I.I.I.I.H.H.H.H.H.F.H.!.!.!.H.H.H.H.H.H.R.R.H.H.J.R.J.!.J.J.F.F.F.F.F.F.F.F.F.F.J.C.C.!.+.&.R.J.Z.Z.C.C.D.J.H.H.H.I.H.H.H.H.H.H.!.!.!.!.H.H.H.H.^.!.H.H.H.!.!.R.!.!.!.R.I.H.H.H.J.H.P.J.J.P.I.I.I.P.P.P.P.J.F.F.!.!.J.C.Z.J.I.J.F.Z.C.V.k.k.a.a.q.q.q.q.0.9.9.9.-.-.&.&.&.&.' %.-.&.o.=.3.7.a.H.j.9.0.7.9.9.7.3.3.3.3.3.&.$.#.o.o.#.#.+.o.' ] / U ~ ' ' m B B V ' #.$.~ V F b i 4 e h m L ~ ' o.&.*.3.7.0.a.a.a.k.k.z.N.F.J.I.!.!.!.!.!.",
"+XOX X X X|.`.).!.!.H.J.F.Z.C.c.z.j.q.9.*.&.] ~ G c i i n B Y ' 3.u.&.` ~ U ~ ] / ' o.#.' ' o.*.3.3.&.2.3.3.7.7.8.8.0.0.9.9.0.e.e.e.r.C.'.k.a.9.5.&.&.&.o.~ =.-.-.3.9.3.3.0.N.H.!.!.!.~.!.!.F.c.V.S.S.F.J.H.!.R.J.F.F.F.F.F.F.F.D.Z.C.C.C.Z.F.F.F.F.F.F.F.F.F.F.F.F.S.S.C.S.J.H.J.J.J.J.J.F.F.F.F.F.J.J.J.J.J.J.J.J.F.S.S.F.C.C.A.V.Z.c.G.z.Y z.F.F.D.C.N.N.N.C.C.C.C.C.F.F.H.I.!.!.!.!.H.J.F.F.F.F.F.F.Y.Y.Y.!.!.!.H.H.!.!.I.I.!.!.R.R.H.H.H.H.H.H.H.H.H.H.H.H.H.P.P.P.P.P.P.P.P.P.P.P.P.P.I.I.I.P.T.F.F.F.S.Z.S.F.J.J.J.J.!.#.&.H.Z.F.F.F.F.J.P.P.H.J.J.I.I.!.I.Y.I.P.P.I.I.I.I.Y.!.!.I.P.J.J.J.P.P.P.P.P.P.P.P.P.P.P.P.P.P.P.H.H.H.H.H.H.I.I.H.H.H.H.H.H.H.H.H.H.H.J.J.J.R.R.!.!.J.F.J.J.J.H.J.G.G.G.J.F.J.!.&.3.H.Z.Z.Z.F.S.C.F.I.I.I.I.I.I.I.I.U.I.I.H.I.I.I.I.U.U.J.!.(.!.!.R.H.J.J.J.J.J.J.J.F.F.P.P.P.P.P.P.P.P.P.P.J.J.J.J.F.J.J.J.J.J.I.P.J.F.S.S.Z.Z.V.c.k.j.z.j.a.q.9.2.3.2.2.2.5.9.&./ Y &.3.&.+.;.3.3.k.!.c.a.a.q.9.9.7.3.3.3.3.3.&.$.$.#.&.#.#.o.' ~ ' ~ P U ~ ~ m V V V / o.#.Y V Z c 8 ; 4 i h L ~ ' o.+.1.3.9.0.a.a.s.a.k.k.z.F.J.I.!.!.!.!.!.",
"+X+X X X X|.`.).!.!.H.J.F.Z.C.c.z.j.q.9.3.$.o.~ M g a n F G Y ' 7.a.&.' ~ U ~ ' ] ' ' ] / ~ ' ] $.2.&.2.3.3.7.7.8.8.9.0.9.9.0.0.e.e.r.C.OXc.a.a.3.&.%.&. .I o.&.=.3.9.3.9.0.k.V.S.F.J.P.J.C.N.C.S.F.J.J.J.H.!.I.!.!.!.!.!.!.!.!.!.!.!.!.!.!.~.~.~.~.~.~.~.!.!.~.~.~.!.!.I.!.~.).).(.).(.!.!.!.^.!.U.U.!.!.!.!.!.!.!.!.!.I.Y.P.P.J.V.C.V.Z.z.Y z.F.F.F.F.N.C.F.J.I.I.I.I.I.!.(.).!.~.~.).`.`.`.~.~.~.~.~.).).).).`.`.).!.`.`.`.`.`.!.!.I.!.!.!.!.!.!.!.!.!.~.~.!.!.!.!.!.~.!.~.~.!.~.!.!.~.~.~.~.~.Y.Y.Y.P.P.P.T.F.F.F.J.F.F.H.#.$.J.V.A.J.J.J.I.Y.U.U.U.!.(.).).).).).~.~.).).).).).`.`.).).~.!.~.~.).~.~.~.~.~.~.~.~.~.~.).).).~.~.~.~.~.~.).).!.!.!.!.).).!.!.!.^.!.!.!.!.^.!.).~.!.!.!.!.!.!.^.^.H.G.J.F.J.!.&.3.H.Z.F.S.C.C.S.J.Y.~.).).).).).).).).).).).).(.(.(.).(.).`.).`.`.`.`.`.`.).).).).~.~.~.~.~.~.~.~.!.~.~.~.!.!.!.!.~.~.~.~.~.~.~.~.!.Y.P.P.H.H.J.J.J.J.H.J.D.C.C.k.p.3.2.9.9.9.&.~ U =.2.=.o.&.7.3.k.!.c.a.a.q.9.9.7.7.7.3.3.3.2.*.&.$.$.#.+.o.Y U / ! P U Y ~ N V V B ~ o.&.~ B M c d 4 4 e h G Y ' o.+.&.3.9.0.a.a.s.k.k.z.N.F.J.!.!.!.!.!.~.",
"OX+X X X X|.`.).!.!.H.J.F.Z.C.N.z.j.q.9.3.$.] Y M h i d B J U / 7.a.&.' ~ J Y ~ ' Y Y ~ ~ ~ Y U ] &.&.1.3.3.3.7.9.9.9.9.9.9.e.r.e.e.p.C.OXV.a.c.0.$.o.=...G ..=.-.0.a.6.S.!.!.J.!.~.'. X|.|. X%X%X@X+X+X%X%X:X*X*X:X:X:X*X*X*X*X:X:X:X%X%X:X:X:X:X:X:X:X:X*X*X*X:X:X:X:X%X%X%X*X*X*X*X*X:X:X:X:X%X%X%X%X+X+X%X@X%X%X%X%X%X%X+X+X!.C.V.V.Z.z.Y z.J.J.J.F.J.). X X$X$X$X$X$X$X$X+X%X%X%X%X:X:X:X:X:X;X:X:X:X:X:X:X:X:X*X%X:X:X:X:X>X*X%X+X%X%X%X%X%X%X%X%X%X%X%X%X%X%X%X%X%X%X%X%X%X%X%X%X%X%X%X%X%X.X.X.X X X X X X).H.F.F.F.K.#.&.H.C.S.J.!.`.OX$X1X1X1X%X*X:X:X:X:X*X*X:X:X:X:X:X:X>X>X:X:X:X:X:X:X:X:X%X%X%X%X:X:X:X:X:X:X:X:X*X:X:X:X:X:X:X*X:X:X:X:X:X:X*X*X*X*X%X%X+X+X%X%X%X%X%X%X%X*X*X=X>X*X`.J.J.F.J.!.-.3.H.A.J.Z.F.I.`. X+X%X%X%X%X%X%X%X%X%X*X*X*X*X*X*X%X%X:X%X%X%X:X>X>X>X:X:X:X:X:X:X*X*X*X%X%X%X%X%X%X%X%X$X$X$X%X%X%X%X%X*X*X%X%X$X+XOX+X+XOXOX*X*X*X*X=X*XOXOX`.|.!.a.3.0.a.0.=./ Y &.3.-.&.2.q.9.k.!.z.q.q.q.0.9.9.7.3.3.3.3.3.*.*.&.$.#.o.] V F / Y U U U U B V V N ~ o.&.) m c z i 3 3 8 g B U ^ o.O.&.3.9.0.a.a.a.k.z.z.N.F.H.!.!.!.!.!.).",
"OX+X X X X|.`.).!.!.H.J.F.Z.C.N.z.j.q.9.2.#.) L c d 3 % - h V ~ 9.j.-. ./ I U ~ ' ~ Y ) ) / U V _ &.*.2.3.3.7.7.9.9.9.9.0.0.e.p.p.p.s.S.OXV.a.V.u.$.#.-.o.I o.-.9.k.c.0.|.5X%X).M.C.J.!.+X>XwXuXuXuXuXqXyXuXiXuXpXpXpXiXuXuXuXuXiXuXuXuXuXuXiXfXiXiXiXuXuXuXyXuXuXuXuXuXwXwXwXwXuXuXuXuXfXpXpXiXiXuXuXuXtXtXtXtXwXwXiXiXiXiXwXwX`.C.V.V.G.z.Y z.J.J.J.F.).*XqXqXwXwXwXwXwXqXqXqXuXuXuXuXuXuXiXfXiXiXiXuXuXuXuXuXuXuXwXwXuXuXuXuXyXyXiXiXuXiXiXiXiXiXiXiXiXiXuXiXiXiXiXiXiXiXiXiXiXiXiXyXyXyXyXyXyXyXqXqX3X3X,X,X:X XU.F.F.F.H.#.&.H.C.S.S.!.%XqXqX0X0XqXqXwXwXuXwXwXwXqXqXwXwXwXuXuXuXuXwXuXuXuXuXuXuXuXuXuXuXuXiXiXiXiXiXiXiXiXiXuXuXuXuXuXuXuXyXyXyXuXuXuXuXwXuXuXuXuXwXwXwXwXyXyXuXuXiXiXiXiXiXqXOXH.H.F.J.!.;.3.H.A.J.F.I.OX6XwXiXiXuXwXwXwXwXwXiXiXiXiXiXiXiXiXfXfXfXwXwXuXwXiXiXfXiXiXiXiXiXiXyXyXyXyXyXyXiXiXiXiXuXuXuXuXyXyXiXyXyXuXuXuXuXwXqXqXuXuXuXwXiXwXqX0X!.H.J.F.V.OX7XJ.a.a.a.0.3.' ~ 5.0.9.2.9.a.0.z.!.z.q.q.q.q.9.9.7.3.3.3.3.3.*.&.$.$.+.o.' m F ' Y U U P P V V V m ~ o.&.' m b d 3 % ; 8 a m L ~ } O.&.3.9.0.a.a.a.z.z.N.C.F.H.!.!.!.!.!.).",
"+X+X X X X X`.).!.!.H.J.J.S.C.N.k.a.r.7.3.o.~ V s 3 - - 3 g B Y 0.j.-...` U Y ~ ) ~ ) ] ..) / ' &.&.-.-.2.3.3.9.9.9.9.0.0.0.r.a.r.a.a.Z.OXM.0.F.l.*.*.q.$.U $.7.q.z.k.r.OX6X7X!.r.r.a.J.6XwXuXfXiXuXuXuXuXiXiXuXuXuXiXiXuXuXyXyXyXyXqXqXuXuXiXiXpXiXuXtXqXqXqXqXtXtXtXtXtXtXqXqXqXqXwXqXwXyXyXyXyXyXqXqXqXtXtXtXqXqXqXwXwXwXwXqXOXC.N.V.F.c.' z.H.J.D.J. XqX6X>XqXqXqXqXqXqXqXqXwXwXtXtXwXwXwXwXtXtXqXqXqXqXwXwXtXtXtXtXtXtXqXqXyXyXyXyXyXyXyXuXqXqXyXyXyXyXtXtXuXuXuXuXuXuXyXyXyXyXyXyXyXyXyXyXyXyXtXtXqXqXqXqX%X|.).P.P.H.U.#.1.!.Z.F.M.~.6X5XqXqXqXqXqXqXwXwXqXqXqXqXqXqXqXtXtXtXqXqXqXqXqXqXqXtXtXtXyXyXtXqXqXtXtXtXuXuXuXuXuXyXtXtXtXyXyXyXuXuXuXuXyXyXtXtXqXqXqXqXtXtXqXqXyXyXyXyXqXqXqXqX6X6X6X!.J.F.J.!.;.3.H.A.J.J.~.5XqXwXuXwXqXqXqXqXtXtXtXwXtXtXtXuXuXiXfXgXuXtXtXtXuXuXuXuXuXuXtXtXwXwXwXwXwXwXyXpXpXiXiXuXuXwXwXqXqXyXuXuXuXqXqXqXqXtXwXuXyXyXyXyXiXiXiXuX!.r.7.0.M. X6XOXV.a.k.j.3.} ~ 3.k.0.3.0.a.q.C.!.z.q.q.q.0.0.9.7.7.7.3.3.3.*.$.#.+.o.o.o._ ~ ) ~ L U U G Z N B M ~ o.;.] B B l < % % ; 8 n B Y ' o.&.3.0.0.r.a.k.z.c.V.Z.F.H.I.!.!.!.!.).",
"+X+X X X X X`.).!.!.H.J.J.Z.C.N.a.r.0.7.&.' G h 7 0 i b b c m E 9.j.-.] ~ L U ~ ) ~ ~ ` [ ' ' +.2.-.-.-.2.3.3.9.9.9.9.0.0.0.r.a.r.a.a.Z.OXN.e.F.z.7.7.j.=.U =.7.u.z.k.z.%X6X7X!.S.N.F.>XwXiXfXiXuXuXuXuXuXuXuXyXyXqXqXqXqXqXqXqXqXqXqXqXtXuXiXiXpXiXuXtXqXqXqXqXtXtXtXtXqXtXyXyXwXwXqXqXwXwXwXwXqXqXqXqXtXtXtXtXqXqXwXwXwXwXwXqXOXC.V.V.J.V.' c.H.J.F.H.%XqX6X,XqXqXqXqXqXqXqXqXwXtXtXtXwXwXwXwXtXtXqXqXqXqXwXwXtXtXtXtXqXqXqXqXyXyXyXyXyXyXyXyXqXqXyXtXyXyXtXtXyXtXyXyXtXtXtXtXyXyXtXtXqXqXqXqXqXqXqXqXqXqXqXqX;X.X XP.P.H.U.#.1.!.F.H.J. XqX>XqXqXqXqXwXwXwXwXqXqXqXqXqXqXqXqXtXtXqXqXqXqXqXqXqXqXtXtXuXyXtXtXqXtXtXtXtXtXyXyXyXyXqXqXqXqXqXqXqXqXqXtXqXqXqXqXqXqXqXtXtXtXqXqXyXyXyXyXqXqXqXqX6X,XqX~.J.F.J.!.;.3.H.A.J.J.!.5X6XqXwXqXqXqXqXqXtXwXtXtXwXwXwXwXwXwXtXuXuXuXtXtXtXtXuXuXwXwXwXwXqXqXqXqXwXwXiXpXgXpXiXiXuXuXwXwXqXqXqXqXqXqXqXqX6XqXqXwXwXwXqXqXwXuXiXiX6XV.3.0.S.OX6XOXJ.k.j.j.9.o.~ 4.c.r.7.a.k.q.C.!.z.q.q.q.0.0.9.7.7.3.3.3.3.*.$.#.+.o.o.o._ ~ ) ~ J U Y G Z N B M ~ +.3...V Z v d c s 7 3 8 h Z ~ ] +.1.7.0.r.a.k.z.c.V.Z.F.H.!.!.!.!.!.).",
"+X+XOX X X X`.).!.!.H.J.J.F.Z.V.k.a.0.1.' J h i F ~ ] +.~ V N ) 9.j.-.] ~ J U Y ~ ~ ~ ` ' ' ] &.-.-.&.&.2.3.3.9.9.9.0.0.0.0.r.a.r.a.a.Z.%XV.r.H.V.u.a.b.;.Y *.9.a.c.k.H.5XqX7X!.F.B.).iXiXiXiXuXuXuXuXuXuXyXwXwX6X6XqXqXqXqXqXqXqXqXwXqXuXuXiXiXpXiXuXqXqXqXqXqXqXqXqXqXqXyXuXuXuXwXwXwXwXwXwXwXqXqXqXqXqXqXtXtXqXqXqXwXwXwXwXqX+XS.C.C.H.C.' V.J.J.H.!.*XwXqX6XqXqXqXqXqXqXqXqXwXwXwXwXwXwXwXwXwXwXwXwXwXwXwXwXqXtXqXqXqXqXqXqXtXtXyXyXuXuXuXuXtXtXtXtXqXqXtXtXtXtXyXyXtXtXtXtXqXtXtXtXtXqXtXqXwXwXqXqXwXwXwXwX>X:XOXP.H.J.I.#.&.!.F.I.!. X6X:XqXqXqXwXwXwXwXwXqXqXqXqXqXqXqXqXtXtXtXqXtXtXqXtXqXqXtXtXuXyXyXtXyXyXtXtXtXtXqXqXtXtXtXqXqXqXqXqXqXqXqXqXqXqXqXqXqXqXtXtXqXqXqXqXtXtXyXyXqXqXqXqX6X6XwX`.F.F.F.R.;.3.H.S.J.J.~.5X>XqXqXqXqXqXqXqXwXwXwXwXwXwXwXwXwXwXwXwXwXwXwXtXtXtXuXuXqXqXqXqXqXqXqXqXwXuXiXpXgXpXiXiXiXuXuXwXqXqXqXqXqXqXqXqX6XqXwXwXwXqXqXqXwXwXwXuXwX Xj.a.J.+X6X:X`.c.a.j.a.&./ 4.V.r.9.c.c.a.C.!.k.q.q.q.0.0.9.7.7.7.3.3.3.1.&.$.+.o.o.o.' ~ ) ~ G Y ! V Z N B M ~ #.7.#.G C v C ! U Z M i 4 4 d F ~ &.3.0.r.a.k.z.c.V.Z.F.H.!.!.!.!.).`.",
"+X+XOX X X|.).~.!.!.H.J.J.F.Z.V.a.9.&.! b n V ' $.9.3.*.] U S ` q.k.2.../ J U ~ L Y ) ' ] ' ' o.&.&.&.&.2.3.3.9.9.9.0.q.0.0.r.a.r.a.a.Z.*XC.p.P.C.k.c.F.3.~ 3.0.j.z.k.`.wXwX:X~.F.B.5XgXiXiXuXuXyXuXuXuXuXqXqXqX6XqXqXqXwXwXwXwXwXwXwXwXuXuXiXiXpXiXuXqXqXqXqXqXqXqXqXqXqXyXuXiXyXuXwXwXwXwXwXwXqXqXqXqXqXtXtXtXqXqXqXqXwXwXwXqX+XS.C.C.R.Z.] V.J.J.H.!.*XwXqXqX6XqXqXqXqXqXqXqXwXwXwXwXwXwXwXwXwXqXwXwXwXwXwXwXqXqXqXqXqXqXqXqXtXtXyXyXuXuXuXuXtXtXtXtXqXqXqXtXyXyXqXqXtXtXtXtXqXtXtXtXtXtXtXqXwXwXqXqXwXwXwXwX5X>X+XI.H.J.I.#.&.!.J.!.!.`.,X:XqXqXwXwXwXwXwXwXtXqXqXqXyXqXqXqXtXtXtXtXtXtXtXtXqXqXtXyXuXuXyXtXyXyXyXyXtXtXqXqXtXtXtXqXqXqXqXtXqXqXqXqXqXqXqXqXqXqXtXtXtXqXqXqXqXtXyXyXtXqXqXqX6X6XwX|.F.Z.G.H.;.5.H.F.J.J.!.5X6XqXqXqXqXqXqXqXwXwXwXwXwXwXwXtXtXuXwXwXwXtXtXtXtXtXuXuXqXqXqXqXqXqXqXqXwXuXyXiXpXiXiXiXiXiXiXuXuXyXqXqXqXqXqXqXqXqXqXwXwXwXqXqXwXwXwXwXhXqXF.k.F.OXwXwXOXF.k.a.a.&./ 3.C.r.0.Z.C.j.Z.!.k.q.q.q.0.0.9.7.7.7.3.3.3.1.&.$.+.o.o.o.' ~ ) ~ G Y ~ V Z N B M ~ #.7.%.G B v Z ( } ' / J B s 0 e b Y o.0.r.a.k.z.c.V.Z.F.H.!.!.!.!.).`.",
"+X+XOX X|.|.).~.!.!.I.H.I.F.C.a.+.Y B N ~ o.3.7.9.7.7.7.] U F ' a.j.3.] ) U L U V L ) ' ..] o.o.&.&.&.&.2.3.3.6.9.9.0.q.0.0.e.e.a.a.k.F.*XC.s.I.H.V.V.C.7.' 1.a.j.b.a.+XfXwX:X).N.~.iXiXuXuXuXuXyXuXuXuXuXqXqXqXwXwXwXeXwXwXwXwXuXuXyXyXuXuXiXiXpXpXuXuXqXqXqXqXqXqXqXqXqXuXuXiXyXyXwXwXwXwXwXwXyXyXtXtXyXyXyXyXyXyXyXtXuXtXwXqX+XS.C.M.R.c.] Z.J.J.H.!.:XwXqX6XqXqXqXqXqXqXqXwXwXwXwXwXwXwXwXwXwXwXwXwXwXwXwXwXqXqXqXqXtXtXtXtXqXqXyXyXuXuXuXuXuXuXuXuXuXuXyXyXqXqXqXqXqXyXtXtXqXqXyXyXyXtXtXtXwXwXwXwXwXwXwXwX>X6X%XI.J.F.H.#.$.H.J.~.I. XwX6XqXwXwXwXwXwXwXwXtXtXqXyXuXyXyXuXuXyXtXyXtXtXtXqXyXyXyXyXuXuXuXyXuXuXuXuXuXuXyXuXtXtXtXqXyXtXyXyXtXtXtXqXtXtXqXqXqXtXtXtXqXqXqXtXqXtXtXtXyXyXtXtX6X6XwX|.!.J.G.^.;.3.H.S.J.J.~.6X6X6XqXqXqXqXqXqXqXqXqXqXqXqXqXqXtXqXtXtXyXyXtXtXtXtXtXyXqXqXqXqXtXtXqXtXqXuXiXgXpXpXiXuXuXuXiXiXuXiXiXiXqXqXqXqXtXtXqXqXqXqXqXqXqXwXuXiXgXiXOXk.J.%XwXiXOXH.c.r.r.3.' 3.Z.a.r.!.!.k.D.^.z.q.q.0.0.9.9.7.7.7.7.3.3.1.&.$.+.+.o.o.] / ) Y F G J V G N B B ~ #.7.#.L B c H ' o.o.+.o.] ^ U h a i l ~ &.0.k.N.V.C.Z.F.H.!.!.!.!.).).",
"+X+XOX X|.|.).~.).~.!.!.F.a.$.U b F _ 1.9.r.a.q.q.0.9.7.o.Y G ) q.a.2.' ~ L G U B G ) ] ] [ o.$.+.&.&.&.2.3.3.6.9.9.0.q.0.0.e.e.a.a.k.F.%XC.z.~.!.C.V.V.3.] 1.q.z.c.N.5XfXwX=X!.Z.6XiXuXuXuXuXuXyXuXuXiXuXqXqXwXwXwXuXyXyXyXyXyXyXyXiXiXiXiXiXgXpXpXiXuXqXqXqXqXqXqXqXqXqXyXuXuXyXuXuXwXwXwXwXwXyXyXtXqXyXyXyXyXyXyXyXtXuXtXwXqX+XS.C.V.R.C.%.R.J.J.H.!.:XwXqX6XqXqXqXqXqXqXqXwXwXwXwXwXwXwXwXwXwXwXwXwXwXwXwXwXqXtXqXqXtXtXtXtXtXtXyXyXuXuXuXuXuXuXuXuXuXuXyXyXyXyXqXqXqXqXqXtXtXqXyXyXqXtXtXtXwXwXwXwXwXwXwXwX5X6X%XP.J.F.H.#.$.I.J.!.I. XwX6XwXwXwXwXwXwXwXwXtXtXqXqXqXqXuXiXkXiXyXyXtXtXqXqXyXyXyXyXuXuXuXyXuXuXuXuXuXuXyXyXtXtXtXqXyXtXyXyXtXtXtXtXtXqXqXqXqXqXtXtXqXtXtXtXqXqXtXtXyXyXtXtX6X,XwX|.J.F.F.^.;.9.R.F.J.J.).qXqX6XqXqXqXqXqXqXtXtXqXqXqXqXqXqXqXqXtXqXyXyXtXtXtXtXtXyXqXqXtXtXqXqXqXqXqXuXpXkXgXgXiXiXuXuXiXyXiXiXiXiXuXyXqXqXtXtXyXyXqXqXqXqXqXuXiXiXfXiX5XD.S.+XqXiX=X!.V.a.a.7.' 7.Z.k.a.).^.k.D.!.z.r.q.0.0.9.7.7.7.7.7.3.3.1.&.$.+.+.o.o.' / ) ~ G J J B F N B B ~ #.3.#.F B v J ' O.&.1.1.1.3.2.} ! B g i b U &.a.z.C.Z.F.H.!.!.!.!.).).",
"+X+X+XOX|.|.).~.`.P.V.k.&.P n Z +.4.a.M.z.k.a.q.q.9.5.*.] U V ) q.a.2.' ~ G F ! G G / ] ' ' ] #.+.&.;.;.3.3.6.9.9.9.0.q.0.0.e.e.a.a.k.F.%XS.C.OX|.P.J.F.7.O.7.p.c.b.!.wXuXtX*XJ.P.kXfXuXuXuXuXuXwXuXyXiXyXwXwXwXuXuXiXiXiXiXiXiXiXiXiXiXiXiXgXgXpXpXiXuXqXqXqXqXqXqXqXqXqXqXyXuXwXuXuXuXwXwXwXwXyXyXqXqXtXtXtXtXtXyXtXtXuXtXwXwX@XS.C.C.R.F.=.R.J.J.H.!.:XwXqX6XtXtXqXqXtXtXwXwXwXwXwXtXtXtXtXuXwXwXwXwXwXwXwXwXtXtXyXyXtXtXtXtXtXtXtXtXuXuXuXuXuXyXuXuXuXuXuXuXuXuXuXuXyXqXqXtXtXyXyXyXqXqXqXtXwXwXwXwXwXwXwXwX6XqX+XJ.H.F.H.$.$.!.!.!.!.OXyXqXwXwXwXwXwXwXwXwXtXtXtXqXqXqXuXiXkXiXyXyXqXqXqXqXyXyXqXqXuXuXyXyXuXuXuXuXuXuXyXyXtXyXtXqXtXtXyXyXyXyXyXyXtXtXqXqXtXtXtXtXtXtXtXyXuXyXtXtXyXyXuXuXqX6XwX XF.Z.G.^.;.y.R.F.J.P.).qXqXqXqXqXqXqXyXyXtXtXtXtXqXqXqXqXqXqXqXyXyXyXtXtXtXtXyXyXtXtXtXtXqXqXqXqXqXuXgXkXkXgXiXuXuXuXyXiXiXiXiXiXiXiXuXyXuXuXuXuXyXtXyXyXyXuXiXiXiXfXfX!.N.OXqXfXqX`.D.k.k.0.o.0.Z.V.N. X(.c.J.`.z.r.q.0.9.9.7.7.7.7.7.3.3.1.&.&.$.+.o.o._ / _ ~ L L G N Z M N N Y +.3.o.G B c B ( o.&.3.3.9.r.r.0.3.&.~ G z a z ! &.k.F.F.H.!.!.!.!.).).",
"+X+X+XOX|.|.).~.F.r.o.U U ~ &.0.c.F.M.N.z.k.a.q.9.3.=.#.Y V B ' a.j.3.] ) G G ) ~ U ) ] ] ' ' ] +.+.&.;.3.3.6.9.9.9.0.0.0.0.e.e.a.a.k.J.%XF.F.%X%X`.!.!.r.1.p.k.c.D.OXwXuXuX%XS.+XgXiXuXuXuXuXuXwXuXyXiXyXwXwXuXiXiXiXiXiXiXiXiXiXiXiXiXiXiXgXgXpXpXiXuXqXqXqXqXqXqXqXqXqXqXqXyXwXwXyXyXyXyXwXwXuXyXqXqXtXtXtXtXtXtXtXtXuXtXwXwX%XJ.Z.C.!.F.%.G.J.J.H.!.:XtXqX6XtXtXqXqXtXtXwXwXwXtXtXtXtXtXtXuXwXwXwXwXwXwXwXwXyXyXyXyXyXtXtXtXtXtXtXtXuXuXuXuXyXyXuXuXuXuXuXuXuXuXuXuXuXuXtXtXtXyXyXyXqXqXqXtXwXwXwXwXwXwXwXwX6XqX+XF.H.J.H.$.O.!.!.!.!.OXuXqXwXwXwXwXwXwXwXwXtXtXtXyXuXyXyXuXuXtXyXyXqXqXqXqXtXtXqXqXuXuXyXuXuXuXuXuXuXuXyXyXyXyXtXqXtXyXyXyXyXyXyXyXtXtXqXqXqXtXtXtXtXtXtXyXuXyXyXtXtXqXuXuXqX6XwX XH.F.C.R.&.a.!.F.J.P.).qXqXqXqXqXqXqXyXyXyXtXtXtXtXqXqXqXqXqXqXtXyXyXtXqXqXtXyXyXtXtXtXtXqXqXqXqXyXiXgXkXxXgXiXuXuXuXyXyXiXiXiXiXiXiXiXuXuXuXuXuXuXtXyXyXyXuXiXiXiXgXlX XB. X6XiXuX XJ.k.k.r.o.e.F.Z.Z.OX`.c.H.`.z.r.q.0.9.7.7.7.7.7.3.3.3.1.&.&.+.+.o.o.) ~ ) ) I L G m Z b N M U +.;.o.U G h g H ' &.2.7.0.r.r.r.a.k.7.3.] ~ B s Z } a.F.H.!.!.!.!.).).",
"@X+X+XOXoX|.~.k.&.H J o.9.k.D.F.D.F.Z.c.V.z.j.q.9.] V g c V U ] a.k.3.] / J F _  .U ` o.....` ` o.&.*.3.3.3.7.7.9.9.9.0.0.0.0.0.p.p.s.S.+XJ.!.%X:XOX'.~.s.4.k.V.c.F.:XiXiXuX).C.fXfXuXuXuXuXuXuXuXuXuXuXuXuXiXiXiXiXiXiXiXiXiXiXpXpXpXpXgXgXpXgXgXpXiXuXqXqXqXqXqXqXqXtXqXtXqXqXqXyXuXuXiXuXuXuXuXuXuXuXuXuXuXyXyXyXyXuXuXuXuXwX%XF.F.J.!.Z.o.M.C.J.H.!.>XuXtXqXtXtXtXuXtXtXtXtXqXqXqXqXqXqXyXyXyXyXyXyXuXuXuXuXyXyXyXuXuXuXuXyXuXuXuXuXyXyXuXuXyXyXuXuXqXtXtXtXyXyXyXyXuXuXuXqXyXuXuXuXuXyXyXyXyXyXyXyXtXyXyXyXqX6X+XF.!.J.H.3.&.).!.!.Y. XwXqXwXwXuXuXyXwXwXwXtXtXqXtXuXyXyXuXuXuXtXuXtXtXtXtXuXuXyXyXyXuXuXuXuXuXuXuXyXuXuXuXuXuXuXuXuXuXuXuXyXyXyXyXtXqXqXqXyXyXtXtXuXuXuXuXuXuXuXyXyXyXuXuXqX6XwX XF.Z.C.!.&.&.J.F.J.H.).qXqXqXwXwXwXwXwXwXyXyXyXyXyXtXyXyXtXtXyXyXuXuXqXqXqXqXtXtXtXtXtXtXtXtXtXtXtXuXpXgXkXpXiXuXiXiXiXiXiXiXiXiXiXiXiXuXuXuXyXuXuXyXuXuXuXuXiXiXpXgXkX6XZ.Y.qXiXuXOXI.C.C.q.&.j.H.H.`.OX`.V.F.`.z.9.e.0.0.9.9.9.9.9.3.5.2.1.&.&.+.o.} ] ! G ~ ' Y P P N b M c B U +.-.] ~ U N w 3 g ~ } 0.9.0.a.a.a.a.a.a.a.0.&.' U B J &.z.F.!.I.!.).!.",
":X@X+XOXQ.M.3.^ ^ o.e.C.F.H.!.H.C.D.Z.V.z.z.a.3.L 9 - 3 b G ~ +.a.k.3.] / J F _ U B / +.o.+.' ..$.*.3.3.3.3.7.7.9.9.9.9.0.0.0.0.p.r.a.Z.OXJ.~.:X5X+X|.~.k.8.c.C.V.J.>XpXpXuX!.!.gXfXuXuXuXuXuXuXuXuXuXuXuXiXiXpXiXiXiXiXiXiXpXpXgXfXpXpXgXgXpXfXgXpXiXuXqXqXqXqXqXqXqXqXtXtXqXqXqXyXuXuXuXiXuXuXuXuXuXuXuXuXuXuXyXyXtXtXuXuXuXwX%XF.F.F.H.V.} k.C.J.H.~.>XuXtXqXtXtXtXuXtXtXtXtXtXtXqXqXtXtXyXyXyXyXyXyXuXuXuXuXyXyXuXuXuXuXuXyXuXuXuXuXyXyXyXuXuXuXuXuXqXtXtXtXyXuXyXyXuXuXuXqXyXuXuXuXuXyXyXyXyXyXyXyXtXtXyXyXqXqX%XJ.!.J.H.3.&.).!.!.!.OXyXqXwXwXuXuXyXwXwXwXtXtXtXqXyXyXyXuXuXuXuXuXtXtXyXyXuXyXyXyXuXuXuXuXuXuXuXuXyXuXuXuXuXuXuXuXuXuXuXuXyXyXuXuXtXtXqXqXyXyXtXtXuXuXuXuXuXuXuXuXyXyXuXuXqX,XwX XF.F.C.!.2.&.F.H.J.H.).qXqXqXwXwXwXwXwXwXyXyXyXyXyXyXyXyXtXyXyXyXuXuXqXqXqXqXqXqXtXtXtXtXyXtXyXyXtXuXiXpXpXiXiXiXiXiXiXiXiXiXiXiXiXiXuXuXuXuXyXuXuXuXuXuXuXiXiXiXpXgXkXiXY.Y.6XpXgX>X).F.C.a.*.j.!.!.'.=X XZ.J.`.z.9.0.0.0.9.9.9.9.9.3.2.1.1.&.&.+.o.o.] ~ U ~ / U G J M n N v B U +.2.] ` ~ G l - + 8 G ] $.7.a.a.a.k.z.c.k.a.a.a.3.o.! B Y &.z.H.).!.!.",
":X+X|.~.e._ U o.p.S.!.!.!.^.!.I.F.J.D.V.a.3.' F i - % 9 c G ' -.a.k.3.] / J F _ B B ` %.+.&.o.%.*.*.3.3.3.3.7.7.9.9.9.9.0.0.0.0.r.0.a.C.|.J.~.:X6X%XOX`.c.0.V.S.C.I.6XkXkXiXP.+XgXgXiXuXuXuXuXuXiXuXuXuXiXiXpXpXpXiXiXiXpXpXgXkXgXgXgXgXgXgXfXfXgXpXiXuXqXqXqXqXqXqXqXqXtXtXtXtXqXyXuXuXuXuXiXuXuXuXuXuXuXuXuXuXuXuXuXuXuXwXwXwX%XJ.F.F.H.V.} k.C.J.H.~.>XuXtXqXtXyXuXuXuXuXuXuXyXyXyXyXuXuXuXuXuXuXyXyXuXuXuXuXuXuXuXuXuXuXuXuXuXuXuXuXyXyXuXuXuXuXuXuXyXyXtXyXuXuXuXuXuXuXuXuXyXyXuXuXuXuXuXyXuXuXyXyXtXtXqXqXuXuX%XP.I.F.J.3.&.!.!.!.!.OXyXqXwXwXuXuXyXwXwXwXtXyXqXqXyXyXuXuXuXuXuXuXtXtXyXyXuXuXuXuXuXuXuXuXuXuXuXuXuXyXuXuXuXuXuXuXuXuXuXuXuXuXuXuXyXtXyXyXyXtXtXtXuXuXuXuXuXuXuXuXyXuXuXuXqX,XwX XJ.F.D.!.3.2.F.J.H.H.).qXqXqXwXwXwXwXwXwXtXtXyXyXyXyXqXqXtXtXyXuXuXuXqXqXqXqXqXqXqXqXtXtXtXtXyXqXqXuXiXiXiXiXiXiXiXiXiXiXiXiXiXiXiXiXuXuXyXiXyXyXuXuXiXiXiXiXiXiXpXgXgXkX%XY.:XgXkXwX`.J.D.a.1.z.!.!.OX5XOXF.H.`.z.9.0.0.0.0.9.9.9.3.2.-.&.1.&.&.$.$.+.o.' _ ~ ~ J G J N h N B B Y $.3...` / J b w & ; i m G ' 2.a.j.k.c.N.c.c.z.V.V.c.9.$.! H Y o.k.I.!.",
"/.S.4.@.} &.e.M.J.~.!.).(.!.!.I.D.C.k.q.] U G G h > % 6 b U o.$.a.k.3.] / J F _ U J ' +.o.%.o.%.*.*.3.3.3.3.7.7.9.9.0.9.0.0.0.0.r.0.r.V.|.F.~.5X6X*XOX|.V.e.C.F.S.Y.qXkXkXiXF.6XgXgXfXiXuXuXuXuXiXuXuXiXiXpXpXgXpXiXiXpXgXkXkXkXxXgXgXgXgXgXfXfXgXpXiXuXtXqXqXqXqXqXqXqXtXtXtXtXqXyXuXuXuXuXuXuXuXuXqXqXuXuXuXuXuXuXuXuXwXwXwXwX%XJ.F.F.!.Z.o.M.C.J.H.!.>XuXtXqXtXyXuXuXuXuXuXuXyXyXyXyXuXuXuXuXuXuXyXyXuXuXuXuXuXuXuXuXuXuXuXuXyXyXuXuXuXuXuXuXuXuXuXuXyXyXyXyXuXuXuXuXuXuXuXuXuXuXuXuXuXuXuXuXuXyXyXyXtXtXtXqXuXuX%XP.H.F.J.2.$.!.I.I.!.OXyXqXwXwXuXuXyXwXwXwXyXyXqXtXuXuXuXuXuXuXuXuXtXtXtXyXuXuXuXuXuXuXuXuXuXuXuXuXyXuXuXuXuXuXuXuXuXuXuXuXuXuXuXuXyXyXyXyXyXyXtXtXuXuXuXuXuXuXuXuXyXuXuXuXqX,XwX XH.F.D.!.2.3.H.A.H.H.`.wXqXqXqXwXwXwXwXwXqXyXyXyXyXtXtXqXtXtXyXuXuXuXqXqXqXqXqXqXqXqXqXqXyXyXtXqXqXtXuXiXiXiXiXiXiXiXiXiXiXiXiXiXiXuXuXuXiXyXyXyXuXiXiXiXiXiXiXpXpXgXgXkXqXY.*XlXlXiX).D.F.a.3.z.H.H.OX5X*XJ.H.`.z.9.0.0.0.0.9.9.7.3.-.&.&.&.&.&.$.$.+.o.} ] _ U P J U Z g N B B Y $.3...' ~ G n w & 8 V ! G b V o.q.j.k.z.c.V.V.C.F.F.V.z.r.4.+./ ~ o.a.",
"O.( } 3.s.C.P.!.~.~.).).(.!.(.F.k.7.' ~ Y ~ ) o.V 3 % 3 m Y o.1.a.a.2.' / J B ( U U ] &.%.o.o.+.$.&.*.*.3.3.3.3.3.&.3.a.0.0.q.q.r.r.a.Z.OXP.'.7X6X:X+X`.k.r.C.S.N.!.%XkXbX:XP.gXbXkXgXiXiXiXiXiXiXiXpXgXiXiXpXpXpXpXpXgXkXkXkXkXgXgXgXgXpXpXpXpXgXgXiXuXyXtXtXyXtXtXtXtXqXqXqXqXyXyXuXuXuXuXuXuXuXuXuXyXuXuXuXuXuXuXuXuXwXwXwXwX*XJ.F.F.J.F.' c.F.J.J.!.>XiXuX6XtXuXuXuXuXuXuXuXuXuXuXuXuXuXuXuXuXuXuXuXuXuXyXyXuXuXuXuXuXuXuXuXyXuXuXuXuXuXuXuXuXuXuXuXuXuXuXuXuXuXuXuXuXuXuXuXuXuXuXuXuXuXuXuXuXuXuXuXuXuXyXyXuXuX%XJ.I.Z.G.2.$.I.J.P.~.+XuXuXuXwXuXuXwXwXwXwXuXuXuXuXuXuXuXuXuXuXuXuXuXiXiXuXuXyXuXuXyXyXuXuXyXyXyXyXuXuXuXuXuXuXuXuXuXuXyXyXuXuXuXuXuXuXyXuXuXyXuXuXuXuXuXyXuXuXuXuXuXuXyXuXqX,XwX|.H.F.D.(.3.3.R.R.!.!.`.qXqXwXwXwXwXwXwXwXqXuXuXuXuXyXuXuXuXuXuXuXtXtXqXqXtXtXyXyXqXqXqXqXtXtXyXqXqXuXuXiXiXiXiXiXiXuXiXiXiXiXiXiXiXiXuXuXuXuXuXuXuXuXiXiXiXiXiXiXgXgXgXkXkX).).gXyX XP.P.I.z.r.z.!.(.OX=X*XI.F.).k.0.0.0.0.0.9.9.3.5.-.&.&.&.$.$.&.&.+.o.} ] ' U U U Y G N F B B ~ &.5...` / J b 8 - g U } $.&.~ c J ] r.a.c.c.F.F.F.H.I.F.F.C.c.z.2.~ J ",
"o.4.Z.J.!.~.~.~.!.`.).).!.D.k.7.o.' / ' #.$.*.3.L 8 ; 6 b Y } &.a.a.2.' ~ G B ~ U U ' +.o.o.o.%.$.$.&.*.*.*.*.*.*.$.*.q.0.0.q.q.a.r.a.Z.%X!. X7X6X:X+X`.k.e.C.J.!.OX+XiXbX+X XbXbXkXgXiXiXiXiXiXiXiXpXpXiXiXiXiXpXpXkXkXkXkXkXkXgXgXgXgXpXpXpXpXgXpXuXuXyXtXtXyXyXyXtXtXqXqXqXqXyXyXtXyXtXuXuXuXiXiXuXuXuXuXuXuXuXuXuXuXwXwXwXwX*XJ.F.F.H.F.' N.F.J.P.~.>XiXuXqXyXuXuXuXuXuXuXuXuXuXuXuXuXuXuXuXuXuXuXuXuXuXyXyXuXuXuXuXuXuXyXyXyXuXuXuXuXuXuXuXuXuXuXuXuXuXuXuXuXyXuXuXuXuXuXuXuXuXuXuXuXuXuXuXuXuXyXuXuXuXuXuXuXuX%XJ.H.C.F.5.&.!.J.P.~.+XuXuXuXwXuXyXwXwXwXwXuXuXuXuXuXuXuXuXuXuXuXuXgXgXgXiXuXuXuXuXuXyXyXuXyXyXuXyXuXuXuXuXuXuXyXyXuXuXuXuXuXuXuXyXuXuXyXuXuXuXuXuXuXuXyXyXuXuXuXuXuXyXyXyXyXqXwX XI.F.D.!.3.3.H.H.!.!.`.qXqXwXwXwXwXwXwXwXuXuXuXuXyXyXuXuXuXuXuXuXyXyXqXqXtXtXyXyXqXqXqXqXqXyXtXtXyXuXuXiXiXiXiXiXiXiXiXiXiXiXiXiXiXiXuXiXuXuXiXiXuXuXiXiXiXiXiXiXgXgXkXkXnX>XY.<XwX*X|.).I.z.r.z.!.!.$X5X%XI.F.!.k.0.0.0.0.0.9.5.3.2.-.=.&.$.+.O.&.$.o.o.} ] ' U U U Y G N F B B ~ &.5...` / J b 8 - z ! ) 1.0.1./ b M U ] 2.a.V.J.H.H.I.!.!.!.H.~.F.z.0.",
"~.`.~.~.|.|.`.`.~.'.).I.z.1.#.o.3.3.7.7.q.7.3.2.~ d 6 8 M Y ' +.0.r.1.] ( F B ~ U U ' o...] o.#.#.&.$.&.*.*.*.*.&.#.$.0.q.q.q.q.a.u.a.Z.>X`.OX6X6X>X%X`.k.8.C.I. X>X:XkXbX XqXmXbXkXgXiXpXpXpXiXgXgXiXiXiXpXgXgXpXkXkXkXkXkXkXkXgXgXgXgXpXpXpXpXiXiXuXuXtXtXyXyXyXyXyXyXqXyXtXtXtXtXtXtXyXtXyXuXiXiXuXuXuXuXuXuXuXuXuXuXuXwXwXuX*XJ.F.F.I.Z._ V.J.H.I.).>XiXuXqXyXuXuXuXuXuXyXyXuXuXuXuXuXuXuXuXuXuXuXuXuXuXuXyXuXyXyXuXuXuXuXuXuXuXuXuXuXuXuXuXuXuXuXuXuXuXuXuXuXuXuXuXuXuXyXyXyXuXuXuXuXuXuXuXuXuXuXuXuXyXuXuXuXuX%XJ.J.C.F.3.2.~.P.P.~.+XiXiXuXuXuXyXwXwXwXwXuXuXuXuXuXuXuXuXuXuXuXuXgXkXgXiXuXuXuXuXuXuXuXuXuXuXuXuXuXuXuXuXuXuXuXuXuXuXuXuXuXuXuXuXuXuXuXuXyXyXuXuXuXuXyXuXuXuXuXuXuXuXyXyXyXqXuX X!.F.C.!.2.2.F.F.I.I.).qXwXwXwXwXwXwXwXwXuXuXuXuXuXuXuXuXuXuXuXuXuXuXuXuXuXuXuXyXtXtXtXtXqXyXuXuXuXuXiXiXiXiXiXiXpXpXpXpXiXiXiXiXiXiXiXiXiXiXiXiXuXuXiXiXgXgXgXgXgXgXkXkXbXkX.X,XkXwX*X XI.z.r.z.H.^.$X7X%X!.H.!.k.r.r.0.0.0.9.5.5.-.&.&.$.+.o.O.$.+.o.o.o.] ' Y U U Y J N F B C ~ &.5...` / J b 8 ; c ~ G ] 1.7.&.' +.~ U ! o.4.k.H.I.H.!.!.!.!.!.!.~.H.",
"|.|.~. X X|.`.`.|. X).C.o.&.a.k.k.c.z.j.a.3.$.#.' c 9 9 M U ' o.9.0.1.] ~ F N ! U U /  .' ' ..%.#.#.$.$.&.&.*.&.*.$.*.q.q.q.q.q.a.u.a.Z.6X XOX6X6X>X%X`.s.4.C.!. X*XuXmXbXqXkXnXbXkXkXpXpXpXpXpXgXgXiXiXiXpXgXgXgXkXkXkXkXkXkXkXgXgXgXgXpXpXpXuXuXuXuXuXtXyXyXuXyXyXyXtXqXyXqXqXtXtXtXyXyXyXyXyXuXuXuXuXuXuXuXuXuXuXuXuXuXwXwXuX*XJ.F.F.!.C./ C.J.P.I.`.>XiXuXtXyXuXuXuXuXuXuXyXuXuXuXuXuXuXuXuXuXuXuXuXuXuXuXyXyXyXyXyXuXuXuXuXuXuXuXuXuXuXuXuXuXuXuXuXuXuXuXuXuXuXuXuXuXuXyXyXyXuXuXuXuXuXuXuXuXuXuXuXuXuXyXuXuXuX%XJ.J.V.F.7.3.).P.P.~.+XiXiXuXuXuXyXwXwXwXwXuXuXuXuXuXuXuXuXuXuXuXuXuXiXiXuXuXuXuXuXuXuXuXuXuXuXuXuXuXuXuXuXuXuXuXuXuXuXuXuXuXuXuXuXuXuXuXuXyXyXuXuXuXuXyXuXuXuXuXuXuXuXuXuXyXqXyX X!.F.C.!.2.2.F.F.I.I.).qXwXwXwXwXwXwXwXwXuXuXuXuXuXuXuXuXuXuXuXuXuXuXuXuXuXuXuXyXtXtXtXtXqXqXyXyXuXuXuXuXiXiXiXiXpXpXpXpXiXiXiXiXiXiXiXiXiXiXpXiXuXiXiXiXpXpXgXgXgXgXkXkXmXnXiXiXnXgX6X+XI.z.0.z.J.!.*XqX=X'.!.`.k.r.r.0.0.0.9.3.2.-.=.%.+.o.o.+.+.o.o.} o.] ' Y U U Y J B F B C ~ &.5...` / J v 8 ; M _ P ! ' 2.&.&.e.9.7.r.7.} +.c.!.I.!.!.!.!.!.!.!.!.",
"|.|.|. XOXOX`. X).~.).B.0.D.I.F.Z.Z.V.k.a.2.1.&.+.Z i 3 i U ' } a.0.&.] ~ Z M Y ~ ~ _ o.} ] ] o.#.#.$.=.=.=.&.&.&.&.&.0.e.e.0.0.u.u.a.H.7XOX+X6X6X>X+X~.a.e.P.|. X>XkXmXmXyXbXmXbXxXkXgXgXgXgXgXpXpXpXpXpXpXpXpXgXgXkXkXkXgXgXgXgXgXgXpXpXiXiXuXuXuXuXuXuXyXuXiXiXuXyXqXyXyXtXtXuXuXuXuXuXuXuXyXuXuXuXuXuXuXuXuXuXuXuXuXuXwXwXyX:XP.F.F.J.C.' C.J.I.I.`.>XiXuXtXuXuXuXuXuXuXuXuXuXuXuXuXuXuXuXuXuXuXuXuXuXuXuXuXuXuXuXuXuXuXuXuXuXuXuXuXuXuXuXuXuXuXuXuXuXuXuXuXuXuXuXuXuXuXuXuXuXuXuXuXuXuXuXuXuXuXuXuXuXuXuXuXuXuX+X!.I.J.!.q.7.).P.P.~.$XiXyXuXuXuXuXuXuXuXuXuXuXuXuXuXuXuXuXuXuXuXuXuXuXuXuXuXuXuXuXuXuXuXuXuXuXuXuXuXuXuXuXuXuXuXuXuXuXuXuXuXuXuXuXuXuXuXuXyXyXyXyXuXuXuXuXuXuXyXyXyXyXuXuXiXyXuX XI.I.C.^.0.&.F.F.I.I.).qXwXwXwXwXuXuXuXuXuXuXuXuXuXuXuXuXuXyXuXuXuXuXuXuXuXuXuXuXyXyXuXuXuXyXyXqXyXuXuXuXuXiXiXiXiXpXpXpXpXpXiXiXiXiXiXiXiXiXiXiXiXiXpXpXpXgXpXpXkXkXkXkXbXmXkXkXbXgXqX>X|.C.e.p.C.F.OXwX%X~.|.~.k.r.q.0.0.9.7.7.3.*.$.#.#.o.o.o.+.o.o.] / ^ _ Y U U U B B C M C ~ &.3...' ~ J M 0 1 n / +.] o.+.&.3.a.a.d.V.F.V.&.0.Z.a.H./.!.`.!.!.`. X",
"OXOXOX'.|.`.I.J.k.F.`.I.C.!.!.F.F.F.C.z.a.r.3.o.Z i % X 8 F ' o.a.r.&.' ~ F B ~ ~ _ ' ' ' ' ) ' #.#.$.$.$.$.&.&.&.&.&.0.e.e.0.0.u.u.a.H.wXOX X>X6X>X+X!.s.k.~.`. X>XkXmXmXyXxXmXbXkXkXkXgXgXgXgXpXpXpXpXpXpXpXpXgXgXgXkXgXgXgXgXgXgXpXiXiXiXuXuXuXuXuXuXuXuXuXpXkXiXuXuXuXyXtXtXuXuXuXuXuXuXuXuXuXuXuXuXuXuXuXuXuXuXuXuXuXwXwXyX:XP.F.F.I.F.} F.H.I.I.`.>XiXuXtXuXuXuXuXuXuXuXuXuXuXuXuXuXuXuXuXuXuXuXuXuXuXuXuXuXuXuXuXuXuXuXuXuXuXuXuXuXuXuXuXuXuXuXuXuXuXuXuXuXuXuXuXuXuXuXuXuXuXuXuXuXuXuXuXuXuXuXuXuXuXuXuXuXuX+X!.P.J.!.9.7.).P.P.~.$XyXiXuXuXuXuXuXuXuXuXuXuXuXuXuXuXuXuXuXuXuXuXuXuXuXuXuXuXuXuXuXuXuXuXuXuXuXuXuXuXuXuXuXuXuXuXuXuXuXuXuXuXuXuXuXuXuXuXyXyXyXyXuXuXuXuXuXuXyXyXyXyXuXuXiXyXuX XI.I.C.^.a.3.F.F.I.I.).qXwXwXwXwXuXuXuXuXuXuXuXuXuXuXuXuXuXyXuXyXuXuXuXuXuXuXyXuXuXuXiXiXuXuXuXyXqXyXuXuXuXuXuXiXiXiXpXpXpXpXpXiXiXiXiXiXiXiXiXiXiXpXpXpXpXpXpXpXkXkXkXkXmXmXkXbXmXkXqX>X XC.0.a.V.V.`.6X%X`.OX`.k.r.q.0.0.9.7.7.*.&.$.$.#.+.o.o.] ] ' ' ^ ^ _ ! U J G B M B M C ( &.3...' ~ Z d - % 1 e ~ 2.7.&.2.3.0.9.a.c.F.!.V.C.F.a.3.M.H.`.'.'.'.'.",
"OX+X+X|.P.s.e.a.a.F.|.).!.).(.J.F.J.Z.z.k.7.! a % - 3 3 i Z ~ } k.r.&.' Y G B U U U ~ ' _ _ / ) +.+.o.o.#.&.&.&.&.&.&.0.0.e.0.0.u.u.j.H.>X X X>X6X>X+X!.k.z.!.~. X5XkXmXmXtXsXnXbXkXkXkXgXgXgXgXpXpXpXpXpXpXgXgXgXgXgXgXgXgXgXgXgXgXiXiXiXuXuXuXuXuXuXuXuXuXuXpXkXiXuXuXuXuXuXuXuXuXuXuXuXuXuXuXuXuXuXuXuXuXuXuXuXuXuXiXyXuXuXiX>XI.J.F.!.F.} F.I.!.!.`.5XfXtXtXuXuXuXuXuXuXuXuXuXuXuXuXiXiXuXuXuXuXuXuXiXiXiXiXiXiXiXiXuXuXuXuXuXuXuXuXuXuXuXuXuXuXuXuXuXuXuXuXuXuXuXuXuXuXuXuXuXuXuXuXuXuXuXuXuXuXuXuXuXuXuXuXuXuX+X!.J.F.H.1.7.~.J.P.~.$XyXyXuXuXuXuXuXuXuXuXuXuXuXuXuXuXuXuXuXuXuXuXuXuXuXuXuXuXuXuXuXuXuXuXuXuXuXuXuXuXuXuXuXuXuXuXuXuXuXuXuXuXuXuXuXuXuXuXyXyXyXyXuXuXuXuXuXuXyXyXiXiXiXiXiXyXuX XI.I.Z.^.a.0.F.A.!.I.).qXuXuXuXuXuXuXuXuXuXuXuXuXuXuXuXuXuXuXyXuXuXuXuXuXuXuXuXuXuXuXiXiXuXuXuXqXqXyXuXuXuXuXuXuXiXiXiXpXpXpXpXpXiXpXpXpXiXiXiXiXfXfXpXpXgXgXgXgXkXkXkXkXmXmXkXbXmXpX6X>XOXS.e.s.C.Z.'.7X*X`. XI.k.a.a.q.0.0.9.7.&.$.&.$.#.#.o.o.' ' ' ) _ ' _ ! U F B M m B v B ~ &.3...` / F s - % X - 3 Z o.0.3.9.0.7.a.V.F.H.F.!.!.!.r.&.<.k.H.!.'.`.",
"|.|.P.k.O.1.C.!.P.`.|.|.).).).!.J.F.C.k.o.h 3 4 s b M h z J ~ ] z.a.&./ Y F c M h a n U _ ' ' ) +.o.o.} o.o.+.$.&.&.&.0.0.e.0.0.u.u.j.H.!.).+X5X6X>X+X!.c.a.J.~. X>XkXmXbXqXsXnXbXxXkXkXgXgXgXgXpXpXpXpXpXpXgXgXgXgXgXgXgXgXgXgXgXiXiXuXuXuXuXuXuXuXuXuXuXyXuXuXiXiXuXuXyXuXuXuXuXuXuXuXuXuXuXuXuXuXuXuXuXuXuXuXiXiXiXiXiXuXuXiX>XI.J.F.I.F.} F.!.!.~.|.5XfXtXuXuXuXuXuXuXuXuXuXuXuXuXuXuXuXuXuXuXuXiXiXiXiXiXiXiXiXiXiXiXuXuXuXuXuXuXuXuXuXuXuXuXuXuXuXuXuXuXuXuXuXuXuXuXuXuXuXuXuXuXuXuXuXuXuXuXuXuXuXuXuXuXuXuXuX+X!.F.F.J.$.7.!.J.P.~.$XyXyXuXuXuXuXuXuXuXuXuXuXuXuXuXuXuXuXuXuXuXuXuXuXuXuXuXuXuXiXuXuXuXuXuXuXuXuXuXuXuXuXuXuXuXuXuXuXuXuXuXuXuXuXuXuXuXuXyXyXyXyXuXuXuXuXuXuXiXiXyXiXiXiXiXyXuX XI.I.Z.^.3.9.F.Z.!.P.).qXuXuXuXuXuXuXuXuXuXuXuXuXuXuXuXuXuXuXuXuXuXuXuXuXuXuXuXyXtXtXuXuXuXuXtXqXyXyXuXuXuXyXyXyXuXiXiXiXpXpXpXpXpXpXpXpXiXiXiXiXpXfXpXpXgXgXgXgXkXkXkXkXmXbXiXbXmXpX>X>XOXS.e.s.F.!.*X5X:X`.).V.k.a.a.q.0.9.9.3.$.$.&.&.&.#.+.o.] ' ' ' / ^ ' Y J N B c c M c M ~ &.3...~ ` U z i i i d 8 3 a ~ 7.e.a.a.a.V.F.F.F.!.`. X'.F.k.o.~ 1.V.!.",
"~.c.&.<.M.P. XOX X X X`.|.).).~.F.V.3.F 3 3 N _ U N M z n F ~ +.C.k.+._ U B h b h h M J Y U Y } &.o.] o.o.+.+.$.&.&.&.7.0.0.q.u.u.u.a.c.p.!.>X6X6X>X%X`.k.0.J.@X:X>XiXmXxX,XMXmXbXxXkXkXkXgXgXgXkXgXgXgXgXgXgXgXgXgXgXgXgXgXpXiXuXiXuXuXiXiXuXuXuXuXuXuXuXyXuXuXuXuXuXuXuXuXiXiXuXuXuXuXuXuXuXuXuXuXuXuXuXuXuXuXiXiXiXiXiXyXiXiX:XP.J.J.I.z._ F.I.!.!.|.>XuXiXuXuXuXuXuXuXuXuXuXuXuXuXuXuXuXuXuXuXuXuXuXiXiXiXiXiXiXiXiXuXuXuXuXiXiXiXiXiXiXiXiXiXiXiXiXuXuXuXuXiXiXiXiXuXuXuXuXuXuXuXuXuXuXuXuXuXuXuXuXuXuXuXuXyXyX@X~.!.J.H.+.7.).P.I.~.%XiXiXuXuXuXuXuXuXuXuXuXuXuXuXuXuXuXiXuXuXuXuXuXuXuXuXuXuXuXuXuXuXuXuXuXuXuXuXuXuXuXuXiXiXiXiXiXiXiXiXiXiXiXiXiXiXiXiXuXuXyXyXyXyXuXuXiXiXiXiXiXiXgXpXiXiXyX XI.F.Z.!.5.3.Z.F.!.P.).qXuXyXyXyXuXuXuXuXuXuXuXuXuXuXuXuXuXuXuXuXuXuXuXuXuXuXuXuXuXtXuXuXtXtXtXqXyXyXuXuXuXyXqXqXqXtXuXiXpXpXpXpXpXpXpXpXfXfXgXgXpXpXpXpXgXgXgXkXkXkXkXbXmXbXyXMXmXiX,X>XOXP.p.s.I. X*X6X6X XC.0.e.a.q.0.0.9.7.3.2.&.&.*.&.#.+.o.] ] ' ' / ' ~ Z s d g s e s z n Y &.3.#.' ~ F M d g n Z ! Z i 3 n O.s.C.V.V.J.H.H.!.`.`.OXOX'.H.k.&._ &.",
"<.4.P.'.|. XOX+X X X|.|.).).Y.F.r.} h e J o.1.o.U B M z n F ~ +.C.a.o.~ P B h n n N J ! U U U ' o.} ] } o.+.+.$.&.&.&.7.0.0.q.u.u.u.a.C.F.|.>X6X6X>X%X`.k.r.P.@X:X>XpXmXbX%XxXcXbXxXkXkXkXgXgXgXkXkXkXkXgXgXgXgXgXgXgXgXgXpXpXiXuXuXuXuXiXuXuXuXuXuXuXuXuXuXuXuXuXuXuXuXuXuXiXiXuXuXuXuXuXuXuXuXuXuXuXuXuXuXuXuXiXiXiXiXiXyXyXiX:XP.F.J.!.C.' F.P.!.!.|.>XuXiXuXuXuXuXuXuXuXuXuXuXuXuXuXiXuXuXuXuXuXuXuXiXiXiXiXiXiXiXiXuXuXuXuXiXiXiXiXiXiXiXiXiXiXiXiXuXuXuXuXiXiXiXiXuXuXuXuXuXuXuXuXuXuXiXuXuXuXuXuXuXuXuXuXyXuX+X~.!.J.H.+.7.).P.I.~.%XiXiXuXuXuXuXuXuXuXuXuXuXuXuXuXuXiXuXuXuXuXuXuXuXuXuXuXuXuXuXuXuXuXuXuXuXuXuXuXuXuXuXiXiXiXiXiXiXiXiXiXiXiXiXiXiXiXiXuXuXyXyXyXyXuXuXiXiXiXiXiXgXkXgXiXiXyX XI.F.Z.!.6.3.Z.F.!.P.~.qXyXuXyXyXuXuXuXuXuXuXuXuXuXuXuXuXuXuXuXuXuXuXuXuXuXuXuXuXuXuXuXuXtXtXqXtXqXqXuXuXuXuXyXqXqXqXuXuXiXpXpXpXpXpXpXpXfXfXgXgXpXpXpXpXgXgXgXkXkXkXkXbXmXxXtXpXnXiX6X6X+X!.a.z.!. X=X6XwXOXC.k.a.r.q.0.0.9.7.3.*.$.&.$.$.$.#.#.o.] ] ' ' ' ~ B h z h s e s z z U &.3.o.` E F M d h M U ! ' ' G e e Y e.C.H.J.F.H.!.).`. XOXOXOX XI.a.o.",
"!.`. X+XOXOX X X X X`.`.).H.r.1.P G ' &.3.0.$.o.U N M z z G ~ o.C.a.} Y G M d h z F ~ / ~ / / ' } } o.o.o.+.+.$.$.O.$.3.0.0.q.q.u.u.a.J.|.%X6XqX6X>X%X`.k.s.~.@X:X,XiXmXbX1XdXcXbXxXkXkXkXkXgXgXgXgXkXkXgXgXgXgXgXgXgXgXpXpXiXiXuXuXuXuXuXuXuXiXiXiXiXuXuXuXuXuXuXuXuXuXuXuXuXuXuXuXuXuXuXuXuXuXuXuXuXuXuXuXuXuXiXiXiXiXiXiXiXiX:XP.P.J.!.F.} F.P.!.!.|.>XiXiXuXuXuXuXuXuXuXuXuXuXuXuXuXuXuXuXuXiXiXiXiXiXiXiXiXiXiXiXiXiXiXiXiXiXiXiXiXiXiXiXiXiXiXiXiXiXiXiXiXiXiXiXiXuXuXuXuXuXuXuXuXuXuXuXuXuXuXuXuXuXuXuXuXyXwX+X~.!.J.H.+.7.).P.I.~.%XiXiXuXuXuXuXuXuXuXuXuXuXuXuXuXuXuXuXuXiXuXuXuXuXuXuXuXuXuXuXuXuXuXuXiXiXiXiXuXuXuXuXiXiXiXiXiXiXiXiXiXiXiXiXiXiXiXiXuXuXuXyXyXyXuXuXiXiXiXiXiXgXkXgXiXiXyX XI.F.D.!.9.5.F.J.!.P.).wXyXyXyXyXuXuXuXuXuXuXuXuXuXuXuXuXuXuXuXuXuXuXuXuXuXuXuXuXuXuXuXuXtXtXyXyXqXyXuXuXuXuXuXtXyXyXuXuXuXiXpXpXpXpXpXpXpXpXgXgXpXpXpXpXgXkXkXkXkXkXbXbXbXxXtXpXnXiXqXqX%X!.a.c.!. X=X6XqX%X!.'.s.r.9.0.0.0.7.3.&.#.+.#.&.#.+.o.] ' ' ` ' _ ~ F B B c g e d z z U +.3...~ U Z M d h M U ^ } &.<._ c 7 s } a.J.J.H.!.).`. X X X X+X X XP.",
"%X+X X%X X X X X X X`.`.F.0.} _ 1.9.9.3.4.3.o.~ U N M z z Z ~ o.C.a.] U F M s h c G ~ ~ ~ / ~ ~ / _ ' ] o.+.+.$.O.O.o.3.0.0.q.q.u.u.a.!.%X*XqXwX6X5X%X`.k.k.~.@X:X,XiXmXxX,XMXmXbXbXbXkXkXkXgXgXgXgXgXkXgXgXgXgXgXgXpXpXpXiXiXuXuXuXuXuXuXuXiXiXiXiXiXiXuXuXyXyXuXuXuXuXiXiXuXuXuXuXuXuXuXuXuXuXuXuXuXuXuXuXuXuXiXiXiXiXiXiXiXiX:XP.J.J.).J.$.J.P.!.!.|.>XiXuXuXuXuXuXuXuXuXuXuXuXuXuXuXiXuXuXuXiXiXiXiXiXiXiXiXiXiXiXiXiXiXiXiXiXiXiXiXiXiXiXiXiXiXiXiXiXiXiXiXiXiXiXiXuXuXuXuXuXuXuXuXuXuXuXiXuXuXuXuXuXuXuXuXyXwX+X~.!.J.H.+.7.).P.I.~.%XiXiXuXuXuXuXuXuXuXuXuXuXuXuXuXuXuXuXiXiXuXuXuXiXuXiXuXuXuXuXuXuXuXuXiXiXiXiXuXuXuXuXiXiXiXiXiXiXiXiXiXiXiXiXiXiXiXiXuXuXuXyXyXyXuXuXiXiXiXiXyXpXpXpXiXiXyX XI.F.D.!.0.9.F.H.!.P.).wXiXyXyXyXuXuXuXuXuXuXuXuXuXuXuXuXuXuXuXuXuXuXuXuXuXuXuXuXuXuXuXuXyXyXyXyXuXuXpXgXiXuXtXqXuXuXuXuXuXuXiXpXpXpXpXpXpXpXgXgXpXpXpXpXgXkXkXkXkXkXbXbXbXbXpXcXmXpXwXqX+X!.a.z.!. X=X6X6XOXP.OXz.r.9.9.0.0.9.3.$.o.o.o.o.o.o.] ' ` / ~ ( ~ ~ U P F M h e d z z P o.-...Y U Z v g h c G ! ^ O.1.3.<.~ s 8 Z 1.N.H.!.).`. X X X XOXOXOX X",
"+XOX+XOX X X XOX`. XI.z.#.o.r.N.N.k.0.3.2.o.} ~ P M 8 i s c P ' F.s.} U Z b i k b J ~ ! Y Y Y ~ ~ ~ ` ] +.+.+.+.+.o.o.3.9.9.0.q.q.q.r.I.$X).6XwX6X5X%X`.k.k./.@X%X6XgXmXMXsXbXmXbXbXbXkXkXkXkXgXkXkXkXkXkXkXkXkXkXgXpXiXiXiXiXiXiXiXiXyXyXiXiXiXiXiXiXiXuXuXuXuXuXuXuXuXiXuXuXuXuXuXuXuXuXuXuXuXuXuXuXuXuXuXuXuXiXiXiXiXiXiXiXfX:XI.I.I.!.!.$.Z.P.Y.!.`.6XgXuXuXuXuXuXuXuXuXuXuXiXiXiXiXiXiXiXiXiXiXiXiXiXiXiXiXiXiXiXiXiXiXiXiXiXiXiXiXiXiXiXiXiXiXiXiXiXiXiXiXiXiXiXuXiXiXiXiXiXiXiXiXiXiXiXiXiXiXiXiXuXuXuXuXyXwX%X`.Y.!.H.&.3.!.J.P.~.%XpXiXiXiXiXiXiXiXiXiXiXiXiXiXiXiXiXiXiXiXiXiXiXiXiXiXiXiXiXiXiXiXiXiXiXiXiXiXiXiXiXiXiXiXiXiXiXiXiXiXiXiXiXiXiXiXiXiXiXiXiXiXiXiXiXiXiXiXiXiXuXuXyXyXiXyXpXOXI.I.J.!.0.0.F.F.!.J.).wXiXyXyXyXyXyXyXyXuXuXuXuXuXuXuXuXuXuXuXuXuXuXuXuXuXuXuXuXuXuXuXuXyXyXuXuXuXuXiXkXiXuXuXtXuXyXyXuXuXuXiXiXpXfXpXpXpXpXpXpXpXpXpXpXpXgXkXkXxXxXbXMXmXmXxXvXmXkXiX6X%X`.a.c.!. X*X5X6X%XI. Xk.a.q.0.r.0.9.3.&.o.} o.....] ' ] ' ~ U Z U ~ ~ U G M g e i g z P o.-...G F B v 8 3 i B P Q } 3.0.0.0.3.~ B B _ 4.C.).).|.OX X XOXOX+X+X",
"+X+X+X X X X X X`.J.r.$.8.F.!.J.S.c.r.3.&.} _ U c : % 8 s c H _ Z.p._ G B h 0 f n F Y Y U Y ! ~ ` / ` '  .o.o.o.o.+.o.3.9.9.9.0.q.q.q.P.+X).6X6X6X5X%X`.M.k.~.OX:X6XgXmXcXkXMXmXbXbXbXkXkXkXkXgXkXkXkXkXkXkXkXkXgXpXiXiXuXiXiXiXiXiXyXyXiXiXiXiXiXiXiXiXiXiXuXuXuXuXuXuXuXuXuXuXuXuXuXuXuXuXuXuXuXuXuXuXuXuXuXuXiXiXiXiXiXiXiXiX:XI.I.I.!.I.$.C.P.Y.!.`.6XgXyXuXuXuXuXuXuXuXuXuXiXiXiXiXiXiXiXiXiXiXiXiXiXiXiXiXiXiXiXiXiXiXiXiXiXiXiXiXiXiXiXiXiXiXiXiXiXiXiXiXiXiXiXuXiXiXiXiXiXiXiXiXiXiXiXiXiXiXiXiXuXuXuXyXyXeX$X~.Y.Y.H.*.3.!.J.P.~.:XpXiXiXiXiXiXiXiXiXiXiXiXiXiXiXiXiXiXiXiXiXiXiXiXiXiXiXiXiXiXiXiXiXiXiXiXiXiXiXiXiXiXiXiXiXiXiXiXiXiXiXiXiXiXiXiXiXiXiXiXiXiXiXiXiXiXiXiXiXiXiXiXyXyXiXyXpX+XI.H.J.!.9.0.J.F.P.J.`.wXiXyXyXuXuXyXyXuXuXuXuXuXuXuXuXuXuXuXuXuXuXuXuXuXuXuXuXuXuXuXuXuXuXuXuXuXuXuXiXiXiXiXuXuXyXyXyXuXuXuXiXiXiXpXpXpXpXpXpXpXgXpXpXpXgXgXsXkXxXxXbXMXmXmXxXcXmXxXiX6X*X`.a.c.!. X*X5X6X%XI. Xk.a.q.0.0.0.9.3.O.} ] } ..' ' ' ~ ~ E U ~ / _ ~ U G M g e p l l Z ] =.[ S V N c % X 1 s M U ' } 1.7.q.a.z.r.3.' H O.z.~.`. X X XOXOX+X+X",
"+X+XOX XOXOX).J.0.0.q.c.(.'.(.!.J.M.0.2.o.] P g - : e d g M Z ^ k.8.! C v d 3 8 h B U U P U ~ ) ' ' ' ' ] ]  .o.o.#.+.2.7.9.9.0.q.q.q.H. X~.6X6X5X:X%X`.C.s.P.OX>XqXgXmXmXxXbXmXcXbXbXkXkXkXkXgXpXkXkXkXkXkXkXkXiXiXiXiXiXiXiXiXiXyXyXiXiXiXiXiXiXiXiXiXpXiXiXiXuXuXuXuXuXuXuXuXuXuXuXuXuXuXuXuXuXuXuXuXuXuXuXuXiXiXiXiXiXiXiXfX:XI.I.I.!.!.$.Z.P.Y.!.`.6XgXyXuXuXuXuXuXuXuXuXuXiXiXiXiXiXiXiXiXiXiXiXiXiXiXiXiXiXiXiXiXiXiXiXiXiXiXiXiXiXiXiXiXiXiXiXiXiXiXiXiXpXiXiXiXiXiXiXiXiXiXiXiXiXiXiXiXiXiXiXiXiXiXiXiXeXyX$XY.Y.P.J.3.2.!.F.J.~.:XpXiXiXiXiXiXiXiXiXiXiXiXiXiXiXiXiXiXiXiXiXiXiXiXiXiXiXiXiXiXiXiXiXiXiXiXiXiXiXiXiXiXiXiXiXiXiXiXiXiXiXiXiXiXiXiXiXiXiXiXiXiXiXiXiXiXiXiXiXiXiXiXiXiXpXyXpX+XH.J.F.H.3.0.H.F.F.J. XwXiXyXyXuXyXuXyXyXuXuXuXuXuXuXuXuXuXuXuXuXiXiXiXiXuXuXuXuXuXuXuXuXuXuXiXiXiXuXuXyXuXiXiXuXuXyXyXuXuXuXuXuXuXiXpXpXpXpXgXgXgXgXkXkXgXkXkXxXxXbXMXcXmXmXxXcXmXxXiX6X*X`.a.c.!.OX*X7X6X%XI. Xs.r.0.9.8.0.7.2.+.} ' ] ] ' ' ` ' ' ' ' ] ' _ ~ J Z b s 8 e d l B ' $.' V V M n 8 ; - % 9 B _ o.&.3.q.a.c.N.Z.V.r.&.$.3.k.P. X X X+X+X+X",
"OXOX X X XI.3.U } D.).U.`.`.U.J.F.z.7.&./ N 7 - 1 c Z z l M Z ! e.1.Q C b a : 6 d B J G G U ~ ' ' o.+.+.o. . .o.o.#.#.*.7.9.9.9.q.q.q.F. X~.6X6X5X:X+X`.c.p.P.%X6XyXkXmXmXxXmXmXcXbXbXkXkXkXkXkXpXkXkXgXgXgXkXkXiXuXiXiXiXiXuXuXyXyXiXiXiXiXiXiXuXiXiXpXgXgXpXiXiXiXiXiXuXuXuXuXuXuXuXuXuXuXuXuXuXuXuXuXuXiXiXuXiXiXiXiXiXiXiXfX:XI.I.I.!.!.$.Z.I.Y.!.`.6XgXyXuXuXuXuXuXuXuXuXuXiXiXiXiXiXiXiXiXiXiXiXiXiXiXiXiXiXiXiXiXiXiXiXiXiXiXiXiXiXiXiXiXiXiXiXiXiXiXiXiXpXiXiXiXiXiXiXiXiXiXiXiXiXiXiXiXiXiXiXiXiXiXiXiXwXyX+XT.Y.J.J.7.2.!.F.J.~.:XpXuXiXiXiXiXiXiXiXiXiXiXiXiXiXiXiXiXiXiXiXiXiXiXiXiXiXiXiXiXiXiXiXiXiXiXiXiXiXiXiXiXiXiXiXiXiXiXiXiXiXiXiXiXiXiXiXiXiXiXiXiXiXiXiXiXiXiXiXiXiXiXpXpXpXyXpX+XH.J.D.H.2.0.!.F.S.J. XwXiXyXuXuXyXyXyXyXuXuXuXuXuXuXuXuXuXuXiXiXiXiXiXiXiXuXuXuXuXuXuXuXuXuXiXpXiXuXuXqXqXuXiXiXuXtXyXuXuXuXuXuXuXuXpXpXpXpXgXgXkXkXkXkXgXkXkXxXxXbXMXcXmXmXxXMXmXxXyX6X*X`.a.c.!.OX*X7X6X%XI. Xa.r.9.9.9.9.7.1.o.] ' ' ] ' ` ` ..] ' ' / ~ ~ U Z N z i 7 8 e d M ) &.[ S V N c i s i 3 - 3 h U *.3.9.q.k.C.V.C.F.S.N._ h _ k.U. X+X.X.X",
" X X X~.r.! U 1.0.`.OX`.'.`.(.H.V.9.$.! i - 3 c L G H B M B H _ 0.&.U B b f 3 4 i n Z F G L Y ] o.+.+.+.%.%.+.+.} o.#.&.7.9.9.0.9.9.0.F.+X).6X6X5X:X%X`.C.r.~.:X6XuXkXmXmXxXmXmXbXbXbXkXkXkXkXkXxXkXkXgXpXgXpXiXuXiXiXiXiXiXuXuXyXiXiXiXiXiXiXyXuXiXgXgXkXkXkXpXiXiXiXiXiXiXiXiXuXiXuXuXiXiXiXiXiXiXiXiXuXuXuXuXiXiXiXiXiXiXfXfX:XY.I.Y.`.!.$.C.I.Y.!.|.6XgXuXuXiXiXiXiXiXiXiXiXiXiXiXiXiXiXiXiXiXiXiXiXiXiXiXiXiXiXiXiXiXiXiXiXiXiXiXiXiXiXiXiXiXiXiXiXiXiXiXiXiXiXiXiXiXiXiXiXiXiXiXiXiXiXiXiXiXiXiXiXiXiXiXiXeXyX%XZ.P.P.I.0.3.!.P.P.~.:XpXiXiXiXiXiXiXiXiXiXiXiXiXiXiXiXiXiXiXiXiXiXiXiXiXiXiXiXiXiXiXiXiXiXiXiXiXiXiXiXiXiXiXiXiXiXiXiXiXiXiXiXiXiXiXuXuXuXiXiXiXiXiXiXiXiXiXuXiXiXiXiXpXpXpXiXyXOXI.J.D._.2.0.J.F.H.H. XwXiXyXyXyXyXyXyXyXuXuXuXuXuXuXuXuXuXuXuXiXiXiXiXuXuXiXiXuXuXuXtXtXiXgXkXgXiXiXuXyXuXuXuXiXuXuXuXuXuXuXuXuXuXiXiXpXpXpXgXgXkXkXgXgXkXkXkXxXxXxXbXcXmXmXxXmXmXxXyX,X*X!.r.k.!. X%X*X6X X!.$XN.r.0.9.9.7.3.*.o.' ' ' ] o.o...o. ./ E Y U U Z N n i 3 - < 7 e c Y #.[ L B M v g h B V g 3 : 0 k ~ 9.a.a.z.C.C.F.F.J.N.&.P M $.U.OX%XOX",
" X).k.{ v } F.I.z.`. X'.OX`.H.V.r.o.M 3 3 M ! ' ~ ! ! Z B C G ! 8.$.U C h 4 % = 3 a b B B G E ] %.+.&.&.&.&.&.&.o.o.+.&.9.9.9.0.9.9.0.F.%X`.5X5X5X:X%X`.C.r.~.:X6XuXkXmXcXkXmXmXcXbXbXkXkXkXkXkXxXkXkXgXpXpXiXiXiXiXiXiXiXiXiXiXiXpXiXiXiXyXyXyXuXiXiXgXkXkXkXgXgXpXiXiXiXiXiXiXuXuXuXuXiXiXiXiXiXiXiXiXiXiXiXiXiXiXiXiXiXiXfXfX:XY.I.I.`.!.$.C.I.Y.!.|.6XgXuXuXiXiXiXiXiXiXiXiXiXiXiXiXiXiXiXiXiXiXiXiXiXiXiXiXiXiXiXiXiXiXiXiXiXiXiXiXpXpXiXiXiXiXiXiXiXiXiXiXiXiXiXiXiXiXiXiXiXiXiXiXiXiXiXiXiXiXiXiXiXiXiXiXyXyX%XZ.P.P.I.0.3.!.P.P.~.@XpXuXiXiXiXiXiXiXiXiXiXiXiXiXiXiXiXiXiXiXiXiXiXiXiXiXiXiXiXiXiXiXiXiXiXiXiXiXiXiXiXiXiXiXiXiXiXiXiXiXiXiXpXiXiXiXiXiXiXiXiXiXiXiXiXiXpXiXiXiXiXiXpXpXpXiXyXOXI.H.D.(.2.0.J.F.H.H. XwXiXyXyXyXyXyXyXyXuXuXuXuXiXuXuXuXuXuXuXiXiXiXuXuXuXiXiXiXpXiXuXuXiXgXgXpXiXiXuXuXuXuXuXuXuXiXuXuXuXuXuXtXuXiXiXpXpXpXpXgXgXkXgXkXkXkXxXxXxXxXbXcXmXmXxXmXmXxXyX,X*X!.r.k.!.OX*X>XqX X!.7XN.r.0.9.9.7.3.*.] ' ' ' ..o.o... .' ~ Y U Z M h i 8 3 - O % ; ; e G [ ` L N M v n h S U ~ E G s 4 i B +.a.C.C.N.J.F.J.N.N.N.0.U Y q.D.I.",
"Z.} M P 8.J.`.).H.).'.'.`.!.j.2.J i 8 B ] 1.&.$._ ~ ! Z M B H ) 3.O.P B h 3 3 y h n h a Z U ~ ' o.#.%.$.&.&.&.&.o.#.#.$.7.0.9.0.0.0.0.F.*X`.5X5X5X:X+X`.V.e.~.:X6XyXkXmXbXkXmXmXcXbXbXkXkXkXkXkXxXkXkXgXpXiXiXpXiXiXiXiXiXiXiXgXgXgXpXiXyXyXyXiXiXiXiXiXgXkXkXkXkXgXpXpXiXiXiXiXuXuXuXuXiXiXiXiXiXiXiXiXiXiXiXiXiXiXiXiXiXiXfXfX>XI.I.I.`.!.$.C.I.Y.!.|.,XpXuXuXiXiXiXiXiXiXiXiXiXiXiXiXiXiXiXiXiXiXiXiXiXiXiXiXiXiXiXiXiXiXiXiXiXiXiXiXpXpXpXiXiXiXiXiXiXiXiXpXiXiXiXiXiXiXiXiXiXiXiXiXiXiXiXiXiXiXiXiXiXiXiXiXyXyX%XZ.P.P.P.8.3.!.P.P.~.:XpXuXiXiXiXiXiXiXiXiXiXiXiXiXiXiXiXiXiXiXiXiXiXiXiXiXiXiXiXiXiXiXiXiXiXiXiXiXiXiXiXiXiXiXiXiXiXiXiXpXiXiXiXiXiXiXiXiXiXiXiXiXiXiXiXiXgXgXpXiXiXiXpXpXpXiXyX+XI.H.G._.3.a.H.J.H.H.|.uXiXyXyXyXyXyXyXyXiXiXiXiXuXuXuXuXuXuXuXiXiXiXiXiXiXiXpXiXpXpXpXpXiXgXpXiXuXuXuXuXuXuXuXuXuXiXiXiXiXiXuXuXuXiXiXiXpXpXpXgXgXkXkXkXkXkXxXxXxXxXbXcXmXbXkXmXmXxXyX,X*X!.r.k.).OX*X>XqX$X!.'.c.r.9.9.9.7.7.*.' ' ' ' ..o.o. .' ' ~ ~ ! G z c g e 0 0 3 7 7 1 7 B ` ` L B M m h g S E ` #.%...U h 0 g ' r.V.H.J.J.H.D.D.J.U.F.*.B 8 ~ ",
"$.0.N.P.Z.~. X).I.(.`.`.H.a.~ d 8 F &.a.a.a.8.&.~ U P M z B P { 1.o.P B m N n B N S B M U ~ ' ' ~ ~ ` ..o.+.=.=.#.#.o.$.7.0.9.0.0.9.0.F.$X).6X6X5X:X+X`.C.e.~.:X6XuXkXmXbXkXmXmXcXMXbXkXkXkXkXkXxXkXkXgXiXiXpXpXpXiXiXiXiXiXgXgXgXpXiXyXyXyXiXiXiXiXiXiXuXpXgXgXkXkXpXpXiXiXiXiXuXuXuXuXiXiXiXiXiXiXiXiXiXiXiXiXiXiXiXiXiXiXfXfX>XI.I.I.).!.$.C.I.Y.!.|.6XpXuXuXiXiXiXiXiXiXiXiXiXiXiXiXiXiXiXiXiXiXiXiXiXiXiXiXiXiXiXiXiXiXiXiXiXiXiXiXpXpXpXiXiXiXpXpXiXiXiXpXiXiXiXiXiXiXiXiXiXiXiXiXiXiXiXiXiXiXiXiXiXiXiXiXyXyX%XZ.P.P.P.0.3.!.P.P.~.;XpXuXiXiXiXiXiXiXiXiXiXiXiXiXiXiXiXiXiXiXiXiXiXiXiXiXiXiXiXiXiXiXiXiXiXiXiXiXiXiXiXiXiXiXiXiXiXiXiXpXiXiXiXiXiXiXiXiXiXiXiXiXiXiXiXiXbXkXpXiXiXiXiXiXpXiXyX+XI.H.G._.3.a.Q.H.H.H.|.uXiXyXyXyXyXyXyXyXiXiXiXiXuXuXuXuXuXuXuXiXiXiXiXiXiXiXiXiXiXpXgXkXpXpXiXuXuXuXuXuXuXuXuXuXuXuXiXiXpXpXiXiXuXuXpXiXiXpXpXpXgXgXkXkXkXkXkXxXxXxXbXMXmXcXkXbXmXkXyX>X%X!.r.k.`.OX*X5X6X=XH.a.c.0.9.9.7.7.7.*.[ ' ' ' ..o.o. . .' ' / ' ! G Y U C B Z Z H Z z i G ] ' L B M m s h G I E #.&.&.-.#.~ b i G 2.N.H.J.I.D.N.F.(._.(.c.' m ",
"`.`. XOX!.!.`.`.H.F.H.V.c.U u J 2.a.N.z.a.a.3.1.} U c 9 9 M P ' 1.] U J F Z B B Z J F Z ! P ' ' ~ Y Y ~ ' o.#.#.=.&.o.$.7.9.9.9.0.8.0.J.*X:XwX6X5X:X%X`.C.0.~.:X6XtXkXmXbXpXmXmXmXcXbXbXbXbXxXxXkXkXkXgXpXpXgXpXpXiXiXiXiXpXgXgXgXiXuXuXuXuXiXiXiXiXiXiXiXiXiXgXgXkXgXpXpXiXiXiXiXiXiXiXiXiXiXiXiXiXiXiXiXiXiXiXiXiXiXiXiXiXiXgX>XI.I.I.).J.$.Z.I.!.!.`.6XgXiXiXiXiXiXiXiXiXiXiXiXiXpXpXpXpXpXiXiXiXiXiXpXpXiXiXiXiXpXpXiXiXiXpXpXpXiXiXiXiXiXiXiXiXiXiXiXiXgXpXpXpXpXpXiXiXiXiXiXiXiXiXiXiXiXiXiXiXiXiXiXiXiXiXyXiX%X~.P.P.P.a.7.!.J.I.~.:XpXuXiXiXiXiXiXiXiXiXpXpXpXpXiXiXiXiXpXpXpXpXiXiXiXiXiXiXpXiXiXiXiXiXiXiXiXiXiXiXpXpXpXpXpXpXiXpXiXiXiXiXiXiXiXiXiXiXiXiXiXiXiXiXpXpXgXgXgXgXgXpXpXiXpXiXyXOXI.I.D.!.3.a.H.H.P.P.|.uXiXiXiXiXiXiXiXiXiXiXiXiXiXiXiXiXiXiXiXiXiXiXiXiXaXaXiXuXiXiXpXpXgXpXuXuXuXiXiXiXiXuXuXuXuXuXiXiXpXpXpXpXyXuXiXpXpXpXpXgXgXkXkXkXsXsXkXxXbXbXbXbXmXbXiXmXmXkXyX>X%X!.7.z.).OX:X>X6X6X!.z.z.0.9.3.7.3.3.&.] ' ' ' o.] ] ] ' ' ' ' ' ^ Q ! ! ( ^ _ ' ! H C C U _ _ ' L C g 8 d N I ` X.%.-.=.-.5.&.~ B b ] c.J.U.N.F.I.(.(.).(.!.C.",
"OXOX+X$X'.).`.).J.J.c.&./ ~ &.Z.H.F.C.z.a.a.3.o./ h 1 % 7 z G _ 1.} _ ' / Y P U ' ] ' ' +._ o.} ) ~ ~ ~ ' ] o.o.$.$.o.$.7.9.9.9.0.8.0.F.>X5X6X5X5X:X%X`.C.9.!.:X6XtXkXmXbXpXmXmXmXmXbXbXbXbXxXxXxXkXkXkXgXgXkXgXpXpXpXpXpXgXgXpXiXuXuXuXuXiXiXiXiXiXiXiXiXiXiXpXpXkXkXpXpXpXiXiXiXiXiXiXiXiXiXiXiXiXiXiXiXiXiXiXiXiXiXiXiXiXiXgX>XI.I.I.).J.$.Z.I.!.!.`.6XgXiXiXiXiXiXiXiXiXiXiXiXiXpXiXpXpXiXiXiXiXiXiXpXpXiXiXiXiXpXpXiXiXiXiXpXpXiXiXiXiXpXpXiXiXiXiXiXiXgXgXpXpXpXpXiXiXiXiXiXiXpXpXiXiXiXiXiXiXiXiXiXiXiXiXyXiX%X~.P.P.J.0.9.!.H.P.~.:XpXuXiXiXiXiXiXiXiXiXpXpXpXpXiXiXiXiXpXpXpXpXiXpXiXiXiXiXpXpXiXiXiXiXiXiXiXiXiXiXpXpXpXpXpXpXiXpXiXiXiXiXpXpXiXiXiXiXiXiXiXiXiXiXiXiXgXgXgXgXiXiXiXiXpXiXyXOXH.H.D.!.5.a.H.J.P.P.|.uXiXiXiXiXiXiXiXiXiXiXiXiXiXiXiXiXiXiXiXiXiXiXiXiXaXaXiXiXiXpXpXpXpXpXiXuXuXiXiXiXiXuXuXuXuXuXiXiXpXpXpXpXiXiXiXpXpXgXgXkXkXkXxXxXxXxXbXMXbXbXbXbXmXbXiXmXmXkXyX>X%X!.7.z.).OX:X>X6X6X`.I.z.0.9.3.3.3.3.$.] ' ] ' ' ' ) ~ ~ ~ ~ ~ _ Q O.} } } } } o.' ! U U ( ' _ ' U M 9 % 3 l B E ` #.-.5.5.9.y.y.;.' L F a.H.J.D.J.H.J.).).'.'.",
"%X%X%X$XOX X'.J.C.F.C.' &.Z.H.!.J.Z.N.z.a.r.3.' b 3 X + : s Z _ o.] ] o.o.' ~ ] &.+.o.&.9.] ] } ' ' ' ' ' o.o.] &.&.] #.7.9.9.9.0.8.7.F.%X6X5X5X5X=X+X).V.7.!.%X6XtXkXmXbXiXMXmXmXmXmXbXbXbXbXbXxXxXkXkXkXkXsXsXkXgXgXgXgXgXpXiXuXuXiXiXiXiXiXiXiXiXiXiXiXiXiXiXpXkXkXkXgXgXpXiXiXiXiXiXiXiXiXiXiXiXiXiXiXiXiXiXiXiXiXiXiXiXiXpX>XI.I.I.).J.$.F.I.!.!.|.6XgXiXiXiXiXiXiXiXiXiXiXiXiXiXiXiXiXiXiXiXiXiXiXiXiXiXiXiXiXpXpXiXiXiXiXpXiXiXiXiXiXpXpXiXiXiXpXgXgXgXgXpXpXpXpXiXiXiXiXiXpXpXpXpXiXiXiXiXiXiXiXiXiXiXiXyXiX%XY.Y.Y.J.3.r.(.H.P.~.:XpXiXiXiXiXiXiXiXiXiXiXiXiXiXiXiXiXiXpXpXpXpXpXpXpXpXiXpXpXpXiXiXiXiXiXiXiXiXiXiXiXpXpXpXpXpXpXpXpXpXpXpXiXpXpXiXiXiXiXiXiXiXiXiXiXiXiXiXiXiXiXiXiXiXpXiXyXOXJ.J.C.H.2.u.J.F.P.P.|.iXiXiXiXiXiXiXiXiXiXiXiXiXiXiXiXiXiXiXiXiXiXiXiXiXiXiXpXpXpXpXpXiXiXiXiXiXiXiXiXiXiXiXiXiXuXuXiXiXiXpXpXpXgXpXpXgXpXsXkXxXkXxXMXMXMXMXbXmXmXmXmXmXmXbXyXbXmXkXyX>X%X!.4.k.).OX*X>X6X6X).(.z.0.7.3.3.3.2.$.' ....' ) ' ' ~ ~ ~ ~ ~ _ ! 1.1.<.<.&.$.o.} _ ! ( ( ' ~ ~ I n 3 . O < a B ~ o.=.5.9.y.u.u.d.d.3.E &.c.a.D.H.!.H.(.).`.`.",
"%X$XOX X`.`.J.7.2.H.!.a.A././.H.Z.C.c.z.r.3.] c 4 ; - - 1 s m P ~ ' ' / o.' ' &.2.&.&.2.0._ ~ ' ' ] o.o.o.#.#.o.#.#.] #.3.9.9.9.0.8.7.F.+X>X5X5X5X=XOX!.M.3.I.%X6XtXkXmXbXyXxXmXmXmXmXmXmXbXbXbXxXxXxXkXsXsXsXsXkXkXkXkXgXpXiXyXuXiXiXiXiXiXiXiXiXiXiXiXiXiXiXiXiXgXkXkXkXkXgXgXpXpXpXiXiXiXiXiXiXiXiXiXiXiXiXiXiXiXiXiXiXiXiXpX>XI.I.I.).J.$.F.I.!.!.`.6XgXiXuXiXiXiXiXiXiXiXiXiXiXiXiXiXiXiXiXiXiXiXiXiXiXiXiXiXiXiXpXiXiXiXiXpXiXiXiXiXiXiXpXiXiXiXiXkXkXgXgXpXpXpXpXiXiXiXiXiXiXpXpXpXiXiXiXiXiXiXiXiXiXiXiXyXiX%XY.Y.~.J.&.a.`.H.P.~.:XpXiXiXiXiXiXiXiXiXiXiXiXiXiXiXiXiXiXpXpXpXpXpXpXpXpXiXiXpXpXpXiXiXiXiXiXiXiXiXiXpXpXpXpXpXpXpXpXpXpXpXpXpXpXpXiXiXiXiXiXiXiXiXiXiXiXiXiXiXiXiXiXiXiXiXiXyX XJ.J.C.H.-.0.J.F.P.P.|.iXiXiXiXiXiXiXiXiXiXiXiXiXiXiXiXiXiXiXiXiXiXiXiXiXpXaXpXgXpXpXiXiXiXiXiXiXiXiXiXiXiXiXiXiXuXuXiXiXiXpXpXgXgXpXpXgXpXsXkXxXkXxXMXMXcXcXmXmXmXmXmXmXmXbXqXkXmXkXyX<X%X!.7.z.).OX*X>XqX5X(.!.z.0.7.3.2.3.*.&.' ..o.' ' o.o.' ~ / / / _ ^ 1.3.3.1.1.&.o.} _ ^ ~ ( _ ! F S c 3 O   # t w J ' ' %.;.i.y.d.l.v.v.k.C.z.' ] q.J.!.U.).'.'.",
" XOX'. XJ.r./ ~ a.J.!.F.!.!.!.H.F.C.N.a.7.~ a 7 e e 8 3 0 4 f G ) ' ) ) ] o.o.3.9.2.o.2.a.~ b ~ o.#.#.#.$.$.#.o.} o.~ #.3.9.9.9.9.0.9.k.+X5X5X5X5X=XOX!.c.3.P.%X:X6XsXbXbX3XpXmXmXmXbXmXmXmXmXmXMXMXbXxXkXsXsXsXkXkXkXkXgXpXiXyXiXiXiXiXiXiXiXiXiXiXiXiXiXiXiXiXfXfXfXfXgXkXgXgXgXpXpXpXiXiXiXiXiXiXiXiXiXiXiXiXiXiXpXiXiXiXiXiX>XI.J.J.!.F.4.P.P.!.!.OX6XgXiXuXiXiXpXpXpXpXiXiXiXiXiXiXgXgXgXgXpXpXpXiXiXiXiXiXiXiXiXiXiXiXpXiXiXiXiXiXgXgXgXpXpXpXpXpXkXkXgXgXpXpXpXpXpXpXpXpXpXpXpXpXgXgXgXgXpXpXpXiXiXiXiXiXpXyX%XY.Y.P.J.1.q.^.J.J.~.:XgXiXpXpXgXgXiXiXiXiXiXiXiXiXpXpXpXpXpXpXpXpXpXpXpXpXpXpXpXpXpXpXpXpXgXpXgXpXpXpXpXpXpXpXpXpXpXpXpXpXpXpXiXiXpXiXiXiXgXpXpXpXiXiXpXpXiXiXiXiXiXpXiXiXiXiXiX XJ.F.Z.J.3.0.J.F.P.P.|.iXiXiXiXiXiXiXiXiXiXiXiXiXiXiXiXiXpXpXpXiXiXiXpXpXpXpXpXpXpXpXiXiXiXiXiXiXiXiXiXiXiXiXiXiXiXiXiXiXpXpXpXpXgXgXgXgXsXkXkXkXxXxXbXMXMXmXmXmXmXgXpXbXnXbXqXiXmXpX>X%XOXP.3.k.).OX*X>X6X>X!.Y.z.7.7.3.3.3.2.&.` ] ..` ] ..' ' ' ' ' / { ! ' 4.3.1.1.*.&.o.o.] ' ^ _ U N B M p 1 & t < * 8 B ] &.+.5.y.v.v.V.G.!.^.H.a.Y V o.c.J.'.`.`.",
"`.`.(.a.Y m ~ r.M.P.!.H.!.^.!.J.F.z.a.&.F 8 a B B n i 4 % : d U ~ ' ' ] o.#.+.3.9.2.o.3.r.Z h ~ +.#.#.&.$.$.#.o.] o.~ #.3.7.7.9.7.8.8.c.+X5X5X5X5X=XOX!.C.4.P.|.+X:XiXnXyX.X<XqXqX<X,XiXmXmXmXmXmXMXMXxXxXkXsXsXkXkXkXkXgXpXiXiXiXiXiXiXiXiXiXiXiXiXiXiXiXiXiXiXfXfXfXfXgXgXkXgXgXgXgXpXiXiXiXiXiXiXiXiXiXiXiXiXiXiXiXiXiXiXiXiX>XI.J.J.).H.9.Y.P.!.!.OX6XgXiXuXiXiXpXiXpXpXiXiXiXiXiXiXgXgXgXgXpXpXpXiXiXiXiXiXiXiXiXiXiXiXpXpXiXiXiXiXgXgXpXpXgXgXpXgXgXkXgXpXpXpXpXpXpXpXpXpXpXgXgXpXgXgXpXgXpXpXpXiXiXiXiXiXpXyX$XY.P.P.J.2.q.(.J.J.~.:XgXiXpXpXgXgXiXiXiXiXiXiXiXiXpXpXpXpXpXpXpXpXpXpXpXpXpXpXpXpXpXpXpXpXgXgXpXpXpXpXpXpXpXpXpXpXpXpXpXpXpXpXiXiXpXiXiXiXgXpXpXpXiXpXpXpXiXiXiXiXpXpXiXiXiXiXiX XI.J.J.!.0.u.H.J.P.P.|.iXiXiXiXiXiXiXiXiXiXiXiXiXiXiXiXiXiXiXpXiXiXiXiXiXpXjXpXpXiXiXiXuXiXiXiXiXiXiXiXiXiXiXiXiXiXiXiXiXpXpXpXpXpXkXkXkXkXxXkXkXxXxXbXMXmXmXmXMXuX,X;X<XuX,X+XuXgX6X%X X XP.4.k.~.OX%X>X>X*X!.!.z.7.7.3.3.3.2.&./ ' ' / ] ..' ] ' ' ' ' _ Q ! 1.3.3.1.*.$.#.o.} ] _ ' Y b n h i q q x H C a - i J &.-.5.a.z.C.F.!.^.!.!.C.o.V J $.k.!.!.",
"`.N.] Z P &.c.J.J.!.`.!.`.`.!.F.V.a.o.a 3 b ~ _ U N i 4 % > h U ~ [ o.#.#.$.#.5.0.3.+.3.r.M h / #.+.#.$.$.$.#.o.] o.~ #.3.7.7.9.3.9.8.M.+X5X5X5X5X=XOX!.C.0.H.`.$X:XyXlX>XY.XX.XXX X;XqXpXmXmXmXmXmXcXbXxXxXkXsXkXkXkXkXgXpXiXiXiXiXiXiXiXiXiXiXiXiXiXiXiXiXiXiXiXiXiXpXgXpXgXkXkXkXgXgXiXiXiXiXiXiXiXiXiXiXiXiXiXiXiXiXpXpXiXiX>XI.H.H.`.H.9.I.P.!.!.OXqXgXiXyXiXiXiXiXpXpXpXpXiXiXiXiXgXgXgXgXiXpXiXiXiXiXiXiXpXgXgXgXiXiXiXiXgXgXpXpXpXpXpXpXgXgXpXpXgXgXkXpXpXpXpXpXpXpXpXpXpXpXpXpXpXpXpXpXiXpXiXiXiXiXiXiXpXiX+XY.J.P.H.3.a.`.H.P.~.:XgXpXpXpXgXgXiXiXiXiXiXiXiXiXpXpXpXpXpXpXpXpXpXpXpXpXpXpXpXpXpXpXpXpXpXpXpXpXpXpXpXpXpXpXpXpXpXpXpXpXgXgXgXiXpXpXgXgXpXpXpXpXpXpXpXpXiXiXiXiXpXpXgXiXiXpXpX XI.I.H.(.0.u.I.J.P.P.|.iXiXiXiXiXiXiXiXiXiXiXiXiXiXiXiXiXiXpXiXiXiXiXiXpXkXgXpXuXiXiXiXiXiXiXiXiXiXiXiXiXiXiXiXiXiXiXiXiXpXpXpXpXpXgXxXkXkXkXxXxXbXbXMXcXmXmXbXpX;X1X.X.X~.~.~.qXiX,X+X X).J.4.k.!.|.+X*X*X*X!.!.z.7.7.3.3.3.2.&.~ ' ' ~ ' ] ' ] ] ] ' ' ~ U L *.3.3.1.*.$.#.o.] ] _ ' U n f i e i e n H Y ' N 0 ; g / 3.a.k.D.H.!.(.(.(.U.U.q.' M B / a.",
"1.P ! 3.C.F.I.I.!.`.'.`.`.`.!.Z.3.U 8 a / $.+._ Y B d 0 3 8 m Y ' o.#.#.&.&.#.3.q.3.$.3.a.B B ' #.+.#.$.$.$.#.o.] o.~ #.3.7.7.9.2.9.8.C.+X:X5X5X5X=XOX!.c.0.!.`.+X%X6XwX.XT.XX;XpXsXiXyXyXpXmXmXmXmXcXMXbXxXkXkXkXkXkXsXgXpXiXiXiXiXpXiXiXiXiXiXiXiXiXiXiXiXiXiXiXiXiXpXgXgXgXgXkXkXkXgXpXiXiXiXiXiXiXiXiXiXiXiXiXiXiXiXpXpXiXiX>XI.H.H.(.J.7.H.P.!.!.OX6XgXiXyXiXiXiXiXpXpXpXpXiXiXiXiXfXgXgXgXiXiXiXiXiXiXiXiXpXgXgXgXiXiXiXiXgXgXpXpXpXpXpXpXpXpXpXpXpXpXgXpXpXpXpXpXpXpXpXpXpXpXpXpXpXpXpXpXiXiXiXiXiXiXiXiXpXiX+XY.F.J.H.3.a.`.I.I.).:XgXpXpXpXgXgXpXiXiXiXiXiXiXiXpXpXpXpXpXpXpXpXpXpXpXpXpXpXpXpXpXpXpXpXpXpXpXpXpXpXpXpXpXpXpXpXpXpXpXpXgXgXpXiXpXgXgXgXpXpXpXpXpXpXpXpXiXiXiXiXpXpXgXiXiXpXiX XJ.J.J.(.3.0.J.F.I.P. XiXiXiXiXiXiXiXiXiXiXiXiXiXiXiXiXiXiXiXiXiXiXiXpXgXkXgXiXuXiXiXiXiXiXiXiXiXiXiXiXiXiXiXiXiXiXiXiXiXpXpXpXpXpXpXsXxXxXxXxXbXbXxXMXcXmXMXpX,XqXtXyXuXuXqX.X:X6X:X X|.).I.0.z.~. X%X:X*X*X).`.k.3.4.2.3.3.*.#.~ ' ' ~ ' ] ' o.o.] ] ' ~ P Z $.1.3.3.1.%.#.+.o.] ' ' Y n 9 8 e i e n F ~ ` ] ~ h ; ; B &.r.C.F.!.(.(.(.).).(.J.a.' M h ",
"H 1.C.J.!.).`.`.`.H.`. XOX~.V.o.h 3 J #.9.3.$.] U M s i i d Z ~ o.#.#.#.&.&.=.3.q.3.#.3.u.b I o.+.+.%.&.=.&.&.o.' ] / #.3.7.7.9.3.3.r.F.+X>X5X5X>X=XOXH.M.0.!. X%X*X:X:X+X<XyXsXmXmXcXxXyXBXpXmXmXmXcXxXxXbXkXlXkXkXkXkXpXpXpXpXpXpXpXpXiXiXiXiXpXpXpXiXiXiXiXiXpXpXpXpXpXpXpXgXgXkXkXkXgXpXiXiXiXiXiXiXiXiXiXiXpXpXpXiXiXiXiXiX<XY.P.I.`.H.3.!.H.!.!. XqXkXiXyXiXpXpXgXpXiXiXiXgXgXiXiXpXpXpXpXpXpXpXpXpXpXpXpXpXpXpXpXpXpXpXpXpXpXpXpXpXpXpXpXpXpXpXpXpXpXpXpXpXpXkXkXpXpXpXpXpXpXpXpXpXpXpXpXpXpXpXpXpXpXpXpXpXiX+X~.J.Y.H.0.a.(.J.I.).%XpXiXgXgXgXgXiXpXpXpXpXpXpXpXgXgXgXgXpXpXpXpXpXpXpXpXpXpXpXpXpXpXpXpXpXpXpXpXpXpXpXpXpXpXpXpXpXpXpXpXpXpXpXpXpXpXpXpXpXpXpXpXpXpXpXpXpXpXpXpXiXpXpXkXpXpXiX XI.H.J.(.3.9.J.F.I.P. XiXiXiXiXiXiXiXiXiXiXiXiXpXpXpXiXiXiXiXpXiXiXfXgXgXpXiXiXiXiXiXiXiXiXiXiXiXiXiXiXiXiXiXiXiXkXkXgXgXpXpXpXpXpXpXsXxXxXbXMXMXbXbXbXmXbXiXqXtXkXsXsXbXmXxXtX:X+X@X+X|.|.J.e.e.H. X%X%X>X%X).).k.3.3.2.3.3.*.#.~ / ) ~ ' ' ] o.o.o.] ] ' L V &.3.2.7.*.$.#.o.o.' ' ' ' c 0 8 s s s b J Y / o.=.$.Y i ; 8 ) q.J.H.I.!.!.!.!.`.`.!.J.a.] ",
"J.I.).).`.`.'.'.`.`.OX`.!.9.F 4 c o.0.q.9.7.$.] U M s i h b U ' o.+.+.#.=.&.=.3.q.3.#.3.0.n I o.o.o.%.%.&.$.%.o.' ] ~ #.3.7.7.9.3.3.r.F.+X:X7X7X=X%X`.J.M.8.P.OX:X>X6X6XwXpXbXmXvXmXmXmXcXyXtXsXmXmXnXcXcXxXxXlXkXkXkXgXgXgXgXgXpXiXiXpXiXiXiXiXiXpXiXpXiXiXiXiXpXpXpXpXpXgXpXpXgXgXkXkXgXgXpXiXiXiXiXiXiXiXiXiXpXiXpXiXiXiXiXiX<XY.H.H.`.H.3.Q.R.!.!. XqXkXiXyXiXpXpXgXpXiXiXiXgXgXpXpXpXpXpXpXpXpXpXpXpXpXpXpXpXpXpXpXpXpXpXpXpXpXpXpXpXpXpXpXpXpXpXpXpXpXpXpXpXkXkXkXpXpXpXpXpXpXpXpXpXpXpXpXpXpXpXpXpXpXpXpXpXiXOX~.J.I.H.7.a.(.J.!.).%XpXiXgXgXgXgXiXiXpXpXpXpXpXpXgXgXgXgXpXpXpXpXpXpXpXpXpXpXpXpXpXpXpXpXpXpXpXpXpXpXpXpXpXpXpXpXpXpXpXpXpXpXpXpXpXpXpXpXpXpXpXpXpXpXpXpXpXpXpXpXiXpXpXkXpXpXiX XI.H.J.(.9.w.R.H.I.J. XiXiXiXiXiXiXiXiXiXiXiXiXiXpXpXiXiXiXiXpXpXfXgXkXgXpXiXiXiXiXiXiXiXiXiXiXiXiXiXiXiXiXiXiXpXgXgXgXgXpXpXpXpXpXgXkXxXxXbXMXcXbXcXmXbXiXtXuXgXcXcXcXcXbXkXuXqX5X5X:X@XOX!.a.e.J.'.%X%X=X%X).`.k.3.3.1.3.3.*.#.~ / ) / ' ] } } o.] [ ' ~ G V *.*.*.3.$.#.o.o.] ' ' ' ' M 0 8 e p p b J ~ ' o.&.3.3.&.~ 9 8 B 7.J.!.J.U.).!.!.!.`.).!.J.",
"|.`.).`.'.'.'.'.'.`.!.c.] b Y &.a.V.c.j.9.3.$.] U M s i N B Y ] o.o.+.+.=.=.=.3.q.7.#.3.9.k I o.o.o.+.%.&.&.#...' ] ~ +.3.7.7.7.3.3.r.J.%X>X7X6X*X'.!.S.z.9.C.!.oXOXOXOX*XqXiXpXbXmXvXvXmXxXtXBXpXmXmXnXbXcXbXxXkXkXkXgXkXkXkXkXgXpXiXpXpXpXpXpXiXiXiXiXiXiXiXiXpXpXpXgXgXpXpXpXpXgXgXkXkXgXgXpXpXpXpXpXiXpXpXpXiXpXiXiXiXiXiXiX>XY.P.I.!.R.;.R.!.!.!. XwXkXiXuXiXpXpXgXgXgXgXgXgXgXgXgXpXpXpXpXpXpXpXpXpXpXpXpXgXgXgXgXgXgXgXgXpXpXpXpXpXpXpXpXpXpXpXpXpXpXgXgXkXkXkXpXpXpXpXpXpXpXpXpXpXpXpXpXpXpXpXpXpXpXpXpXpXiX$X~.J.U.H.9.a.(.J.I.).%XgXgXgXgXgXgXpXpXpXpXpXpXpXpXgXgXgXgXpXpXpXpXpXpXpXpXpXpXpXpXpXpXpXpXpXpXpXpXpXpXpXpXpXpXpXpXpXpXpXpXpXpXpXpXpXpXpXpXpXpXpXpXpXpXpXpXpXpXpXpXpXpXpXkXpXpXiX+XI.H.J.(.9.u.!.!.!.J. XfXiXiXiXiXiXiXiXiXiXiXiXiXpXiXiXiXiXiXpXpXgXgXgXpXpXpXiXiXiXiXiXiXiXiXiXiXiXiXiXiXpXpXpXiXiXpXgXgXgXgXpXpXpXgXkXxXxXbXMXbXmXmXbXiXqXuXkXcXmXmXvXxXyX>X%X:X+X X`.`.!.J.p.e.Z.).OX%X*XOX). Xk.3.3.1.3.-.*.#.~ ~ ) ~ ' ] o.} ] ] ' ' ~ F B #.#.$.3.$.o.o.] ' ' ' ' ' F i 8 e p i c G ~ ' %.;.9.0.a.u.7.I i c +.7.z.F.~.).!.!.!.`.`.).",
" X X X`.'.'.'.'.!.a._ z F 2.S.A.C.V.z.z.9.3.$.] U M s i B Z Y ] o.o.+.+.=.=.=.3.q.7.+.3.5.h J o.o.o.o.+.%.&.+.] ' ' ~ o.2.3.3.7.4.4.r.J.%X>X7X6XOX!.J.C.a.0.k.c.Z.Z.F.F.F.'.*X*XyXcXmXcXmXmXsXtX3XkXmXmXnXbXcXbXkXkXkXkXkXkXkXkXkXgXpXpXpXpXpXpXiXiXiXiXiXiXiXiXpXpXpXkXkXpXpXiXpXpXgXgXkXkXgXgXgXpXpXpXpXpXpXpXiXiXiXiXiXiXiXiX>XI.P.I.!.R.&.R.!.!.!. XqXkXiXuXiXpXpXgXgXgXgXgXgXgXgXgXpXgXpXpXpXpXpXpXpXpXpXpXgXgXgXgXgXgXgXgXpXpXpXpXpXpXpXpXpXpXpXpXpXpXpXgXkXkXpXpXpXpXpXpXpXpXpXpXpXpXpXpXpXpXpXpXpXpXpXpXpXiX$X~.H.U.H.9.a.(.J.!.).%XpXpXgXgXgXgXpXpXpXpXpXpXpXpXgXgXgXgXpXpXpXpXpXpXpXpXpXpXpXpXpXpXpXpXpXpXpXpXpXpXpXpXpXpXpXpXpXpXpXpXpXpXpXpXpXpXpXpXpXpXpXpXpXpXpXpXpXpXpXpXpXpXpXkXpXpXiX XI.H.J.(.9.w.R.H.I.J. XfXiXiXiXiXiXiXiXiXiXiXiXpXpXiXiXiXiXpXpXpXgXgXiXiXiXpXiXiXiXiXiXiXiXiXiXiXiXiXiXiXpXpXpXiXiXiXpXgXgXgXpXpXpXgXkXxXxXbXbXbXmXmXkX<XtXgXcXcXcXmXMXiX+X~.T.P.S.M.k.z.z.M.0.8.z.H. XOX%XOX). Xa.2.2.&.*.*.&.o.! ~ ) ~ ] } } ' ] ' ` ` ) V c ' ' o.*.$.o.] ' ~ _ _ ' ' Y d e i i e n G / ] +.2.2.9.a.k.k.a.&.Y g n ] k.P.I.!.!.!.!.).`.",
" X`.`.`. X'.`.N.' 8 d o.z.A.R.J.D.V.z.a.q.3.&.' P M s s B V Y ' o.o.o.o.&.%.$.;.a.7.+.3.-.d S ..o.o.o.o.#.&.+.] ) / I ] 2.3.3.7.3.3.r.J.*X>X7X*X'.!.Z.k.a.a.k.c.V.C.Z.F.F. X*X%X%XpXmXmXmXmXmXsXyX3XsXnXmXmXbXxXkXkXkXkXkXkXkXkXkXkXkXpXpXpXpXpXgXgXgXgXpXpXpXpXpXpXpXgXgXpXiXiXpXpXgXgXgXkXkXkXkXkXkXpXkXpXpXpXpXpXpXpXpXiXpXkX>XP.T.J.!.!.&.J.!.!.!.|.qXkXyXyXiXiXgXgXgXgXgXgXgXgXgXgXgXgXgXgXpXpXpXpXpXpXpXpXgXgXgXgXgXgXgXgXgXgXgXgXgXgXgXpXpXpXpXpXpXpXkXgXkXgXgXpXgXgXpXgXgXgXgXgXkXkXkXkXpXpXpXpXpXpXpXpXpXiX+XU.H.(.!.9.u.(.!.!.).%XpXpXgXgXgXgXgXgXgXgXgXgXgXgXpXpXgXgXpXpXpXpXpXpXpXpXpXpXpXpXgXgXgXgXgXgXgXgXgXgXgXgXkXkXkXkXgXgXgXgXgXgXpXgXgXgXgXgXpXpXpXpXpXpXgXgXpXpXpXpXpXpXgXpXgXpXuX XI.H.J.(.9.w.R.H.I.J. XfXiXiXiXiXiXiXiXiXpXpXpXpXpXpXiXiXiXpXpXgXgXiXiXiXpXpXiXiXiXiXiXiXiXiXiXiXiXiXpXgXpXpXpXpXpXpXgXgXgXgXpXpXpXkXkXxXbXbXbXbXmXpX<XqXsXbXcXbXbXcXiX;X X|.!.U.I.S.c.c.z.a.0.3.a.c.I. XOXOX`.).k.1.1.1.&.&.&.o.! ~ _ ~ ] ] ] ' ` ` ` ) ~ Z n / ) ) &.&.' ' ) ' ' ' _ ' U n a a g 8 n J ~ ' %.&.3.0.a.z.k.k.k.a.+.B d Y 0.C.!.!.~.!.~.|.",
" X X X`.OX!.3.b 3 ' c.!.!.!.J.F.D.V.z.a.q.3.&.' P M s i B V Y ] o.o.+.+.&.%.%.$.a.9.#.3.-.N F ` o.o.o.o.+.#.o.' ) ~ I ] *.3.3.3.3.3.r.F.OX7X=X X).J.c.k.C.Z.J.H.I.!.!.!.`.OX*X+X X+XtXbXmXmXmXmXkX3X<XpXmXmXbXbXbXkXkXkXkXkXkXkXkXkXkXpXpXpXpXpXgXgXpXpXpXpXpXpXpXpXpXpXgXpXiXiXiXpXgXgXgXkXkXkXkXkXkXpXkXpXpXpXpXpXpXpXpXiXpXkX>XP.F.F.).!.;.H.R.!.!.|.qXkXyXyXiXiXgXgXgXgXgXgXgXgXgXgXgXgXgXgXpXpXpXpXpXpXpXpXgXgXgXgXgXgXgXgXgXgXgXgXgXgXgXgXpXpXpXpXgXgXkXkXgXgXgXgXgXgXpXpXgXgXgXpXkXkXkXkXpXpXpXpXpXpXpXpXpXiX+XU.H.!.!.9.q.(.H.I.).%XpXpXgXgXgXgXgXgXgXgXgXgXgXgXpXpXgXgXpXpXpXpXpXpXpXpXgXgXgXgXgXgXgXgXgXgXgXgXgXgXgXgXkXkXkXkXgXgXgXgXgXpXpXgXgXgXkXgXpXpXpXpXpXpXgXgXpXpXpXpXpXpXgXgXgXpXuX+XI.H.J.(.7.0.H.H.P.J. XfXiXiXiXiXiXiXiXiXpXpXpXpXpXpXpXpXpXpXpXpXiXiXiXiXpXpXiXiXiXiXiXiXiXiXiXiXiXiXpXgXpXpXpXgXgXgXgXgXgXgXpXpXkXkXxXxXbXbXbXbXgX;X,XsXxXbXcXcXbXqX%X X|. XOX+X|.`.!.!.H.Z.c.k.a.k.c.Z.`.OX X`.z.3.2.1.&.&.&.o.Y ~ ~ ~ ] ] ' ' ) ) ) ) ~ B n _ ' ] 1.*.) ) ~ ` ' ' ) _ Y N h d d 8 z J ~ ' +.&.3.9.a.j.k.z.c.c.C.N.2.N B o.s.J.!.!.!.~.",
"`. X X).c.' i h 2.H.`.!.H.H.F.F.D.C.z.a.q.3.$.' P M s s V F ~ ] +.#.$.$.%.&.#.o.3.3.#.3.9.U F ` ........o.+.o.' ) / U ] *.3.3.3.3.3.0.F.*X6XOX!.F.F.J.!.!.).`. X XOX+X%X6X>X:X:X.X|..XqXxXmXnXmXcXsX3X<XkXmXmXbXbXbXkXkXkXkXkXkXsXsXpXpXpXpXpXpXpXpXpXpXpXpXpXpXpXpXpXpXgXpXiXiXgXgXgXgXgXkXkXkXkXkXkXgXkXgXgXgXpXpXpXpXgXiXgXkX>XP.F.F.).!.;.H.!.!.!.|.qXkXyXyXiXpXgXgXgXgXgXgXgXgXgXgXgXgXgXgXpXpXpXpXpXpXpXpXgXgXgXgXgXgXgXgXgXgXgXgXgXgXgXgXkXkXkXkXgXgXgXgXgXgXgXgXgXgXkXkXgXkXpXpXgXgXkXkXpXpXpXpXpXpXpXpXpXiX$XU.H.!.!.0.w.^.H.H.~.%XiXgXgXgXgXgXgXgXgXgXgXgXgXgXgXgXgXgXkXkXkXkXpXpXgXgXgXgXgXgXgXgXgXgXgXgXgXgXgXgXgXgXgXgXkXkXkXkXgXgXgXgXgXgXgXgXkXkXkXkXkXgXpXpXgXgXkXkXgXgXkXkXkXkXpXiXiX+XI.H.J.(.5.0.J.F.P.P. XgXpXiXiXiXiXiXiXiXpXpXpXpXpXgXgXgXgXgXgXpXiXiXiXiXpXpXiXiXiXiXiXiXpXiXiXiXpXpXgXgXgXgXgXgXgXgXgXgXgXgXgXgXkXxXxXMXbXmXMXpX;X,XsXcXxXxXxXkXyX$X|.+X%X:X>X6X:X:X%X+XOX X!.P.F.V.z.V.F.). X XN.3.2.&.$.$.$.o.U ! ( ! ] ] ' ' / ~ ) ~ Y B b ' ] ' &.+.Y ~ ~ ` ' ' ' _ ~ F M h a 0 h F ~ ' +.&.5.9.u.a.k.z.N.C.c.C.F.k./ M U 3.Z.!.).`.",
" X`.F.r.Z s / Z.`.'.!.`.R.H.H.J.D.C.z.a.q.3.#.' P M s i V G ~ o.#.$.&.&.%.&.#.] ] &.#.9.9.I n ~ ......o.o.o.o.' ) ~ U ] &.2.3.3.2.2.0.F.OXOXJ.Z.H.!.'.'. X X%X*X:X>X>X5X6XqX6X>X:XOX|.|.6XxXvXvXvXvXkX>X<XkXmXbXbXbXbXkXkXkXkXkXsXsXpXpXpXpXpXpXpXpXpXpXpXpXpXpXpXpXpXpXpXiXiXiXgXgXgXgXgXlXkXkXkXkXkXkXkXgXgXgXpXpXpXpXgXpXgXkX>XP.F.F.!.!.=.J.R.!.!.'.qXkXyXyXiXpXgXgXgXgXgXgXgXgXgXgXgXgXgXgXpXpXpXpXpXpXpXpXgXgXgXgXgXgXgXgXgXgXgXgXgXgXgXgXkXkXkXkXkXgXgXgXgXgXgXgXgXgXgXkXkXkXpXpXgXgXgXgXpXpXpXpXpXpXpXpXpXiX$XU.H.!.H.9.0.^.H.H.~.%XiXgXgXgXgXgXgXgXgXgXgXgXgXgXgXgXgXgXkXkXkXkXpXpXgXgXgXgXkXgXgXgXgXgXgXgXgXgXgXgXgXgXpXgXgXgXkXkXkXgXgXgXgXgXgXgXkXkXkXkXkXgXgXgXkXkXkXkXkXkXkXkXkXkXiXpXpX%XI.H.J.(.5.9.J.F.P.P. XgXpXiXiXiXiXiXiXiXpXpXpXpXpXgXgXgXgXgXgXpXpXiXiXiXpXpXiXiXiXiXiXiXpXiXiXiXpXpXgXgXgXgXgXgXgXgXgXgXgXgXgXgXkXbXMXcXmXmXkX;X;XpXxXMXxXxXkXiX+X|.+X:X6X6XqXqX6XqX6X>X7X=XOX'.`.H.Z.C.V.F.!.`.c.2.&.$.&.$.$.} U ! ! ! ] ' ' ' ~ ~ ~ ~ Y B M ] ] ) ] ~ Y ' ) ) ) ' ' ' / U B n a 4 h F ~ ' +.&.2.3.0.a.k.z.N.V.Z.Z.J.P.J.r.Y b ' z.!.!.",
"P.a.( l ! z.~. X'.'.`.).!.!.H.J.F.C.z.a.0.3.O.' U b s i B G ) ..+.$.&.&.&.&.o.' ' o.&.2.3.F h U  ...o.o.o.+.#._ ~ ~ U ' $.*.1.1.3.3.e.J.OX!.k.H.'.'.OXOX%X%X%X%X*X:X5X6XtXtXtX6X6X:X|.~.).yXmXmXmXmXMXpXqXqXkXmXbXnXbXbXlXkXkXkXkXkXgXgXgXgXgXgXpXpXpXpXpXpXpXpXgXgXgXpXpXpXgXgXpXpXpXpXpXgXkXkXkXkXkXkXkXgXgXgXpXpXpXpXgXpXgXgX:XP.F.F.!.A.+.A.R.H.!.'.qXlXiXyXiXpXgXgXgXgXgXgXgXgXgXgXgXgXgXgXgXgXgXgXgXgXgXgXgXgXgXpXgXgXgXgXgXgXgXgXgXgXgXgXgXgXgXgXgXgXgXgXgXgXgXgXgXgXgXgXkXkXkXkXkXkXgXkXgXgXgXgXgXgXgXgXpXiX$X~.H.U.H.9.a._.H.H.~.%XgXpXgXgXgXgXgXgXgXgXgXgXgXgXgXgXgXgXgXgXgXgXgXgXgXgXgXgXkXkXgXgXgXgXgXgXgXgXgXgXgXgXkXkXkXkXkXkXkXkXgXgXgXgXgXgXgXgXgXgXgXgXgXgXgXgXpXpXpXpXpXpXpXgXpXiXgX%XP.H.J.^.5.0.F.Z.P.P. XgXgXpXpXpXpXpXpXpXpXpXpXpXpXgXgXgXgXpXpXpXiXiXiXiXiXiXiXiXiXiXiXiXgXgXpXpXpXgXgXgXgXgXgXgXgXgXgXgXgXgXgXkXxXbXbXbXmXpX;X;XiXkXdXcXbXlXuX%X|. X:X5XwXwXwXwXwXqXqX>X%X%X%X%X'.`.^.J.N.z.C.!.z.&.O.+.%.&.$.} U Y ! Y ' ' ' / ~ ~ ~ ~ U b M ' / ~ _ _ ' o...[ ) ) ' ] ] Y B g 8 4 h Z ! ' o.&.2.3.0.a.z.z.c.V.D.F.H.I.!.!.F.3.Z B 4.C.",
"O.c B e.). X).`.'.'.`.).!.!.H.J.F.C.z.a.0.3.O.' U b s i B G ) ..#.$.&.&.&.$.$.#.3.#.o.2.&.Z h U '  .o.o.o.+.#._ ~ E U ' $.*.1.1.3.2.7.z.!.P.J.'.`.'.'.OXOXOXOXOXOX*X5XqXqX6XtXuXtX5X@X|.). XtXcXmXmXmXbXpXqXqXkXnXbXbXbXbXkXkXkXkXkXkXgXgXgXgXgXgXgXgXgXpXpXpXpXgXgXgXgXpXgXgXkXpXpXpXpXgXkXkXkXkXkXkXkXkXgXgXgXpXpXpXpXgXgXgXgX:XP.F.F.!.F.%.A.H.H.!.'.qXlXiXyXpXpXgXgXgXgXgXgXgXgXgXgXgXgXgXgXgXgXgXgXgXgXgXlXgXgXgXpXgXgXgXgXgXgXgXgXgXgXgXgXgXgXgXgXgXgXgXgXgXgXgXgXgXgXgXgXkXkXkXkXkXkXgXgXgXgXgXgXgXgXgXgXpXiX$X~.H.I.H.0.a._.R.P.~.%XgXpXgXgXgXgXgXgXgXgXgXgXgXgXgXgXgXgXgXgXgXgXgXgXgXgXgXgXkXkXgXgXgXgXgXgXgXgXgXgXgXgXkXkXkXkXkXkXkXkXgXgXgXgXgXgXgXgXgXgXgXgXkXkXgXgXpXpXpXpXpXpXpXgXpXiXgX%XP.H.J.^.5.0.F.Z.P.P. XgXpXpXpXpXpXpXpXpXpXpXpXpXgXgXgXpXpXpXpXpXpXpXpXpXpXpXpXpXgXpXpXgXgXgXgXgXpXgXgXgXgXgXgXgXgXgXkXgXgXgXkXbXbXbXbXbXiX>X>XiXkXxXcXkXbXfX:XOX X%X5X6XuXuXwXwX=X'.).'.OXOXOXOX'.`.(.H.F.V.V.F.r.$.+.+.%.%.+.] U Y ! U ' ' ` ~ ~ ~ ~ ~ U c M _ / ! ] &.#.' ~ ~ / ' ] } ' U B z 8 4 h Z ! ' o.&.2.4.0.a.z.z.c.V.D.F.H.I.!.!.!.^.c.} B U ",
"M } I. X|.OX X|.'.'.`.`.!.!.H.J.F.C.z.a.0.3.+._ U b a i B G ) ..o.+.+.o.&.$.&.7.a.&.o.&.o.B n Y ' ' ] ] o.+.#.' Y Y L ) $.*.1.1.2.&.1.9.0.p.a.N.C.Z.D.F.F.F.F.F.F.(.%X>X6XqXtXuXuXqX,X;X X~. XqXmXmXmXmXbXpXqXqXkXbXbXbXbXbXlXkXkXkXkXkXgXkXgXgXkXkXkXgXgXpXpXpXgXgXgXgXpXgXkXkXkXkXkXkXkXkXkXkXkXkXkXkXkXkXkXkXkXkXkXkXkXgXkXkX:XP.F.F.!.R.;.A.H.H.!.'.qXlXiXyXpXpXgXgXgXgXgXgXgXgXgXgXgXgXgXgXgXgXgXgXkXkXkXkXkXkXgXgXgXgXgXgXgXgXgXgXgXgXgXgXgXgXgXgXgXgXgXgXgXgXgXgXgXgXgXgXkXkXkXkXkXkXkXkXgXgXgXgXgXgXgXgXpXiX%X~.H.U.H.0.a._.R.Q.~.%XgXgXgXgXgXgXgXgXgXgXgXgXgXgXgXgXgXgXgXgXgXgXgXgXgXgXgXgXkXkXgXgXgXgXgXgXgXgXgXgXgXgXkXkXkXkXkXkXgXgXgXgXgXgXgXgXgXgXkXkXkXkXkXkXkXkXsXsXpXsXpXpXpXgXpXiXgX%XP.H.J.^.5.0.F.F.P.P. XpXpXpXpXpXpXpXpXpXpXpXpXgXgXgXpXpXpXpXpXpXgXgXgXgXgXgXgXgXgXgXgXgXgXgXgXgXpXpXpXpXgXgXkXkXgXkXkXkXgXkXbXbXbXbXbXiX;X<XiXbXbXbXkXkXiX>XOX+X:X5XqXwXuXfXqX%X!.Z.c.F.Z.Z.Z.Z.z.z.k.a.a.0.9.7.1.o.O.+.+.%.+.] U Y ! U ' ' ~ ~ ~ ~ ~ ~ U n b / ~ Y o.3.&.' E ~ ~ ' } o.] P N M i 0 z F ! ' o.&.2.4.0.a.z.z.N.V.D.F.H.I.!.!.!.`.!.~.r.' ",
"F.|. XOX X X X|.'.'.`.`.!.!.H.J.F.C.z.a.0.3.+._ U b s i N G ) ..] ' ' ' &.&.1.r.a.#.o.&.] Z b ~ ' ' ] ] o.+.#._ Y Y I ` $.*.1.1.1.&.&.1.2.4.7.7.9.0.q.q.q.q.q.q.a.z.N.C.+X6XuXuXiXuXyX6X%X|.~. XiXmXmXmXmXbXpXqXyXkXbXbXbXbXbXkXkXkXkXkXkXkXkXkXkXkXkXkXgXpXpXpXgXgXgXgXgXkXkXkXkXkXkXkXkXkXkXgXgXkXkXkXkXkXkXkXkXkXkXkXkXgXkXkX<XP.F.F.!.!.-.A.J.H.!.'.qXlXiXyXpXpXgXgXgXgXgXgXgXgXgXgXgXgXgXgXgXgXkXkXkXkXkXkXkXkXgXgXgXgXgXgXgXgXgXgXgXgXgXgXgXgXgXgXgXgXgXgXgXgXgXgXgXgXgXgXkXkXkXkXkXkXkXkXgXgXgXgXgXgXgXgXpXiX%X~.H.I.H.0.a._.R.Q.~.%XgXgXgXgXgXgXgXgXgXgXgXgXgXgXgXgXgXgXgXgXgXgXgXgXgXgXgXgXkXkXgXgXgXgXgXgXgXgXgXgXgXgXkXkXkXkXkXkXkXkXgXgXgXgXgXgXgXgXkXkXkXkXkXkXkXkXsXsXsXsXpXpXpXgXpXuXgX%XI.H.J.^.5.0.F.F.P.P. XgXpXpXpXpXpXpXpXpXpXpXgXkXgXpXpXpXpXpXgXgXgXgXgXgXgXgXgXgXgXgXgXgXkXkXkXgXgXpXpXpXkXkXkXkXkXkXkXkXkXbXbXbXbXbXiX<X>XyXkXbXbXkXkXpX<X+X+X%X5X6XwXwXfXfX%XI.Z.V.k.a.r.r.r.e.7.7.7.3.1.&.&.o.$.o.$.o.o.o.o.' J U U U ' ' ~ ~ ~ ~ ~ ! P z c ~ / ! o.2.#.] ' [ ' ' ' o.' F b M 8 4 h Z ! ' o.&.2.3.0.a.k.k.c.V.Z.F.J.H.!.H.P.!.!.!.~.J.",
" X X X X X X X X X'.`.`.).!.R.J.F.C.z.a.0.3.&.] U B s 8 V m G U ] ] ] ' &.&.2.0.a.$.} +.] B z U ' ' ' ] o.o.o.] Y U L / $.*.1.*.&.&.&.&.2.2.2.2.3.7.9.9.9.9.9.9.r.a.k.k.!.%XqXiXuXuXyX6X5X%X`.~. XtXbXmXbXbXbXgXiXyXpXbXbXbXbXbXkXkXkXkXkXkXkXkXkXkXkXkXkXkXkXkXgXgXgXgXkXkXkXkXkXkXkXkXbXxXkXgXkXkXkXgXgXgXkXkXkXkXkXkXkXkXkXkX>XP.T.J.!.!.5.C.J.H.!.|.qXkXiXiXpXpXgXgXgXgXgXgXgXgXgXgXgXgXgXgXkXgXgXkXkXkXkXkXkXkXkXgXkXkXkXkXgXgXgXgXkXkXkXkXkXkXkXkXgXgXgXgXkXkXkXkXkXkXkXkXkXkXkXkXkXpXgXgXgXgXgXgXgXgXgXgXbXiX%X~.J.I.J.9.a._.H.Q.~.%XgXgXkXkXkXgXkXkXkXkXkXkXkXkXkXkXkXkXkXkXkXkXgXgXgXgXkXkXkXkXkXkXkXkXkXkXkXkXgXgXgXgXkXkXgXgXgXkXkXkXgXgXgXgXgXgXgXgXkXkXkXgXkXkXkXkXkXkXkXsXsXsXsXkXfXuXgX%XI.H.F.!.5.w.G.D.J.J.|.kXpXpXpXpXpXpXpXpXgXkXxXkXgXgXgXgXgXgXgXgXgXgXgXgXgXgXgXgXgXgXgXgXkXkXkXkXgXgXkXkXkXkXkXkXkXkXkXbXkXxXbXbXmXuX%X<XiXkXbXbXxXxXiX5X X|.+X5XwXwXuXfXfXqX`.C.C.M.k.a.q.q.0.7.3.3.2.*.1.&.&.&.o.o.o.] ..o.o.' G U P U ' ' ' ) ~ ~ ~ ! U z M ~ / ! o.2.o.' ' ' ' ' ' _ / B M M 8 0 h G ! ' o.&.1.3.0.a.k.k.c.V.Z.F.J.H.!.!.!.!.!.!.!.).",
" X X X X X X X X X'.`.`.).!.R.J.F.C.z.a.0.3.&.} U N s 9 B g S ' =.&.&.o.&.&.2.0.a.+.} +.] B z U ' ' ' ] } ] o.' U U J ~ $.$.*.&.&.&.&.&.2.2.2.2.3.3.7.9.9.9.9.9.q.r.a.k.C.Y.%XqXuXuXuXtXqX5X%X`.Y. XqXkXbXmXmXMXbXyXqXiXbXbXbXbXkXkXkXkXkXkXkXkXkXkXkXkXkXkXkXkXgXgXgXgXkXkXkXkXkXkXkXkXbXkXkXgXkXkXkXgXgXgXkXkXkXkXkXkXkXkXkXkX>XP.T.J.!.!.3.C.J.H.!.|.qXkXiXiXpXpXgXgXgXgXgXgXgXgXgXgXgXgXgXgXkXkXkXkXkXkXkXkXkXkXkXgXkXkXkXkXgXgXgXgXkXkXkXkXkXkXkXkXgXgXgXgXkXkXkXkXkXkXkXkXkXkXkXkXkXkXkXkXgXgXgXgXgXgXgXgXbXiX%X~.J.H.J.7.a.!.H.I.~.%XpXgXkXkXkXgXkXkXkXkXkXkXkXkXkXkXkXkXkXkXkXkXgXgXgXgXkXkXkXkXkXkXkXkXkXkXkXkXgXgXgXgXkXkXkXkXkXkXkXkXgXgXgXgXgXgXgXgXkXkXgXgXkXkXkXkXkXkXkXsXsXsXsXkXfXuXfX%XI.H.F.R.5.w.G.D.J.P. XkXgXpXpXpXpXpXpXpXgXxXxXkXgXgXgXgXkXgXgXgXgXgXgXgXgXgXgXgXgXgXgXgXkXkXkXkXkXkXkXkXkXkXkXkXkXkXbXbXkXbXmXmXyX%X,XgXkXbXbXbXbXiX%X).|.OX5XwXwXwXuXfXwXOXF.V.M.k.a.r.q.q.9.3.3.*.&.$.&.&.$.+.o.o.} ] ..o.o.' H U P U ' ' ' ) ~ ~ ! Y U z v ~ / ! &.9.o.' ' ' ' ' ' _ / B N M 0 7 g F ! ' o.&.1.3.0.a.j.k.c.c.C.D.J.H.!.!.!.!.!.!.!.).",
" X X X X X X X X X'.`.`.).!.R.J.F.C.z.a.r.7.1.o.Y M i i S f G =.3.2.&.$.&.&.2.9.a.$.} +.] B n Y ` ' ' ' ] ] } ' U U G ~ $.$.*.$.&.&.&.&.2.2.2.2.2.3.3.7.9.9.9.9.0.q.r.a.z.N.Y.%X6XuXuXuXiXqX,X%X).!. X6XkXmXmXbXmXkXyXqXpXbXnXbXbXkXkXkXkXkXkXkXkXkXkXkXkXkXkXkXkXkXkXkXsXsXsXsXkXkXkXkXkXkXkXgXkXkXkXgXgXgXkXkXkXkXkXkXkXkXkXkX>XI.P.J.H.!.;.V.J.I.!.|.qXkXiXiXpXpXgXkXgXgXgXgXgXgXgXgXgXgXgXgXkXkXkXkXkXkXkXkXkXkXkXkXkXkXkXkXgXgXgXgXkXkXkXkXkXkXkXkXgXgXgXgXkXkXkXkXkXkXkXkXkXkXkXkXkXkXkXkXgXkXkXkXkXkXkXkXbXiX%X~.H.H.D.3.a.!.J.I.~.;XgXkXkXkXkXkXkXkXkXkXkXkXkXkXkXkXkXkXkXkXkXkXkXkXkXkXkXkXkXkXkXkXkXkXkXkXkXkXgXgXgXgXkXkXkXkXkXkXkXkXgXgXgXgXgXgXgXgXkXkXkXkXkXkXkXkXkXkXkXkXsXsXsXkXgXuXfX%XP.J.G.R.5.w.G.F.P.Y.+XkXkXpXpXpXgXgXgXgXkXxXxXgXgXgXgXgXkXkXgXgXkXkXkXkXgXgXgXgXgXgXgXgXkXkXkXkXxXxXxXxXkXkXkXkXkXkXbXbXbXmXbXpX.X<XsXxXbXbXbXkXfX:X~.~.+X:XqXuXwXwXwX0XOXF.V.k.j.a.q.q.0.9.3.*.1.*.&.$.&.&.+.o.o.o.o.] ..o.o.' U ! P P ' ' _ ) ~ ~ ! U H l b ( ~ Y +.7.o.' ' ' [ ' ' ' ' F B B 7 4 d Z ! ' o.&.2.3.0.a.j.k.c.c.C.D.J.H.!.!.!.!.!.~.!.).",
" X X X X X X X X X'.`.`.).!.R.J.F.C.z.a.a.9.1.o.Y b i i I c U ;.3.2.&.&.&.&.*.9.a.$.} +.] B n Y / ` ' ' ] ] } ' U I G ~ $.$.*.$.&.&.&.&.2.2.2.1.*.2.3.3.9.9.9.9.9.q.q.a.k.z.C.!.+X6XwXuXfXiXwX6X%X|.~. XqXkXbXbXMXbXkXqXqXpXbXnXbXkXkXkXkXkXkXkXkXkXkXkXkXkXkXkXkXkXkXkXsXsXsXsXkXkXkXkXkXgXgXkXkXkXkXgXgXgXkXkXkXkXkXkXkXkXkXkX>XI.P.J.J.!.&.V.J.I.!.|.qXkXiXiXpXgXkXkXgXgXgXgXgXgXgXgXgXgXgXgXkXkXkXkXkXkXkXkXkXkXkXkXkXkXkXkXgXgXgXgXkXkXkXkXkXkXkXkXgXgXgXgXkXkXkXkXkXkXkXkXkXkXkXkXkXkXkXkXkXkXxXxXxXxXxXxXbXiX*X~.H.H.Z.*.a.^.J.P.).;XgXkXkXkXkXkXkXkXkXkXkXkXkXkXkXkXkXkXkXkXkXkXkXkXkXkXkXkXkXkXkXkXkXkXkXkXkXkXgXgXgXgXkXkXkXkXkXkXkXkXgXgXgXgXgXgXgXgXkXkXkXkXkXkXkXkXkXkXkXkXsXsXsXsXpXuXfX%XP.F.Z.J.5.w.F.F.J.!.%XkXkXgXpXpXgXgXgXgXxXxXkXgXgXgXgXgXkXkXkXgXkXkXkXkXgXgXgXgXgXgXgXgXkXkXkXkXkXkXkXkXkXkXkXkXkXxXbXbXbXmXkX+X;XiXsXgXbXbXkXgX:X).~.OX6XwXwXwXwXwXwXOXD.z.z.a.a.a.q.q.9.7.2.&.1.*.&.$.&.&.+.o.o.o.o.] ..o.o.' ! ! P P ' ' _ ) ~ ~ ! U H g c ~ ~ U } &.o.' ' ' [ ] ' ' ] J F Z 4 3 a B Y ' o.&.2.3.0.a.j.k.c.c.C.D.J.H.!.!.!.!.!.~.!.).",
" X X XOX+X X X X|.|.`.`.).!.R.J.F.C.c.s.a.9.2.o.Y 9 4 s Y B Y *.*.*.&.&.&.&.*.3.a.$.' o.' V h J ~ ) ' ' ] } } _ U U F ~ &.&.&.&.$.$.&.&.2.*.*.$.1.1.3.7.3.7.7.9.q.q.q.a.a.k.z.c.J.OX6XfXuXuXqX>X>X%X|.`.+XqXMXmXbXcXbXkXqX,XuXbXmXbXxXMXxXxXkXsXkXkXkXkXkXkXkXkXkXkXkXkXkXkXkXkXkXkXkXkXgXgXgXgXkXkXkXkXgXgXkXkXkXkXkXkXkXkXkXkX<XY.P.F.H.!.' z.J.F.J.`.6XgXiXiXpXgXkXkXkXkXkXkXkXkXkXkXkXkXkXkXkXkXkXkXkXgXkXkXgXgXkXkXkXkXkXkXkXkXkXsXxXxXxXkXkXkXkXkXkXkXkXkXkXkXkXkXkXkXkXkXsXsXkXkXxXxXxXxXkXxXxXxXkXkXkXkXnXyX+X!.H.H.C.-.j.H.J.J.).>XiXkXkXkXkXkXgXgXgXkXkXkXkXkXsXsXsXkXkXkXkXkXsXsXsXsXkXkXkXkXkXkXkXkXkXkXkXkXsXsXkXkXkXkXkXkXkXkXkXkXkXkXkXsXsXsXsXsXkXkXkXkXkXkXkXkXkXkXkXkXkXkXpXsXuXuXiX%XP.S.V.J.=.0.F.F.H.~.:XjXxXkXkXkXgXgXgXpXpXpXgXgXgXgXgXgXkXkXkXkXkXkXkXkXkXkXkXkXkXkXkXkXkXkXkXkXkXkXsXkXxXxXxXxXkXMXMXbXnXgX,X,XpXxXkXbXbXnXkX:X~.~.+X5XwXwXwXuXfX6X'.Z.V.c.k.a.q.0.9.7.3.3.3.*.*.*.&.&.&.o.} o.} } o.o.] ] o.o.Y ~ U U / ' _ / ~ ~ Y U P g z U ! U } $.] ' ' ' ] ] ] ' ' Z B U 8 ; e M ~ ' +.$.2.3.9.a.a.k.c.V.C.F.J.H.J.H.I.Y.Y.!.!.(.",
" X X XOXOX X X|.`.`.).).`.!.R.J.F.S.V.k.k.0.3.' c 8 9 b Y B U =.*.*.&.&.&.&.*.3.a.$.' o.] V n L ~ ) ' ' ] } } _ U U F ~ &.&.$.$.$.$.$.$.$.$.&.*.1.3.4.7.3.3.7.7.0.q.q.a.a.a.k.z.z.R.&X7XwXuXuXqXqX6X:XOXY.|.6XMXmXbXcXbXkXyX6XuXbXbXMXbXxXxXxXkXkXkXkXkXkXkXkXkXkXkXkXkXkXkXkXkXkXkXkXkXgXgXgXgXkXkXkXkXkXkXkXgXkXkXkXkXkXkXkXkX:XP.P.F.H.!./ k.J.F.J.`.6XyX6XtXpXpXkXkXkXkXkXkXkXkXkXkXkXkXkXkXkXkXkXkXkXkXkXkXkXkXkXkXkXkXkXkXkXkXkXkXxXxXkXkXkXkXkXkXkXkXkXkXkXkXkXkXkXkXkXkXsXsXsXsXxXkXkXkXkXkXkXkXkXkXkXkXkXuX%XI.J.J.C.-.j.J.J.J.~.>XiXsXkXkXkXkXgXgXgXgXsXsXkXkXsXsXkXkXkXkXkXkXsXsXsXsXkXkXkXkXkXkXxXxXkXkXkXkXsXsXkXkXkXkXkXkXkXkXkXkXkXkXkXkXsXsXsXsXkXkXkXkXkXkXkXkXkXkXkXkXkXkXpXyX,XtXuX XP.S.V.J.&.9.F.F.F.I.;XgXxXkXkXkXgXkXgXgXpXpXgXgXgXgXgXgXkXkXkXkXkXkXkXkXkXkXkXkXkXkXkXkXkXkXkXkXxXxXsXsXxXxXxXxXkXMXbXmXgX,X,XiXbXbXbXbXbXuX%X~.~.+X6XqXwXwXuXfXwXOXA.c.N.z.j.a.0.9.7.3.3.3.2.*.*.&.&.$.&.o.] ] } } ] ] ..o.o.o.Y ~ U U / _ _ / ~ ~ Y U G s z U U P ' $.] ' ' ' ] ] ] ] ] F B Y b 1 3 i G ] +.&.2.3.9.r.a.k.c.V.C.Z.F.H.J.H.I.Y.Y.!.!.(.",
"OXOXOXOX X X|.|.`.).).~.`.!.R.J.F.F.C.c.k.0.o.B s h h c U m U $.*.*.&.&.&.&.*.3.a.&.' o.] B h U ~ ) ' ' ' ] ' / U I F ~ +.+.$.$.#.#.&.&.$.$.*.*.1.1.3.3.3.3.3.7.9.q.r.a.p.a.j.k.j.b.!.OX6XwXuXuXuXqX6X:X|.~.|.qXkXmXbXbXnXkXuXqXiXbXmXbXMXbXxXdXxXxXxXxXkXkXkXkXkXkXkXkXkXsXsXsXkXkXkXkXgXgXgXgXkXkXkXkXkXkXkXkXkXkXkXkXkXkXkXkX>XY.P.F.J.J.~ j.J.F.J.`.wXiX;X.XpXgXkXkXkXkXkXkXkXkXkXkXkXkXkXkXkXkXkXkXkXkXkXkXkXkXkXkXkXkXkXkXkXkXkXkXkXkXkXkXkXkXkXkXkXkXkXkXxXxXkXkXkXkXkXkXkXkXsXkXsXsXsXsXkXkXkXkXkXkXkXkXuXqX+XP.C.Z.V.&.q.D.F.J.Y.>XiXiXkXkXkXkXgXgXkXkXkXkXkXkXsXsXsXsXkXkXkXkXkXkXkXkXxXkXkXkXkXkXxXxXkXkXkXkXkXxXkXkXsXsXkXkXkXkXkXkXkXkXkXkXkXkXsXkXsXsXsXkXkXkXkXkXkXkXkXkXkXkXkX>XXX6XuX+XP.F.V.J.o.9.F.F.C.J..XuXxXkXkXkXkXkXkXkXgXgXgXgXgXgXkXkXkXkXkXkXkXkXkXkXkXkXkXkXkXkXkXkXkXkXkXxXxXxXdXdXxXxXxXxXMXcXbXpX,X,XiXkXbXbXbXkXiX+X~.~.+X6XuXqXwXuXfXwX+XJ.c.c.c.k.a.a.9.9.7.3.3.3.3.*.&.&.$.&.$.o.] ] } o.] ] ] ] ] ] Y ! U U / ' / ~ ~ ! U U G s g P U H ' o.' ' ] ] ] ] ] ] ' Z B U N 8 7 3 y U ..*.3.7.9.q.s.k.c.V.V.Z.F.J.P.P.I.Y.Y.!.~.~.",
"OXOXOXOX X|.|.`.).).~.~.`.!.R.J.F.F.Z.V.e.o.B Z F B g h U b I &.1.*.&.&.&.&.*.3.a.&.' o.' c i G ~ ) _ ' ' ] ' ~ U U F ~ +.+.+.+.#.#.#.#.o.o...] o.+.&.&.2.3.3.3.9.0.0.r.a.p.a.j.j.z.b.!.*XqXuXuXuXqX6X>X5X|.~.+XqXkXmXbXlXbXlXiX,XpXmXmXcXMXxXxXbXbXbXxXkXkXkXkXkXkXkXkXkXsXsXsXkXkXkXkXgXgXgXgXkXkXkXkXkXkXkXkXkXkXkXkXkXkXkXkX>XY.P.J.F.A.U a.J.F.J.`.wXfX.XF.qXpXgXkXkXkXkXkXkXkXkXkXkXkXkXkXkXkXkXkXkXkXkXkXxXxXkXkXkXkXkXkXkXkXkXkXkXkXkXkXkXkXkXkXkXkXkXkXxXxXkXkXkXkXkXkXkXkXkXkXsXsXsXsXsXsXkXkXkXsXkXkXqXqXOXJ.V.C.b.&.9.D.F.F.P.:XiXuXkXkXkXkXkXkXkXkXkXkXkXkXsXsXsXsXkXkXkXkXkXkXkXkXxXkXkXkXkXxXxXxXkXkXkXkXkXxXxXkXsXsXkXkXkXkXkXkXkXkXkXkXkXkXkXkXsXsXsXkXkXkXkXkXkXkXkXkXkXkXpX|.P.5X6X XP.F.V.J.o.3.F.F.c.S.|.tXkXkXkXkXgXkXkXkXgXgXgXgXgXgXkXkXkXkXkXkXkXkXkXkXkXkXkXkXkXkXkXkXkXkXxXxXxXxXdXdXxXxXxXMXmXmXkX;X,XiXkXkXbXbXkXkX+X).`.+X5XqXqXuXuXfXwX=XJ.c.k.c.z.k.a.r.9.9.7.3.3.3.3.*.&.$.&.#.] ' } +.} o.] ] ] ] ] ] Y ! U U / / / ~ ! Y U U Z i s G P G _ } ' ' ] ' ' ] ] ] / N b J M 8 e i i 9 N #.3.7.9.q.s.k.c.V.V.C.F.J.P.P.I.Y.Y.!.~.~.",
" X X X X X|.|.`.`.).).~.`.!.R.J.H.R.Z.7.~ P Y ~ U b 8 h U B L &.&.&.&.&.$.&.&.3.k.+.~ ] ) c i G ~ ) ' ' ' ' ' ( J J C Y o.+.#.#.#.+.o.o.o.~ ~ F n ~ &.&.2.2.3.3.3.3.7.9.r.r.a.a.k.z.c.Z.!.OX6XwXuXuX6X>X5X>XOX|.+XyXbXbXbXbXbXbXyX<XiXcXbXMXxXxXbXbXbXbXkXkXxXxXkXkXkXkXkXkXkXkXkXkXkXkXkXkXkXkXkXkXkXkXkXkXkXkXkXkXkXkXkXkXbXgX*X!.H.!.F.C.~ j.G.F.J.`.iXyX;Xk..XkXkXkXgXgXgXgXkXkXkXkXkXkXkXkXkXkXkXkXkXkXkXkXxXkXkXkXkXkXkXkXkXkXkXkXxXxXxXxXxXxXxXxXkXkXkXkXxXxXxXxXxXxXxXxXxXxXkXkXsXsXsXsXkXsXkXkXsXpXkXpX:XuX%XJ.V.V.b.3.3.J.J.J.!.*X6X6XkXkXkXkXkXkXxXxXkXkXkXkXkXkXxXxXkXkXkXkXxXxXxXxXxXxXxXxXxXxXxXxXxXxXxXxXkXkXkXkXkXkXkXkXkXkXkXkXkXkXxXxXxXxXkXkXkXkXkXkXkXkXkXkXkXkXkXkXkXkXgXT.|.:X:X|.I.Z.V.R.o.5.F.F.z.J.|.>XkXkXkXgXgXpXpXpXgXgXgXgXkXkXbXbXkXkXbXkXkXkXkXkXkXkXkXkXkXkXkXkXkXxXxXxXxXxXxXxXbXMXcXcXcXkX;X,XiXsXbXbXbXbXpX%X~.|.%X5XqXqXqXwXwX6XOXC.M.k.k.k.k.a.a.q.9.9.7.3.3.3.3.*.&.$.#.o.~ U +.} o.o.] ] ] ] ] ] Y ! U U / / ~ ~ ! U U P F i i c Z Z ' o.' ' ' ' ' ' ' ' _ Z M Z n 3 e d B F B h ~ 3.9.q.r.k.z.k.V.C.F.F.J.P.I.Y.Y.Y.Y.!.",
" X X X X X|.|.`.`.).).~.!.!.R.J.F.A.3.~ ~ o.' ~ L n 8 h Y B L &.&.&.&.&.$.+.&.1.9.o.J ' ' m s U ~ ) ) ' ' ' ' ( J J C Y o.o.o.#.#.o.o.] o.' o.' H ' &.1.&.2.2.3.3.3.7.9.e.r.a.a.j.k.z.c.C.!. X>XtXuXqX6X5X5X>XOX~. X6XgXbXbXbXbXxXyX;XtXbXcXxXxXbXbXbXbXkXkXxXkXkXkXkXxXkXkXkXkXkXkXkXkXkXkXkXgXkXkXkXkXkXkXkXkXkXkXkXkXkXkXfX:X+XI.H.H.F.C.~ j.G.A.J.).iXiX*Xt.|.kXkXkXgXgXgXgXkXkXkXkXkXkXkXkXkXkXkXkXkXkXkXkXxXkXkXkXkXkXkXkXkXkXkXkXxXxXxXxXxXxXxXxXkXkXkXkXxXxXxXxXxXxXxXxXxXxXkXkXkXkXkXkXsXsXkXkXkXsXsXyX|.qX%XJ.C.V.V.5.3.J.J.J.!.+X:X+XkXkXkXkXkXkXxXxXkXkXkXkXkXkXxXxXkXkXkXxXxXxXxXxXxXxXxXxXxXxXxXxXxXxXxXxXkXkXkXkXkXkXkXkXkXkXkXkXkXkXkXxXxXxXkXkXkXsXkXkXsXkXkXkXkXkXkXkXkXkXwXB.).:X:X|.P.C.V.R.o.3.S.F.z.F. X%XkXkXpXiXpXpXpXpXgXgXgXgXkXkXbXMXkXkXbXkXkXkXkXkXkXkXkXkXkXkXkXkXkXxXxXxXxXxXxXxXxXcXmXmXsX;X<XiXsXxXbXbXbXiX%X~.).%X6XqXqXwXuXuX5X|.F.M.k.k.k.a.k.a.q.0.9.7.7.3.3.3.3.*.&.&.o.] ~ ! ~ Y o.o.] ] ' ' ' ' U U H U ( ( ~ ~ Y U U P F a a B z M ) ] ) ' ' ] ] ] ] ] ~ B b Z n 3 8 s B U ' ' G I &.q.r.a.a.a.N.V.Z.F.J.J.P.I.I.Y.Y.Y.",
"OXOXOXOX X|.|.`.`.).).~.!.!.!.G.c.&._ &.1.1.' ~ V h 8 h U N G #.$.&.&.&.+.o.o.$.&.~ n F ) b s Y / ) ) ' ' ' ' ( J J B Y } o.o.o.o.o.] ] ] ] o.o.] o.&.1.2.&.2.2.3.3.7.9.0.0.u.a.a.j.k.z.c.C.P.|.>XqXqXqX6X5X5X>X|.~. X,XgXbXbXbXcXbXyX;X,XcXvXcXxXbXbXbXbXbXbXbXbXbXbXxXkXkXkXkXkXkXkXkXkXkXkXkXkXkXkXkXkXkXkXkXkXkXkXkXkXlXuX!.|.P.J.J.J.C.~ j.C.Z.F.~.wXyX*Xt.U.pXkXgXgXgXgXgXkXkXkXkXkXkXkXkXkXkXkXkXkXsXkXkXxXxXxXxXkXkXkXkXxXxXxXxXxXxXxXxXxXxXxXxXxXxXxXxXxXxXxXxXxXxXxXxXkXkXkXkXxXxXxXkXsXkXsXkXkXkXpX,X).6X XF.C.C.V.3.3.J.J.F.P.OX=X`.kXxXxXxXkXkXkXkXkXkXxXxXkXkXkXkXxXxXxXxXxXxXxXxXxXxXxXxXxXxXxXxXxXxXxXxXxXxXxXxXxXxXxXxXdXdXdXdXxXxXxXxXkXkXkXkXsXsXsXsXsXsXsXkXkXkXkXkXkXbXqXz.~.:X5X XJ.C.c.H.o.3.S.F.z.N. X XiXbXiXiXpXpXpXpXgXgXgXgXkXxXxXbXbXbXbXbXkXkXlXbXkXkXkXkXbXbXbXbXbXbXxXxXxXMXxXxXcXcXmXxX;X;XsXkXxXcXbXbXiX%X).).%XqXwXqXqXuXwX5XOXS.k.M.k.k.a.a.a.e.9.9.7.7.3.3.2.2.*.&.&.&.o.' } o.o.+.o.o.] ] ' ' ' ' U U G J ~ ~ ~ ~ Y U U P Z d c ! h g ' ) ~ / ' ] ' ' ' ' Y M b F c 3 i d V U ' o.#.' J ] 7.a.k.z.c.N.C.S.F.F.J.P.P.I.I.I.",
"OXOXOXOX X|.|.`.`.).).~.H.!.G.a.+.2.0.7.3.&.o.Y B g 8 n U m G +.$.$.$.$.+.o.} o.o.L B Y ~ h i U ) ) ) ) ' ' ' ( G J B Y ] } } o.o.] ] ' o.+.+.#.$.} ] +.&.2.&.2.3.3.7.7.9.0.0.u.a.a.j.k.z.k.z.F.|.:X6XqXqX6X5X5X5X X~.|.6XgXbXbXbXmXcXqXXXsXmXxXcXxXbXbXbXbXbXbXbXbXbXbXkXkXkXkXkXkXkXkXkXkXkXkXkXkXkXkXkXkXkXkXkXkXkXkXkXkX6XJ.).J.J.F.J.C.~ j.C.V.Z.~.5XuX:Xr.F.iXkXgXgXgXgXgXkXkXkXkXkXkXkXkXkXkXkXkXkXsXkXkXxXxXxXxXkXkXkXkXxXxXxXxXxXxXxXxXxXxXxXxXxXxXxXxXxXxXxXxXxXxXxXxXkXkXkXkXxXxXkXkXkXkXkXkXkXbXpX:X).>X`.F.C.C.V.3.3.D.G.F.F.oX7X`.kXbXxXkXkXkXkXxXkXkXxXxXkXkXkXkXxXxXxXxXxXxXxXxXxXxXxXxXxXxXxXxXxXxXxXxXxXxXxXxXxXxXxXxXdXdXdXdXxXxXxXxXkXkXkXkXsXsXsXsXsXsXsXsXkXkXkXkXkXkX:Xr.Y.:X6X XJ.V.c.J.o.3.S.F.z.z. X).6XkXiXgXpXpXpXpXgXgXgXgXkXxXxXbXbXbXbXbXkXkXlXbXkXkXkXkXbXbXbXbXbXbXxXxXxXxXxXMXmXmXxX,X<XpXsXxXcXcXbXkX XY.).+XqXiXiXwXwXuX5X XF.c.k.s.k.a.a.r.0.0.9.7.3.3.2.*.*.*.&.$.$.+.] ] o.o.+.o.o.o.] ' ' ' ' ' J U G G ~ ~ ! ! Y U U U F s h J U Z U P I Y ~ ' ' ' ' ' Y M M G M 7 i h B J ~ ] &.$.o.Y ~ 2.a.k.z.c.C.Z.F.F.J.P.P.P.P.I.",
"OXOXOXOX|.|.|.|.`.`.!.!.!.k.&.o.9.a.a.7.3.$.] U Z n i n U B B o.$.&.#.o.o.' ' ' Y ~ 3.o.h i e Y ` ) ) ) ' ' _ ~ F G B U ] } o.o.o.} +.+.%.%.$.$.$.+.o.o.%.=.;.;.2.3.5.9.9.0.0.q.u.a.d.j.k.c.M.M.C.).:XwXqXqXqX6X6X>X X~.~.:XkXbXbXbXnXbX,XiXcXmXbXcXbXbXbXbXbXbXbXbXMXbXxXxXxXxXkXkXkXkXkXkXkXkXkXkXkXkXkXkXkXkXkXkXkXlXkXnX*XI.).F.I.Z.C.c.~ j.z.b.A.H.=XwX>XC.F.uXgXgXgXgXgXpXkXkXkXkXkXkXkXkXkXkXkXkXxXxXxXxXxXxXxXxXxXxXxXxXxXxXxXxXxXxXxXxXxXxXxXxXxXxXxXxXxXxXxXxXxXxXxXxXxXxXxXxXkXkXkXkXsXsXkXkXkXpXgXOXY.+X`.Z.C.C.C.3.7.H.C.C.!.OX6X!.tXbXkXkXkXkXxXxXxXxXxXxXxXxXxXxXxXxXxXxXxXxXxXxXxXxXxXxXxXxXxXxXxXxXxXxXxXxXxXxXxXxXxXxXxXxXxXxXxXxXxXxXxXxXxXxXkXkXkXkXkXkXxXsXsXsXkXkXpXkX*X0.~.=X6X|.F.V.b.!.+.9.F.F.k.c.%XY.OXlXgXyXgXgXgXgXkXkXkXkXkXkXxXxXxXxXbXbXxXxXxXxXxXxXxXxXbXbXbXbXxXxXbXbXxXxXMXmXmXmXtX,XpXxXbXbXbXnXpX$XU.|.*XqXwXwXwXwXiXqX|.N.V.z.k.k.k.a.a.r.q.9.9.7.3.3.*.*.&.1.1.&.o.} &.&.&.O.+.o.o.~ ~ _ ' ' ' ) L L J G ! ! ~ Y Y U U U F g b N ! ' ! G Z P ~ ~ _ / ] ' G M M G M 7 i g N F ! ' o.&.3.1.' ~ #.a.j.V.C.V.C.F.J.H.H.H.H.I.",
"OXOXOXOX X|.`.).`.).I.C.3.o.&.a.j.a.q.7.3.$.] U Z z i n U B B } #.+.o.o.' ) ) ' ! } 3.~ z s i U ` ` ) ) ' ' _ ! G G F U ] ] o.o.o.o.%.o.+.%.%.$.$.&.=.o.' +.;.;.-.5.3.9.9.9.0.0.0.u.a.a.k.z.c.M.z.F.|.>XqXqXqXqXwXqX6X+XY.~.>XxXbXbXnXmXsXpXcXmXnXcXbXbXbXbXbXbXbXbXMXMXxXxXxXxXkXkXkXkXkXkXkXkXkXkXkXkXkXkXkXkXkXkXkXlXlXlXOXI.).C.Z.C.V.c.~ a.k.v.Z.J.*XwX7XS.P.uXgXgXgXgXgXpXkXkXkXkXkXkXkXkXkXkXkXkXxXxXxXxXxXxXxXxXxXxXxXxXxXxXxXxXxXxXxXxXxXxXxXxXxXxXxXxXxXxXxXxXxXxXxXxXxXxXxXxXkXkXkXkXsXkXkXkXkXgXgX`.Y.+X`.V.V.V.V.2.9.H.Z.Z.H.OX6X!.,XbXkXkXkXkXxXxXxXxXxXxXxXxXxXxXxXxXxXxXxXxXxXxXxXxXxXxXxXxXxXxXxXxXxXxXxXxXxXxXxXxXxXxXxXxXxXxXxXxXxXxXxXxXxXxXkXkXkXkXkXkXxXsXsXsXkXkXgXnX%Xq.!.*X5X`.S.V.c.J. .;.v.V.a.a. X!.F.pXlXgXgXgXgXgXkXkXkXkXkXkXxXxXxXxXbXbXxXxXxXxXxXxXxXxXbXbXbXbXxXxXMXMXbXMXmXmXmXiX,XgXxXbXbXbXnXpX*X~. X:XqXwXwXwXwXqX6X|.F.z.z.k.k.s.a.a.r.0.9.9.7.3.3.3.*.*.&.&.&.o.' +.1.&.&.O.+.o.o.' ' ' ' ' ' ) J J J J ! ! Y Y U U U I F h b M s Z ~ U G ! / / ~ ! _ _ G M M P M 7 i s M Z Y ^ } &.3.7.*.#.~ ] 7.j.c.D.C.Z.J.H.I.I.I.I.",
"+XOXOXOXOX X`.~.!.!.z.&.] 7.V.c.j.q.9.7.*.#.' U B h e z U B M ' o.o.] ' ' ) ' o.$.' F b b h a U ` ` ) ) _ _ _ ! F G B U ' ] } } ] o.%...o.+.#.$.%.$.&.-...] +.;.-.2.3.3.9.9.9.0.0.0.u.a.a.k.z.c.z.N.J.`.>XqXqXqXuXwXwXqX XP.~.6XkXbXcXcXmXpXxXmXnXcXxXxXbXbXbXbXcXcXcXbXMXMXMXMXxXxXxXxXkXkXkXkXkXkXkXkXkXkXkXkXkXkXkXlXlXwX!.I.`.k.k.c.b.z.Y a.d.z.C.F.OXqX4XS.C.6XgXpXkXkXkXkXkXkXkXkXkXkXkXkXkXkXkXkXxXxXxXxXxXxXxXxXxXxXxXxXxXxXxXxXxXxXxXxXxXxXxXxXxXxXxXxXxXxXbXbXbXbXbXbXdXdXxXxXsXsXsXsXkXkXkXkXkXxXfXF.!.+X!.z.c.c.c.1.3.J.V.C.S.'.5X!.%XkXbXkXkXkXxXxXxXxXbXbXxXxXxXxXxXxXxXxXbXbXbXbXbXbXbXxXxXxXxXxXxXxXxXxXxXxXxXxXxXxXbXxXxXxXxXxXxXxXxXxXxXxXxXxXkXkXkXkXkXxXxXsXkXsXkXkXkXlXU.r.!.%X>X`.C.M.k.V./ %.k.k.a.0.!.).N.6XlXpXgXgXkXkXkXkXkXkXkXkXkXkXxXxXbXbXxXxXbXMXbXxXxXxXbXbXbXbXbXbXMXMXcXcXmXmXpX,XpXbXkXbXbXlXgX%X).|.>XqXwXwXwXwXqX>X|.F.z.B.k.k.k.a.a.a.0.0.9.7.3.3.3.3.*.$.&.+.o.o.] &.&.&.&.+.+.o.o.} o.' ) ' ' ' G G G G ~ ! Y U U I I J Z h M b 3 7 B } ) _ ' ~ P U ~ ~ G B M P M 7 e s M Z U / } +.1.9.7.9.3.] / *.j.C.C.Z.F.J.I.I.I.I.",
"+X+X+XOX+X X).~.!.a.&.+.k.Z.V.N.j.q.7.9.*.+.) U B h 8 h U B M _ ] ] ' ' ' ' o.*._ n n c M n s J / / ) ) _ _ _ Y V F B I ' ' ] } ' ] %...o.o.#.#.$.$.&.-.&.' ' %.-.-.3.3.3.9.9.9.0.0.0.u.a.a.k.k.z.z.N.F.`.=XqXqXqXwXwXwX6X XF.~.qXkXbXbXmXpXdXmXnXbXxXxXbXbXbXbXcXMXcXcXcXcXcXcXxXxXxXxXkXkXkXkXkXkXkXkXkXkXkXkXkXkXkXlXlX>XF.I.`.a.r.k.c.j.U u.a.k.V.A. X6X4XS.a.+XgXkXkXkXkXkXkXkXkXkXkXkXkXkXkXkXkXkXxXxXxXxXxXxXxXxXxXxXxXxXxXxXxXxXxXxXxXxXxXxXxXxXxXxXxXxXxXxXbXbXbXbXbXbXdXdXxXxXsXsXsXsXkXkXkXkXnXlX%Xs.!.OX!.k.c.c.z.&.2.D.z.c.C.`.>X!. XlXbXlXkXkXxXkXxXxXbXbXxXxXxXxXxXxXxXxXbXbXbXbXbXbXbXxXxXxXxXxXxXxXxXxXxXxXxXxXxXxXbXxXxXxXxXxXxXxXxXxXxXxXxXxXkXkXkXkXkXkXxXsXkXsXkXkXlXyXz.r.I.+X:X~.V.c.a.k.~ +.a.a.0.7.J.`.B.`.lXkXkXkXkXkXkXkXkXkXkXkXkXkXxXxXbXbXxXxXMXMXxXxXxXxXbXbXbXbXbXbXcXcXcXmXmXmXyXyXkXbXkXkXkXkX$X~.|.:XqXqX6XqXwXqX>XOXN.z.B.B.k.k.a.a.r.0.0.9.7.3.3.3.3.3.&.$.o.] ] +.&.&.+.&.$.+.+.+.} +.&.] ' ' ' ' F F F F Y Y U U I L J G B n N c e 3 8 P $.o.' U Z F ! ! G B M P M 3 e s b B U ~ } o.&.3.q.q.a.9.#.Y ] q.c.Z.F.F.I.I.I.I.",
"%X+X+X+X X`.~.z.7.&.0.Z.H.S.V.z.q.q.9.3.$.o./ I M h 8 n ~ B i U o.' ..' ' ~ Y h e d n N b n a J ~ / ) ) ' ' ~ ! V F B I ' ' ] ] ] ] o...+.+.+.$.$.$.&.*.-.$.' ..%.&.-.2.3.3.9.9.0.0.0.u.a.a.j.z.k.z.c.c.Z.`.*XqXiXwXwXwXtX5X XY.XXqXpXkXmXsX;XsXnXcXcXcXcXcXcXcXcXbXbXxXbXcXbXbXbXMXMXMXMXMXMXMXbXkXkXkXkXkXkXkXgXpXlXpX6XJ.z.!.'.9.3.0.a.0.~ 0.a.k.c.V.OXqX*XF.0.r.%XlXlXgXbXlXkXkXkXkXkXkXbXbXbXxXkXkXxXxXxXxXxXxXbXbXbXbXbXbXbXbXbXbXxXxXxXxXxXxXxXxXxXxXxXxXMXbXbXbXbXbXbXbXcXxXxXxXkXkXkXxXbXnXbXbXlX=Xz.a.OX*XF.a.k.f.a.o.&.c.a.k.z.!.6X!.F.wXbXlXkXkXbXbXbXbXbXkXxXxXxXxXxXbXbXbXbXbXMXbXbXbXbXbXbXMXcXcXMXMXMXMXMXxXxXxXbXbXbXbXbXxXxXxXxXxXbXbXbXbXbXbXbXMXMXMXxXcXbXsXsXxXbXpXwXU.0.r.F.OX7X!.c.s.a.z.' ' a.a.8.7.C.).N.k.+XgXkXkXgXgXkXkXkXkXxXkXkXxXxXbXbXbXbXbXbXbXbXbXbXbXbXbXbXbXcXcXcXcXbXmXmXmXkXkXgXkXkXlXiX*X|.).:XqXwXqXqXqXqX>X XJ.V.M.z.z.k.a.a.p.0.0.8.7.7.3.3.3.5.=.&.' ~ _ o.&.&.$.+.+.+.+.+.+.+.&.&.] ' ' ' ~ F F F F Y Y Y U U L G S N h B c z g 9 1 i Z ! U Z Z J U G M g B z 3 e i b F U ! _ o.&.7.9.a.j.k.a.7.] Y 1.k.Z.J.!.J.J.I.",
" X+X+X+X|.Y.s.<.1.V.!.!.!.Z.k.a.0.0.9.3.#.] / U N d 8 h P i 4 P 3.+.) G c n h 3 3 i n N M c s P ~ ~ ) ) ' ' / U V S B L ' ' ] ] ] ] o.o.%.%.$.$.$.$.&.*.2.-.&.' ] +.=.-.5.3.3.9.9.0.0.0.a.a.j.k.k.k.k.z.c.F.!. X6XwXwXwXtX6X:X).~.;XiXkXxXkXyXxXnXbXcXcXcXcXcXcXcXcXmXmXmXmXmXbXcXcXcXcXbXbXbXbXbXbXbXkXkXxXbXbXkXiX6X%XJ.p.k.'.!.3.-.7.0.9.Y 0.a.d.c.V.'.6XOXF.3.} 7.).wXkXkXlXkXlXlXlXbXbXbXbXMXMXbXxXxXxXbXbXbXbXbXbXbXbXMXMXbXbXMXMXcXcXcXMXMXbXbXbXcXcXcXcXcXbXbXbXbXbXbXbXMXMXMXMXxXxXbXnXlXpXwX+XF.a.2.c.OX%XZ.a.f.a.a.o.&.z.r.a.k.!.qX!.a.I.+X5XpXkXnXnXbXbXbXbXcXbXxXkXMXMXMXMXbXbXbXbXbXbXbXbXbXcXcXmXmXbXmXmXcXMXMXbXbXMXbXMXcXcXcXcXcXcXcXcXMXMXbXbXxXxXxXxXbXcXbXsXxXxXpX,XU.e.$.a.F.OX5X!.k.a.a.z.' ' 0.a.0.7.N. XN.7.s.`.yXuXkXnXbXbXbXbXbXbXbXbXbXbXbXbXbXbXbXbXmXmXmXmXmXmXbXbXcXcXcXcXMXbXbXxXkXkXkXkXiXwX=XOX`. X6XqXwXwXwXqX>X XJ.N.M.c.z.k.k.a.a.r.0.9.7.4.3.3.3.3.&.%.] Y _ ] $.&.&.$.o.o.o.o.o.o.o.o.O.' ' ' ) ~ V V V V Y Y Y Y ~ Y I J N h N b z g e 3 - 1 i M Y Y U Z B M e 8 3 8 i g b F U ! / ] +.1.7.0.a.k.c.c.a.$.U &.k.C.H.H.J.H.",
"OX%X%X XP.8.O.8.J.!.!.!.J.c.r.0.9.9.3.&.o.' ~ U N d 8 8 0 3 8 J 3.U g 6 i h d ; 4 a c N N b g U ~ ~ ) ) ' ' ) U V S B L ' ' ] ] ] ] o.o.&.&.&.&.$.$.&.*.*.$.2.-.' ' o.&.-.3.3.9.9.0.0.0.q.a.j.j.k.k.k.k.c.c.C.I. X>XqXqXqX6X:XOXY..XyXpXsXpXsXvXmXbXcXcXcXcXcXcXcXbXmXmXmXmXmXmXmXmXmXmXmXmXmXmXkXbXmXbXkXiXqX>X XY.N.k.e.0.C.OXF.1.&.2.9.3.U 0.a.a.z.c.`.4XOXC.3.o.] 1.M.).:XuXiXpXkXbXkXbXbXbXbXMXcXMXcXcXcXbXbXbXmXmXmXmXbXmXbXbXmXmXmXmXmXmXMXbXMXMXmXmXmXmXmXcXMXMXMXMXcXcXcXbXbXbXbXlXiXwX%XP.k.0.2.-.0.F.@XOXN.r.a.a.a. .+.k.0.a.k.H.7X`.k.k.N.Z.!.+X6XuXkXbXbXmXbXbXcXcXcXcXcXMXcXMXMXMXMXMXMXbXbXcXmXmXmXmXmXmXmXvXMXMXcXcXcXcXbXcXcXcXcXcXcXcXMXMXMXMXMXMXbXbXpXkXpXiX<X1XY.M.8.$.} r.F.oX=XJ.s.a.0.d.' ' 9.9.9.3.a.`.P.8.<.e.B.Y.%X6XiXpXlXkXkXbXmXbXmXmXmXmXbXbXmXbXmXmXmXmXmXmXmXmXmXmXcXcXmXmXmXxXsXsXkXkXiX*X'.'. X+X6XqXwXwXqX:X XJ.N.N.z.z.k.a.a.p.r.e.8.7.4.3.3.3.3.*.+.' Y E o.$.$.$.$.+.o.o.o.o.o.o.] ' } _ ' ' ) ~ V V V V Y Y ~ ~ ~ Y U L N h N b h g i 8 8 e i i i i h N P M 3 ; X 8 i z b F U ! ~ ' o.$.3.9.q.j.j.C.D.c.0.Y ' a.C.F.Z.V.",
"|. X).F.3.<.s.J.!.!.!.F.C.k.r.0.3.3.*.+.] ' ~ U B z e - - 0 8 a B 0 6 a h m g 4 8 s c M N c d U ~ ~ ) ) ' ' / Y V S B J ' ' ] ] ] ] o.o.&.&.&.&.$.$.&.*.*.3.*.3.+.' ' o.&.5.3.3.9.9.0.0.q.a.a.j.j.j.k.k.z.z.z.D.J.|.5XwXqX5X:X+XXXXX<XyXxXiXpXcXmXbXcXcXcXcXcXcXcXMXbXxXpXsXkXxXMXMXMXMXcXcXcXcXbXbXiX%XY.F.N.k.B.N.P.). XI.!.OXN.&.$.&.5.2.U 0.y.a.k.z.~.*X'.c.z.V.N.z.z.k.N.U.). X.X%XqXiXbXbXMXbXbXMXcXcXcXcXbXbXmXmXmXmXmXmXbXbXmXmXxXxXxXxXbXbXbXbXbXbXbXMXmXmXcXMXMXMXMXMXbXiX,X%X).).P.F.Z.D.c.C.F.J.R.!.*XOXz.0.a.a.0.] +.a.9.r.c.C.*XOXM.a.k.k.N.S.F.Y.).+X,XyXpXkXbXcXbXbXbXbXMXMXMXMXbXbXMXbXbXMXmXmXmXmXmXmXmXmXmXvXMXcXcXMXMXbXbXbXbXbXbXbXMXMXMXMXkXtX1XXXY.VXY.T.T.T.F.F.P.N.r.k.J.oX*XS.a.p.0.a.' ` 4.3.3.1.0.). XN.a.N.Z.F.N.N.Z.I.`.+X;XpXmXbXbXbXbXbXbXbXbXbXmXmXmXmXmXmXmXmXbXcXcXcXbXbXxXpXsXkXkXkXgXOX!.'.OXOX>X6XqX6X%X|.J.N.N.N.z.k.a.a.a.a.e.0.7.4.3.3.3.3.*.&.o.~ I  .&.&.$.$.$.+.o.o.o.o.o.o.' / _ ~ ) ) ) ~ V B V V Y Y ~ ~ ~ Y U J N h B b h g s 9 i g h n d a 8 3 s 9 8 < X 1 i z b F U Y / ' ] o.&.3.0.a.c.V.D.D.Z.a.} U 3.c.z.a.",
"*X'.k.&.r.C.!.!.`.I.!.Z.k.a.r.0.4.2.&.+.} ' ~ P Z n 8 3 8 i i 3 1 8 s z M M z 8 7 d M M N b j J ~ / / ` ' ' / Y F F N J ' ] ] ] ] ] ..o.o.%.&.$.$.$.&.*.&.&.&.&.&.o.J ` -.3.2.3.7.7.9.9.0.q.r.a.a.a.j.j.k.k.z.N.M.S.`.>XqX:X X+X).).%XyXsXMXmXvXdX<X;XpXxXdXdXdXMXdXiXyXtXtXtXtX,X,X,X,XyXkXmXnXbXbXqX X XOX%X*X:X%X X|.'.!.J.`.0.$.$.&.3.2.Y 5.9.9.0.0.V.%X).!. XOX=X7X5X>X-X*X XXX).Y.).~. XiXMXMXMXMXxXpX3X<X3XqXtXyXyXiXpXsXkXkXxXxXpXiXyXyXyXyXyXyXtXtXuXiXpXgXgXgXpXpXgXkX:XF.k.F.!.`. X%X*X*X*X*XOX'.(.!.{._.a.u.a.0.0. .+.u.0.a.a.a.(.`.P.Y.).`.OX X X X|.`.).).Y.Y.|.iXpXpXpXpXpXpXiXpXpXsXdXdXxXdXdXdXdXdXdXdXxXxXxXxXxXdXpXpXaXaXaXaX,X;X;X,XpXsXbXbXpXY.Y. X.X+X%X;X;X;X;X:X:X+X|.).Z.P. XV.0.6.0.a.` / 2.2.2.&.2.J.*X*X+X%X:X>X,X,X%X+X X X). XyXbXbXbXbXbXyX<X1X%X,X<X<X;X<XpXmXbXbXbXbXbXkXyX<X%XkXdXgXpXiXOXI.`.%XOX X*X7XOX!.F.C.V.M.z.k.k.a.a.a.q.0.0.9.3.5.2.3.&.&.&.o.B ' &.$.$.+.+.+.+.o.o.o.o.] ] ' ' ) ) / / ~ ~ B N B Z Y Y U U Y L J J M h B M z h a 8 e g c z c c i ; 0 4 7 8 - 7 s n b Z P Y ~ ' ] o.+.*.9.a.j.c.V.C.C.Z.N.0.Y _ 9.0.",
"J.1.9.z.H.!.`.`.!.H.J.c.a.r.0.0.3.2.&.+.} ' ~ P Z b a i a h d 8 7 i z c B B c 9 8 h B B B b j J ~ ~ ~ ) ' ' / U B F N G ` ' [ [ ] ] ..o.....o.&.$.$.&.&.$.$.=.=.*.*.%.o.-.3.3.9.7.7.9.9.9.9.q.r.a.a.a.a.j.k.k.z.M.C.~.:X6X:X X%X`.).+XqXgXmXmXmXaXsXMXmXcXcXcXvXmXmXmXmXmXmXmXmXmXvXcXbXnXmXmXxXkXbXsXwX,X,X>X>X*X%X$X+X%XOXH.V.3.#.$.2.5.-.U 3.3.9.0.0.a.!.). X*X>X0XwXiXfXkXkXsXpXiXiXqX.X%XbXbXbXbXbXmXbXcXcXmXvXcXcXcXvXmXmXvXvXvXvXmXmXmXmXmXmXmXmXbXmXmXmXmXmXmXmXmXmXmXbXpXqX,XwXwXwXiXgXfXwX6X*X*X X!.J.!.Z.0.y.0.9.3.' o.0.0.0.9.9.J.*X+X:X6XuXfXiXfXfXfXiXiXuXqX%X:XbXmXmXmXmXmXmXmXcXcXcXvXvXmXmXmXmXvXvXvXvXvXvXvXvXmXmXmXmXvXvXvXvXmXvXvXmXmXmXmXnXxX<X3XwXwXwXyXyXyXyXyXtX5X5X6X6XOX!.H.k.6.3.6.0.` ~ 2.&.2.&.O.4.F.OX6X5X6XuXuXuXgXgXkXlXwX,XiXbXbXbXbXbXmXmXbXbXmXmXmXnXbXmXmXnXmXmXmXmXmXmXbXpXbXxXkXkXiX XI.|.%XOX`.%XOX!.Z.V.V.M.z.k.s.a.a.r.q.0.9.7.3.5.2.-.&.3.2.&.' +.2.+.$.$.+.+.+.o.o.o.} ] ] ] ' ' ) ) / ~ ~ ~ B M B Z Y Y U I L G F F M h B M n n s 8 e h c z c z e ; 8 9 i a 8 e s h b Z P U ~ _ ' o.o.$.3.q.a.c.a.a.z.V.F.F.c.o.F Y ",
"&.3.H.H.!.`.`.`.V.Z.F.k.a.r.0.0.2.&.&.o.} ' ( P Z c d h h z g i 3 s c c B B m 9 8 h B B B b j J ~ ~ ~ / / / ~ U B B b F ) ' ' ' ] ] o.o...' ] #.$.$.$.$.$.$.$.=.3.*.3.3.2.5.&.-.7.7.7.9.9.9.0.q.a.a.a.a.a.k.k.z.z.C.Y.%X6X%XOX*X|.`.OX,XpXbXbXbXmXvXmXmXmXvXvXvXcXcXmXmXmXmXmXmXmXmXmXmXbXbXbXbXlXkXpXiXwXwXwXuXwXqX>X:XOX).z.&.+.o.&.$.&.&.J =.-.2.3.3.3.r.c.H.|.OX%X:X6XqXuXpXpXsXsXkXkXiXkXcXbXbXbXbXmXbXbXcXmXvXvXcXcXcXcXvXvXvXvXvXvXmXmXmXmXmXmXmXmXmXmXmXmXmXmXmXmXmXcXxXbXcXxXsXpXpXpXpXwXwXqX,X6X>X%XOX~.z.3.0.9.3.3.] o.9.3.3.3.3.k.OX%X:X>X6XqX6XyXuXuXiXiXiXkXqXqXvXmXmXmXmXvXvXvXvXvXvXvXmXmXmXmXmXmXmXmXmXvXvXvXvXMXMXvXvXmXmXmXmXvXmXmXmXbXbXbXxXkXiXiXyXuXyXyXqXuXwXqX6X6X5X=X%XOXH.z.9.2.2.2.9.~ ~ &.&.=.&.o.$.e.!.>X6XuXfXgXgXkXgXpXpXkXpXbXbXbXbXbXbXxXmXmXmXmXmXmXmXmXmXmXmXmXmXmXmXmXmXmXxXdXkXsXpXqX XP.`.*X X).OX!.Z.c.V.c.z.k.a.a.a.r.0.0.9.7.3.5.2.-.&.o.+.2.&.&.2.&.&.&.$.+.o.o.o.o.o.' ] ] ] ' ' ) ) ~ ~ ~ ! B M M B U U I L G Z Z F M h B M b c g i i z M c c z e ; 8 i g h d i a h b Z P Y ~ / ' ] o.#.3.9.a.c.9.0.a.z.C.J.F.J.7.Y ",
"k.F.!.`.`.'.!.Z.0.C.H.z.a.r.0.0.2.&.+.o.} ' ~ P F n a h h h d a 3 s c M B B M e 8 h B B B b l J ~ ~ ~ ~ / / ~ U B B b F ) ' ' ' ' ] o.o.o...] o.$.$.$.$.&.$.$.$.$.2.*.*.5.-.o...3.3.7.7.7.9.9.0.y.y.a.a.a.a.k.k.z.C.P.OX5X%XOX:X|.~. X>XuXpXkXkXbXmXmXbXcXcXcXcXcXMXMXbXgXkXkXkXkXkXkXkXkXiXyXyXwXwXyXyXiXyXwXqX%X X~.P.N.a.7.+.o.] #.o.=.%.G &.&.-.5.5.1.&.0.c.J.!.).'. X X+X$X,XqXyXiXpXiXbXkXkXkXkXkXkXbXbXbXbXcXcXcXcXcXxXxXcXcXcXxXxXMXcXmXxXxXxXxXxXxXdXpXxXxXxXxXMXxXxXsXiXiXiXyX,X,X<X;X$X+X X X`.U.F.N.a.5.&.3.3.2.3.' o.9.-.-.3.3.7.C.Y.). X%X%X;X<X6X>X,X6XqXpXyXyXxXsXsXsXsXiXiXaXiXiXpXpXdXMXMXMXMXMXxXxXxXMXMXMXbXxXxXbXMXMXbXbXbXkXbXbXkXkXkXkXkXkXpXyXwXqX6X,X>X*X$X X|.!.P.F.C.c.k.a.2.2.&.2.3.~ E =.&.&.&.o.&.e.C.`.+X%X:X:X:X6XqXuXiXyXyXkXpXgXgXgXgXpXkXkXkXkXxXbXbXkXkXkXkXxXbXbXbXbXmXcXpXpXpXiXiX<X).F.).*X X(. X!.C.c.N.z.k.a.a.a.r.0.0.9.9.3.3.2.-.&.%.~ U ;.2.2.&.&.&.$.$.+.o.o.o.o.o._ ' ] ] ' ' ) ) ~ ~ ! Y N M M B U U L L G G F G b h B M b b h i s c M M c c i ; 0 i g g a 8 i h b B J Y ! ~ _ ' ] o.&.7.0.z.3.7.0.a.c.F.F.J.H.F.",
"`.`.`.'.'.H.k.0.a.C.J.k.p.r.0.7.2.&.+.+.] ' ! P F c g g n n h s 3 s M M M B M i 8 z V V N b h J ~ ~ ~ ~ / / ~ P B B b F ) ' ' ' ' ' ' ....o.o.o.o.#.$.$.&.&.&.=.&.-.-.-.7.3.o.' 7.7.3.3.2.3.7.9.0.0.a.a.a.a.a.k.k.z.B.).+X X X6X|.P.).*X>X*X5XwXuXiXpXgXiXiXiXiXtX6X6XyXuXuXyXuXuXuXwXwXwXqXwX:X X%X:X*X:X%X X`.).~.I.P.S.V.a.2.$.#.o.] %.] B o.&.&.-.3.3.3.0.9.r.z.I.`.).`. X$X%X:XqX3X3XqXqX,X6X6XqXwXqXqXqXqXpXiXiXiXyXiXiXiXyXyXuXiXiXiXuXyXyXuXyXtXqXqXqXtXqXqXqXqX6X6X,X<X:X6XqX:XOXOX X X).).~.!.!.F.z.r.2.2.2.2.2.&.2./ ' -.-.&.3.3.1.1.s.Z.P.P.Y.Y.~.).).|. XOX%X$X%X<X>X,X6X6XqX6X,X,X6XqXwXuXiXiXiXiXpXpXiXiXuXuXuXuXwXqXqXqXwXwXwXwXwXwXwXwXqXqX6X6XqXwXqX,X>X5X>X%XOX|.(.I.J.Z.c.k.a.9.2.&.&.&.&.&.~ ~ &.o.#.+.' o.2.k.F.!.).`.|.|. XOX%X*X:X%X+X;X:X>X6X6XqXqXqX6X6XqXtXyXuXyX6X,X6X6X6X6XqX6X<X;X;X;X:X;X XU.D.`.OX`.!. XH.c.N.z.z.k.k.a.a.a.0.0.9.9.7.7.2.&.&.%.~ +.2.2.2.&.&.&.#.+.o.o.' ' ] ] ] ' ] ] ' ) / ~ ~ Y U U N b M B U U L G S F F F N n N B B M h i s c B M B c i 1 0 i h i s i a h c B J U ~ ~ ' ' ] o.$.3.3.j.9.9.0.r.a.k.S.J.!.!.",
"`.'.'.'.Z.a.9.k.a.C.F.k.p.a.0.7.2.&.&.+.] ' ! P Z c g g n n h s 3 s M M M B M i e z V V N b h J ~ ~ E ~ / / ~ J B B b F ) ' ` ` ' ) ' ] ....o.o.o.o.#.$.&.&.&.&.&.-.-.-.2.3.5.%.*.9.3.3.*.3.7.9.0.0.a.a.a.a.a.k.k.a.k.~.OX X X>X`.P.!.`.`.`.|.OX%X%X%X*X%X%X*X*X|.`.`.|.%X%X+X+X%X%X+X+X+XOX XI.B.F.).|.Y.I.I.I.P.J.F.Z.V.c.a.3.$.o.' ~ ` ` B o.%.%.&.5.3.2.0.9.7.a.k.C.I.~.|.+X X X X`.`. XOX X`.|. X X X|.|.|. X X X X+X+X+X+XOXOXOXOXOXOXOXOXOXOXOXOXOXOXOXOXOXOXOXOXOX X|.`.!.`. X'.`.`.).).!.!.H.J.F.M.s.0.3.3.3.3.2.&.2.' ' -.2.-.3.3.1.1.e.k.N.N.S.S.F.P.J.P.!.~.~.!.(.`.`.`.|. XOXOX X XOXOXOX+X+X+X+X+X%X%X%X%X+X+X+X+XOX X X X X X X X X X X XOX X X X$X%X+X X%X*X*XOX!.!.J.F.C.v.k.a.0.3.&.&.&.&.&.&.G J o...#.o.' o.&.0.k.V.F.P.~.).). X X$X X).F.Z.P.`.OX XOXOXOX X XOX+X+X%X+XOX XOXOXOXOXOX X`.).).).).~.`.H.C.`.OX`.!. XF.c.c.k.k.a.a.a.0.0.9.9.9.7.7.3.3.&.+.' +.2.2.2.&.&.&.&.#.#.o.o./ ) ' ' ] ' ' ] ' / ~ ~ ! Y U U N b M B U P J G G G F F N n N B B M h i s c B M M c i 3 8 a h a s i a h c B G U ~ / ' ' ] o.$.*.3.a.9.9.0.0.0.r.M.F.H.H.",
"`.'.`.H.a.7.k.Z.z.V.Z.s.a.r.9.3.2.2.&.&.] ' ! P Z c g g n n h s 3 s M M M B M i e z V V N b h J E E E E / / ~ G B N n S / ' ` ) ) ) ` ' ' ..o.o.o.o.o.%.&.&.&.&.&.-.-.-.3.$.3.9.o.2.7.3.&.*.3.7.0.0.a.a.a.a.a.a.s.0.e.I. X|.|.>X!.H.J.C.V.Z.F.J.!.!.!.!.!.!.!.!.!.H.H.!.!.!.!.!.!.!.!.I.!.P.J.k.p.s.k.s.r.p.a.a.p.r.r.r.7.7.2.$.] ) Y L ~ ` S o.o.o.%.&.3.-.9.9.2.3.7.0.e.p.k.c.Z.D.C.z.c.D.J.F.F.J.H.I.H.H.H.J.J.J.J.J.I.I.!.!.!.!.!.!.!.!.!.!.^.^.!.^.R.R.R.R.R.R.R.R.H.J.F.D.c.c.b.b.C.C.V.V.c.z.k.a.a.y.6.3.-.-.-.-.&.&.&./ / $.-.-.*.*.*.1.4.0.p.p.a.a.f.z.z.v.V.Z.c.z.z.C.Z.S.F.J.R.!.!.!.!.!.~.~.!.!.!.!.I.Y.Y.I.I.I.I.!.!.!.I.H.H.H.H.H.H.H.H.I.I.J.J.F.J.J.Z.z.z.V.V.c.j.a.a.0.u.y.0.9.9.5.-.%.&.&.&.&.S G o.' #.o.' o.o.=.3.9.9.a.k.z.M.N.F.F.F.Z.e.4.k.F.J.H.F.F.F.F.F.H.R.!.!.!.!.!.!.!.!.!.!.!.R.H.P.Y.I.I.H.F.C.(.OX'.!.`.Z.z.k.a.a.a.r.0.9.9.9.9.7.7.3.3.5.=...' 2.2.2.2.=.&.%.o.o.o.o...) ) ` ' ' ' ' ' ) ~ ~ ~ ! Y Y U N b b N U G F G L J J J N n N B B M h i s c B M c z s 7 8 a z a s i a h c B G U ~ / ' ' ' o.$.&.&.9.0.7.0.0.0.0.r.V.J.J.",
"'.'.H.k.a.z.Z.F.N.V.C.s.p.r.9.7.3.2.&.&.} ' ! P Z c g g n n h d 3 s M M M B M e 9 z V V N b h J E E Y Y ~ / ! F B N n S ~ ) ) ) ) ) ` ' ' ' ..o.o...o.o.&.&.&.&.&.&.-.-.$.*.&.7.3...$.3.&.*.3.3.0.0.a.a.a.a.a.a.r.7.8.J. X`.`.:X!.J.Z.a.a.z.V.v.Z.V.v.c.V.V.V.V.Z.V.V.Z.c.c.c.c.k.k.s.s.s.a.s.7.3.3.&.o.o.o.o.} } } } o._ ' / ! U L G V U E N ~ ~ E ~ ' ..] %.o.o.+.&.&.<.&.&.&.3.3.3.*.9.u.a.a.k.k.c.c.z.z.z.k.z.z.z.z.V.V.C.C.C.C.C.C.V.V.Z.D.D.D.D.Z.Z.C.C.C.C.C.C.C.z.z.l.j.0.3.2.-.3.5.3.;.-.-.=.%.+.+.o.o.] ] ] ] o. .o.U I ] o.+.] ] ] ] ]  .o.+.+.+.&.;.3.5.9.0.9.7.7.q.7.9.9.0.a.a.a.k.z.c.N.V.z.z.z.z.B.B.N.N.c.c.N.N.V.N.z.z.z.z.z.z.z.z.k.z.k.s.a.a.9.9.3.$.o.$.=.$.$.&.&.&.&.&.&.+.o.%.o.' ' ' ' ' B B ~ U ) ) U ~ ' ' ' ..' ] ] ] } $.$.&.$.1.o.$.3.q.0.u.a.a.d.d.z.z.v.b.b.b.b.V.C.Z.Z.A.J.J.G.A.S.S.F.Z.Z.C.V.(.OX'.!. XC.k.k.a.r.e.0.8.9.9.9.6.7.3.3.3.=.o.' 2.2.2.2.2.&.%.+.o.] ' ' ' ` ' [ [ ' ' ' ' ~ ~ ! ~ ! Y Y U M b b N U F V G L L L J N n N B B b h a s c B M c c s 7 8 a z a s i a h c B G U ~ / ' ' ' ] #.$.$.7.q.7.0.0.0.0.3.a.Z.J.",
"`.C.a.s.N.F.F.Z.z.k.b.u.a.q.9.7.2.&.&.+.} ' ~ U Z n d d h n n d 4 n B N N N b i w g B V B b h J E Y Y Y ~ ( Y C B N n S E ` ` ` ` ` ' ' ' ] ..o.o.o.o.o.o.&.&.&.&.&.2.2.2.2.2.3.2.&.] %.=.2.7.3.7.9.0.q.r.r.r.r.0.3.k.H.OX'.'.7X).!.C.a.z.V.J.I.!.!.!.!.!.!.!.!.!.!.!.!.!.!.!.!.!.I.I.I.J.F.z.3.7.8.e.r.&.o.' ' ' ~ Y U ~ Y U U U U I I ~ U B E ~ / ` ` ..' ] o.&.&.&.1.3.2.3.3.7.0.q.9.a.a.k.c.C.C.C.C.C.C.F.F.D.D.D.D.J.J.J.J.J.P.P.P.J.P.!.I.I.I.I.I.I.H.H.H.H.H.H.H.C.V.b.z.z.0.7.0.0.9.3.5.-.&.%.+.o.........' / ~ / ' / E I E ) ` E ~ ) ) / / / ' ] o.=.&.3.9.0.r.e.r.p.p.a.r.a.a.z.M.M.N.N.N.N.N.Z.Z.Z.Z.S.Z.Z.Z.S.S.S.S.S.S.S.S.Z.Z.Z.Z.C.C.C.C.N.z.z.k.a.r.0.7.1.1.*.$.+. .'  .' ' ' ' ..' ` ~ ) ~ E E U U I I I U U Y ~ ~ ~ ` ' ' ' ) ] } o.o.*.3.7.9.a.k.c.V.F.F.F.F.J.H.H.H.I.H.J.J.J.J.H.H.H.H.H.J.J.F.N.z.c.c.Z.J.'.'.`. XV.a.0.0.q.9.3.9.9.7.7.3.2.3.3.&.] ) *.$.*.&.$.$.&.#.o.o.] E V ~ ' [ ' ' _ ' _ ) Y ~ ~ Y Y U U U B b b m L G V S G G J J B n B F B b g i d b N M M b d 8 8 p z p i i i g c B G U ! ~ ' ' ' ] +.$.#.3.a.7.9.q.q.q.a.9.a.D.",
"J.s.a.z.F.F.Z.C.k.k.V.u.a.q.7.7.1.&.$.o.] _ ~ U B n d d d h h h 7 c B N N N v i w g B V B b j J ~ ~ Y Y ! ( U B B N n F E ` ` ` ~ ` ' ' ' ' ....o.o.o.o...] o.=.&.&.&.&.2.2.2.2.2.2.&.' ..=.-.3.3.7.0.q.r.r.q.q.0.9.c.!.`.`. X6X X).I.I. XOX*X-X:X>X>X>X>X>X>X>X>X>X>X>X>X>X>X>X>X>X>X>X>X*XOXI.!.!.~.).S.F.S.M.N.z.k.a.a.0.0.9.-.-.&.=.&.+.' =.%.%.=.=.-.5.a.c.Z.Z.F.J.J.H.!.!.!.`.'.`.!.`.'. XOXOXOXOXOXOX+X+X+X+X+X+X+X+X+X+X%X%X%X%X+X%X%X%X+X+X+X+X+X+X+X%XOX%X%XOXOX[.'.`. X`.`.OX X'.`.).`.^.R.F.V.c.k.a.u.0.3.3.&.-.&.=.-.3.3.*.7.7.9.9.u.a.a.c.G.R._.`.).`.`.`.).|.|. X X X X X+X+X%X%X%X%X%X%X%X$X$X$X$X+X+X+X X X X X X X X X X X X X X X X XOX X X`. X X`.).`.).).(.J.A.V.V.V.C.C.C.a.u.9.5.;.-.=.=.#.#.o.o.%.%.$.=.3.0.u.j.c.C.G.F.!.!.(.).(.`.OXOX*X=X7X6X6X6X6X6X6X6X6X6X,X>X:X:X:X:X:X:X*X*X*X%X%XOX'.`.H.D.C.D.!.`.`.'.C.a.r.7.9.7.7.7.7.7.3.3.3.&.*.] / *.*.2.*.&.$.$.&.#.+.o.#.` L ~ ' ' ' ' _ ' ` ~ ~ ~ ~ ! Y U U U B m b N L G V G V S G G B n N F B c g i s c N M M b d 8 8 a z a i a a g c B G U ! ~ / ' ' ] +.$.#.3.a.3.9.q.q.a.a.0.9.j.",
"c.a.k.C.F.Z.C.C.k.k.V.a.q.0.7.3.1.&.&.o.] ^ ! P B z g h h g d g 0 c B b b M v a e l B V B b h G Y Y U U U ! U C B N n S E ` ` ` ~ ~ ` ` ` ' ' ' ..o.o.o.o.' ] &.&.&.&.&.&.&.&.1.2.1.3.-.' o.-.-.3.3.9.0.q.q.q.q.0.r.Z.!.`.).'.6X X'. X%X5X6XqXwXqXyXuXuXiXiXiXiXiXiXiXiXiXiXiXiXiXiXiXiXiXqXqX%X%X%X%X%X|. X`.!.H.S.V.k.a.a.0.0.9.9.7.3.3.5.3.0.0.0.w.u.u.a.k.C.Z.F.J.I.). X*X*X>X6X6X>X6X6XqXqXqXqXqXqXqXqXyXyXyXyXtXyXqXqXqXqXtXtXtXtXtXtXqXqXqXqXqXqXqXqXqXqXqXqXqXqXqXqX6X6X6X*X*X*X%XOX X X'.`.!.F.D.C.c.z.a.a.u.0.u.0.0.a.a.u.w.9.u.a.j.j.l.z.b.G.J.^.'.OX*X=X5X5X6X6XqXtXuXuXuXuXuXuXuXuXuXuXuXuXqXqXqXqXqXqXqXqXqXqXqXqXqXqXqXqXqXqXqXqX6X6X6X6X6X6X6XqXqXqXqXqXqX6X,X:X:X*X|.~.!.J.C.c.0.9.3.2.3.3.*.*.3.5.7.7.7.7.7.9.0.a.k.b.V.G.F.J.H.(. X%X*X>X6XqXqXuXfXpXiXiXiXiXuXyXyXiXiXiXyXyXyXyXtXtX6X6X6X6X>X-X-X*X%X`.J.c.Z.!.`.!.C.k.r.2.3.7.7.7.7.3.3.3.*.*.#.' 3.*.$.*.*.*.$.$.&.#.+.o.o.[ ) ) ` ` ) ) _ ' ` ~ Y ~ ~ Y Y U U U B b c m L G V S V V V G B j b B B z d i a n M b b c s 0 8 a z a a d g g c B G U U ~ / / ' ] +.$.#.3.q.*.9.q.q.a.a.a.9.3.",
"k.c.C.F.Z.C.C.c.a.a.c.a.q.0.7.3.1.&.&.o.' / Y J N z g z N z d d 0 c m c c b b i e z V F B n d F Y U U U U ! U C B N n S E ` ` ` E ~ / ` ` ` ' ' ] ] o.o.o.] o.$.&.&.&.&.&.&.&.&.1.2.&.2.;...o.-.-.5.3.9.q.q.q.q.0.a.J.`.'.).).=X).OX*X>XwXwXyXyXuXiXiXpXgXgXgXgXkXgXkXkXgXkXkXkXkXkXkXkXlXgXgXwXwXwXqXqXwX XC.a.0.0.a.p.a.a.a.0.7.7.3.3.5.3.3.9.u.u.a.a.q.q.a.j.k.k.N.D.`.*XqXqXwXyXiXwXyXuXuXuXyXyXyXyXyXyXiXiXiXiXiXiXiXiXiXiXpXpXpXpXpXpXiXyXpXpXpXiXiXiXiXiXiXiXiXiXiXwXwXqXqX6X5X>X*X%XOX XI.F.N.k.a.a.a.a.a.a.a.a.0.9.0.a.a.u.q.0.a.a.j.j.z.z.z.b.k.C.!.!.OX=X6XwXuXiXpXpXpXpXpXpXfXfXfXfXpXpXpXpXpXiXiXiXpXpXpXiXiXiXiXiXiXiXiXiXiXiXiXiXuXuXuXuXuXuXiXiXiXiXiXiXiXiXyXyXuX6XOXQ.V.z.a.0.7.7.7.7.7.7.3.3.3.7.7.7.9.9.9.q.a.a.a.k.u.a.q.q.z.F. X*X,XqXwXyXuXpXkXkXkXkXkXkXkXkXkXkXxXkXgXpXpXiXiXiXuXuXuXyXwXqXqXqX6X*X`.C.z.J.!.).Z.z.r.1.&.3.9.3.3.3.3.3.&.o.' 3.3.3.*.3.-.*.$.$.$.#.+.o.' ' ] ' ' _ ) ) _ ) ~ E U U U U U U U U B c c m L G V S V V V V B h b B N z d i i z b c c c a 0 8 a z a g g h l v B G U U ! ~ / ' ] +.$.&.3.9.&.7.0.q.a.q.a.q.3.",
"z.C.F.F.Z.Z.C.c.q.a.b.0.q.9.7.3.1.&.$.o.^ ~ U G M c M Z F n i d 8 b m h c b c i i c B V B n a F Y U U P U ! ! G B B h S ~ ~ ~ ~ E Y Y ~ / ` ` ' ' ] ] o.o.o.+.#.&.&.&.&.&.&.&.&.&.1.*.-.3.;.` %.5.3.3.3.9.9.9.9.3.a.c.!.`.|.OX$XOX*X5XqXqXwXyXiXuXiXpXpXpXkXpXgXkXbXbXkXlXlXlXbXnXnXlXlXbXlXpXiXgXfXiXiXfX6X%X|.!.!.H.J.C.c.a.a.9.9.3.3.3.3.7.q.a.j.z.c.C.F.(.OX*X*X*X>XqXwXwXeXfXlXkXiXuXuXuXyXiXiXiXiXiXiXpXiXpXiXpXgXpXpXpXpXpXpXpXiXiXiXiXiXgXgXgXgXiXiXpXpXiXiXiXiXpXpXiXiXyXwXqX,X>X:X:X>X%X X).Y.I.J.S.C.M.k.s.s.p.e.e.e.q.q.0.0.k.c.F.H.H.`.'.OXOX%X*X5XqXwXfXgXkXgXfXgXfXfXiXiXfXfXfXfXiXpXpXpXiXiXiXiXiXiXiXpXpXiXiXiXiXiXiXiXiXiXiXiXiXiXiXiXuXiXiXiXiXiXiXuXiXiXpXkXgXfXwX:X%X`.H.F.c.z.a.r.9.7.7.3.3.7.7.9.7.9.a.j.z.Z.J.H.J.!.(.`.$X$X>XqXwXiXiXwXiXiXgXkXlXkXkXkXkXxXxXxXxXkXxXxXpXpXpXpXgXpXiXiXiXuXwXwXqXqX*X`.J.C.F.!.Z.k.7.} $.*.*.3.9.3.*.&.+.' 3.*.*.*.*.*.-.*.$.#.#.o.} ] ] ] ] ' ' _ ~ ~ ) ~ ~ Y U F L U U U U U N b c m G G F F V V S S B k b B N z d i a l c z n h d 0 3 s g a l g g l v B G H U ! ~ / ' ] o.+.$.*.9.-.7.0.q.a.a.r.q.9.",
"z.C.F.Z.Z.C.C.c.0.a.b.0.q.9.3.3.&.&.+.o.^ ~ U G M c M Z Z z i d 8 b B m m N v a e z B V B n a F Y Y U U U ! ! G F B g S Y Y E E ~ E U U / ` ' ' ' ] ] ] ..o.o.+.+.O.$.&.&.&.&.&.&.&.*.-.-.-.o.` &.2.3.3.7.7.7.7.3.a.z.!.OX+X%X=X>X6XqXwXwXuXyXiXuXuXiXiXiXiX6X>XqXwXiXiXwXiXiXiXpXpXpXiXyXqX6X6XqXqX6X6X>X=X%X:X>X*XOX X!.H.Z.V.j.q.0.9.q.q.a.a.k.c.V.Z.F.!.OX=X6X5X6X6X6X6XqXqXwXqXqXwXuXuXuXuXyXuXuXuXuXyXiXiXiXpXgXiXiXiXiXiXiXiXiXiXiXiXpXpXpXpXpXpXpXpXpXpXiXpXpXiXpXiXiXuXwX>X>XqXqXqXwXeXiXwX6X>X%XOX|.).I.S.M.k.s.a.p.p.a.a.a.a.c.C.J.I.(.'.OX%X*X*X5X6X6XqXwXuXuX5X6XgXgXgXfXfXfXgXfXfXpXpXpXpXiXpXgXgXgXgXpXpXgXgXpXpXiXiXpXpXpXpXgXpXgXfXfXfXiXiXiXiXgXiXuXwX6X:X:X>X6XqXqX6X7X=X*X*XOX).F.N.k.r.9.7.7.7.9.9.0.q.q.r.k.c.F.(.OX*X7X6XqXqXwXiXwXwXqX>X*X>X6XwX6X6XqXqXqXqXqXqXuXtX6X6X>X>X6XiXpXiXuXuXuXuXwXqXqXqX6X%X'.I.!.!.C.a.3.o.$.&.*.3.3.$.2.$.' 3.3.3.*.*.*.*.-.&.$.#.+.o.] ] ] ] ' ' ' _ ~ ~ ~ ~ ~ ~ G J Y Y U U U L N b c m G G F F V V S S B k b B B z d e d c M c n h d 0 3 s g p l g g l b B G J U Y ~ / ' ] o.o.#.*.9.*.7.9.q.r.a.r.q.q.",
"z.C.S.Z.C.C.V.z.u.a.V.u.q.9.3.3.&.$.o.] _ ~ U G M c M Z N h i d 8 n B B B B M a e z m B B n a B Y U U U H Y U G F B d B U U U Y E E U I U ~ ` ' ' ] ] ] ] ] o.o.o.o.o.o.$.$.&.&.&.&.&.-.-.-.&.] o.=.2.5.3.3.7.3.3.0.a.!.%X%X>X6XqXwXwXwXwXwXqXqX6X>X>X:X:X!.k.c.H.!.`.`._.`.].`.`.`.).).).!.!.!.).).~.~.!.~.!.!.!.!.).`.).!.J.F.N.z.z.j.z.z.z.j.a.k.z.C.F.I.!.!.!.!.!.!.`.`.'.'.'.`.OX>XfXfXfXiXiXiXiXiXuXuXiXiXiXiXiXiXiXiXiXiXiXiXfXfXfXfXfXiXgXgXgXgXiXpXiXiXyXiXiXyXyXyXqXqX:X X'. X X|. X|.).`.).).|.|. X X|.~.I.S.C.M.M.M.M.M.M.M.V.S.J.H.I.(.).).I.I.U.(.!.!.~.~.!.P.|.>XuXwXwXqXqXwXwXwXwXuXuXyXyXiXgXkXiXiXiXiXiXiXiXfXiXiXiXiXiXiXfXfXfXfXfXfXfXiXuXwXuXwXwXqX*XOX X X X X`.(.H.I.).OX%X X).U.F.M.k.r.a.a.a.a.r.r.a.a.a.z.C.!.!.`.`.`.'.).).`.$X$X X).!.!.I.P.!.!.~.).).).).).Y.P.J.F.S.k.F.%XqX6X:X*X6XqXqX6X6XqX6X*X%X XOX`.C.r.2.+.&.&.1.3.3.3.$.) 3.3.&.&.*.*.*.*.*.&.&.o.} ] ] ] ] ' ' ' / ~ ! ! ! ~ Y U S U Y U U U L L N b c m G G G F V V S S B k b B M l p e d c M c n h d 0 3 s g p l g g l c B C G U Y E ~ ' ' } o.#.&.7.&.3.9.9.q.a.r.q.q.",
"z.V.Z.C.C.V.c.z.u.a.V.u.0.9.3.2.&.+.o.] _ ~ U G N b M Z M g i d 4 h N V V Z M a w z m B B n d F Y U U P U Y Y G J B d N J I U U I Y U U S U ~ ` ' ' ] ] ' ] o.o.o.} } ] } $.&.&.&.&.&.&.-.2.&.&.` %.&.5.3.3.3.3.3.9.a.!.%X*X>X7XqXwXqXqX6X6X>X:XOX X`.).OX`.R._.!.`.`.(.`.`.`.`.).).(.!.I.H.J.I.U.U.I.P.`.`.'.'. X X X'.`.!.H.F.C.C.F.C.C.F.D.c.k.N.F.H.!.`.OX XOX X'.'.OXOXOX%X&XOXOX*X*X*X*X*X*X%X*X*X>X>X>X>X%XOX X X*X*X*X*X*X:X:X>X5X5X5X5X>X>X>X>X:X:X:X:X:X:X:X:X<X<X:X;X%X*X*X-X%XOX X).).|. X X%X+XOX XOX X|.~.!.I.P.P.P.P.P.P.!.~.`.`. X%X%X%XOXOXOX%X%X*X*X%X:X%X:X5X>X>X*X*X*X*X*X*X*X*X:X:X X X$X*X*X*X*X*X%X%X:X>X>X>X>X>X*X*X*X*X6X6X6X6X6X5X*X*XOX%X*X*X*XOX X X'. X'.).'.).`.'. X X`.).(.I.F.N.C.N.N.c.z.C.F.J.!. XOX%XOX X(.U.(.U.H.H.J.H.H.J.J.H.H.H.!.!.`.`.`.`.`.`.`.`.'.'.`.!.`.OX:X%XOX`.OX>X6X6X6X6X5X*X*X*X*X!.M.0.<.$.&.&.1.1.3.*.' o.*.3.&.2.*.*.*.*.*.$.#.o.] ' ] ] ' ' ' ' / ~ ! ! ! ~ P b I U I U U L L J N b c m G G G G V V S S B k N B M h a e a l c z n h d 0 3 s g p l g g l c B C G U U Y ~ _ ' } o.o.$.7.*.3.7.9.0.q.q.q.q.",
"C.F.D.D.V.c.z.l.u.a.V.p.0.9.3.2.&.+.o.] _ ~ Y J B b M B B g a a 0 s m B Z Z M e q l M B N n d F U U U P U Y U P F F b a m V G U I U U U U V J Y ) ' ' ' ' ] ] o.o.o.o.} ] #.#.$.$.$.$.&.*.1.&.$.o.U &.3.2.2.2.2.3.*.3.D.%XOX XOXOX*X=X>X:X=X%X+X|.OX%X=X*X%X%XOXOXOXOXOXOXOX-X=X*X*X$X$X).).`. X X X XOX*X%X*X*X%X%X%X+XoX`./.!.!.!.!.`.`.).!.F.F.I.`.OX XOX%X*X=X*X*X=X>X>X>X>X-X&XOXOXOXOXOXOX`.`.|. XOXOXOXOX'.!.H.!.`.`.`.`.`.`.`.`.`.`.`.`.).!.!.).OXOXOXOX X X X X X X X X:X:X:X:X:X:X:X:X>X:X>X6X>X>X>X>X:X%X+XOX X X X X X X X X`. X%X*X%X:X=X=X*X*X=X:X:X:X>X>X6X6X5X>XOX'.'.'.'.'.'.'. X X`.`.).U.P.(.).'. X'.`.!.`.'.OXOXOX X X X X X X X X XOX|.!.P.F.I.`. X%X%X%X*X*X*X$X$X=X=X=X=X$XOXOX'.).).).`.).).).).!.~.`.`.OX%X*X%XOXOXOXOX$X$X$X$X$X X).U.!.!.^.`.OX'.'.*X>X>X*X*X*X*X*X*X*X*X%X%XOXOXOXOX*X*X*X*X%X%X+XOXOX|.|.!.r.7.O.O.1.1.1.1.1.] o.1.*.*.*.*.*.*.&.&.&.+.o.] o.} ] ' ' ' ) / ~ ~ ~ ! U H B B J U Y U U U J B B n h c Z Z G G V S S S B h c B M c i 8 i l v c g h z 8 1 s d p l g d l c B C G H U Y ~ ) ' ] o.o.$.3.&.3.7.9.9.0.q.q.q.",
"F.D.D.C.V.z.l.j.0.a.c.0.0.6.2.<.&.+.o.] _ ~ Y J N b M B M s a s 8 g B V Z G M e 8 g b N v n a C U U P U U Y Y P F F B b g h N F L U U U U G G U ~ / ) ' ' ] ] ] o.o.o.o.o.' o.#.&.&.&.&.&.&.&.&.&.} $.3.2.2.2.2.3.*.&.9.C.c.c.V.M.C.C.S.S.C.V.M.k.z.V.C.F.S.S.C.J.J.J.J.Z.F.J.I.J.J.F.F.F.Z.F.J.F.F.F.J.J.J.J.J.I.P.P.P.J.J.J.J.!.!.!.!.!.~.!.J.J.J.I.!.!.!.!.!.).!.!.!.!.!.!.!.H.J.J.F.F.F.F.F.F.J.J.H.J.J.F.J.F.!.).!.!.!.!.!.!.!.!.!.!.!.!.!.(.U.U.(.(.!.!.!.!.Y.Y.I.I.I.I.Y.U.U.U.U.U.U.U.U.!.Y.!.~.'.'.'.'.`.`.~.!.`.`.`.`.).).).).(.).).).`.`.!.!.!.!.!.).).).).).|.`.`.`.`.^.!.!.(.(.).).`.`.).).).U.U.).!.`.'.`.!.!.!.`.`.`.).!.!.~.~.~.I.I.I.I.Y.I.P.J.P.I.!.!.~.!.~.!.!.!.!.H.!.!.!.!.`.`.!.^.!.!.!.!.`.).).).!.!.!.!.!.).!.I.H.H.H.H.H.H.H.J.J.J.H.H.!.H.H.^.^.J.F.H.J.F.F.F.F.F.F.F.Z.Z.C.C.C.C.C.C.C.C.C.C.C.C.M.c.z.k.z.p.1.&.o.o.1.1.1.1.] ' $.&.&.&.&.&.&.$.$.&.+.o.] ' ] ] ' ' ) / ~ ~ ~ ! Y Y F v Z U U U I L P G B M N h h N Z G G G S S S S B g k N M c i 8 i l c n g d h 0 1 e s p l g d g c B C G J U Y ~ ~ ' ] o.o.$.5.&.3.3.7.9.9.0.q.q.",
"Z.Z.C.C.c.z.l.j.0.a.c.0.9.3.2.&.&.+.o.] _ ~ U G M c c M c s a g 8 g B V V Z M e 7 g c M v l a B U P P U U Y Y U F Z F F c s h B G I L L Y I L I U ~ / ) ) ' ] ] ] } o.o.o.] ' o.+.+.+.+.o.o.o.o.&.o.$.&.1.2.1.2.3.2.&.2.0.9.9.r.p.a.p.a.s.a.p.e.r.r.a.a.a.a.k.k.k.j.j.j.k.c.z.c.c.c.z.z.k.a.p.s.a.a.a.k.k.a.a.a.k.k.f.s.f.k.c.V.c.c.z.z.k.c.M.z.z.z.k.k.k.k.k.k.k.s.a.a.a.a.k.k.a.a.a.a.a.a.a.a.z.c.N.V.z.z.z.z.c.c.C.Z.C.C.C.C.Z.Z.Z.Z.Z.Z.Z.Z.D.C.C.D.C.C.C.D.C.Z.Z.F.Z.Z.S.F.Z.Z.Z.Z.F.F.F.F.F.C.C.C.Z.Z.Z.Z.C.C.C.C.C.C.Z.Z.C.C.C.C.C.C.N.N.S.S.V.c.V.C.C.Z.C.C.D.D.Z.Z.D.F.F.C.V.C.D.D.D.D.D.D.C.C.C.C.C.D.N.C.Z.C.C.C.C.J.J.F.S.S.C.Z.Z.C.C.C.C.C.F.S.Z.Z.C.C.M.M.C.C.C.C.V.N.c.c.z.z.c.c.c.c.c.c.c.c.z.c.c.c.c.c.N.V.C.C.V.C.V.z.c.c.c.c.V.V.N.N.c.c.c.z.c.z.k.z.V.z.j.a.a.a.r.r.r.r.r.r.r.r.e.0.0.0.0.0.3.3.3.7.7.7.3.2.3.3.9.1.o.o.} O.1.1.1.1.] } $.o.#.#.#.#.#.#.+.o.o.] ' ] ' _ / ~ ~ ~ ~ ~ Y Y U U N B G U J G F F F N b c c h n B P G G F S B D D N f h M v z i 4 i h c z h i a 4 ; 9 p d l g d g n v B G J U Y ~ ~ ) ' ] o.&.3.$.*.3.3.7.9.9.9.q.",
"Z.C.C.c.z.l.j.j.0.a.c.0.9.3.2.&.&.+.o.] _ ~ U G M c c M c s s h 0 d M B B B c q 7 d c M v l a B U H U U U Y Y U J F F F G c s n V G J G U ~ U F G Y ~ ~ ) ' ' ] ] ] } o.] o.] ' o.o.o.o.] ] } o.} ) o.o.$.1.1.1.3.3.*.7.9.7.9.a.e.r.0.0.r.e.8.7.0.0.0.0.0.r.a.a.a.a.a.a.k.k.k.k.z.z.k.k.s.r.e.e.a.a.a.k.k.k.k.j.a.s.s.p.s.a.a.a.a.r.0.0.9.r.a.a.k.a.a.a.a.a.a.a.a.a.a.a.k.k.k.k.j.j.k.k.k.k.k.k.z.c.c.V.V.N.V.V.N.N.V.C.Z.Z.D.Z.F.F.F.F.F.F.F.F.D.V.V.D.D.D.D.D.F.F.F.F.C.C.C.C.S.S.S.S.S.S.S.S.F.V.M.V.V.V.V.V.c.c.N.N.N.N.V.V.N.N.N.c.c.V.V.V.M.C.V.V.V.V.C.Z.C.C.C.C.C.C.Z.F.F.C.V.C.C.C.C.C.G.G.C.C.c.b.C.C.N.C.Z.C.C.M.C.F.J.F.S.S.Z.Z.Z.Z.Z.Z.Z.Z.F.F.C.N.C.C.C.V.C.M.N.N.V.N.c.z.k.k.k.k.k.k.k.k.c.c.z.c.k.k.k.k.k.k.z.c.a.c.c.z.z.z.z.z.z.z.z.z.z.z.z.z.z.j.a.j.c.z.k.j.a.a.r.r.r.r.r.r.r.r.e.0.7.7.7.7.3.3.3.7.7.7.3.2.3.7.0.3.] O.O.&.1.1.1.1.&.+.+.o.o.o.o.#.#.o.o.o.] ' ] ] ^ / ~ ( ~ ~ ~ ~ U U U Z F U P F Z Z Z Z N c n c g z M B U P G F B B D D m s h m b l e 4 e g c l h i i 3 ; 7 e d l g d g l v B C J U Y ~ ~ / ' ] o.&.3.$.&.3.3.7.7.9.9.9.",
"Z.C.V.c.z.k.j.a.9.0.k.9.6.3.2.&.&.+.o.] ' ~ U F N z c B c i i d i s M B B M z 4 < p z b c l a C U H H H H J U Y U J F Z F B c g s h B J G U U V G U Y ~ ~ / ) ) ' ' ' ] ] ] ] ] ] o.o.o.' ' ] } } } o.+.&.&.&.&.*.3.3.3.3.3.7.0.9.9.9.9.2.3.7.7.0.0.0.0.0.0.q.q.q.q.a.a.a.a.a.a.k.k.a.a.0.e.e.a.r.r.a.a.a.a.a.s.k.k.a.a.a.a.a.a.r.r.0.0.a.a.a.a.a.a.a.a.a.a.a.a.a.a.a.a.a.j.j.j.a.a.a.a.a.a.k.k.k.z.z.c.M.V.V.V.V.V.N.N.C.C.C.C.C.C.C.C.C.C.C.C.C.C.C.C.C.C.C.C.C.C.C.C.C.C.C.C.M.V.V.V.V.V.V.N.V.V.M.M.N.V.V.V.N.N.N.N.M.M.N.N.V.V.V.V.C.C.C.C.N.N.N.N.C.C.C.C.C.C.C.C.C.C.C.C.C.C.C.C.C.C.C.C.C.C.V.V.V.b.V.V.V.V.V.V.C.C.C.C.C.C.C.C.C.C.S.S.S.Z.Z.Z.C.C.V.N.V.V.V.N.N.M.c.c.z.z.z.z.k.k.j.j.a.a.k.k.k.f.k.k.s.a.a.a.j.k.k.z.z.k.k.k.k.k.k.k.k.k.j.j.k.k.k.k.a.a.j.a.a.a.q.q.r.r.r.r.r.e.0.0.9.9.9.9.3.3.3.3.3.3.3.3.7.2.2.3.3.3.3.$.) +.1.&.&.&.+.+.+.+.o.+.o.o.o.] o.] ' / ' ' _ ^ ~ ~ ~ ! Y Y U U U L F V Y U G C C Z C c g z h a z b B J ! P Z B B B B B m s h b B l w < w g l l g s i 3 ; 3 e a c g s d l b B C G U U ! ~ / ) ' o.#.3.$.&.*.3.3.7.7.9.9.",
"C.V.c.z.z.k.j.a.9.0.k.9.3.2.&.&.$.o.o.' _ ! U Z M z c B M i w i w s M B V B v 4 < e z c n l a B U J J J G F F P U P G F F G Z b g g c B G L L V L L U ~ ~ ~ / / / ) ) ' ' ' ' ' ' ] o.o.' ' ] } o.o.+.$.&.&.$.&.$.&.*.3.3.3.4.8.7.7.7.7.7.7.0.0.0.0.0.0.w.w.q.q.q.q.a.a.a.a.a.a.a.a.a.a.0.0.e.e.r.r.a.a.r.a.a.a.k.a.a.a.a.a.a.a.r.r.0.0.a.a.a.a.a.a.a.a.a.a.a.a.a.a.a.a.a.a.j.j.a.a.a.a.a.a.k.k.f.k.z.c.c.c.c.V.V.V.V.V.V.V.C.C.C.C.C.C.V.V.V.V.C.C.C.C.V.V.C.C.V.V.V.V.V.V.V.N.V.c.c.c.N.c.c.c.M.c.M.c.c.V.V.V.N.N.N.N.c.M.N.N.V.V.V.V.V.V.V.V.V.N.N.N.C.C.C.C.C.C.C.C.C.C.C.C.C.V.V.V.C.C.C.C.C.V.V.V.V.b.b.b.V.V.V.V.V.V.V.V.V.C.C.C.C.C.C.C.C.C.C.C.C.C.V.N.N.N.N.c.c.c.c.c.k.k.k.k.j.j.j.a.a.d.k.k.k.f.k.k.s.a.a.a.j.j.k.k.k.k.k.j.j.j.j.j.j.j.j.j.j.j.k.k.j.j.j.a.a.r.q.q.r.r.r.r.0.0.0.7.9.9.9.9.3.3.3.3.3.3.3.3.3.*.*.3.3.3.3.&.) o.$.#.&.$.+.o.] ] ] o.] ] ' ' ' ) ) ) _ / ~ ~ ~ ! U U U U U L G V F L J F B N B b l s g d a a c M G Y P G C B B B B B m s h b v l q < 8 g h l g s i 3 ; 3 q i z g p d l c B C G P U Y ~ ~ ) ' ] #.*.&.&.*.*.2.3.7.7.9.",
"C.V.c.k.z.k.j.a.9.0.k.9.3.2.&.&.$.o.} ' / Y P B b z c Z B s 8 q 8 a M B B M z 4 , e z c z g a B P J G J J Z Z F U U P P J G J F N h h h m G I U I L L U Y Y Y E ~ ~ / ) ) ) ` ` ` ` ` ' ) ) ' ' ] ] o.o.+.+.+.&.#.o.+.&.3.2.3.7.4.4.4.4.7.7.9.0.9.9.9.9.9.9.w.w.q.q.q.q.q.q.a.a.a.a.r.0.0.0.0.0.0.0.r.r.0.r.a.a.a.a.a.r.a.a.a.a.r.r.0.0.r.r.r.r.a.a.a.a.a.a.a.a.a.a.a.a.a.a.a.a.a.a.a.a.a.a.a.a.a.a.k.k.z.c.c.c.c.V.V.V.V.V.C.V.V.V.V.V.V.V.V.V.V.V.C.C.V.V.V.V.V.V.N.N.N.N.N.V.z.z.z.z.c.c.c.c.c.c.c.c.c.c.V.V.M.M.N.N.c.V.c.c.c.c.c.c.V.V.V.V.b.b.c.c.V.V.V.V.V.V.C.C.C.C.C.C.C.C.V.V.C.C.C.C.C.C.V.V.V.c.c.c.N.N.N.N.c.c.N.N.N.N.V.V.V.V.V.C.C.C.V.C.V.V.c.z.c.c.c.z.z.z.z.z.j.j.j.j.j.a.a.a.a.d.k.k.f.f.k.k.a.a.a.a.a.j.j.k.k.j.j.j.j.j.j.j.j.j.j.j.j.j.k.k.k.j.a.q.9.0.0.0.0.0.0.0.0.7.7.7.7.7.7.3.3.3.3.5.3.3.3.3.;.=.*.3.;.3.;.#.~ ) ' ] +.+.o.o.o.o.} o.#.+.o.o.' ' ' ' _ / ~ ~ ! ! Y U U U U P Z B V V B B M b g s a g z s s h M F P U Z Z B B B B B B m s h b v g 8 , 8 d g g g s i 3 : 3 8 i z s i a g c v B F J L U ~ ~ / ) ] o.&.#.$.$.&.*.3.3.7.9.",
"V.N.c.k.z.k.j.a.9.p.k.9.3.2.&.&.$.o.} ' ~ U J B b h M Z M i 8 e 7 i c B M M z 4 < e z c z g a B P G J J U G F G U P U U U P J P F N h s f m V B B B m N B V V V V V V F F G G G I L L U G G L L Y ! ~ ~ ~ ~ ~ / ~ U U _ &.$.&.2.3.3.3.3.3.3.7.7.7.7.7.7.9.9.9.9.0.0.q.q.q.q.q.q.r.r.0.0.0.0.0.0.0.0.0.0.0.0.r.a.a.a.r.r.a.a.a.a.r.r.0.0.0.0.0.r.a.a.a.a.a.a.a.a.a.a.a.a.a.a.a.a.a.a.a.a.a.a.a.a.a.a.k.k.z.z.k.c.c.c.c.c.N.N.N.N.N.N.N.N.c.c.c.c.b.b.c.c.c.c.c.c.N.N.N.N.z.z.z.c.z.z.z.z.z.k.c.c.c.c.c.c.c.c.c.M.M.N.N.N.c.v.c.c.c.c.c.c.v.v.c.c.b.b.c.N.c.c.V.V.V.V.V.V.V.V.C.C.C.C.V.V.C.C.C.C.C.C.V.V.V.c.c.c.M.c.c.c.c.c.c.c.c.c.c.c.c.c.V.N.N.N.V.V.V.N.z.z.z.z.z.z.z.k.k.k.j.j.j.j.a.a.a.a.a.d.k.k.k.f.f.f.a.a.a.a.a.a.j.j.j.j.j.j.j.j.j.j.j.j.j.j.j.j.k.k.a.a.0.9.3.7.7.9.0.0.0.0.0.7.3.3.3.3.3.3.3.3.3.5.3.3.3.3.*.$.$.*.*.*.*.#.Y Y Y ~ ~ ~ ~ ~ Y Y U ! U U I I L L L J F Z B B N N M b b b c n g z n h h h d d e i g v c z z M Z U J B B B B B B B B B m s h b b g 4 ; 0 s d g g s i 3 - 3 8 e l s i i g n v B Z J L U Y ~ ~ ) ' o.&.+.&.&.&.&.2.3.7.9.",
"V.V.c.k.z.j.j.q.9.u.a.9.3.-.&.&.&.o.o.' ~ U J B b h h b d a i i 8 i b B B M l 1 < e z z n h i B U H G G H H G G J Y ~ Y U U J J G I J N f s s g g k k k n n c c b b N N N N B B B B B V V V V F G G G J L L G G V G G Y o.o.o.+.#.#.#.#.$.$.&.&.#.#.#.#.$.&.3.7.9.9.9.q.e.r.r.r.q.q.0.0.0.0.9.9.0.0.0.0.0.0.e.e.r.r.r.r.r.r.r.r.q.q.0.0.9.0.0.q.a.a.a.a.a.a.a.a.a.a.a.a.a.a.a.a.a.a.a.a.q.q.a.a.a.a.a.j.k.k.k.z.z.z.c.c.c.c.c.c.c.c.c.c.c.c.c.c.c.c.c.c.c.v.v.v.c.c.c.c.c.z.z.z.k.k.k.k.z.z.z.z.k.k.z.z.z.z.c.c.c.c.c.c.z.z.z.z.c.c.c.c.c.c.v.v.c.c.c.c.c.c.c.c.c.c.V.V.V.V.N.N.N.V.N.c.N.C.C.N.b.b.b.c.c.c.c.c.c.c.c.z.c.c.c.c.c.c.c.c.c.c.c.c.b.b.b.b.v.c.z.z.z.z.z.z.z.z.k.j.a.a.a.d.a.a.a.a.a.a.a.a.a.a.a.a.a.a.a.a.a.a.a.a.a.a.a.a.a.j.j.j.a.d.a.a.j.j.j.j.a.r.7.3.3.3.8.7.9.9.9.7.0.3.3.3.3.2.1.*.2.2.2.2.;.*.=.$.&.#.o.o.&.%.%.o.E I J J I I I I S S B S S B B B B B B N M M M M M m c n n n z h g g d d i i i i i a c c b M B J P J B N B B B B B F F M g i i z v s 4 ; 0 s g g l g a 4 1 3 7 w e s e i g z v B B F L U Y ~ ~ / ) ] #.o.o.+.&.&.1.3.7.9.",
"V.V.N.k.z.j.j.q.9.u.a.3.2.-.&.&.$.o.o.' ~ U G B b d a s 8 e e i 0 i b B B b l 1 < e h z n z s b H Y U J G H H G F U Y ~ Y U U I I U U U B m m m N N B B B B B B B B B B B F F S V V V V V V V V F F F G V V B V B V V U ' ' ] ] } o.o.o.o.o.o.o.o.o.o.o.] ' o.$.7.9.7.9.0.0.e.r.q.0.0.0.0.0.0.0.0.0.0.0.0.0.0.0.e.e.0.0.r.r.r.r.q.q.0.9.9.0.q.q.u.a.a.a.u.u.a.a.a.a.a.a.a.a.a.a.a.a.a.a.q.q.a.a.a.a.a.a.j.k.z.k.z.z.z.z.z.z.z.z.z.z.z.z.z.z.z.z.z.z.z.z.z.z.v.v.c.c.z.z.z.z.z.k.k.k.k.k.k.k.k.k.k.k.k.k.z.z.c.c.z.z.z.z.z.z.z.z.c.c.z.z.c.c.c.c.c.c.c.c.c.c.z.z.c.c.c.c.c.c.c.c.N.c.c.z.c.V.V.c.c.c.c.c.z.z.z.z.c.z.k.k.z.z.z.z.z.z.c.c.c.c.c.c.v.v.v.c.c.z.z.k.z.z.k.z.k.j.j.d.a.a.a.a.a.a.a.a.a.a.a.a.a.a.a.a.a.a.a.a.a.a.a.a.a.a.a.a.a.a.a.j.d.d.a.a.j.j.j.j.a.r.9.3.3.3.7.7.9.9.9.9.7.3.3.3.3.&.o.o.o.o.o.o.o.] [ [ ) ) ~ E ' ` ' ~ U G F G G G G G S S B S S B B B N N N N b c b b c c z z n n z h h h g d d d s s a d c n M B J U P Z B M B B B B B B N h e 8 i z c a 3 ; 8 g g h z h a 4 < 3 7 8 4 e e p d l b B B Z J I U Y ~ ~ ) ] #.] o.+.&.&.2.3.7.9.",
"V.V.N.k.z.j.a.q.3.0.a.5.-.&.&.%.#.o.] ' ~ I F m n d i 8 8 8 i i 0 i b B B b l 3 1 e h z N b g a g G ( U J G H H F F U Y ~ ! Y U J G J P U U U U U U U U U U U U U U U U Y Y Y Y ! Y Y ! ! ! ! ~ ~ ~ ~ ~ Y Y U Y L U I / ] o.o.#.#.#.#.#.&.&.1.1.*.*.&.&.2.&.#.#.&.3.9.9.9.9.0.0.q.0.0.0.0.0.9.9.8.0.0.0.0.0.0.0.0.0.e.0.0.0.r.r.q.q.0.0.0.q.r.a.a.u.u.0.u.u.u.u.a.a.a.a.a.a.a.a.a.q.q.q.q.q.q.q.a.a.a.a.a.j.k.z.k.k.z.z.z.z.k.z.k.k.z.z.k.k.k.z.z.z.k.z.z.z.z.c.z.z.z.z.z.z.z.k.z.k.k.k.k.k.k.k.k.k.k.k.k.k.z.z.z.z.z.z.k.k.k.k.z.z.z.z.c.c.c.c.c.c.c.c.c.z.z.c.c.c.c.c.c.c.c.c.c.c.z.z.z.M.N.z.z.z.z.z.z.z.z.z.z.k.k.k.k.k.k.k.k.k.k.z.z.z.z.z.z.z.z.z.z.k.k.j.j.j.j.j.j.d.d.a.a.a.a.a.a.a.a.a.r.r.a.a.a.a.a.a.a.a.a.a.a.a.a.a.a.a.r.r.q.a.a.a.a.a.a.a.a.a.a.a.r.0.7.3.3.3.7.7.9.9.9.9.7.3.3.*.o.o.] ] o.o.o.o.o.] ' ' ] ' ' ' ..' ..' Y I U U U U U U I I J I I L L L L L L J G G G G G G V V B B B B N N M M m m m m b b N M B J U U F C N M B B B B B b h 8 e i s z l i 3 < 8 g l l n l d 0 1 3 7 q 1 8 w i s l c M N B G L U Y ~ ~ / ' +.] o.o.&.&.*.3.7.7.",
"V.V.N.k.z.j.a.q.3.0.u.3.-.&.&.%.+.o.] ) Y L V m h d a i 8 8 i i 0 i b B B b l 1 < e h z h c c g s g B Y K H G H F B F U / ~ ! Y U H H U U ~ ~ ! ~ ~ ~ ~ ~ / / ~ ~ ~ ~ ` ` ` ' ' ' ' ' ' ' _ ' ' ' ' ' ] ' ' ) ' ) ' ' +.*.*.3.3.3.3.5.3.3.2.3.3.3.3.3.3.7.0.9.*.} &.7.0.9.8.9.8.0.0.0.0.0.0.9.9.8.0.0.0.0.0.0.0.0.0.0.0.0.0.e.e.q.q.q.0.q.q.a.a.u.u.0.0.0.0.0.u.a.a.a.a.a.a.a.a.a.q.q.q.q.q.q.q.u.a.a.a.a.a.j.k.k.k.k.k.k.k.k.k.k.k.k.k.k.k.k.k.k.k.k.k.k.k.z.z.z.z.z.z.z.z.z.k.z.k.k.k.k.k.k.k.k.k.k.k.k.k.k.k.k.k.k.k.k.k.k.k.k.k.k.k.z.z.c.z.z.z.z.z.z.z.z.z.c.c.c.c.c.c.c.c.z.z.z.k.z.c.c.z.z.z.z.z.k.k.k.k.k.k.k.a.a.f.f.f.k.k.k.k.z.z.z.z.z.z.z.z.k.j.j.a.d.d.d.d.d.d.d.a.a.a.a.a.a.a.a.a.r.r.r.r.r.r.r.r.a.a.a.a.a.a.a.a.r.r.r.r.q.q.q.u.a.a.a.a.a.a.a.a.0.0.7.7.3.3.7.7.9.9.9.9.9.7.1.+.] 1.9.7.*.*.*.*.*.&.$.$.$.&.#.+.%.+.%.o.` ~ / ' ` ` ` ` ` ` ~ ` ) ~ ~ ~ ~ ~ ~ E ~ Y ~ ~ Y Y U U U U U U U U P L J J G G G V G V J U U G Z B N N B B B B N h e 0 d h z z d e 3 ; 8 g g l l g a 4 1 3 8 e 3 w q e a h c v N B V J U U Y ~ ~ ' o.] } o.$.&.*.3.7.7.",
"c.V.N.k.k.a.a.0.3.9.0.3.-.&.&.+.o.] ' / Y J V c h a d d i 0 i i 8 a b N N b a 3 1 8 s g g g z b l g l B U U G G F F B F Y / / ~ Y U U Y Y Y Y Y Y ~ ~ ~ ~ ~ ~ ~ ~ ~ ~ / / / ` ` ) ) _ ' ' ) ) ) ' ' ' ' ' ' ) ) ' ) ' o.$.$.$.&.*.*.3.5.2.*.*.&.&.&.&.&.3.3.3.*.o._ &.3.3.7.7.9.0.0.0.9.9.9.9.9.9.0.0.8.0.0.0.0.9.9.0.9.0.0.q.q.q.q.q.q.q.r.r.r.u.u.0.0.0.y.y.u.q.q.q.q.u.u.u.u.q.q.q.q.0.0.0.0.0.u.u.a.a.a.a.d.a.a.a.a.s.s.d.d.d.d.d.d.a.a.a.d.j.k.k.k.k.k.k.k.k.k.k.k.z.z.z.z.z.z.z.z.z.k.f.k.j.j.j.j.k.k.k.k.k.k.k.k.k.j.a.a.j.j.j.j.k.z.z.z.z.z.z.z.z.z.z.z.c.z.c.c.c.c.c.c.z.z.z.z.z.z.z.z.k.k.k.k.k.j.j.j.a.a.a.a.a.a.a.a.j.j.k.k.k.k.z.z.z.z.k.j.a.a.a.a.a.a.a.a.a.a.a.a.a.a.a.a.u.u.u.u.r.r.r.r.r.r.r.r.r.r.a.a.a.r.r.0.0.0.0.0.0.0.0.w.u.u.u.u.u.u.r.r.0.0.7.7.7.8.7.8.7.7.7.7.3.*.o.' &.&.*.*.*.*.&.&.$.%.#.+.%.o...' o.] ' ' ~ U / ` ~ ~ ~ ~ ~ ~ ~ ~ ~ Y U U Y Y Y Y U U U U Y Y U I I I I I I I I I I I L G G J G V L L F C B B B B M B C C s 8 8 i g s s a 8 3 1 4 3 w h n n l d 0 1 3 3 8 1 8 8 w i g z b N B V G L U Y Y ~ ' o.] } o.+.+.$.*.1.3.",
"c.N.N.k.k.a.a.0.3.9.0.3.-.&.%.o.o.' ' ~ U G B c h a h h i 8 i e 8 i c M M b g q 1 1 8 g d i s c c l s l B J G C F G F B F U / / ! U U Y Y Y Y Y ~ ~ ~ ~ / / / / ~ / ` ` / / ` ` ' ' ' ' ' ' ' ' ' ' ' ' ' ' ' ' ' ) ' o.$.$.$.$.&.*.3.3.*.&.&.&.$.$.$.$.&.2.3.3.&./ ] 2.4.7.9.9.9.9.9.9.9.7.7.7.9.9.0.0.8.8.8.8.9.9.0.9.9.9.0.0.q.q.q.q.q.q.q.q.0.0.0.0.0.0.y.u.q.q.q.q.u.u.u.u.q.q.q.q.0.0.0.0.0.u.u.a.a.a.a.a.a.a.a.a.a.a.a.a.a.a.a.a.a.a.a.a.a.d.j.z.k.k.k.k.k.k.k.k.k.k.z.z.z.z.z.z.z.k.f.d.j.j.j.j.j.j.j.j.s.s.a.a.a.a.a.a.j.j.j.j.k.k.k.z.k.k.k.k.k.k.k.k.z.z.z.z.z.z.z.z.k.k.k.k.k.k.k.k.k.k.k.k.k.j.j.j.a.y.0.a.a.a.a.a.a.a.j.j.k.k.k.k.z.k.j.d.a.a.a.a.a.a.a.a.a.a.a.a.u.u.u.u.u.u.u.u.r.r.r.r.r.r.r.r.r.r.r.r.r.0.0.0.0.0.8.8.9.9.9.0.y.y.y.y.u.u.q.q.0.0.8.4.3.3.3.3.3.3.3.3.2.$.] ] &.*.*.*.&.&.&.&.$.#.+.o.o.] ' ` ] ] ] ' ~ Y ~ / ~ ~ ~ ~ ~ ~ ~ ~ ~ Y U U Y Y Y Y U U U U Y U I U I I L L I I I I I I L G G F F G L F V B B B B B Z B b s 8 i z c z d e 7 3 3 3 1 0 i l n n l g 8 1 3 3 8 1 8 7 w i d l c N B V F G L U Y ~ ' o.' } o.o.+.$.&.*.1.",
"c.N.N.k.a.a.r.9.3.3.9.-.&.&.+.o.' ) ~ Y L V m h d i g h 9 8 i q 7 i n M b M v g 7 1 3 e s s s h c c g a l M G G F G J G B S U ~ / ~ ( ~ Y Y Y Y Y E ~ ~ ~ ~ ~ ~ ~ ~ / ` / / ' ' _ _ ' ' ' ' ' _ _ _ _ ' _ _ ) _ ~ ! _ } #.#.#.$.$.&.*.*.&.$.$.$.$.&.&.&.$.$.*.3.1.' ~ &.3.7.9.7.9.9.9.9.9.7.7.7.7.9.8.8.8.9.9.9.9.9.0.9.0.0.0.0.0.0.9.9.9.9.0.0.0.0.0.0.0.0.0.y.q.q.q.q.u.u.u.u.q.q.q.q.0.0.0.0.0.y.u.a.a.a.a.a.a.a.a.a.a.a.a.a.a.a.a.a.a.a.a.a.a.a.d.d.j.k.k.k.k.k.k.k.k.k.k.k.k.k.k.k.k.j.d.a.a.a.a.a.j.j.j.j.a.a.a.a.a.a.a.a.d.d.j.j.k.k.k.k.k.j.j.j.j.j.j.j.k.k.k.k.k.k.k.k.k.k.k.k.k.k.k.k.k.k.k.k.k.j.j.j.a.a.a.a.a.a.a.a.a.a.a.a.j.j.k.k.k.j.a.a.a.a.a.a.u.u.0.0.a.a.a.u.0.0.0.0.0.0.0.0.0.0.r.r.r.r.r.r.e.e.e.0.0.0.9.7.0.0.0.0.9.9.9.0.y.y.y.y.0.0.9.0.7.7.3.3.1.1.1.1.3.3.3.3.&.o.' +.&.&.*.&.$.$.$.$.#.+.o.o.' ' ' ' ....] ' ) Y ~ ~ ~ ~ ~ ~ ~ ~ ~ ~ ~ ! U U ! ! U U U U Y Y U U I I I I L G U U U U I I L G G V F J F C B N B B B B G B a 3 3 d c c z s q 4 3 ; 3 e i g z l l g a 4 1 3 3 8 < 7 7 8 i a h n M N B V F L U Y ~ ' o.' ] } o.o.#.&.*.*.",
"c.N.N.k.a.a.0.7.2.5.9.-.&.&.o...' ~ ~ U G B c g i 8 s g 8 9 p 8 4 i n b b B B v e 7 3 3 e g h s l n l g g l B G J F J J G B V G ! ~ ~ ~ Y Y Y Y U U Y Y E Y Y U I U E ~ / / / / ~ ~ / / ^ ~ ~ ~ ~ ~ ~ ) ~ ~ ~ ~ U U ~ ] #.#.#.#.&.$.&.*.&.$.$.&.#.#.#.#.#.&.&.&.2.o.! o.3.3.7.7.7.7.7.7.7.3.7.7.7.7.9.7.9.7.9.9.9.9.0.0.0.0.0.9.9.9.9.9.9.7.9.9.0.0.0.0.9.9.0.y.q.q.q.q.u.u.q.q.q.q.q.0.0.0.9.9.0.0.u.u.a.a.a.a.a.a.a.a.a.a.a.a.a.a.a.a.a.a.a.a.a.a.a.d.d.d.j.k.k.k.k.k.k.k.k.k.j.j.j.j.j.d.a.a.a.a.a.a.a.j.j.j.a.a.a.a.a.a.a.a.d.d.j.j.k.k.k.d.j.j.a.a.j.j.j.j.j.j.j.j.j.j.j.j.s.s.a.a.a.a.k.k.k.k.k.k.k.j.j.j.k.a.a.a.a.a.a.a.a.a.a.a.a.a.j.j.j.d.a.a.a.a.a.a.u.0.0.0.u.u.u.u.0.0.0.0.0.0.0.0.0.0.r.r.r.r.r.0.e.0.0.0.9.7.7.7.7.7.9.9.9.9.9.9.y.y.0.0.0.0.9.9.8.8.3.3.1.&.&.1.2.2.2.2.&.' ) $.&.&.*.&.#.#.#.#.+.o.o.] ' ' ' ....] ' ' ' ~ ~ ~ ~ ~ ~ ~ ~ ~ ~ ~ ~ ! U U ! ! U U U U U U U I L L L I I I U U U U I I L G V G J G C B N M B B B B C l 0 ; 3 i d s g i q w - 1 e z h n c l l g a 4 1 3 3 8 ; 7 4 8 w a g z M M B V V G I U Y ) ] ' ' ] o.o.#.$.&.&.",
"V.c.z.k.a.0.0.5.-.2.9.;.&.+.o.' ] / Y J B b h i e 7 7 4 < e p q 4 i h n m N B B c s 8 1 8 d n h d h h h h d n F U P J U F B M B Z Z Z Z Z Z Z Z G F G F Z Z Z Z Z F J H U U U U H H H U H H H H G P P Z G Z C Z B V U _ o.o.o.o.$.&.$.$.+.#.#.o.+.o.o.o.o.o.+.#.2.$.~ o.*.3.3.3.3.3.3.3.3.3.3.3.3.3.7.3.3.3.7.7.9.9.9.0.0.0.0.8.9.9.7.7.7.7.8.8.9.9.8.8.9.8.0.0.0.q.q.q.q.q.q.q.0.0.9.9.9.0.0.0.0.u.0.0.0.u.a.a.u.u.0.0.u.u.u.u.a.a.a.a.a.a.a.q.9.u.a.a.a.a.j.j.j.j.j.j.j.j.j.j.j.j.j.j.a.a.a.a.a.a.a.a.a.a.a.a.a.a.a.a.a.a.a.a.a.a.k.k.j.j.j.j.j.a.a.a.j.j.j.j.a.a.a.a.k.k.k.k.s.a.a.a.a.a.a.a.a.a.j.j.k.j.d.a.a.a.a.a.a.u.u.u.a.u.a.a.a.a.a.a.a.a.a.a.a.a.a.a.a.0.0.0.q.q.0.9.9.9.9.9.9.9.0.0.0.0.0.9.9.9.9.9.0.0.0.0.9.-.&.-.9.9.9.9.9.9.9.9.9.0.0.0.9.9.7.7.3.3.3.3.2.2.&.&.1.1.1.1.$.~ o.*.*.&.&.$.&.%.+.o.+...] ..` ..o.o.' ' / ~ _ ! Y Y Y ~ E Y Y Y Y Y Y Y U U ! ! ! Y U U U U U U I I I L L J U U U U I L J G G J F N B B B B v M B B v e 3 3 7 4 8 a e p w ; 3 e g l g l l g g a q 1 1 4 < 7 & O 3 4 8 i s g c M M B Z G U ! / / ] _ ' ' } } +.$.$.&.",
"b.z.k.j.u.0.9.5.-.2.3.=.%.o...' ' ~ U G B c g i 7 - - 1 4 e i 7 3 w g c b m M B N b s 3 3 8 d n c h h h g g h b Z U U G F B M M M M M M M M M M N N N N N N N N N N B B B B C B C C B B B B B B B B B B B B B C Z V L ~ ] ] ] ] o.o.o.o...o.+.o.o.] ' ' ' ] o.o.1.+.! o.*.2.3.3.3.3.3.3.3.3.3.3.3.3.3.3.3.3.3.7.9.9.9.9.8.9.9.7.7.7.7.7.7.7.8.8.9.9.8.8.9.9.9.0.9.0.0.q.q.0.9.9.0.0.9.9.9.9.0.0.0.0.0.0.0.0.y.u.0.0.0.0.0.0.y.y.u.a.a.a.a.a.a.q.9.u.a.a.a.a.a.j.j.j.j.j.j.j.j.j.j.j.j.j.a.a.a.a.a.a.a.a.a.a.a.a.a.a.a.a.a.a.a.a.a.p.a.s.j.j.a.j.a.a.a.a.a.a.a.a.a.a.a.a.a.a.a.a.a.a.a.a.a.a.a.a.a.a.a.a.d.a.a.a.a.u.u.y.u.u.u.u.u.u.u.u.u.u.a.a.a.a.q.q.q.q.q.q.r.0.0.0.0.0.9.7.9.9.9.9.9.9.0.0.0.0.9.9.9.9.9.9.9.9.9.9.5.-.&.2.9.9.9.9.9.7.7.7.7.7.9.9.7.3.3.3.3.3.3.3.2.2.3.2.*.*.*.*.#.Y o.&.&.$.#.+.%.+.o.o...' ` ' / ' ....' ' _ / ) ! Y ! ~ Y U U L L G J J J G G P P P J J J J J G G G G G F Z Z Z Z Z Z C B B N M M b c v v v v z C Z M p 4 3 7 7 7 4 7 8 8 3 1 e g l z l l g d a e 8 1 < 7 2 4 & O ; 4 8 w i d z c m B Z J U ! ~ / ] _ ' ' } } +.+.$.$.",
"c.k.k.a.u.0.9.9.2.2.3.%.+.o.] ' / ! P Z M h s 8 3 - 1 w g g a w 3 8 a h c b M N M B c i 3 3 8 h N b h h d d g h c J U F F B M c c c c c c c c c M v v v M M B B B B B B B B B B B B N b b b b b n k n b B S F G F B S U ~ ~ ~ ~ ~ ~ ~ ~ ~ ~ / ~ / / ~ ~ ~ ' ' ] &.o.U ] &.*.2.2.3.3.2.2.2.2.1.2.3.3.3.3.3.3.3.3.7.7.7.7.7.7.7.7.7.7.7.7.7.7.7.7.7.7.7.7.7.7.9.9.9.9.0.0.9.9.9.9.9.9.9.9.9.0.0.0.0.0.9.9.9.0.0.0.0.0.0.0.0.0.0.0.u.u.a.a.a.a.r.q.q.a.a.a.a.a.j.j.j.j.j.j.j.j.j.j.a.a.a.j.a.a.a.a.a.a.a.a.a.a.a.a.a.a.a.a.a.a.a.a.r.a.p.a.a.a.a.a.a.a.a.a.a.a.a.a.a.a.a.a.a.a.a.a.a.a.a.a.a.a.a.a.a.a.a.a.a.a.a.a.u.u.0.0.0.0.0.0.0.0.w.u.u.u.u.u.q.q.0.0.0.0.0.q.r.0.0.0.9.9.9.7.7.7.7.7.5.7.9.9.9.9.3.3.3.3.3.3.3.3.3.3.3.5.5.3.9.9.9.9.7.7.7.7.5.5.7.5.3.3.2.*.1.1.1.1.1.1.2.2.&.&.&.&.o.Y o.&.&.%.o.] ] ' ' ` ~ U U U Y ~ ` / ( ( ~ / ) U Z V V V V B N N N N N N N N B B B B B B B B N B N M M b c c z z z z z l h h g g d g l l l l d v C d 3 4 7 8 p i e 7 3 < 1 w g l z z l l g s q 8 4 < 1 q 4 7 4 < ; ; 4 8 e s g c m M Z J U ! ~ ~ ' / ' ' } o.o.+.#.&.",
"z.k.j.a.0.0.0.9.2.2.2.o.o.o.' ' ~ U J B b h a 8 3 7 d c v z s w 8 0 e s z c b M b B B c i 4 4 i c M b c h a s h h N F F B B M c c c c c c c M M M v M M M N B B B B B N N B B B B B b b n n n n g f g n B S G I F B B G U I U I I I I J J J S N B S G L ~ ~ ' ] o.' J / #.&.$.$.*.*.1.1.1.1.1.1.*.*.2.2.2.2.3.3.7.7.7.7.4.4.7.7.7.7.7.7.7.7.7.7.4.7.7.7.7.7.7.7.9.9.9.9.9.7.7.7.3.9.0.0.0.9.9.9.9.9.5.3.3.9.9.0.0.0.0.0.0.0.0.0.u.u.a.q.q.a.q.0.q.a.a.a.a.a.a.a.a.a.j.j.j.j.j.j.a.a.a.a.a.a.a.a.a.a.a.a.a.a.a.a.a.a.a.a.a.a.a.q.r.r.a.p.a.a.a.a.a.a.a.a.a.a.a.a.a.a.a.a.a.a.a.a.a.a.a.a.a.a.p.p.a.a.a.a.a.u.u.y.0.0.0.y.y.y.0.0.0.0.0.0.w.0.w.0.0.9.9.9.9.9.9.9.r.0.0.0.9.9.7.7.5.7.7.5.5.3.5.9.5.5.2.-.3.3.3.3.3.3.3.3.3.3.3.3.9.9.9.9.7.3.3.3.3.;.3.3.3.2.*.*.*.*.*.*.1.1.1.2.&.$.$.$.' Y +.$.$.#.] ' ~ E Y U G B B B G I U U Y Y ! ~ ~ U G G ~ ) U m n n k k c c c c M M b b b b b b c b c b b b c c n c c n c n l l a i i s p p p p i g l 4 < 7 e e i a i 8 ; < 8 s l z z l l g d e 7 7 1 ; 4 7 2 w w e 4 3 3 8 q i s z m m Z J U ! ~ ~ ' / ' ' } } o.o.#.&.",
"z.j.a.a.0.0.9.3.&.-.3.o.o...' ` ~ U Z M h d i 8 a h b b B M z d n a 4 8 s c M z b M B B M s 0 7 a c B B v z d a n h i B J J Z N Z B B B B Z Z B F F F F B F G J J F C B S S S F F B b h k N n N N N N N V V G Y G S S G U U U U U U U U Y Y I N V L J U Y ~ ~ ' } ~ J Y o.+.#.&.$.$.&.&.&.&.&.&.&.1.2.2.&.1.3.7.3.3.3.3.3.3.3.3.3.3.3.3.3.3.4.3.3.3.3.3.3.3.7.7.7.3.3.2.3.7.9.7.9.0.0.9.9.9.9.3.9.9.%.&...%.2.9.9.9.9.5.0.0.0.0.0.0.q.q.q.q.0.9.0.q.a.a.a.a.a.a.a.a.a.a.a.a.a.a.a.a.a.a.a.a.a.a.a.a.a.a.a.a.q.q.q.q.q.q.q.a.a.a.a.a.a.a.a.a.a.a.a.a.a.a.a.a.a.a.p.p.p.a.a.r.a.a.a.a.a.a.a.a.a.a.u.u.u.u.u.u.0.y.0.0.0.0.0.0.0.0.0.0.0.0.0.0.w.9.9.9.3.3.3.7.9.9.r.0.0.r.9.9.7.3.3.5.-.&.&.3.3.9.3.2.-.2.3.5.5.3.3.3.-.-.-.2.&.-.3.5.3.9.7.3.*.*.3.=.%.&.&.$.&.$.$.&.*.*.&.&.&.&.$.$.$.$.] Y ' #.#.o.] Y I B B G n g h N F S G J L L I U U U U L U ) E S m b c c h s s s h h z z z z n n c c n n n n z h h l l z z z l h i a g l d d p d l d 7 < < 7 i p d p 7 < - 8 g z z z l l l z i 1 e ; ; 7 1 4 e e w i e w 4 4 8 e s h c m N Z J U ! ~ _ ~ ' ' ] ] } o.+.&.",
"z.d.a.a.0.0.9.5.%.&.-.o...' ` ~ ! P B c h i i a n N Z F J Z M n V b i 4 8 s n M b b M B B b a 7 8 a c B B c h a i d i n Z G P P U U P P H P U U U U U U U Y E E Y U U I I U U U Y Y G b S E ` ` #.o.#.%.o.o.o.&.%.=.-.-.2.-.-.*.*.*.&.&.*.&.o.~ ' J G U Y ~ ) ' o.' U ~ o.o.#.#.$.$.&.&.&.&.&.&.&.&.&.&.&.&.1.1.2.2.2.3.3.3.3.3.3.3.3.3.3.3.3.3.3.3.3.3.*.7.7.3.o.) ' $.;.$.=.3.9.0.0.9.9.9.9.9.3.5.&...~ ..&.3.3.3.3.5.9.0.0.0.9.9.9.9.0.0.9.9.9.0.q.q.q.q.q.q.q.q.q.q.a.a.a.a.a.a.a.a.a.a.a.a.a.a.a.a.q.q.q.q.q.q.q.0.q.q.a.a.a.a.a.a.a.a.a.a.a.a.a.a.a.a.a.a.a.a.a.a.r.r.r.r.r.r.r.r.r.r.r.r.u.u.u.y.0.0.0.0.0.0.0.0.0.0.0.0.9.9.9.9.w.9.9.7.7.3.#.o.$.7.q.a.p.r.0.8.7.7.3.3.3.-.+.] o.+.+.2.3.2.-.-.2.-.-.2.2.-.&.&.&.*.%.%.-.3.3.5.3.;.*.*.$.#.#.#.#.#.%.&.&.$.$.&.&.&.&.&.$.$.$.$.] Y ' o.o.] ' J B b B ~ U U ` o.o.+.+.+.%.+.+.+.o.o.} } ' ] ..[ ] ] ' ' Y V V B N N B B M M N N B B N N B N M M M M M M M v b c n z l l l l l l d 7 < 4 q e p l d w 1 , 4 s z c z z l d s e 8 7 ; - 3 1 7 i g e i s s a i 4 7 w i s h c N Z J U Y ~ _ ~ _ ' ' ] } o.+.&.",
"j.a.a.u.0.9.3.2.%.&.-.....' ` ~ U G N z d a g N S I Y Y E U F B V N h 8 3 0 a v b c b M B B b s w w a c c b n h 8 i i i n M B F G G Z C B B Z Z G F G G J L I U U I J G G G G G F Z N z L ) ~ Y ] ] ] o.#.&.&.*.3.9.0.9.9.9.9.9.9.9.9.9.7.7.*.] 1.' m V Y ) ' } o.o./ ' } o.o.+.o.o.o.+.+.+.o.o.o.o.o.o.o.o.o.o.&.&.&.1.1.1.1.2.3.3.3.1.1.1.3.3.3.3.2.1.3.7.3.$.] ] o.#.#.] ' ] -.5.5.-.-.2.2.3.3.5.3.o./ ] &.5.2.2.-.-.5.3.9.9.3.3.7.7.3.7.7.7.9.9.0.q.q.q.q.q.q.q.q.q.q.q.q.q.q.q.q.q.q.q.q.q.q.q.q.q.q.w.w.q.q.q.q.0.q.q.q.q.r.r.r.r.r.r.r.e.q.q.q.q.q.q.q.q.q.q.q.q.0.0.q.q.e.e.0.0.0.0.0.0.0.0.0.0.0.0.0.0.9.9.9.9.9.9.7.7.9.9.7.9.9.7.5.3.3.3.$.#.3.9.q.9.0.r.8.3.3.2.*.&.&.=.&.&.+.+. .+.2.&.;.2.-.&.&.-.&.=.&.%.%.o.` E &.-.3.&.*.$.$.#.o.#.#.#.+.o.o.o.+.#.$.$.&.&.&.$.#.#.#.#.] ~ ] ] ] ' ~ B b B G ..0.9.9.9.3.-.-.;.=.$.#.o.] ] ] [ [ [ ] #.o.o.o.] ' ~ ~ F Z Z C C B B B B C C B C Z Z B B B B B B N M b b b c n n s s s s q , < 7 i p p p q 3 1 4 s z v z z z g a 8 7 7 4 - 3 1 8 i g g s z b n h s i 8 q 9 i g z M B G P Y ! / ~ / _ ' ' } o.+.&.",
"d.a.a.y.0.9.3.&.o.&.=.' ' ` ~ E P Z b g d h B U I E / ` ~ E I F B b b h 8 3 0 d c b b b m B V M g w w a g c b c d 8 8 8 i a a d g s s s s g h h z z z z h z c m c n h h h h h h h a i i / ] ) ) ' ' ' ] o.*.1.3.9.7.3.7.9.9.9.0.0.q.q.q.a.z.j.9.3.$.B Z Y ) ' o.+.$.' } ] o.o.o.o.o.o.o.o.] ' _ / ~ ~ ! ! Y Y Y o.$.&.&.1.1.1.1.1.1.&.&.O.&.&.1.3.1.&.&.*.#.' ~ ' ] o.] [ [ ' [ o.%.%.o.o.o.o.+.o.&.-.%.o.o.=.5.-.&.&.&.%.=.=.&.&.&.*.*.2.3.3.7.7.9.9.9.0.0.0.0.0.0.0.0.q.q.q.q.q.q.q.q.q.q.q.q.q.w.w.w.w.q.q.q.q.q.q.0.q.q.q.q.0.0.0.0.e.0.0.0.q.q.q.q.q.q.q.q.q.q.q.q.0.0.0.0.0.0.0.0.0.0.0.0.0.0.0.0.0.9.9.9.9.9.9.9.7.7.3.3.5.5.5.5.;.-.-.-.*.3.3.7.9.3.$.o.O.1.1.$.o.o.] ] ] ] ] ' /  .' ' ' '  .+.] / / ] ' ' ` / ~ ~ U I o.*.2.&.#.o.} ] ) E L B Y ) o.o.o.o.#.#.+.+.+.+.#.o.o.o.] ~ ' ' ' ~ U c b U Y o.z.a.0.5.-.;.=.&.%.o.] ' ) ~ Y Y ~ ) ) ~ ) ~ ~ ~ ~ ~ ] B h h l l h h g g d d s d g g d s d d d d i i 9 9 8 8 8 8 e e w w 4 < 1 q e i e 7 < ; 3 p z v v z z l s e 3 7 4 - 8 3 3 p s g s c B B N n l g s e 8 e s h b B F J U Y ~ ! / / ' ' } o.+.&.",
"d.a.u.0.3.3.3.*.%.&.&.' ' ` ~ U I B n h h B J U ~ / ' ] ~ Y U I V B b n g 8 1 3 a c N B N N B B M l i w a a g z l s e e i i i i s s s s s s g z h h h g g g h h h g h h z z z z n g 8 n ' o.&.&.$.$.*.7.*.3.9.q.q.a.j.j.j.j.k.z.z.C.F.C.F.D.z.7./ o.L B V U ~ ' ] o.] ' ] ] ] ] ] ] ] ] ] ] ] ' / ' ' ) ' ' L U ] o.+.o.&.&.&.1.<.&.&.&.o.+.$.$.] } o.o.] ' / ~ ~ ' o.o.o.o.o.o.o.o.o.o.o.o.] ] ' ] ) 2.o.] ] o.o.o.+.+.$.$.&.&.$.$.&.&.&.*.3.3.3.3.7.9.9.9.0.0.0.0.q.q.q.q.q.q.0.0.0.0.0.0.0.0.0.0.0.0.0.0.0.0.q.q.q.q.q.q.q.q.0.0.0.0.0.0.0.0.0.0.0.0.0.0.0.0.0.0.0.0.9.9.9.0.0.0.0.0.0.0.9.9.0.0.9.9.9.9.9.9.3.9.9.7.*.*.*.*.&.=.&.%.%.&.&.-.*.&.3.q.9.&.} o.$.$.#.o.#.] ' ] o.+.o.o.o.o.o.o.] ] ] o.o.' / Y ~ ~ ~ ~ Y ~ ' ] #.$.&.&.o.] ) ~ ) ' Y L I ) ' ] o.o.o.o.o.o.o.o.o.o.o.] ' ' } o.' U U b B ~ ' o.j.z.a.u.j.a.a.u.0.9.9.7.3.3.*.&.*.*.3.*.&.$.&.#.*.o.o.I h d d g h h h h g d d d d d d d s s s s i i i i i i i i s i e 8 7 3 4 q p e 8 1 < 7 p c z v z z d s i 1 7 7 O 1 7 8 i g g s s z B B B B M n g a e e a h z M Z P U U ~ Y ~ / ' ' } o.o.&.",
"d.a.u.0.3.3.3.*.%.%.%.' ' ~ Y J B b n b B I E ` ' ] ] ] ~ ~ ~ U G V B b c s 0 ; 4 a b N N N B B B b d w i i i i d d g g z z z z z z z z z c c M m c m c c z c c c c c c m m c c c z s B ' _ o.1.7.7.9.q.0.q.q.q.j.z.c.b.z.z.v.b.z.c.c.z.j.k.j.0.' o.F b V L U ~ ' ] ' ' ] ] ] ] ] ] ] ] } ] ] ] ' ] ) Y ~ ~ U ) } ] o.$.$.&.&.&.&.&.&.$.&.&.$.$.} } +.&.&.&.o.o.' o.%.%.&.&.&.&.&.=.$.$.$.$.#.#.o.#.o.7.' / ~ ~ ~ ~ ~ / ' ] } o.#.#.$.$.o.#.&.2.3.3.7.7.9.9.9.9.9.9.9.9.0.0.0.0.0.0.0.0.0.0.0.0.9.9.9.9.9.9.9.9.0.0.0.0.0.0.0.0.0.0.0.0.0.0.0.0.0.0.0.0.9.9.9.9.9.9.9.9.9.9.9.9.9.9.9.9.9.9.9.9.9.9.9.9.9.9.9.9.3.3.2.$.+.+.+.+.o.o...] ' ] ....o.o.$.*.$.] o.$.o.o.o.#.o.o.' ' +.o.+.+.+.+.+.+.o.o.o.&.&.+.#.o.o.o.o.o.] ]  .o.#.$.$.+.] ) ) ' &.Y B V V Y ' ] o.o.o.o.] ] ] } ] ' ' ' ] o.o.o._ P J B B P Y } ;.j.a.a.a.a.a.a.a.a.q.q.9.7.3.3.2.*.*.*.&.$.$.#.#.I ' ! s d l h h h h h l g d d d d d d g g g d d g g s s a a a a i e e i i e q q 4 < < 7 i z v z x l d s i 7 3 8 + & 1 8 i g g g g h z B B B C B N c z a i i a h b B J P U ~ Y ~ ~ ' ' ] o.o.$.",
"a.a.y.9.3.3.3.&.o.+.+.' ` E I B B b N G Y ~ ' o.#.o.] ' ' ] ' ~ U J V B B c a 7 ; 4 a b N N N N B v l a 8 8 8 i d g z z b b b b v v v v v v M M M M M c c c M M M M M M m m c m z z g J ~ U ~ &.7.7.7.9.9.0.7.7.u.a.d.j.a.d.d.j.a.k.j.a.0.u.u.q.' ) b m B F G U L U U L U U U U ~ ~ ~ ~ _ / _ / ' _ ~ L G B U *.2.&.o.} +.+.&.&.&.&.$.+.$.$.o.] U ! _ ' 1.&.$.o...+.%.%.o.o.....#.+.o.] o.o.] ] o.o.#.3.o.' ' ' ' _ ' ' ' ' o.o.#.#.#.#.) ] #.&.3.3.7.7.7.7.7.7.7.7.9.9.9.9.9.9.9.9.9.9.9.9.9.9.7.7.7.7.7.7.9.9.9.9.9.9.9.9.9.9.9.9.9.9.9.9.9.9.9.9.9.9.9.9.9.9.9.9.9.9.7.7.7.7.7.7.7.7.7.7.7.7.9.9.3.3.5.9.9.9.9.1.$.o.o.o.o.o.o...] ] ] ..] ' ' ] +.#.] ' ' o.o.' ] o.' / / ' ~ Y ] +.o.o.o.o.o.o.o.#.$.#.#.o. . . .] ] ] ] ] o.#.o.' ' ' o.#.' g h g h V U Y ~ Y Y Y U U U U U L L J J G G F Z b b c d a B +.&.0.0.3.0.0.0.0.q.q.0.9.7.3.3.2.*.*.&.&.&.$.$.#...B Y ~ c i l l h h h h h h g s d d d d s d s s s p p p p p p i i i e e i i i 8 3 < < 7 p z c z l d p e e 3 3 9 % % w 8 i g g z g h c z M N Z F F B N b h d i i d n N F P U ~ Y ~ / ' ' ] } o.$.",
"a.u.0.9.3.3.3.&.o.o.o.` ~ I B N N B J Y ` ..%.&.$.+.] ) ' $.$.] ~ U J V F N z a 3 ; 4 a N B B B v v c l 0 8 i d s s g h n n n n c c c c b b v v c b c c c c c c M c c c c c c c g h h U ~ ~ ] 1.7.3.3.7.1.3.3.3.3.9.0.0.0.0.y.u.a.a.a.u.u.0.0.0.#.~ b Y ) ' ] o.o.#.o.o.+.+.+.o.$.$.$.$.&.&.&.&.1.3.&.+.3.%.#.&.3.3.&.o.o.+.$.&.$.$.+.o.+.o.' ! Z J Y / +.o.] ' ' ..o...' ' ' ' ] ' ) / ' ) / ~ ' ' ] &.&.$.&.*.1.&.1.2.2.2.3.3.5.3.3.3.9.3.#.#.*.2.3.7.3.3.3.3.3.3.3.3.7.7.7.3.3.3.3.3.3.3.3.3.3.3.7.7.7.7.3.3.9.9.9.9.9.9.7.9.7.7.7.7.7.7.7.7.7.7.7.7.7.7.7.7.7.7.7.7.4.4.4.7.7.7.7.7.7.7.7.7.3.3.3.3.3.3.3.9.&.$.&.3.3.3.3.3.5.3.-.-.=.&.%.o.o.#.o.o.) Y ~ #.$.' ~ / ] ~ ' *.$._ +.#.o.o.o.o.o.o.o.$.$.$.&.o.+.+.+.+.+.+.o. .] ] ' ! ~ +.2.*.~ U U Y Y ' ] o.] o.o.o.' ' ' ] ] ] ' ' ' ' ) ~ Y ~ ! U z e h o.&.%.9.2.3.3.9.0.q.0.9.9.7.3.*.*.&.*.&.&.&.$.&.#.] I U U G i g l l h h h h h h g d d d d p p p p e e e e e e e e e w w w q 8 8 7 < < 7 s c v z g g a e w 7 4 e O O 3 e p g g z v h c c z b N Z G G Z B N c z g a a h v C H U ~ U ( ~ _ _ ] } o.+.",
"a.u.0.9.5.3.-.=.o.o.o.` I B N B S I ~ ' o.&.-.-.&.#.&.' ] ] ] ] ) Y U L V m h d a 8 4 4 s v v v v c c l w 8 a g d 8 7 9 i i i a a a a s l g g l l l l l z g z z z h h g g g g g g i h _ ' o.&.3.3.3.3.3.0.9.0.9.0.y.u.a.y.y.u.a.a.a.a.a.0.0.0.&.o.J U ' ' ] ] } ] o.] ] +.+.o.o.o.+.+.+.+.+.o.} o.o.o.o.+.#.$.$.1.1.2.&.] } o.o.o.o.o.o.o.o.o.' ' ' / / o.] ' ' ' ' ] ....] ] ' ' ' ' ' ] ] ' ' o.#.) ' $.$.#.+.&.&.$.$.&.&.&.&.#.#.$.&.&.3.*.o.o.&.7.3.1.1.3.3.2.2.3.3.3.3.3.3.3.3.3.2.3.2.2.2.3.3.3.3.2.*.*.*.3.3.3.3.3.7.7.3.4.3.3.3.2.3.3.2.3.3.2.3.3.3.3.3.3.3.3.3.3.3.3.3.3.3.3.3.3.3.3.3.5.5.3.3.3.5.3.&.*.*.&.&.$.$.$.$.&.&.&.&.o.o.o.o.#.#.] o.) Y ~ ) ] ' ' ' ) ) ' ' _ ' ' ] ] ] } } o.o.o.o.o.o.o.o.o.o.o.o.o.} } ] ] ] _ ~ ~ +.&.&.+.o.] o.] ' ) ~ ) ' ' ] o.o.o.o.' ' ' ' ' ' ' ' } ] ' ' U M h $.3.o.5.3.9.9.0.0.q.q.0.9.3.2.3.3.2.*.&.&.&.$.$.&.=.#.~ ! ( e i g g g g g g g g s d d d d i e e e e e q 7 e e q q 8 e w 7 3 3 3 3 1 7 p g z l g s a e 4 ; 3 8 % . 3 w a g g l c c m M B B F G P U ~ U F J B N c h d d h b F U Y U ! ( / _ ] } o.+.",
"a.0.9.3.2.-.&.&.o.' ' E B N N B U ~ ] o.-.5.5.-.7.&.&.o.o.o.] ] ' ~ Y U F N c h h a 8 < 4 i x v c c c x l e 8 8 3 - & ; 3 4 3 4 4 0 0 8 0 4 4 8 8 8 7 3 4 1 4 7 8 8 8 8 8 8 8 8 0 3 h o.] o.o.$.2.2.2.2.2.2.3.2.3.5.9.0.0.0.y.u.a.a.a.a.4.3.9.&.$.' o.+.o.o.o.+.+.&.+.o.$.$.$.&.&.&.&.&.&.&.$.o.+.+.+.+.#.$.$.&.1.1.2.&.' ' } o.o.o.o.o.o.o.o.o.} o.o.' ] &.$.^ ` ' ' ' ' ' ' ' / ) ' ' ' ' ) ~ ] o.) ' &.&.#.#.$.$.&.&.&.&.&.&.$.$.&.&.$.*.$.o.] o.*.3.$.$.$.$.$.$.&.&.&.&.&.&.;.;.&.&.&.=.=.=.&.&.*.*.&.&.*.*.1.1.2.2.&.2.3.*.1.1.&.&.<.<.1.1.*.*.&.&.&.&.*.*.*.*.1.1.*.*.*.*.&.&.*.*.*.&.&.&.&.&.&.&.-.3.-.=.$.$.&.&.#.#.#.#.%.%.%.+.%.%.%.%.] ] ] #.o./ ' ' ~ Y Y U L L U U ~ ~ ) ) ) ) ) ) ) ) ) ) ' ' ' ] ] ] ] ] ] ] ] ] ] ] _ ~ _ +.#.&.#.o.' ] o.] ' ' ] ..o.o.$.$.$.O.+.+.+.+.+.+.+.o.} ] ' ' U b h ] &.&.3.-.9.9.0.0.0.9.9.9.9.9.7.7.7.3.3.3.3.3.*.*.=.%.] } ^ w < ; 3 3 3 3 3 3 3 1 1 3 3 1 1 1 1 1 1 4 3 4 4 4 1 < < < ; - % % % % 1 8 a g z g s i e 7 1 1 q & % - w i s g g l c v M B B Z F Z U / ~ F ~ U U J Z B n h s a M G U U U ( ~ _ ' ] o.+.",
"u.0.9.3.-.-.&.%.' ~ ~ J B B J U ` o.&.-.9.5.&...*.3.&.&.#.o.o.] ] ' ~ Y L V B b h h i 3 & < r x x c c x c a i 8 - & 1 e e e e e d d s s a i a d z l i 7 8 8 w i s s s s s s s s d 8 N &.' / ' ] ........ . .o. .o.+.+.%.&.&.-.2.7.9.9.3.1.&.3.1.0.1.3.3.3.7.3.7.7.9.7.7.0.0.0.0.0.0.0.0.0.0.9.3.*.*.*.*.$.$.&.*.1.1.2.&./ _ ' ' ] ] ] } } } ] ] } o.+.' o.o.o.] ' ' ` ` ` ` ' ' ] ] ] ] ' ) ~ ~ ) ' / ) o.+.#.#.+.$.&.&.&.&.&.&.$.$.&.&.&.&.&.$.o.' o.$.o.o.o.o.o.o.o.o.o.o.o.o.+.o.o.o.] } ] o.o.o.o.o.o.o.o.o.o.o.o.o.] ] o.#.O.+.o.o.o.o.o.o.o.o.o.o.} } o.o.o.o.o.o.o.o.o.o.o.o.o.o.} } o.o.o.o.o.o.=.&.=.&.#.#.#.#.#.#.#.#.%.%.%.%.%.%.%.%.o.&.o.o.#.' ) ) ' ' ' ) ~ ~ ~ Y ~ ~ / ) ~ / / / ~ ~ ~ ~ ~ / _ ' ' ' ' ' ' _ ' ' ' ' / Y ] +.o.#.&.#.=.3.&.&.&.$.2.3.3.7.3.3.3.3.7.7.7.7.7.7.4.3.2.1.&.&.o._ Y o.' &.-.&.-.2.3.3.3.3.1.*.#.o.] ' ' ' ) ) ) ) ~ ~ Y Y L U ' i 4 3 7 7 7 7 7 7 7 4 4 7 7 7 4 e e e p a a s a a i e q 4 1 1 - - - - ; 8 s s s p e e q 1 1 1 < . ; 7 i a g l l z c b B B Z F F G U ~ F U U U Y U U P V m z d h B P U U ! ~ / ' ] ] o.",
"u.0.9.5.-.&.=.%.~ U U S S I ~ ' +.=.5.9.3.-.&.&.' 3.3.*.$.#.o.] ] ' ) Y Y F V B c z d 8 O & < i p l l l l l b s 1 1 8 g h h h h M M M M M M B Z Z C z e s v M v B B B B B M M M z 8 G 9.Y Y ( / ' ' ' ' ' ' ' ' ] ] o.o.+.#.$.$.&.&.&.$.$.} 1.1.a.7.0.r.9.0.0.0.q.a.q.0.a.a.a.a.0.0.0.0.p.0.0.9.3.3.3.3.$.&.*.2.2.1.2.&.~ / ' ' ] ] ] ] ] ] ' ' ' o.o.' ] } ] ' ' ' / ~ / ` ' ' o.] ' ) ' ' ) / ) ) ) ) ] o.o.+.o.$.&.1.&.&.&.&.#.#.o.o.o.o.o.+.#.~ ~ ' L L I I I I U U U U U U U U U U ~ ~ ~ ~ ~ ~ ~ ~ ~ ! ! ! ! ! ! ! U J U ~ ^ / ~ ~ ! ! ! Y Y Y Y Y U U U U U U U U U U U U U U U U U U U U U U U U I ` %.=.#.#.#.+.#.#.#.#.%.%.%.&.o.o.o.o.] &.o.Y ' ~ ' ' ] ] ' ' ~ ~ Y Y ~ / ) ' ~ / ~ / / / / / ~ ~ ' ' ' ' ' ' _ _ _ _ _ _ ~ U } o.o.#.&.$.=.2.&.&.&.&.3.3.7.9.9.9.9.9.3.3.3.3.3.3.3.3.9.7.3.2.2.7.1.&.~ ..o.o.+.#.%.%.#.#.o.o.#.o.' ' ' ) / / ~ ~ ~ ~ ~ Y J J _ i a i h h h h h l l g g g g g i z M c c z l l s d h h z a e e 7 7 7 7 1 9 i e 8 8 7 7 7 ; ; -   - 3 e a d h l l c c b B B F F F U ! P Z ~ ! ~ ~ ! Y U U J B b h c Z P U U ~ / ' ' ] o.",
"0.9.4.2.&.2.&.' G F G U I ~ [ %.3.7.9.9.7.3.3.7.%.#.9.7.-.&.#...] ' ~ U Y P F B b n d i 3 O + 3 p p p p p d z l 0 8 i a h z b M M M B B B c z h h n n d n N B N N N N N B N b n z 8 B ] P U ! ~ ' ' ' ' ' ' ' _ ' ' } } } } o.o.o.#.#.} } } o.} 1.1.1.<.<.2.3.7.3.9.6.9.0.0.0.9.9.9.9.9.9.9.0.0.a.p.r.e.7.9.a.a.a.0.7.} G K R ( E ~ E ` ` ' ` ~ / / / ' ] ] ] ] ' ~ ~ ~ ' ' ' ' ' ' ' ] ' ' ) ` ' ' ' ' } } } } o.+.#.#.&.&.$.#.o.o.o.o.o.o.o.o.o.o.Y b 3 3 4 4 4 4 4 4 7 3 ; - ; 3 0 7 e e e e e q 8 7 7 7 q 7 4 4 4 4 4 3 3 8 0 8 8 i 8 8 0 4 1 1 1 1 1 1 1 1 3 3 3 3 ; 1 3 3 3 4 0 0 0 0 8 8 8 8 8 8 9 Y &.&.o.#.$.$.$.$.$.&.&.#.o.o.o.o.o.o.o.] ' ~ ~ ~ ' ] ] ] ' ) ) / ~ ~ ~ ~ ~ / / ~ ~ ~ ~ ~ ~ ~ ~ / _ _ _ _ ^ ( ! ! ! ! ~ ( H H ] ] ' +.a.k.a.0.0.r.a.k.z.k.a.9.9.9.9.9.0.9.9.9.5.3.5.2.2.2.&.&.&.&.+.} U ' o.} o.o.o.o.o.o.o.o.o.o.] ] ) ) ~ E ~ ~ Y Y Y Y V L _ s e e i s g g h h z z z h h h e i v v d d d d g g g g d a s g e q q e 3 8 8 4 7 4 1 < 1 ; + O + 1 8 i a d h h c b v N B Z F F U U F Z U U Y Y ) ) ~ ~ ~ Y U G F n b F J U U ~ / ' o.#.",
"0.7.3.1.&.&.] Y N B U ~ ' o.*.7.q.q.q.q.7.3.3.7.9.%.%.3.-.&.#...] ' ) Y Y U J F b n n d 0 + . + 3 w e e p e 8 7 w i a s d h n b M M B B M g s g h g g g n M M M M M M M M c h g i 0 i Z J U ! ~ / / ) ) / / _ _ _ ' ] } } } o.o.o.$.$.o.} o.] z M Z F J Z G J U J U U U U U U U Y Y Y Y Y ~ &.a.4.3.2.1.1.2.3.7.9.3.4.' B F G J G G S U ~ ~ ~ Y Y ~ ~ ~ ' ' ' ' ) ~ ~ ~ ) ~ Y Y ~ / ) ' ' ' ' ' ' ' ' ' ] ] ] ] ] ] o.o.#.+.+.o.o.o.#.#.o.o.o.o.o.&.o.~ L L L L Z Z Z Z N M n h c N B B C Z Z C C C C B C C C A C A A A v z c B M M N N M M b b c c c c c c M M M v M M N B B B M M N B N N N N N N m m G } &.o.o.#.$.$.$.$.#.+...o.o.o.' ' ] o.o.] ' ) ~ / ' } ] ] ' ) ) / ~ ~ ~ Y ~ ~ ~ ! Y U Y Y Y ! Y Y U P Z Z Z C B B M M B v n C ' o.o.+.2.3.3.*.&.1.3.7.7.&.] ' _ _ _ / / / / / ~ ~ ~ ~ Y Y Y Y U P J F B ! ] o.o.o.o.o.o.o.o.o.] ] ' ' ) ~ E E ~ Y Y Y Y U m V G s e q 8 e i s s g g g g g g g s e l z g g g g g g g g s p p a q 8 q q 1 7 8 4 1 1 1 1 ; + . + & 2 q i a g h h c b v N Z Z F U U F F P U Y Y ~ ' ' ` ` ' ~ Y U L B h g C H U ! ( ) ] o.",
"9.3.2.&.&.o.~ C B K ^  .&.3.9.w.a.r.q.q.7.9.9.7.0.5.o.#.-.&.#...] ' ' ~ Y Y U F n n j h e - . . + 4 e e p q 1 3 i i i i s g z c z c c M M s i s d a a h z c b c n n n n z g a i 0 8 d B Z F U U U Y Y Y Y Y Y Y ! ! ~ _ _ ' ' ' ] } } ' o.+._ w i a g h d h h n h n n n b n n n b b b b F G o.k.8.9.7.3.3.3.7.7.3.2.1.! B B F F S N N I ~ ~ Y G G U Y ~ ~ ~ ~ ~ ~ Y ~ ~ ] ' ) ~ ) ) ' ' ' ' ' ' ' ' ' ' ' ' ' ' ' ' ) / ) ) ' ' [ ] ..o.] ] ] ] o.$.&.$.=.&.&.*.1.1.1.1.3.1.&.&.$.1.1.&.<.<.<.<.&.<.<.1.1.<.1.1.1.1.1.1.$.$.&.*.$.$.&.&.$.&.&.&.&.&.*.*.*.*.*.*.*.1.2.2.1.&.&.&.#.$.$.*.$.$.#.#.#.#.+.+.o.*.$.o.o.#.&.$.&.&.o.o.o.o.] ' ' ] o.+.o.] ] ] ' ' ' ] ] ] ' ) ) ~ ~ ~ ~ ~ ~ ~ Y Y U U U U U U U F M z w e e e e e e e d i w g ' &.2.&.&.1.2.1.&.1.1.1.1.~ B B N N N N n n n n h h h h g h g d s s d a z J / ' ' ' ' ' ' ' ' ' ' ' / / ~ ~ Y Y Y U U U U G m h s p p 8 4 7 q e e i s s d d d d p 8 w a g g g g g g g g p p e q 7 7 4 2 , 2 4 3 < < : : + . X & , 7 w i d h h h c b v M Z B P ~ B Z J U ~ ~ ~ ) ' [ [ ] ] ` / ~ Y J m g b G U Y ! ~ ' ] ",
"7.3.1.&.o.~ J C U / O.&.3.9.w.a.a.q.q.0.7.q.q.7.7.0.-.o.=.=.#...] ' ' ~ ! Y U J b n h h e 3 & + . < q e p q 4 7 e e 8 8 a d h n g g z z z g s e i a d d h h z z h h h h s i e 8 8 0 n b b N Z F J J J G G F F F G P U U U Q ! ! ~ ~ ~ ~ ~ ! Z i i a i i i a a h a h d h h h h h h g h h l b ] C.N.M.z.k.a.a.a.a.3.1.$.Z G J J J J B N U ` ~ I B b F K Y Y Y Y Y Y Y E ~ ] ] ] ] ] ] o.o.o.] ] ] ] ] ] ] ' ' ' ' ] ) Y L J L U U / ) ' ] ] ] ] ] ] o.&.*.*.*.2.2.2.2.3.3.3.3.3.2.$.&.&.$.<.<.&.&.$.&.1.1.1.1.1.1.1.1.1.1.$.1.1.1.1.&.&.&.&.&.1.1.*.*.*.*.1.1.3.3.3.3.3.3.7.3.3.1.1.1.3.7.1.1.3.3.3.3.3.3.3.*.#.o.o.#.&.$.&.&.o.] ~ ~ ~ ~ +.+.+.+.o.o.] ] ' ' ' ] ] ] ' ) ) ~ ~ ~ ` ` ' _ ~ ~ Y U U U U U F M g w 4 7 7 8 e q q q i i 8 8 B o.0.a.r.a.a.r.0.0.0.0.&.J h h g d d d s s s s s s a i a a i a i i a i h Z Y ~ / / ~ ~ ~ ~ ~ ~ ~ ~ ! Y Y U U I I L J G B V M i 7 e g e 3 3 1 1 4 7 e i e e e e e e 7 e h h g g g g g g i p e 4 4 7 4 , & 1 4 4 1 < ; - o + & - 1 7 e s g h h n c b v M F F U ~ N F U U ~ ~ / ) ' [ ] ..o.] ' ) ~ U J F v v G U Y ! ) ' ",
"2.&.$.o./ F J ~  .+.2.3.0.0.q.j.a.u.0.7.q.0.9.9.0.9.3.-...&.#.#.) ' ] ' / ( Y J B b h a 0 - + % - < 4 q 4 4 4 4 8 w 8 e a a d g g g d g g g s i i s g g a s d d s a i i i 8 0 4 4 0 h s ; h M N B B B B Z v c d d l h g c z z z z l l l a i w 8 8 8 8 7 3 4 3 3 0 0 0 0 8 0 6 8 4 0 8 i s g ~ c.z.k.z.V.z.k.a.3.7.7._ h c b N N B k k B L G V h n N F B F J U Y U U I ~ ' ' ' ' ) ) ' ' ' ' ' ' ' ' ' ' / / / / ) ' ~ L G F G L Y / ] ]  .] ' ~ ' ' } o.#.#.#.#.o.o.o.o.o.o.o.] ] ] ] ] } } o.o.o.o.#.o.o.o.o.o.#.o.} } ] o.#.o.+.o.o.o.} } } } } } o.o.o.o.o.o.+.#.$.$.$.$.&.} _ [ ] } ] } #.$.#.#.#.#.o.] ] ' ' ] ] o.] ] ) U L U ~ ' o.o.o.o.#.o.] ' ' ' ' ] ] ] ' ' ' ) ) ~ ' ] ] ' ~ E U I G S B N n g 8 3 1 0 9 9 8 8 8 8 e i w 4 i ! 9.r.a.a.r.r.a.a.a.r.9.F i e 8 8 8 8 7 7 8 8 7 8 e i i i i i 8 8 8 0 h n M B B C F J G Z C B B B v c c n M M M N N c g s i 1 3 7 7 7 3 1 - - & < 8 w 8 8 8 8 8 8 8 8 i i i i i i i i w q 8 7 w 4 , & & & - < 1 1 > : ; + + & , 4 e s g h n n n b b N B P U B B G U Y ~ / ) ' [ ] ..#.#.#.o.] ' ) ~ U G B M Z I Y E ` ",
"<.&.o./ F F ~  .+.&.6.0.0.0.w.u.a.q.q.9.q.0.9.9.9.7.-.=.....%...' ] ] ' / ( Y J B n d i 1 - ; 1 4 7 e i q 7 3 3 4 4 0 8 8 i i i i i i i i i e 8 8 8 i e 8 8 8 0 i 8 7 3 7 0 0 0 3 % ; - - i h n c c c c l i 8 ; - 1 3 1 3 3 3 3 4 3 3 3 3 < ; - ; < < < ; 3 < ; 3 3 3 3 6 ; : : 1 3 7 8 a 8 U 7.7.7.7.0.9.5.&.#.1.*.U e h c N N n d d n F G V d d n n n n b N B V G V L Y Y Y Y U Y Y ! ~ ~ ~ ~ ~ ~ ~ ~ ~ ~ ~ ~ Y Y U L G V V J ~ ~ / ~ / ~ ~ Y U U U U U U U U U U U U U P F Z Z Z G G Z Z G G G G L L G L L L U P L L G P U P Y U U U U U U U U U U U U U U U U Y Y Y U U L V m B B V Z Z G L U U U U Y U U U U Y Y ~ U E Y L Y ~ ~ ) ' ' ' ' ' ) / ~ ~ ~ ~ ) ~ ~ Y U U U U I Y ~ Y L B B m b n k h d a 7 & & 3 8 e e s s s s g h a w 4 l ~ o.&.&.&.&.&.&.<.1.2.Z i 8 7 4 3 3 ; - - 3 7 0 0 0 7 3 3 3 3 3 3 3 4 7 8 8 i i a a s a i i w w w 8 w 8 s h h h h s 8 1 ; - & - ; - ; 1 & - & ; 3 4 0 0 0 0 w w w 8 8 8 8 8 e e e e e w q 8 7 3 ; & & + + + O % > 6 1 ; % & - 1 q a h j n b b b b N G H B N F J U Y ~ / ) ' [ ] ....o.o.+.o.o.] ] _ ! G M M S I Y E ",
"&.o./ U B Y ] +.*.9.a.z.a.9.*.&.a.q.q.q.q.0.9.9.7.5.-.=.o.' o.' } o.] ) ^ ~ Y J B j i 0 1 3 8 p d l z z z l d s d g g h h n c b c z z z z z z z h z z h h h h d n z h g a d h h s i s g i n b M b b b b n h a 4 % ; 3 7 1 3 3 7 7 7 7 7 7 7 4 3 1 4 0 8 8 e e e s s s s z 9 s d g l c M c g ' &.1.&.$.o.] o.} } $.] m s Z Y ' ' ~ Y Y ~ E Y G i i s a i 8 i a d n m c m B B B B B V V F G G G G G G G G G G G G F V F G Z B m B F G F Z G F F F N M M M B B V B B B B B B B Z Z B B B B B B B B B B B B C C Z Z F F G J F J G Z P J G F F F G G G G G G G G G G J G F F G G F M B B V C V B B M Z F F F F G G G G J L I J I U U U ~ ~ U Y Y Y Y U U I I L L L U G G F V G J J L V G V N B N m m m n j h g 8 & < d m V G ! ! ! ! G F N z w i G _ o.o.} ] ' ' } o.&.Y e a d a i e 4 1 ; h n l j h d d a s d s d a 8 8 e e 8 8 8 8 8 8 8 0 8 7 4 3 4 p z v B B B v c s s g s g h g c M i 8 i a s s d g g d d d d d g g g g g g g g s s i i i e 9 8 q 7 4 3 4 7 7 8 6 3 < ; & 1 8 a h n n b b b N B P N b B F P U U ~ ~ / ' [ ] ..#...o.&.&.#.$.#.] ' Y F M N S I Y ",
"} _ Y G Y  .o.&.9.a.b.J.k.3.2.$.7.a.a.a.0.9.9.7.5.-.=.%.o...` ` o.+.] ) ' / ~ U B h u 3 0 e g z z v v M M M M v v B N B B B Z Z V B B B B B B B B B B N N B Z Z B Z F J B B Z Z F U J G Z J B B B B B C B c s 3 ; 7 i s g g z c M v v M z z z z z M B C Z P U U Q Y U U G z Z U Z L P U c Z o.+.&.o.~ F Y ) ] ] ' L e d U ' &.&.&.%.%.&.#.o.Y i 9 i i 8 3 4 0 8 c V B B V V V V F G J J J G G G G G G G G G G G J J L U U G V V N B Z B G G G G Z Z L L L L L L G G G G G G G G L L L L L L J J J J J G G G G G G P U U U U U G U P G G G G J J G G L G G G G G J G Z F B F G C P U U U U U G F J J J J G J I I L L U U L L U Y ~ ~ ~ Y U Y Y Y I I I U I I U Y I I L G J L U U U U L J G G G G V B N b n a < 3 F Y _ ' o.o.} } / ~ U B s l ! +.o.' ~ Y ! ( ^ ' &.} 8 n G Z N M c i 3 b Y U U K U U P U P J P G F Z Z Z C C B B N N v b n l a u a B B B G J G C G B G G G P P P U ! G m B B N m M M M M c c c c c n n n n n n n z z g g s s s s p i i i e e 8 7 7 8 7 4 , < 7 i h n n v b b N B F M M B G P U U ~ ~ ) ' ' ] ..#.] o.$.&.$.3.1.o.} / U Z N N S I ",
"' Y U ) ' o.&.9.k.C.G.J.V.a.5.z.&.9.a.0.0.0.9.3.5.-.&.%.&.o.` &.=.o...' ' ` Y G m i 3 0 a h z c v v M B C C C C C F F G G G H H L J L L L L L L U J G P P U U Y U U U U P Y ~ Y ! ! ! ! ! ! ! ! ! U G G C v e 4 a b G ~ ~ ~ ~ ~ ~ ~ ~ ~ ! ! ! ! ~ _ _ ' o.+.+.&.&.&.&.! B L ~ ) L ~ ! L h ) o.' o.' S 5 J ` ~ ~ ~ c e L ) $.&.&.2.3.9.9.3.o.L 9 g c c h h g h b U _ _ ! ~ ~ _ _ ' ' ' ' ' ' ' ' ' ' ' ' ' ' ' ' ) ) ` ` ` / ~ ~ ~ Y ~ ~ ' ' ' ' ] ' ' ' } } ' ' ' ' _ ) ) ) ) ) ) ` ' ' ' ` ~ ~ ~ ~ ~ E ~ ~ ~ ~ ' ' ' ' ' ' ' ' ~ ~ ~ ~ Y Y Y Y / ' ~ ~ ~ ~ ~ ~ ~ ~ Y Y R ( ! ! ' ' ' ~ / / / / / ' '  . .] ' ' ' ' ' ' ' ' ' ' ] ] ' ' ' ' ' ' ' ' ' ' ' ' ' ' ' ' ' ' ' ' ' ] ] ' ' ' ' ' / / Y U U U G N d 8 B ) &.$.$.&.&.*.' ! ~ ! G h B ^ } } U c C Y ~ ~ ' ' b e ~ ~ P F Z M n b  .&.+.+.&.+.} ' ] } } } } } } } ' ' ' ' ] o.] ' / / J a h Z Z J P U U Y Y ! ( ! ^ ^ ' ' _ _ ~ U Y Y U G G J G V V B B B N m m b c b c b b c n z h g g g g s i i e e 9 8 w 8 7 3 3 1 3 8 i h c c N Z G G c c m V G L U Y ~ ~ / ) ` [ ] ` ' #.*.*.3.0.3.5.&.o.~ G G I G S ",
"~ ~ / ' ..&.q.c.C.C.a.a.G.c.0.b.9.5.9.9.9.9.3.5.2.-.=.&.%.o.o.&.2.+.....' / U S g 8 8 a h c c M B B C C G G G G J H U P P U U U U U U U U U Y Y ~ Y Y ~ ~ ~ ~ / ' / ( ~ / ^ ' ' ' ' ' ' ' ' ' ' _ ^ ! U G C c M U ^ o.o.&.&.&.&.&.&.&.$.$.+.+.#.$.1.1.1.3.9.9.0.a.r.0.L B ! ) ~ U ) ~ m B ' ] ' ..' n g ....` ' I s z U _ ] ] +.3.9.0.9.3.#.V i L Y U I ~ Y ~ ) o.&.<.&.&.&.&.&.&.&.&.&.&.&.$.&.$.$.$.&.%.#.#.#.#.#.o.o.%.%.#.#.&.&.&.&.5.3.3.2.2.2.2.&.&.&.1.2.9.9.9.0.0.q.q.q.q.u.0.0.0.0.0.0.0.0.0.0.0.0.0.0.0.0.0.0.9.9.9.9.9.7.7.7.7.7.9.9.0.r.7.9.9.9.9.9.6.3.3.2.3.3.3.3.2.3.3.;.5.5.0.y.5.6.0.0.9.9.5.3.2.1.1.1.&.&.&.&.&.&.&.$.&.&.&.&.&.&.&.&.&.&.&.&.&.%.+.o.%.&.=.&.&.&.&.&.&.&.+.+.....] ' / Y Y c h ' $.2.*.*.2.3.$.! U _ ~ G c ^ O.} Y M b H ~ / ~ o.U 8 F o.' Y ~ U F n  .a.d.0.9.7.3.3.3.3.8.7.4.3.3.3.2.2.2.2.3.9.3.2.-.&. .G d B U Y ~ ~ / / ^ ' ' ' } } o.} } } ] ' o.] ` E Y ~ Y U G G F V V V B B B B N N B N M b c n c n z g s s s s i i e w 7 7 7 4 1 1 0 a z c M B G F m b m V J L U Y ~ ~ / / ) ` ` ) ] %.*.3.&.o.&.5.3.&.+.' R U U I ",
"~ ' o.o.3.q.c.F.H.!.a.o.a.Z.z.z.a.-.5.3.9.3.5.2.-.&.&.=.&.%.&.o.+.+...' ' ~ I n 9 8 i h b M B B C Z G G H H H H U Y ! ! U U Y ~ ~ ~ ~ ~ ~ ~ ~ ~ / ~ ~ / / / / ~ ] ' ] +.+.o.o.o.o.o.o.o.o.o.o.o.} ' ^ ( U H U ' &.2.3.3.7.7.7.4.7.9.9.9.0.0.0.0.r.a.a.k.k.z.z.c.N.k.1.B Y ) _ ) ~ ] U M ~ o...o. . .i / o.o.+.+.m i L ) ) Y ~ $.9.0.0.3.3.] c N o.$.$.+.%.%.&.-.&.&.3.5.6.9.0.0.0.9.9.9.9.9.7.3.7.7.7.3.7.5.7.5.7.5.;.*.5.3.3.9.0.0.0.u.a.0.0.0.0.9.9.9.3.4.9.0.a.s.f.k.c.c.c.z.c.z.k.j.a.a.a.a.a.a.a.a.a.a.a.a.a.a.a.y.9.0.0.a.a.a.a.a.k.k.k.k.j.k.a.a.z.z.z.z.k.k.a.a.a.a.a.a.p.a.d.a.z.z.z.z.z.c.b.b.v.z.l.j.a.a.a.a.a.0.9.7.9.9.9.9.9.9.0.0.9.9.9.9.9.9.9.9.3.5.2.-.5.9.9.0.0.0.9.7.9.6.3.3.5.2.-.&.&.%.$.~ n ~ &.3.3.3.7.9.3._ P ) ' / b Y 1.O.' Y B B Y ] / ' _ n z ' $.' ] ' ~ F R d.V.a.a.a.a.a.r.a.a.a.a.a.a.a.a.a.a.a.a.j.a.u.y.0.3.o.S I ~ ~ / _ ' ' ' } } } o.o.O.O.o.+.o.} ~ Y I L U Y U L L L G G G F V V V V B B B B N N N M M M c z h g g g g s p i w 8 w 7 3 ; 3 e g z b B V V B N N V J I U U ~ ~ / _ ) ) ) ' ] #.2.&.' ' =.3.0.6.3.&.o./ U I ",
") o.$.3.z.C.F.H.!.H.F.3.&.V.V.a.y.9.2.2.3.5.3.2.&.&.&.*.-.&.&.' Y ' o.' ~ I B i 0 8 a h N B Z Z G G G H K U U U ! ~ ~ ~ Y ! ~ ~ ~ ~ ~ ~ ) ) ) ) ~ ! ! ~ / / ~ ~ U Y ] 2.-.+.+.+.+.O.O.O.O.o.o.o.o.} ' ^ ~ ~ ' 9.8.0.a.a.r.r.r.r.a.a.a.a.k.z.k.z.M.C.C.Z.C.S.Z.F.F.V.+.G o.] ' ' ] _ B ! &.=.o...+.U N +.&.%.&.' f V ' / E F I 3.0.u.0.3.1.~ d ~ *.3.7.3.3.3.5.0.0.9.0.a.p.a.a.a.a.a.r.r.q.q.0.0.0.0.0.0.w.w.w.w.j.a.q.9.0.0.a.a.j.a.k.z.z.k.k.a.z.k.k.k.s.k.V.C.S.J.P.!.P.P.H.R.!.H.F.D.c.V.C.D.G.Z.C.C.V.V.V.V.V.V.v.c.k.c.V.Z.D.D.D.Z.Z.Z.Z.Z.J.H.D.F.J.J.J.J.F.F.G.Z.V.V.V.V.F.!.!.!.^.!.J.G.G.G.G.J.G.G.D.C.C.Z.Z.Z.Z.V.c.k.a.a.a.a.a.a.d.a.a.a.a.a.a.u.u.u.u.u.0.0.u.a.a.a.a.a.a.a.a.a.a.p.y.0.0.0.0.9.5.5.V L &.3.9.9.0.q.7.o.U ~ ' +.U B 3.1.&.$.~ B J ] ' / ] / b B o.&.&.&.o.~ K y.A.b.z.z.z.z.z.z.N.N.M.z.z.z.V.V.V.b.k.z.k.a.d.d.a.5.&.` / ' ' ' ] } } o.o.o.o.o.O.&.&.&.+.] U I I U E ~ ~ U I L J G G G F V V V Z Z Z B B N N N N M B M c c z h g g s p e w i q 4 1 < 4 i g b N V V V B N V L L U U ! ~ ~ _ ) ~ ) [ ] &.=.o.E &.9.9.a.0.0.9.2.o.~ U ",
"o.#.7.z.D.F.J.H.R.H.J.z.=.9.c.a.a.0.3.3.5.5.3.2.3.2.2.2.-.=.%.o.` ~ E ~ Y B i 3 9 g h N B V V G J P U U U U Y Y ~ / / / / / _ ' ' ' ' ' ' ' ' ' ' ' ' ' ' ' ' ' / / ] &.+.+.&.&.&.&.&.&.$.$.$.$.O.o.] ' / ] 0.z.k.k.k.k.z.z.z.z.c.c.c.c.V.C.Z.Z.S.F.F.F.J.J.J.J.H.z.' ] 3.*.*.3.2.~ F o.&.&.+.' X.N ' -.%.;.-.I g ~ ..' ~ N ' 9.j.d.0.2.3.G c $.r.r.r.0.a.a.a.a.d.d.d.d.y.a.f.c.k.k.k.s.k.a.a.a.a.a.a.j.j.j.j.j.V.c.k.a.a.a.c.V.V.c.a.k.f.f.f.f.k.k.z.c.c.c.c.c.C.Z.S.J.J.H.J.J.H.J.C.N.a.k.k.k.k.k.z.z.k.k.z.k.V.V.c.z.a.r.0.9.0.r.a.a.k.k.k.k.k.k.z.z.z.c.N.V.k.a.a.a.a.a.a.a.V.C.D.F.F.C.z.j.z.z.c.b.v.v.v.b.C.Z.F.J.H.Z.F.C.D.N.N.N.N.N.V.V.z.z.z.z.z.z.z.z.z.z.z.z.z.z.c.c.V.V.c.c.z.z.c.z.z.j.a.a.a.a.a.a...b %.9.a.a.a.q.0.2.~ C Y o.' v 1.0.3.7.3.~ F ' +.o.+.#.I h ] 7.3.7.3.+.E +.A.G.V.C.S.F.F.F.F.F.F.F.F.F.C.C.C.C.C.C.V.V.b.b.b.b.a.#.' ] ] o.o.o.o.$.&.$.o.+.$.&.&.&.&._ G ' ' ' ..' ' ' / ~ ~ ~ Y U U I I L J J J J F F F Z B N N M M M b b c n l g s p i w 8 4 < < 8 g M B B N G J G B F L U Y ~ ~ / ~ ' ' [ [ #.*.#.~ o.5.9.9.u.u.0.0.0.5.&. .",
"&.9.k.c.D.F.J.H.J.J.F.C.0.%.0.k.a.0.9.3.5.3.3.3.2.2.2.2.-.=.%.o.] ` E E B a 0 6 g V V V V G L I U U Y Y Y ! ~ ~ / _ ' ' _ _ ' ] ] ] ] ] ] ] ] ] } } } }  .o.o.o.&.+.o.' ' +.&.&.&.&.&.&.&.&.&.&.$.$.o.] ) 3.c.c.V.V.V.V.V.V.C.C.C.Z.Z.Z.F.F.H.H.P.H.I.I.I.I.I.I.I.7.' 0.q.u.a.a.3.U ] &.-.3.-.%.~ I 3.;.5.5.-.N S ..%.#.` S &.a.z.z.u.3.%.B _ a.z.z.k.k.k.z.c.c.v.z.z.z.a.d.z.v.c.c.c.c.c.c.c.z.z.c.c.V.V.V.V.V.C.V.z.k.c.V.Z.F.J.k.6.0.y.p.a.a.a.a.a.k.a.a.a.a.c.M.C.C.Z.C.C.C.z.M.N.N.z.z.z.z.z.c.M.M.c.c.c.c.M.M.z.k.a.a.r.e.0.e.r.r.a.a.a.a.k.k.k.k.k.k.a.a.a.r.r.r.r.r.r.r.a.a.k.z.j.a.a.a.a.a.q.w.a.a.a.a.a.p.a.a.3.&.a.H.I.F.N.N.C.Z.Z.Z.C.C.C.C.C.C.C.C.C.C.C.C.C.C.C.C.F.Z.Z.C.C.C.Z.Z.V.V.v.c.v.z.z.z.0.G Y 3.a.a.a.j.a.a.+.U ~ ' ] Z ) q.9.q.a.&.U Y &.&.2.3.] J ~ 3.q.q.0.9.` / v.R.J.J.J.J.I.I.I.I.I.I.I.I.F.F.F.F.F.G.G.Z.Z.Z.Z.Z.V.q.o.] o.o.o.+.O.&.&.&.$.$.&.&.&.1.1.] I +.o.X.o.o.o.o...] ' ' ) ~ ~ ~ E Y Y U U U U U U J G F Z C B B M M M b c l s i w 8 8 4 4 3 4 i z c N N J I I J L L U Y ~ ! ~ / ` ' [ [ %.$.] ~ %.5.9.9.0.y.y.0.u.y.9.-.",
"9.z.C.C.D.F.J.H.J.F.Z.V.a.+.&.z.k.u.9.9.-.-.-.-.2.2.2.2.-.=.%.o...` U F d y y f m I U ~ ~ U U U Y Y ~ ~ ~ ) ' ' ' ] ] ] ] ] } o.o.o.o.o.o.o.o.o.o.o.o.o.o.+.&.&.&.1.&.} ] +.&.&.&.&.&.&.2.2.2.2.1.&.$.o.$.z.Z.F.F.F.F.F.J.J.J.J.H.H.H.H.I.!.!.!.!.!.!.!.!.!.!.!.Z.+.1.c.z.c.c.l.%.~ 0.a.0.0.9.-.U =.u.y.u.0.+.n ..5.5.-.~ ' a.b.C.b.k.0.o.B 8.C.C.z.k.c.V.V.Z.Z.C.C.C.C.c.v.V.V.Z.Z.C.C.C.C.C.C.C.Z.F.F.F.F.F.F.F.C.M.z.C.S.J.Q.R.a.9.0.f.z.c.V.C.C.Z.Z.F.F.F.F.F.J.J.J.J.J.J.J.J.P.I.!.!.!.!.!.~.~.~.~.~.~.~.~.~.~.!.Y.H.H.H.H.P.J.J.J.J.P.P.P.H.H.H.H.J.J.F.F.F.F.F.F.F.F.F.F.Z.F.J.J.Z.F.F.F.Z.C.V.V.z.z.z.z.k.k.k.a.0.2.9.C.).U.F.C.F.J.J.J.J.J.J.J.J.J.J.J.J.J.J.J.F.F.J.J.H.H.J.F.F.F.F.F.J.F.G.Z.A.C.C.C.c...S &.a.j.z.c.c.V.0.] ' &.$./ G 9.a.z.C.a.' J &.0.q.q.7.] J 5.k.j.a.a.-.R 5.^.!.!.!.!.!.!.!.!.!.!.!.!.H.H.H.H.H.J.J.F.F.F.J.F.J.V.2.+.+.+.&.&.$.&.*.&.&.&.&.&.1.1.2.+.` o.=.$.%.%.%.&.+.o.o.o.] ' ' ' ~ ~ ~ ! ! ! U U U U J G G F F F B N N M v c l g d a i e 8 8 4 4 i h m B F U Y Y Y L P ! ! Y ~ ` ` ' [ [ $.#.~ ' &.5.9.9.0.u.u.0.u.a.u.0.",
"V.C.Z.F.D.F.J.H.R.F.V.c.c.3.~ j.k.a.0.9.-.;.&.&.2.2.2.2.-.=.%.o.` Y F g a f k N F I ~ #.o./ Y ~ ~ ~ / ) ' ' ] ] ] o.o.o.o.o.o.+.#.#.#.#.#.#.#.#.+.+.+.+.+.&.&.1.4.3.2.&.7.9.3.1.&.&.&.*.3.3.3.3.3.*.$.#.j.D.J.!.H.H.H.H.I.!.!.!.I.!.!.!.!.!.).).`.).!.!.!.!.!.!.a.&.V.J.C.D.c.a.~ 3.z.c.c.k.0.;.o.a.z.z.u.y./ B 5.u.0.9.U 9.C.G.G.G.c.a.~ ! k.F.z.r.a.c.V.C.Z.F.J.F.F.F.F.F.F.J.J.J.J.F.F.F.F.F.F.J.H.H.H.H.H.H.P.J.S.C.S.F.Q.!.F.p.a.c.V.C.F.H.P.I.I.I.I.I.!.!.!.!.!.!.!.!.!.!.!.).(.(.~.~.~.~.~.).).).).).`.`.).).).~.).(.).).`.`.~.~.~.~.~.!.!.!.!.!.H.I.I.!.I.I.!.~.Y.Y.Y.I.I.I.!.!.!.!.!.I.H.P.!.!.I.I.I.I.!.H.J.F.F.Z.k.k.!.).U.F.P.P.I.!.!.!.!.!.R.R.R.R.R.R.R.R.R.R.!.!.!.!.!.I.R.R.R.Q.R.R.H.J.J.J.F.F.F.0.J ] a.k.b.C.V.C.V.9.' a.9.&.Y #.q.D.F.C.3.Y &.j.z.k.a.2.G &.k.c.V.C.z.o.o.V.'.`.).!.!.(.(.).~.!.!.!.!.!.!.!.!.!.I.H.H.H.H.H.!.F.k.1.&.&.1.1.1.3.3.3.3.3.2.*.2.2.2.&.o.` -.-.%.&.=.-.=.&.%.%.o.o.] ] ' ' ) / ~ ~ ! ! Y U U P P J J G F F Z Z C C Z Z G B n l a i w 4 4 a n B B J U Y ~ L U ! U ~ ) / ` ' [ ] #.] / #.=.3.9.9.0.0.u.u.u.a.a.a.",
"C.V.V.Z.F.F.F.F.J.G.V.c.z.0.o.3.k.a.0.3.3.&.%.&.9.3.2.&.$.&.o.] ] U h 9 h m V G I Y / ' ' ) ~ ~ ) ` ' [ ] ] o.o.o.o.+.%.%.%.%.%.&.&.$.$.&.$.&.&.*.*.*.*.3.*.3.7.9.2.-.9.q.9.3.2.7.7.7.3.7.3.3.3.3.*.&.9.F.!.!.!.I.I.I.I.I.I.I.I.).).).).).).).).`.`.`.`.`.).`.J.3.a.!.`.R.F.D.#.' c.J.C.V.c.u.&.v.v.b.v.z.0.N ' a.v.z.3.o.V.!.H.J.V.z.9.U &.C.S.a.3.a.Z.J.J.H.H.H.H.I.I.I.I.!.!.!.!.!.!.!.!.!.!.!.!.!.!.!.!.!.!.!.!.!.!.P.!.!.!.V.c.C.Z.H.P.Q.!.!.!.!.(.).).).).).).).).(.(.).).).).`.`.`.`.`.`.`.`.|.|.|.|. X X|.'.`.'.`.`.`.`.`.`.).).).).).).!.!.!.!.~.!.!.~.).).).).`.`.`.`.).(.).(.U.!.(.).).).).).).~.!.!.!.!.!.!.!.!.Z.Z.F.).).!.U.!.).).).).!.!.!.!.!.!.^.!.^.^.^.^.!.!.!.!._._.!.!.^.^.!.!.!.!.!.!.I.I.J.C.] U 6.C.J.Z.C.Z.J.F.' v.a.a.' Z a.F.'.H.c.&.E 0.F.D.C.a.o.' v.G.V.A.!.u. .y.^.'.`.`.`.).).).).).(.(.(.(.(.(.~.!.Y.Y.Y.Y.Y.Y.H.I.F.a.2.1.2.3.1.3.9.9.0.9.3.;.2.2.3.3.3.$.%.-.;.;.-.-.&.=.$.&.$.+.o.o.] ] ' ' ' ) / ~ ~ Y Y Y U U L J I L L G F G U U G G C B c l a i 8 w g N B Z P ~ Y ~ ~ ! Y U Y ~ / ` ..&.o.~ ) o.%.&.3.0.9.0.u.0.u.u.u.y.",
"Z.V.V.Z.Z.Z.F.F.F.C.V.z.a.u.=...u.0.9.5.5.&.%.o.3.3.*.&.&.$.o.] ~ b s h B L U Y ) ' ] ] ' ) ) ) ' ' ] ] ] o.o.o.o.+.%.%.&.&.&.&.$.$.&.&.&.&.1.2.3.3.3.3.3.3.9.q.5.5.0.u.a.0.9.3.7.7.7.7.7.7.3.3.2.2.9.V.!.!.).!.(.(.!.!.(.(.).).).).).).`.`.`.`.`.`.`.`. X`.`.s.3.S. X`.^.!.c./ 3.J.!.H.J.c.9.a.R.R.J.J.V.' J 9.C.A.z.+.0.R.`.!.H.F.z.&.! f.V.p.8.M.F.H.I.I.!.!.I.I.!.!.!.!.!.!.!.!.!.!.!.!.).).(.(._.(.`.`.`.`.).).).).!.`.(.!.Z.J.H.!.Q.!.~.!.).).).`.`.`.`.`.'.'.'.'.`.`.`.`.`.'. X X X X X X|.|.|. X X X X X X X X X X X X X X|.`.`.|.|.|.|.'.'.'.'.'.'.'.'.|.|.|.|.|.|.|.|. X X`.).).`.`.`.'.'.'.'.'.'.'.`.`.`.`.`.`.`.J.J.F.!. X).).).).).).`.`.).`.`.`.`.(.(.(.(.(.(.`.`.`.`.`.`.`.`.`._.`.`.).!.(.!.!.!.~.!.9.Y &.v.J.J.Z.A.J.R.&.6.F.a.&.B &.C.OX`.R.a.' 3.D.H.J.F.0.` -.z.H.G.^.F.5.&.J.'. X X'.`.`.`.`.).).).).).).).).~.~.!.!.!.!.!.I.!.!.S.0.2.1.3.7.9.q.a.a.9.3.2.3.3.3.3.3.2.&.%.5.3.3.3.-.;.&.$.&.$.+.+.o.] [ ' ' ' ) ) ~ ~ ~ ~ Y U U I U U I L J J U U U H H G B M c l a w i l M C G U ! ~ ! J U Y Y ~ ~ ` ] o.' ~ ' o.o.&.2.9.9.0.u.u.u.a.y.9.",
"C.V.V.C.Z.Z.Z.Z.G.C.b.z.a.a.5.Y 3.9.9.3.-.o.%.o.2.*.*.&.$.#.o.) B h h V U ~ ) ' o.o.o.] ' ' ' ] ] } o.o.o.+.$.#.&.$.=.&.&.&.&.&.*.*.*.*.3.3.3.7.9.9.9.9.3.9.0.0.3.y.a.u.a.u.0.0.9.9.9.9.9.9.7.7.3.9.c.!.`.'.`.`.`.`.`.`.`.`.'.'.'.'. X X X XOXOX X X X XOX'.P.3.p.).OX'.`.[.q.] F.'.'.'.!.k.y.!.`.^.^.!.d.J &.Z.R.R.a.;.J.'.`.).H.J.k.] <.P.C.k.C.!.!.`.!.!.).).).).).).).).).).).`.`.`.`.`.`.`.`.`.`.`.'.'.'.'.'.'.'.'.'.'.!.H.H.!.^.).!.!.).`.`.`.`. X`.`.`.`.`.`.`.`.`.`.`.`.'.[.[.[.oX'.'.'.'.'.'.'.|.|.|.|.'.'.`.`.).).).). X X`.`.`.`.`.`.'.'.'.`.`.`.`.`.`.`.`.`.`.`.`.`.(.`.`.!.).).`.`.).).).).`.`.`.'. X X X X X'.!.!.H.I. XOX X X`.).`.`.'.'.'.'.'.'.'.'.'.'.'.'.'.'.'.'.[.[.'.'.'.'.'.'.'.`.`.).).`./.`.F.' / s.R.R.F.F.H.R.z.] F.V.z.~ ! z. XOX).V.&.$.N.(.H.!.J.&.! Z.!.^.(.`.V.+.r.!.OXOX X X X X`.`.`.).).).).`.`.`.).).~.~.~.~.!.!.).!.N.0.2.3.7.9.q.a.a.0.9.5.3.3.3.7.3.3.2.&.;.3.3.5.3.5.2.*.1.&.&.&.+.o.o...] ] ' ' ' ' ' ' ) ~ ~ Y Y Y Y U U U U U U Y U U H G B M c g i i n B G P U ~ ~ U G E ~ E ~ ` ' ' Y ~ ' o.+.&.-.3.9.0.0.9.0.y.y.9.",
"a.r.q.a.c.V.Z.Z.G.C.b.c.c.a.3.] &.3.9.3.%.' =.%.&.&.*.*.+.o.' U g k V U ~ ' ] o.&.+.o.' ' ' ] o.o.o.o.+.+.$.&.&.=.&.&.-.-.-.-.-.2.2.3.3.7.7.9.9.0.0.0.0.9.q.9.3.0.a.a.u.a.a.a.u.0.0.0.9.0.9.9.7.9.k.J.'. X X X X X X X X X X X X X XOXOXOXOXOXOXOXOXOXOX|.|.C.3.I.`.`.).!.`.2.q.'.OXOXOX`.a.c.OX{.`.^.!.3.F c.!.H.R.5.k.'.OX(.(.H.D.a.} M.!.!.!.~.'.'.`.'.'.'.'.`.`.`.`.).).`.`.`.`.'.'.'.'.'.'.'.'.'.|.|.|. X X X XOXOXOXOX`.H.!.^.!.).).`.`.|.).).`.`.`.).).(.!.!.I.I.).).!.!.R.R.R.R.!.!.^.^.!.!.`.`.`.).`.`.(.(.!.!.!.!.!.!.`.`.).).).).).).!.!.!.!.!.!.!.!.F.S.S.F.V.V.V.V.a.N.F.N.N.N.C.C.J.J.J.J.H.I.!.!. X X X X'.'.I.I.`.I.`.$X1X X`.).`.`.'. XOXOXOXOX X X X X X X X XOXOXOXOXOXOX X X X X X'.`.`.`.`./.'.`.4.U a.!.!.R.H.R.!.H. .k.H.!.0.P 0. X*X X!.a.#.q.H.'.(.!.k.~ V.`.!.(.'._.u.&.Z.'.'.'. X X X X X`.`.`.`.`.`.|.|.`.`.).).).).!.).`.).!.c.0.7.7.7.q.q.a.a.y.9.7.7.7.7.3.3.9.5.+.-.3.5.9.5.3.3.2.1.1.&.%.#.#.#.o.o.] ] ] ] ] ] ' ) ) ~ ~ ~ ~ Y Y Y U U ! ! ~ Y U U H G C v h i h b Z J P ~ / ~ J Y ` ~ ~ ` ' ~ U ) ] o.%.&.&.3.9.9.5.%.R n B ` ",
"z.o.3 c 2.k.C.V.C.V.b.c.z.k.a.-.o.3.5.=.o.%.&.2.3.3.*.$.#.' V n b V U ~ ] o.+.#.#.+.o.o.] ] o.o.+.+.&.&.&.&.1.2.3.5.3.3.3.3.3.3.3.7.9.9.9.9.q.q.q.a.a.a.a.a.7.0.a.a.a.a.a.a.a.u.q.q.0.0.9.9.7.3.p.F.).`. X X X X X X X X`.'.`. X XOXOXOXOXOXOXOX%XOXOXOX X`.7.M.OX|.|.OXOXc.) z.'.`. X).Z.0.`.&XOX@X`.S.U 1.~.`.!.z.0.H.%X%XOX`.).D.&.7.~.|.`.`.|. X|. XOXOX|.|. X X X X X X X X|. X X X X X X X XOXOXOXOXOXOXOXOXOXOXOXOXOX`.!.!.`.`.`.'.~.OX X).F.I.~.P.Y.~.!.F.z.N.Z.!.).!.C.a.a.a.a.k.k.c.Z.!.!.!.).!.!.!.!.J.J.J.J.J.C.C.D.H.U.F.C.F.F.F.F.F.S.S.S.S.S.V.c.k.s.p.p.e.e.e.e.0.z.N.z.k.a.a.r.0.r.0.7.k.M.F.C.I. X`.OX X X!.!.).!.(.*X$X X X`.'.|. XOX X X X XOXOXOX X|.|.|.|. X X|.|.OX X X X X X X X X X'.'.oXoXOXS.! O.!.^.'.`.`.^.!.k.$.I.OXJ.' 1.!.%XOX XI.0.&.F.'.OX(.!.1.U F.'.).'.'.D.3.4.!.'.OXOX X X X X X X|.|.|.|.|.|.|.|.|.|.`.`.'.`.`.`.'.!.N.9.9.9.0.q.0.u.u.0.0.0.7.7.7.7.9.9.;.+.3.5.9.9.9.7.3.5.3.2.&.=.%.%.#.#.o.o.} ] ] ] ' ' ' _ / ) ) / ~ ~ Y Y Y ~ ~ ~ ! Y U U J Z M h h h N G U Y ~ _ E Y E ~ ~ ` ' E ~ ) ] o.%.&.;.3.3.9...y f E L G ",
"k.V.7.M d +.c.c.V.V.v.c.c.z.a.3...3.2.&.&.&.-.3.2.3.&.#.' U N b V U ~ ' +.#.$.$.#.+.o.o.o.o.o.#.&.&.&.&.1.1.2.3.3.3.3.5.5.3.3.3.7.7.9.9.0.q.q.a.a.a.a.j.a.9.9.a.d.a.a.a.k.j.a.a.r.r.a.a.q.q.q.q.V.!.`.'. X XOXOX`.`.`.`.`. X XOXOXOXOXOXOXOXOX%X%X%XOXOXOXN.4.'.OXOXOXOXOXo.o.J.'.OX=XOXz.V.+X*X+XOXOXk.Q J.OXOX!.C.F.OX%X*X X).!.z.} V.'.|.`.|. XOXOXOXOXOXOXOX X X X X X X X XOXOXOXOXOXOXOXOXOXOXOX+XOXOX+X+XOXOXOXOXOXOX X!.`.).!.!.P.P.|.).!.J.).OXOX*X%X XI.F.!.`. XOX`.!.H.P.P.H.J.J.H.!.!.).`.`.~.~.~.~.!.!.U.!.I.I.J.J.F.I.I.I.!.!.!.!.!.!.!.!.~.~.~.`.`.`.`.~.'.'.'.'. X`.).(.`.`.).).!.).!.P.J.F.P.S.k.).'.OX X!.F.!.OX`.(.$XOX X X`. XOXOXOXOXOXOXOXOXOXOXOXOXOXOXOXOXOXOXOXOXOXOXOX X X X X X X X|.OXOXOX~.4.~ C.^.OXoX{.`.OX`.a.!.:X`.3.} J.%X*X%X XH.3.9.OX$X`.(.N.$.z.`.'.'.'.!.a.&.M.'.OXOX X X X X X X X X X X X X X X|.|.|.|. X X X X X`.I.z.0.0.0.q.0.0.u.0.0.9.7.3.7.3.3.3.0.;.o.-.9.0.9.9.0.9.9.3.2.-.=.=.&.$.&.#.+.o.o.o.+.o.' ' ' ' ' ' ' ) / ~ ~ ~ ~ ~ ! Y U U U P F N h g c V J U Y ~ / ~ ~ E U Y ` ~ ~ ` ] o.%.&.&.3.9.5.k i o.9.=...",
"N.z.N.c.! n $.V.b.c.z.z.c.c.j.0...&.&.2.2.3.5.5.*.*.#.] U N N L Y ` ] o.$.$.&.=.#.+.o.o.+.#.$.$.*.*.*.*.*.2.3.3.3.3.3.5.5.5.7.9.9.9.0.q.q.q.a.a.a.j.j.j.a.7.r.j.d.j.j.j.j.j.a.a.0.q.a.a.k.a.k.C.!.`. X X XOX X X X X X X XOXOX%X$X%X%X%X%XOXOX$X%X%X%XOX`.3.C.*XOX+X+X+XF.q.'.=X7X0XwX%XM.|.:X=X%XOX`.$.$..XOX%X~.F.OX5X*X*X$X XJ.q.&.!.OX|.|.+XOXOXOXOXOX+XOXOXOXOXOXOXOXOXOXOXOXOXOXOXOXOXOXOXOX+X+X+X+X+XOXOXOXOXOXOXOXOX'.H.!.!.H.J.I.!. X!.Y.P.|.%X+X*X|.`.`.).OX%X%X%XOX X%X%X%X%X%X%X+X X X X X|.|.|.|.|.`.`.`.`.`.`.`.).!.|. XOX X X X XOX|. X|.|. XOX+X+X%X%X*X%X%X%X%X%X X X$X*X:X>X>X=X>X=X%X'.!.~.Y.C. X X XOX!.V.Z.V.a.(. X X X X XOXOXOXOXOXOX+X+X+X+X+X+X+X+X+X+X+X+XOX+XOXOXOXOXOXOXOXOXOX X X XOXOXOX+XF.' 9.!.OXOXOXOX*X%X*X%X X).z.o.a. X:X*X>X%XV.3.(.*X$X X XF.9.F.OX'. X XI.3.9.!. XOX X XOXOXOXOXOXOXOXOXOXOXOXOX X X X XOXOXOXOXOX X`.J.a.e.0.q.0.w.0.0.9.9.3.3.3.3.5.5.9.9.+.+.3.0.q.q.0.0.9.9.5.3.-.-.*.&.$.$.#.#.#.+.$.+.o.] ] o.} ] [ ' ` ) ) ) ) ) ~ ~ ~ Y ~ Y U G m h h b B J U ~ ~ ` ' ` T I ~ ` ) ' o.%.%.&.&.3.3.Y y ' 0.0.3.-.",
"c.V.C.N.k.' F a.c.c.z.k.v.z.d.0.' %.=.5.9.9.3.3.*.$.o.~ m b L ~ ' ] o.#.&.&.&.$.#.+.o.o.#.$.&.*.*.*.*.*.;.3.5.5.3.3.5.3.7.9.0.q.9.q.q.a.a.a.a.j.j.j.j.j.q.0.j.j.k.k.j.j.a.a.a.u.7.9.q.a.c.k.V.H. XOX X X X X X XOXOXOXOXOXOXOX%X$X%X%X%X%X%X%XOX%X%X%X%Xc.9. X%X+X%X%XOXj.!.=X=X0XwXqX XJ.5X*X:X*X+XZ.P Z. X XU.I.`.7X>X*X*X$X XF.*.a.!.OXOXOX%X+X+X+X+X+X+X+X+XOXOXOXOXOXOXOXOXOXOXOXOX+X+X+X+X+X+X+X+X+X+XOXOX+XOXOXOXOX%X`.C.'.'.'.OX|.|.+XY.).P.). X%X XJ.~. X`.$XOX*X%X$X$X*X*X*X*X:X>X*X X+X X X X|.|.|.|. X X X X X X X).!.|.|. X X X X XOX|.OXOXOXOXOXOXOX+X%X%X%X%X%X%X*X%XOXOX%X*X:X>X=X>X=X%XOX`.|.|.J.`.`.OXOX+X'.OXI.N.`.OX X X X XOXOXOXOX+X+X+X+X+X+X+X+X+X+X+X+X+X+X+X+X+X+X+X+X+X+X+X+XOXOXOX X*X+X+X+X`.4./ R. XOXOXOX*X*X%X Xz.Y.).7.3.!.*X*XqX5XOXk.b.*X*X$X:X|.r.z. X X X XOXV.&.k.'.OX X XOXOXOXOX+X+XOXOX+X+X+X+XOXOXOXOXOXOXOXOXOXOX X~.C.r.0.q.0.0.0.9.9.3.3.3.3.3.3.3.3.-.2.=.2.9.0.q.0.0.0.9.3.3.2.-.*.*.&.$.#.#.#.#.#.+.+.+.o.o.o.o.] [ ' ` ) ) ) ) ' ' ' ' ' ~ Y U L V c h n B U Y E ` o...~ U ~ ' ' ' o.&.%.&.&.3.o.N U 3.0.0.0.9.",
"V.V.V.V.C.j.' -.Z.c.j.z.z.z.a.9.' ;.9.3.0.0.9.3.=.o.~ F n S ~ ..&.&.&.*.$.*.*.$.O.o.+.&.$.&.*.*.;.3.5.5.5.7.9.7.7.9.9.9.9.9.w.q.a.a.a.j.q.j.j.j.j.k.j.j.a.a.j.j.k.k.k.k.a.a.a.q.q.q.0.u.a.a.F.'.OX X X X X X XOXOXOXOX+X+X+X$X$X%X%X%X%X%X%X%X%X+XOX:X).0.F.>X*X%X*X*XN.c.*X6X7X7X6X6XJ.OX>X6X>X5X%Xe._ ).%X).N.!.OX>X>X:X%X%X|.z.&.H. XOXOX+X%X%X%X%X%X%X%X%X%X%X%X%X%X%X%X%X%X+X+X+X+X+X+X+X+X+X+X+X+X+X+X+X+X+X+X%X%X%X%X`.).%X%X*X*X%X%X X). X|.|.+X+X+X%X%X%X%X$X$X$X%X%X%X*X*X*X*X%X$X+X X X X.X X X X X X X|. X X|.|. X).~. X|. X X X X X X X X X X XOXOX+X+X+X+X+X+X+X$X+X+X+X+X%X%X%X%X*X*X*X%X%X).`.`.P.|. X|.%X+X+XOXOX|.). XOXOX+X+X+XOXOX+X+X+X%X%X+X+X*X*X@X@X@X@X+X+X+X+X+X+X+X+X+X+X%X%X+X+X+X+X%X%X:X:XOXC./ 0.`.OX%X*X*X*X*X*XN.F.OXz.o.C.%X6X6XqX7X!.a.>X0X0X:X<X|.C.!. X$X*X>X!.9.3.!.+X+XOX%X%X%X%X+X%X*X:X%X%X+X+X+X+XOXOXOX X X X X X X|.I.z.r.q.w.w.u.u.0.9.7.3.3.3.3.3.3.3.3.3.3.9.u.0.u.0.9.0.9.9.5.3.2.7.3.3.*.*.*.&.$.$.$.#.#.#.+.o.o...] ' ` ` ` ` ' ] ] ' ' ' ` ~ E Y G n d n B J Y ~ ` ..o.o.[ ) ..o.+.#.$.#.&.$.U m *.9.0.0.0.0.",
"V.V.V.V.z.Z.9.] z.z.k.z.z.j.a.9.3.9.9.0.0.9.3.-.o.~ S B S E ..%.*.2.3.3.1.*.$.#.+.O.&.&.*.2.3.3.5.5.7.7.9.9.w.9.9.9.9.0.w.q.r.a.a.j.j.j.j.z.c.j.k.c.j.q.a.a.j.k.k.z.z.z.j.j.j.a.a.j.j.j.a.N.!.OXOXOX X X X XOXOXOXOX+X+X+X+X$X$X%X%X%X%X%X%X%X%X+X+X XN.k.).>X*X*X:X).a.`.6X5X7XqX7X'.!.*X6XqX6X5X`.<.p.+X:XXXF.`.*X5X>X:X%X+XU.7.e.`.$XOXOX+X+X%X%X%X*X%X*X*X*X%X%X*X*X*X*X%X%X%X%X+X+X%X%X%X%X%X%X%X%X@X@X%X@X%X%X*X*X*X*X`.%X%X*X*X*X*X*X X`. X|. X%X%X%X%X%X%X%X$X$X$X$X$X$X%X%X%X%X+X+X+X.X X X.XOX X X X X X X X X|.|. X).~. X|. X X X X X X X X X X X XOX+X+X+X+X+X+X$X$X+X+X+X+X+X+X+X+X%X%X+X+X%X`.`.`.!.|.+X X%X%X+X+X+XOX`.OX$X$X+X+X+X+X+X+X%X%X%X%X%X%X%X%X%X%X%X%X%X%X+X+X+X+X+X%X%X%X%X%X%X%X$X$X%X%X:X:X+X~.$.' H. XOX%X*X*X*X*X`.F. XI.#.0.+X6XqXwXwX*Xz.`.0X>X,X6X>X`.F.OX-X:X:X>XZ.$.C.`.+XOX%X%X%X%X%X%X*X*X*X%X%X%X%X+X+XOXOXOX X X X X X|.).F.k.a.u.u.a.a.a.0.0.9.9.9.9.9.9.9.9.9.3.2.&.&.3.u.u.0.0.0.9.9.3.3.3.3.3.3.3.2.*.*.*.&.$.$.&.#.#.o.o.] ' ' ' ) ' ' ....] ' ' ` ' / Y G n h c F U Y ~ ' o.#.#.] ..o.+.#.$.+.$.o.F ' 9.9.0.0.0.0.",
"V.V.V.V.b.C.z.` 5.j.k.a.j.a.a.0.0.3.3.0.9.3.-.+.` F B G ~ ..&.2.3.3.7.3.3.&.$.$.&.&.1.2.3.3.5.5.5.7.9.9.9.0.0.0.0.0.q.q.u.a.a.j.j.j.j.j.a.0.j.k.c.z.j.a.j.j.k.z.z.z.z.z.k.k.k.z.z.k.k.k.c.F.'.%X%XOXOXOX XOX+X+XOXOXOXOX+X+X$X$X%X%X%X%X%X%X%X%X%X%X!.e.F.*X>X>X>X%XV.V.>XqX0X6X7X!.Z.>X6X6XqXqX>XF.&.~.>X:X|.~.%X6X6X6X>X*XOXF.1.F. X XOX%X%X+X%X%X*X%X%X*X*X*X%X%X*X*X:X:X*X*X%X%X%X%X%X%X%X%X:X:X%X%X%X%X%X%X*X*X*X*X:X:X X%X%X*X*X*X%X%X~.OX X X X%X%X%X%X%X%X%X%X%X+X+X+X+X%X%X%X%XOXOX+X+X X XOXOXOXOXOXOX X X X X|.|. X).~. X|. X X X X X X X X X X X XOX+X+X+X+X+X+X$X$X+X+X+X+XOXOXOXOXOXOXOXOX+X|.`.`.).`.%XOX%X%X%X+X%XOX|.+X%X%X%X%X%X%X%X%X%X%X%X%X*X*X*X*X*X*X*X*X%X%X%X%X%X%X%X%X%X%X%X%X%X%X%X%X%X%X:X:X+XOXa.Y z. X%X%X*X*X*X*X*XI.!.(.0.o.).5XqXwXiXqX(.N.-X5X6XqX6X*XZ.!.>X6X>X5X Xr.4.!.%X+X%X%X%X%X%X%X*X:X:X:X%X%X%X%X+X+X+XOXOX X X X X X X!.N.a.a.a.a.a.a.a.q.q.0.0.e.e.0.0.0.0.0.;.Y U ] 9.u.u.w.w.w.w.9.7.7.7.3.3.3.3.3.3.3.1.*.&.&.$.$.$.+.o.] ' ' ' ' ' ..o.o.......' ' ' ~ J n l B L U ~ ) ] #.#.#...o.+.#.+.+.#.' L $.7.q.0.0.0.0.",
"V.V.V.V.c.c.J.%.o.u.a.a.a.a.u.0.9.0.0.0.3.-.+.' J S J U ..%.2.9.9.9.9.9.*.&.&.*.&.1.3.3.3.3.5.5.7.7.9.9.0.u.u.0.0.0.q.a.a.a.a.a.j.j.j.j.3.o.9.z.c.a.a.z.j.k.z.z.z.z.z.z.z.z.c.c.z.z.k.k.F.!.OX%X%X%XOXOXOX+X+X+X+XOXOXOX+X+X$X%X%X%X%X%X%X%X%X%X%X|.C.N.`.*X*X>X>XI.a.OXwXwXqXqX6X!.`.6X6X5X7X6XOX0.e.|.;X+X). X*X6X6X>X*X%X`.k.1.(.OX%XOX%X%X+X%X%X*X%X%X%X%X%X%X%X%X%X:X*X>X*X:X*X%X%X%X%X%X%X:X:X:X:X%X%X%X%X*X*X*X*X:X>X X%X*X*X*X*X%X%XP.%XOX XOX*X%X%X%X%X%X%X%X%X%X%X%X%X%X+X+X+X X XOX+X X XOXOX+X+X+X+XOX X X X|.|.|.).~. X|. X X X X X X X X X X X X XOXOX+X+XOXOXOXOX+XOXOXOXOXOXOXOXOXOXOXOX+X X`.`.).).+XOX*X%X%X%X+XOX`.OX%X%X%X%X%X%X%X%X*X*X*X*X*X*X*X*X*X*X*X*X*X*X%X%X%X%X%X%X*X%X%X%X%X%X%X%X%X%X:X:X:X%XZ.o.7.'.*X*X*X*X*X*X>X).N.!.F.o.N.+X6X6XqXqX5XN.(.>X6XtXqX>XS.z.>X6X6X6X>XF.<.Z. XOX%X%X%X%X%X%X*X:X:X:X*X%X%X%X%X+X+X+XOXOXOX X X X+X`.F.z.a.a.a.a.a.a.a.a.r.r.r.r.u.u.u.u.a.0.o.%.=.2.0.0.w.u.a.a.a.9.7.9.7.7.7.3.7.7.7.3.2.*.*.*.&.&.$.o.o.o.o.] ] ] ..o.+.+.o.....o.o.' / F b B G L Y ~ ) ] +.o...o.+.#.o.o.o.~ ) 3.2.7.0.0.0.0.",
"V.b.c.z.c.V.G.o.G u.a.a.a.a.a.0.0.0.0.3.;.%. .E U U / o.&.-.5.9.7.q.q.9.&.&.&.&.1.3.3.7.7.7.7.7.9.9.0.0.0.u.a.a.a.u.a.a.a.k.k.z.k.z.a.9.} } k.D.j.a.z.c.c.c.c.c.c.c.c.z.z.c.c.V.k.z.c.F.!. X%X%X$X%X%X%X+X+X+X+X%X%X+XOX+X+X$X%X*X*X*X*X%X%X%X%X%X).k.!.%X>X*X*X%Xk.z.*XwX0XwXqX>X~. XOX XOX*X*XI.$.P.>X<XOXP.+X>X:X*X*X*X+XI.4.k.`.%X*X%X%X%X%X%X*X*X%X%X%X%X%X%X%X%X%X*X*X*X*X*X*X*X*X:X:X*X*X:X:X:X:X:X:X:X:X*X*X*X*X>X+XOX%X%X%X%X%X*X XF.%X X X+X:X%X%X%X%X%X%X%X%X%X%X%X%X%X%X+X+X+XOX+X+X X XOXOXOXOXOXOXOX X X X|.|.|.).Y.|.|.`. X X X X X X X X X XOXOXOXOXOXOXOXOX+X+X+X+X+XOXOXOXOXOXOXOXOXOX+XOX).XX XY. X+X%X%X%X%X*X+X`. X:X*X%X*X*X*X*X*X*X*X*X*X*X*X*X*X:X:X:X:X:X*X*X*X*X*X*X*X*X*X*X*X%X%X%X%X%X%X%X:X%X*X`.0.o.J.*X-X*X*X*X*X*X*XN.F.~.z.r.I.OX+X*X5X6XH.c.6X6XtXqX>X~.0.`.>X>X6X6X Xr.0.).%X%X%X%X%X%X%X:X:X:X:X*X*X%X%X%X+X+X+X+X+XOXOX+X+X%XOX!.Z.a.a.a.a.a.d.k.k.a.a.a.a.a.a.a.a.a.a.9.&.0.0.;.0.u.u.u.u.q.q.0.0.9.9.9.7.7.7.7.3.3.2.*.*.&.&.&.&.$.+.+.o.o.o.o.o.%.&.o.o.%.%.o.o.] / J B B F U ! / ' o.+.#.#.o...o.o.] I } &.3.3.9.9.9.9.",
"b.v.z.k.a.z.G./ h 0.0.u.a.a.a.0.0.0.9.2.%.' E U U ~ o.&.-.5.9.9.9.q.9.3.2.2.3.2.3.3.7.7.7.7.9.9.0.0.0.0.0.u.a.a.a.a.a.j.j.k.k.z.j.j.j.q.&.1.k.c.j.j.c.c.c.c.c.c.V.c.c.z.z.z.c.c.k.z.C.H.'.OX%X%X$X%X%X%X+X%X+X+X%XOX|.|.+X%X%X*X*X*X*X*X%X%X%X%XOXF.N. X>X*X>X>XI.0.J.>XqX6X6X*XP.P.`.).Y.I.I.J.p.0.|.>X:X|.!.%X>X>X*X*X+X XC.1.F. X%X*X%X%X%X*X*X*X*X*X%X%X*X*X%X%X*X*X:X*X:X:X*X*X*X*X:X:X*X*X:X:X:X:X:X:X:X:X*X*X*X*X:X+X+X+X%X%X%X%X%X|.P.%X X X+X:X%X%X%X%X%X%X%X%X%X%X%X%X%X%X+X+X+X+X+X+X+X XOXOXOXOXOXOXOX X X X|.|.|.).Y.|.|.`.|. X X X X X X X X XOXOXOXOXOXOXOXOX+X+X+X+XOXOXOXOXOXOXOXOXOXOXOX+XXXXX XP. XOX%X%X%X%X%X+X|.).:X:X:X:X:X:X:X:X>X>X>X:X>X>X>X>X>X>X>X>X>X>X:X*X*X*X*X*X*X*X*X*X%X%X%X%X%X%X%X:X%X:XOXN.} k.OX*X*X*X*X*X*X*X!.k.J.`.B.p.~.).|. X XI.0.).6XqXqX6X+Xk.a.OX>X6X6X%XP.7.N. X%X%X%X%X:X:X:X:X:X:X*X*X%X%X%X+X+X+X+X+X+X+X+X+X%XOX`.H.c.a.a.a.a.d.k.k.a.a.a.a.a.a.a.a.a.a.a.9.7.a.u.0.u.u.u.u.q.q.q.0.9.9.9.9.9.9.7.3.3.2.*.*.*.&.&.&.&.$.+.o.o.o.o.o.+.%.=.$.%.%.o.+.+.] ~ J B B F U ~ / ' o.o.#.%...] ] ' L Y #.3.3.7.9.9.9.",
"c.z.k.j.z.a.z.' ~ 0.5.3.a.a.u.0.0.9.5.%.] E U E ~ ..=.5.3.9.0.0.r.q.7.3.3.3.3.3.7.7.9.9.9.9.9.9.w.w.w.w.w.u.a.a.a.a.j.l.z.z.c.c.z.k.z.c.V.V.c.j.z.c.C.V.V.V.V.V.V.c.c.z.z.z.z.k.z.c.D.(.OXOX%X%X%X$X$X$X$X%X%X%X+X).~. X%X*X:X*X*X*X*X*X*X*X%X%X~.z.Y.>X>X>X>XOXr.0. X5X5X>X>X Xz.`.>X>X X|.!.c.4.S.%X:X@X~.|.:X>X>X*X*X+X).e.1.`.OX%X*X%X%X%X*X*X*X*X*X*X*X*X*X*X*X:X:X:X:X>X:X:X*X:X:X:X:X*X*X:X:X:X:X>X>X>X>X>X>X>X>X%XOX+X%X%X*X%X%X%X).).$X X X+X:X%X%X%X@X%X%X%X%X%X%X%X%X%X%X%X+X+X+X+X+X+X+XOXOXOXOXOXOXOX X X X|.|.|.).Y. X|.`. X X X X X X X X X XOXOXOXOXOXOXOXOX+X+X+X+X+XOXOXOXOXOXOXOXOXOX X+X|.). XI.).OX%X%X%X%X%X+X X!.:X>X:X>X>X>X>X>X>X>X>X>X>X>X,X,X,X,X,X,X6X5X>X:X:X*X*X*X*X*X*X*X%X%X%X%X%X%X%X%X%X:X%XI.$.$.(.>X*X*X*X*X>X>X%Xz.C.+X~.s.~.%X%X%X*X XN.N.6XtXyXwX,XP.1.F.=X7X,X>X+Xz.1.~.%X=X:X*X:X:X;X;X:X:X*X*X%X%X%X+X+X+X+X+X+X+X+X+X%X%XOX!.A.z.l.l.a.k.k.k.a.a.a.a.a.a.a.a.a.a.a.a.$.w.z.j.a.a.a.a.a.a.q.q.0.0.0.9.9.9.9.3.3.2.-.*.*.&.&.$.$.&.#.+.+.+.+.+.o.%.9.0.%.%.&.=.&.o.] ~ J B B F U ~ / ' ] o.o...' ] ] U ~ o.*.3.7.9.9.9.",
"z.z.j.a.a.0.a.a.-.0.5.&.9.u.u.0.9.3.-...E U E / ] &.2.9.0.u.a.a.q.9.9.9.7.7.7.7.7.9.0.9.9.9.0.0.w.w.y.w.y.u.a.a.a.a.l.z.z.z.c.c.c.c.C.J.H.D.z.k.V.C.C.C.C.C.C.C.V.c.c.c.z.z.k.j.k.Z.H.'.OXOX%X%X$X$X$X$X$X%X%X%X%X+X+X:X%X%X:X:X;X*X*X*X*X*X*X*XF.C.%X>X*X>X>XI.7.J.*X>X*X=X*X~.Y.6XqX6X>X6XqXJ.N. X%X@X+XP.OX:X>X>X:X*X XI.#.a. XOX%X*X%X%X*X*X*X*X*X*X*X*X=X:X:X:X>X>X>X>X>X>X*X*X*X:X:X:X*X*X:X:X:X:X>X>X>X>X>X>X>X>X XOX%X%X*X*X%X%X+X~.|.$X X X+X%X@X@X%X%X%X%X%X%X%X%X%X%X%X%X%X+X+X+X+X+X+X+XOXOXOXOXOXOXOX X X X|.|.|.).Y. X|.`.|. X X X X X X X X XOX+XOXOXOXOX+XOXOXOX+X+X+XOX+XOXOX+XOXOXOXOX X+X|.). XY.Y.OX+X+X+X+X+X%X XP.*X>X>X>X>X>X>X>X>X>X>X>X>X,X,X6X6X6X6X,X6X5X>X<X:X*X*X*X*X*X*X*X%X%X%X%X%X%X%X%X%X*X%X!.r.} N.%X*X-X*X*X6X>X*X).~. X XC.~.5X6XqX6X0X Xk.OXwXwXwXqX%Xk.r. X7X>X:X*X~.0.k.+X:X:X>X:X:X;X;X:X:X:X*X%X%X+X+X+X+X+X+X+X X X X%X%X+X'.!.b.l.j.a.a.k.k.a.a.a.a.a.a.a.a.a.a.a.a.7.9.l.l.a.a.a.a.a.a.r.q.q.0.0.0.9.9.9.3.3.2.*.*.*.*.=.$.$.$.$.#.#.#.%.%.+.o.3.5.%.%.=.;.&.&.o.] ( J B B J U ~ / ' ....' ' ] ] Y $.#.#.*.3.7.9.9.",
"k.k.k.j.9.q.a.j.&.7.7.&.9.q.9.7.-.=.o.~ L E ` ..%.5.0.a.k.z.k.u.a.a.0.0.0.0.0.0.0.9.q.q.q.q.q.u.u.u.u.u.a.a.j.j.k.z.z.z.z.N.C.C.V.C.F.F.F.C.j.c.Z.Z.G.Z.C.C.C.C.V.V.c.c.c.z.z.k.C.J.`.OX%X%X%X%X%X%X$X$X$X%X%X%X%X%X%X%X%X%X%X:X:X*X*X*X:X>X:X).r.~.>X6X5X:X Xz.z.%XwXqXqXqX%XC.%X6X6X5XqXqX>XI.`.OX%X%XOXZ.*X=X>X=X%XOX`.z.' F.OX%X*X*X*X*X*X*X*X*X*X*X*X*X:X:X:X:X:X:X:X:X:X<X;X;X*X*X*X:X*X*X%X*X*X:X>X>X>X>X>X5X>X:X`. X%X%X%X%X%X%X+XY. X|. X X@X%X%X%X%X%X%X%X%X%X%X%X%X%X%X%X%X%X%X@X@X+X+X+X.X XOXOX+X+XOX X X X|.|.`.).~. X|. X X X X X X X X X X X X X X XOXOXOXOX+X+X+X+X+X+X+X+X+X+XOXOXOXOXOX+X X). X).F.OX+X+X+X+X+X%X+XY.|.6X>X>X>X>X>X>X>X5X6X6X6X6X6X6X6X6X,X,X,X>X>X:X:X:X:X:X:X:X:X:X*X*X*X*X*X*X:X:X*X+XOXOXH.$.7.+X:X:X:X=X%X+X%X*X X X|.`.J.>X6X>XqXwX*XZ.J.5XqXyXqX,X`.C.F.%X>X:X>X%XZ.4.P.:X>X>X*X:X>X>X5X>X*X*X*X*X%X XI.~. X+X+X~.~.OX*X=X%XOX|.I.c.q.a.a.j.j.a.a.a.a.a.a.a.a.j.j.j.j.a.9.r.c.j.a.j.k.a.q.q.q.0.9.9.9.0.9.9.9.5.5.3.5.3.*.*.=.=.%.#.#.$.+.+.o.+.+.&.=.3.2.-.-.-.&.&.o.' ! F M B F J ( ~ ` ' ' o.o.o.~ &.&.&.&.*.3.7.3.",
"j.j.j.a.q.a.a.q.1.7.7.1.9.9.7.2.&.o./ U E ..%.=.3.0.a.j.a.a.u.0.q.u.a.a.u.q.0.0.0.0.q.q.q.q.0.u.u.u.a.a.d.z.z.z.z.z.z.z.z.N.k.a.c.V.D.J.V.a.C.D.Z.G.Z.Z.C.C.C.C.C.V.b.c.c.c.c.c.F.!.'.OX%X%X%X+X%X%X$X$X$X%X%X%X:X*X%X*X*X*X%X:X:X:X:X:X>X6X+XN.k.+X6X>X>X*XI.e.~.>XqX6X6X6XI.N.>X6X6X6XqX6X*X!.OX*X:X%X!.!.*X=X>X:X%X+X!.3.1.`.%X*X*X*X*X*X*X*X*X*X*X*X%X%X:X:X:X:X:X:X:X:X:X:X:X:X:X:X*X*X*X*X*X:X>X>X>X>X>X>X>X5X>X%X|.OX%X+X%X%X%X%X+X!. X`. X X+X%X%X%X%X%X%X%X%X%X%X%X%X%X%X%X%X%X%X%X%X%X$X+X$X+XOXOXOXOXOX X X X X X X).~. X|. X X X X X X X X X X X X X X X X XOXOXOXOX X XOXOXOXOX+X+XOXOXOXOXOX+X X). X`.J.OX+X+X+X+X$X%X+X).~.5X>X>X5X5X5X5X5X6X6X6X6X6X6X6X6X6X,X>X>X>X:X:X:X:X:X:X:X:X:X:X*X*X*X*X*X*X:X:X%XOXOX%X%Xr.+.F.:X:X:X=X=X*X+X%XOX X X|.!.%X6X6X6XqX>X`.s.*XqXqXwXqX%XP.V.).=X:X:X:X~.s.r.@X5X%X*X:X>X>X6X>X:X*X*X*X%XOX|. XOX+X%XOX X+X*X*X%XOXOX~.Z.k.a.a.j.k.k.k.j.j.j.j.j.j.j.j.j.j.k.a.7.0.k.j.k.k.7.3.*.3.*.*.*.&.*.=.&.=.2.2.2.2.;.*.*.=.$.#.#.#.$.+.+.o.+.+.%.&.3.3.3.3.2.-.&.&.o.' ! F B N F U R / ' ' ] o.} _ #.&.$.$.=.*.3.9.",
"a.a.a.a.q.a.a.7.3.9.9.2.7.7.3.&.o./ U U ' %.-.5.9.0.0.0.9.3.5.3.9.0.0.u.u.q.0.0.0.a.r.r.r.r.a.a.r.r.a.a.a.k.k.k.k.k.z.z.k.a.$.] a.N.Z.C.a.V.F.D.A.Z.Z.Z.Z.Z.C.C.C.V.V.b.V.V.V.V.H.`.OXOX+X+X+X+X%X%X%X%X%X%X%X%X:X:X:X:X:X:X:X:X>X>X>X>X>X6X!.r.P.6X5X>X>X Xk.B.%XqX6X6X6X+Xk.).qX6X5XqX0X*X X`.*X=X%XOXF.OX*X%X%X+X X|.S./ c.*X*X*X*X*X*X*X*X*X%X*X*X*X%X%X*X:X*X*X:X:X:X:X:X:X>X>X>X>X:X:X:X:X>X:X>X>X>X>X>X>X>X>X:X+XOX%X%X+X%X%X%X%XOX!.OX`. X X+X%X%X%X%X%X%X%X%X%X%X%X%X%X@X@X@X@X+X+X+X+X.X X X X X X X XOX X X X X X X`.~. X|. X X X X X X X X X X X X X X X X XOXOXOXOX X XOXOXOXOXOXOXOXOXOXOXOXOX X). X|.P.OX+X+X+X+X+X%X+X XY.:X>X>X5X5X5X6X6X6XqXqXqX6X6X6X,X,X,X,X>X>X:X:X:X:X:X:X*X*X:X:X*X*X*X*X*X*X*X*X%XOXOX%X%XC.] k.OX:X:X*X>X%X+X+X+XOX X X|. X>XqX6X6X6X:Xf.P.6XwXwXwX6X`.V.F.%X>X<X>X%XF.1.P.%X5X:X:X>X,X,X>X>X>X>X*X%X%X%X%X%X%X%X%X%X%X%X%X%X%X+X|.P.V.k.k.k.z.z.z.z.z.k.k.j.j.j.j.j.j.k.k.a.7.j.j.0.3.o.] ' ] ] ' ' ' ' ' ' ' ....o.o.o.] ] ] ] ' ' ] ] ' ' ' ....' ' ..o.&.3.5.2.-.&.#.o.' ~ I N N D U ~ / ' ' o.o.} ] $.$.$.*.&.$.3.",
"a.u.a.k.a.a.q.3.3.0.0.3.7.3.&.o./ J J ` =.9.u.0.u.a.u.u.u.9.9.0.9.9.9.0.0.0.0.0.0.a.r.r.a.a.a.a.a.s.k.k.a.s.k.f.k.k.z.z.k.a.1.3.3.c.Z.k.z.C.C.D.Z.Z.Z.Z.Z.Z.Z.Z.C.C.V.b.V.V.C.Z.!. XOXOX+X+X+X+X%X%X%X%X%X%X%X%X:X:X:X:X:X>X>X>X>X>X>X>X5X Xk.k.+X5X*X*X%X!.r.).>X6X6X6X6XY.N.>X6X5X>X6X6X*X). X*X*XOX`.F.*X%X+X|.`.~.!.4.o.!.$X*X*X*X*X*X*X*X*X*X*X*X*X%X%X*X*X*X*X:X:X:X:X:X:X>X>X>X>X>X>X>X>X>X:X>X>X>X>X>X>X>X>X%X X+X%X%X+X%X%X@X@X X~.+X). X X+X%X%X%X%X%X@X@X@X@X@X@X@X+X@X+X+X+X+X+X+X+X X X X X X X X X X X X X X X X`.~.|.|. X X X X X X X X X X X X X X X X XOXOXOXOXOXOXOXOX+X+XOXOXOXOXOXOXOXOX X).|.|.I. X+X+X+X$X+X+X+X+XP.%X:X5X6X6X6X6XqXqXwXwXqX6X6X6X,X,X,X,X>X>X>X:X:X:X:X:X:X:X*X*X*X*X*X*X*X*X*X*X*X+X XOX`.!.&.9.~.:X:X%X5X%XOXOX%X+X+X XOX X X:X6X>X6X6X!.0.OXwXqXqXqX%XP.V.).=X:X<X<X Xe.e. X>X:X:X>X,X,X>X>X>X>X*X*X>X%X%X%X%X%X%X%X%X%X+X+X+X+XOX`.J.c.z.k.z.z.z.z.z.k.k.k.k.j.j.j.j.j.z.c.a.q.z.q.3.3.3.*.2.3.2.2.*.-.&.-.*.&.&.&.&.$.&.#.#.o.o.+.#.$.#.+.o.o.+.&.&.5.3.9.9.3.5.2.-.&.%.+.o.` F n N J U ~ ' ' o.o.o.' $.&.$.3.o.' o.",
"j.a.a.q.0.q.3.2.2.0.0.3.3.&.o.) G B J ~ %.5.w.w.a.j.z.c.k.a.u.u.q.q.q.q.a.a.q.q.0.r.a.a.a.a.s.k.k.k.k.k.k.k.k.k.c.c.c.c.k.k.a.z.c.C.C.z.Z.F.Z.Z.C.C.Z.Z.Z.Z.Z.Z.C.C.V.V.V.V.D.I.`. XOX$X%X%X+X+X%X%X%X%X%X%X;X;X:X:X:X:X:X:X>X>X:X:X*X*X*XP.e.P.6X6X>X>X*XC.s.+X6X5XqXqX%Xs. XuX6X5X5X6X6XI.!. XOXOXOXZ.).<X%X+X X XT.Z.! 0.!._.`./.).`.!.!.!.!.!.!.!.!.!.!.`.`.).).).). X X X X X XOXOX X X XOXOXOXOX XOX+X+X+X+X%X>X+X+X%X%X:X%X%X@X+X`.`. X). X XOXOXOXOX+X+X+X+X@X@X@X@X+X+X+X+X+XOXOXOXOXOX X X X X X X X X X X XOXOXOX X).).OX XOX X XOX X X X X X X X X X X X X XOXOX+X+XOX+X+X+X+X+XOXOXOXOXOXOXOXOXOX'.).OX~.|.+X+X+X+X+X+X+X+XY.|.5X6X6X6XqXqXqXqXwXwXyXtX6X6X6X6X,X,X>X>X<X<X:X:X:X:X>X>X:X:X:X:X:X:X*X*X:X*X*X%X%X%XOX`.6.' v.`.%X%X%X+XOX X>X:X%X XOX X|.@X>X6X6X6X%Xc.C.=X6XqXqX:X`.S.J.OX%X:X<X%XP.3.P.:X>X:X<X>X>X>X>X>X>X:X:X:X*X*X*X*X*X%X%X%X%X%X+X+XOXOX|.`.S.k.a.k.z.c.b.b.c.z.k.k.k.k.k.k.k.z.c.c.j.a.j.a.k.a.a.a.a.a.j.j.a.a.u.0.0.0.0.9.3.3.*.*.*.*.&.&.&.&.&.#.&.-.5.7.u.u.u.0.0.9.9.3.2.-.=.%...Y B N S U E ~ ' ' } o.' ' #.#.#.&.] ] ",
"a.a.a.9.7.&.#.3.2.7.7.1.$.$.' U G J Y ' ' ..%.%.3.9.0.0.a.u.y.u.a.j.a.9.3.2.&.&.+.+.&.&.3.3.3.3.3.3.2.3.;.&.&.&.&.=.=.=.o.+.2.a.c.c.j.c.F.F.Z.C.C.C.C.C.Z.Z.Z.C.N.C.V.V.v.Z.I.). XOXOXOX%X%X+X$X+X+X+X+X%X%X;X;X;X:X:X:X>X>X>X>X:X>X5X>X|.k.k.OX6X>X>X:X Xr.J.%X>XqX6X6XP.F.5X5X5X5X5X5X|.I.).OX X XY.B.+X<X.X.X;X;XY.Z.G o.3.5.0.0.e.r.r.r.a.a.a.a.a.a.a.a.a.a.k.k.z.z.z.z.B.B.z.z.z.z.N.N.C.C.C.N.N.z.N.N.C.S.F.!.OX|.+X%X%X:X%X%X@X+X).|. X). X X X XOXOX+X+X+X+X+X+X+X+X+X+X+XOXOX X X X X X X X X X X X X X X X XOX|.|.`.).!.|.`.|.`.|. X X X X X X X X X X X X X XOXOXOXOXOXOX+X+X+X+XOXOXOXOXOXOXOXOXOX X~.+X`.).+X+X+X+X+X+X+X+X|.~.5X:X:X:X:X:X>X>X>X>X5X5X>X>X>X<X<X:X:X:X:X:X*X*X*X*X*X*X*X*X%X%X%X%X%X*X*X%X%X%X%X%XOX Xz.+.-.V.). X|.+XOX).%X:X:X+X%X@X X|.%X>X6X6X6X`.0.R.6X6XqX,X%XS.S.~.OX%X<X:XOXp.8.OX>X:X<X>X>X<X>X:X:X:X:X:X*X*X*X*X*X%X%X%X%X%X+X+XOXOX X XR.V.j.j.k.z.c.v.c.z.k.k.k.k.k.k.k.k.z.c.z.j.a.0.3.3.*.*.2.2.3.3.3.-.-.&.&.=.&.&.o.o.] ' ) ) ~ ~ _ ' ' ' ' ` ` ` ' ' ' ' ' ' ` / R U U I G S N n D S I R ~ ' ' } ' ' ] o.o.#.o.] ",
"a.a.0.7.&.] o.3.&.3.3.&.#.] Y V S G U E E E ` ' +.%.%.%.o.$.3.q.q.q.9.7.*.&.$.#.o.+.%.&.-.-.*.2.5.5.5.5.3.3.3.3.3.3.3.3.3.5.a.V.c.a.a.Z.D.Z.C.C.C.C.C.C.N.C.C.C.N.N.V.V.c.F.(. XOXOXOXOX$X$X$X1X.X X X|.+X@X%X%X;X;X:X<X>X>X>X>X*X5X>X%XF.r.F.%X>X>X*X*XN.r.+X>X6X6X6X+X0.OX6X5X5X5X6X%X).*X>X*X%X XB.T.,X;X.X.X;X<X).Z.P ~  .%.&.2.3.9.0.0.r.r.0.0.0.0.a.a.a.a.a.a.a.s.s.s.k.k.k.k.k.k.z.z.z.z.k.s.r.0.r.a.k.z.z.J.`.~.+X%X:X:X%X%X@X+X).|.`.). X X X X X X X X X XOXOXOXOXOXOXOX X X X X X X X X X X X X X X X+X X).~.).).).!.P.).).).~.~.).|. X X X|. X X X X X X X XOXOXOXOXOXOXOXOX+X+XOXOXOXOXOXOXOXOX XOX).%XOX!.+X+X%X+X+X+X+X+X+XF.%X X|.|.|.|.|.|. X+X@X%X%X:X:X:X%X%X*X*X*X%X%X%X%X%X$X$X%X%X+X+X%X%X%X%X%X%X%X+X+X+XOX%XR.2./ a.).%X*X6X5X+X~.+X:X+X%X:X+X). X%X>X6X>X6X!.k.+X6X3XqX6X~.c.S.).+X;X:X:X~.2.Z.:X<X:X<X<X:X:X:X:X:X:X:X*X*X*X*X*X*X%X%X%X*X+X+XOXOX X'.`.F.c.j.k.z.z.c.c.z.k.k.k.k.z.k.k.k.k.z.c.a.3.&.#.o.] ] ] ] ] ] ] ' ] ' ' ' ' ' ) / ~ ~ ~ ~ ~ ~ ) ) _ ' ` ) ~ E E E R E E Y U U J I I J G G V N N n D U E ~ _ ' ] ` ) ] ' ] +.o.",
"q.9.7.3.o.) #.3.O.1.1.O.' L c h B U / ......%.7.u.u.0.0.0.q.a.k.9.3.3.9.3.7.7.9.9.9.w.u.w.w.w.u.u.u.y.y.y.y.y.y.0.0.y.y.d.v.A.b.z.z.V.c.Z.C.V.V.C.C.C.C.C.N.N.C.N.N.V.V.Z.!.). XOXOXOXOX$X$X1X.X.X X|.). X+X%X;X;X;X<X<X>X>X>X>X*X>X%X).a.e.`.qX>X:X*X%X1.J.>X6X6XqX%Xk.e.>X6X5X5X5X5X X X>X>X6X6X+Xs.+X,X;XXX.X;X;XY.B.<.z.J.J.H.!.).'.`.`. X X'.'.'.'.'.`.!.!.H.H.I.I.I.I.!.!.).).).).Y.Y.Y.Y.P.F.N.z.N.S.J.Y.`.*X6X+X+X%X:X:X%X%X@X+X). X`.`. X X X X X X X X X X X X X X X X X X X X X X X X X X X X X X X X X`.~.I.~.).).).P.).).).|.`.|.+XOXOX X X X X X X X X X X X X X X X X X X X XOXOXOXOXOXOXOXOX XOX).*XOX!.+X+X%X+X+X+X+X+X%XP.*X%XOXOXOXOX|. X+X%X+X@X%X%X%X%X%X@X$X$X%X%X+X+X$X$X+X+X+X+XOXOXOXOX%X%X%X+X+X+X+X+X X*X^.p.+.p.).6XqX6X6X>XN.).+X XOX:X:X X X X%X>X>X6X6XOXQ.6X3XqX>X@XC.M.P. X%X:X:X:Xs.4.|.<X:X<X:X:X:X:X:X:X:X:X*X*X*X*X*X*X%X%X%X*X+X+XOXOX X'.OX!.C.k.d.k.z.z.c.z.k.k.k.k.z.k.k.k.z.k.j.j.0.q.j.q.9.9.3.3.7.3.3.3.9.9.9.5.3.3.3.*.&.$.$.$.$.$.$.o.o.+.#.#.o.o.o.o.o.o...] ' ' ~ ~ / / ~ U J F n g k J U E ~ _ ' ' ~ ) ) ' &.o."
};
