/* XPM */
static char *_1750afcfb444046cc0a4b1a3027a1d9vb0pd5ypWi4Hlb6E[] = {
/* columns rows colors chars-per-pixel */
"512 512 256 2 ",
"   c #060606",
".  c #0A0B0B",
"X  c #06090B",
"o  c #0A0E12",
"O  c #060D11",
"+  c #0D1214",
"@  c #0E1419",
"#  c #121415",
"$  c #13161A",
"%  c #151A1C",
"&  c #181B1C",
"*  c #0C100F",
"=  c #181D22",
"-  c #1C2225",
";  c #1E2429",
":  c #1A2427",
">  c #22262A",
",  c #242A2D",
"<  c #292D2E",
"1  c #212426",
"2  c #262C31",
"3  c #2B2E32",
"4  c #2E2F38",
"5  c #2D3235",
"6  c #2D3439",
"7  c #2E373B",
"8  c #303436",
"9  c #31363A",
"0  c #343A3E",
"q  c #383C3F",
"w  c #2E2F32",
"e  c #363D42",
"r  c #393E43",
"t  c #393E48",
"y  c #2F3A42",
"u  c #374044",
"i  c #3B4246",
"p  c #3D444A",
"a  c #3F494D",
"s  c #394448",
"d  c #3E4A51",
"f  c #3F5154",
"g  c #41464C",
"h  c #424A4E",
"j  c #424448",
"k  c #444D53",
"l  c #494E54",
"z  c #474D57",
"x  c #465156",
"c  c #495156",
"v  c #465259",
"b  c #4C555B",
"n  c #4E595E",
"m  c #495858",
"M  c #51565C",
"N  c #51595E",
"B  c #525557",
"V  c #4E5A61",
"C  c #4D5661",
"Z  c #535D63",
"A  c #565C65",
"S  c #556165",
"D  c #596166",
"F  c #566269",
"G  c #5B656B",
"H  c #5D696E",
"J  c #57696B",
"K  c #5E6B72",
"L  c #5C6671",
"P  c #5C6F73",
"I  c #60696F",
"U  c #61666D",
"Y  c #626C73",
"T  c #656E79",
"R  c #686C75",
"E  c #657176",
"W  c #697277",
"Q  c #66737A",
"!  c #6A757B",
"~  c #6D797E",
"^  c #66797C",
"/  c #717A7F",
"(  c #71757C",
")  c #3A413F",
"_  c #6C7681",
"`  c #6D7B82",
"'  c #697884",
"]  c #727D83",
"[  c #737E89",
"{  c #777B84",
"}  c #748186",
"|  c #798287",
" . c #758289",
".. c #7A858B",
"X. c #7D898E",
"o. c #77888C",
"O. c #7A8691",
"+. c #7E8B92",
"@. c #7C8C97",
"#. c #76888E",
"$. c #81898E",
"%. c #81868D",
"&. c #828D94",
"*. c #828E99",
"=. c #858C95",
"-. c #849196",
";. c #85939A",
":. c #8A959C",
">. c #8C999E",
",. c #889498",
"<. c #91999E",
"1. c #90969E",
"2. c #85918D",
"3. c #8496A3",
"4. c #8A96A1",
"5. c #859AA4",
"6. c #8D9AA2",
"7. c #869CAA",
"8. c #8B9EAB",
"9. c #8795A8",
"0. c #929DA4",
"q. c #929EA9",
"w. c #989EA7",
"e. c #8C9FB1",
"r. c #8CA1AC",
"t. c #8CA1A7",
"y. c #94A1A6",
"u. c #99A2A6",
"i. c #96A3AA",
"p. c #9AA5AC",
"a. c #9DA9AE",
"s. c #96A8AD",
"d. c #8CA3B3",
"f. c #8DA6BA",
"g. c #8CA8B9",
"h. c #93A4B2",
"j. c #9BA6B1",
"k. c #9EABB2",
"l. c #92AABC",
"z. c #9DADB9",
"x. c #94A7B6",
"c. c #9EB1BA",
"v. c #A1ABAE",
"b. c #A2A6AD",
"n. c #A2ADB3",
"m. c #A3AEB9",
"M. c #A7ACB5",
"N. c #A5B1B6",
"B. c #A9B3B6",
"V. c #A5B2BB",
"C. c #AAB5BC",
"Z. c #ADB9BE",
"A. c #A6B9BE",
"S. c #B1BBBE",
"D. c #B1B6BD",
"F. c #A4B0AE",
"G. c #8CAAC5",
"H. c #93ADC3",
"J. c #96AEC7",
"K. c #97B3CA",
"L. c #9AB9D5",
"P. c #8EB1CC",
"I. c #A5B5C1",
"U. c #ABB6C2",
"Y. c #A6B9C3",
"T. c #ACBAC3",
"R. c #ADBDC9",
"E. c #A6BAC9",
"W. c #B2BDC3",
"Q. c #B3BEC9",
"!. c #B8BDC6",
"~. c #A1BCDA",
"^. c #A8B5C8",
"/. c #99BCE4",
"(. c #9DC1DD",
"). c #AEC1CC",
"_. c #AEC0C5",
"`. c #B5C1C6",
"'. c #B9C2C6",
"]. c #B4C2CB",
"[. c #BAC5CC",
"{. c #BDC9CE",
"}. c #B6C8CD",
"|. c #A9C2D7",
" X c #B5C5D2",
".X c #BAC6D2",
"XX c #B5C9D3",
"oX c #BCCAD3",
"OX c #BCCDDA",
"+X c #B7CAD9",
"@X c #BED1DB",
"#X c #BDD1D6",
"$X c #9DC4E8",
"%X c #A6C8E6",
"&X c #ACD3EC",
"*X c #B5DBF4",
"=X c #B2D2ED",
"-X c #BBE3F7",
";X c #C2CACD",
":X c #C3C8CC",
">X c #C2CDD4",
",X c #C2CED9",
"<X c #C7CCD3",
"1X c #C5D1D6",
"2X c #CAD2D5",
"3X c #C4D2DB",
"4X c #CBD5DC",
"5X c #CDD9DE",
"6X c #C8D9DC",
"7X c #D3DADD",
"8X c #DADDDD",
"9X c #D1D6DA",
"0X c #C7D1CF",
"qX c #DBE1DE",
"wX c #CAD6E1",
"eX c #CDDBE3",
"rX c #C7D8E4",
"tX c #D3DDE4",
"yX c #DADEE3",
"uX c #D3DEE9",
"iX c #D8DDE8",
"pX c #C2D9F1",
"aX c #D4E1E6",
"sX c #DCE3E5",
"dX c #D5E2EA",
"fX c #DBE4EA",
"gX c #DDE9EC",
"hX c #DCE8E8",
"jX c #C6EAFA",
"kX c #DDEAF2",
"lX c #D9E7F2",
"zX c #D3EBF3",
"xX c #E2E5E5",
"cX c #E4E9E6",
"vX c #EBECE6",
"bX c #E2E6EB",
"nX c #E4EAEC",
"mX c #EBEDEC",
"MX c #E8E7EA",
"NX c #F2EFEC",
"BX c #F2EEE6",
"VX c #EDF1ED",
"CX c #E9F1E9",
"ZX c #F3F2EC",
"AX c #F7F3EB",
"SX c #E3ECF2",
"DX c #EBEEF1",
"FX c #E3EBF5",
"GX c #EDF2F2",
"HX c #E7F4F8",
"JX c #F3F3F2",
"KX c #F9FAF7",
"LX c #F1EFF1",
"PX c #E3E2E0",
"IX c #B2C0BF",
"UX c #73807F",
/* pixels */
"                    X X o = < < < < 5 5 5 5 3 3 3 w 3 3 3 5 5 5 5 9 p c V Z G K Y Y E E E E Q ! ` ` ' ~ ^ ^ ^ ! ! ! ! ! ! ! ! ! ! ! ! ! E E Q Q ! W E T W T Y I D F Z A c p 6 q i 5 - + + . # , 3 , 8 8 8 8 8 5 5 5 8 8 8 8 8 8 8 8 8 8 5 5 0 0 e 0 0 9 6 0 r i i p g h g a a p k Y ! ~ E E ~ ..] ] ! E Q Q Q Q E W W W T E T Z a t p p i i i i p p p p p i p 0 q u u 0 u u u u u u s s s s i i s p p p p s s s p p p p p p p p p p p p p p p p p p p p p p p p i i i i i i i i i i i s i i p p p p p p u u u u q e e e i i i i i i i i i i i i i i p p p p p p p p p p p p p p p p p p p p p p t t r e e r r e e e u u u u u u i r r r i i i i i u u i t i p p s s s s p p p p i i u e e r r r g g p i u u u u u u u u u i u 7 2 n Y E Q E Y Y Y E E Q E T Y Y W _ ! Y H H F Z m u t p p p p p p p e r h h a h a i e e u u i i i i i i e e e e e 0 0 0 9 3 9 > @ & 5 >     X $ p l h g l b Z D F F G H I F F G G G G G Y Y Y Y Y Y Y Y K Y Y E E E E E Q Q Q E ! W T Y Y Y Y Y Y Y H F b k r 0 6 2 , < < < < < < < , < < < < < , , , , X   X . . X X X X X X X ",
"                    . X $ 1 5 5 5 5 < < 5 3 3 3 3 3 3 3 3 3 5 8 0 i z M F H Y Y E E E E Q ! ~ ~ ` ` ' ~ ^ ^ ^ ! ! ! ! ! ! ! ! ! ! ! ! ! E E Q Q ! E T Y T Y Y H F Z M b k i p i 5 $ X + X + , 5 5 3 8 9 8 8 5 4 5 5 8 8 8 8 8 8 8 8 8 8 5 8 0 0 0 9 0 9 5 0 e i i i p g a a p p Z ! ~ ~ W W ~ o.] ] ! ! ^ ^ ^ ^ E W ! ! E E E G k p p p i i i i p p p p p p p e q i u q u u u u i i i s i i i i s p p p p p s s p p p p p p p p p p p p p p p p i i i i s p p p p p p p p p p p s s s s p p p p p p p p p p p i i i i i i i i i p p p p p p p p p p p p p p p p p p p p p r r r p p p p p p p p p t r e e t e e r e u e u u u u u i r r i i i i i u u u p p p a p p p p p p p p i i u e e e q q g g p i u u u u u u u u 0 e u 7 s F E E E E E Y E E Q E W W W W ~ ` _ E H Y Y Y b u u s p p p p t r e e 0 0 0 0 0 7 6 6 6 6 6 6 9 9 0 0 0 0 0 0 0 0 0 0 0 9 r 6 , 3 r 9 $ .   O = i g g l c M Z D F D G U G G G G G G G Y Y Y Y Y E E E Y E E E E E Q Q Q E Q E ! W T Y Y Y Y Y Y Y Y H D b h e 6 2 , , , , , , , < < < < < < < , , , , & .   X X X X           ",
"                    X # > < 5 5 < < < < 3 3 3 3 3 3 3 3 3 5 9 0 p k Z S G Y E E E E Q Q Q ! ~ ~ ` ` ' ~ ^ ^ ^ ^ ! ! ! ! ! ! ! ! ! ! ! ! E E E Q E T Y Y Y Y H D F Z b z p i i 9 $ O X . # , 5 8 8 5 3 8 8 8 5 5 5 5 5 5 8 8 8 8 8 8 8 8 9 9 9 9 0 9 9 9 6 0 r i p p h g k a a a F ~ ~ ] ! ! ] o.] ] ! ! ^ ^ ^ ^ E ! ! ! W E E Y k p p i i i i i i i i i p p p i e i i e i i i i i i i i u u u u i i i i p p i i i i i p i i i i i i i i i i i i i i i i p s p p p p p p p p p p s s s s p p p p p p a p i p p p p p p p p p p p p p s p p p p p p p p p p p p p p p p p i t t t s p s s p p p p p r r e e t t t e e e e u u u u u u u u i i i i i i u i t i p p s s s s i i i i i i u e e e 0 0 i p p u u u u u u u u u 7 e u 7 x K E E Q E E Y E Q ^ ! ! ! ! ! ` ` ! Y Y W ] ] n s s p a a a a p p t r e e t r e e e e e e e e e e e 0 e 0 0 0 0 0 0 0 0 0 0 5 5 8 0 0 3 $ X O X ; g h k l c b Z A F F G H G F G G H H Y Y Y Y Y Y Y Y Y E E E Q E E Q E E E E ~ ! E Y Y Y Y Y Y Y Y Y Y D c a 0 5 < , , , , , < < < < 3 3 3 3 < < < < > #   X X               ",
"                X     & 3 < < < < < < < 3 3 3 3 3 3 3 3 5 0 r i h b S F G E Q E E E E Q Q ! ~ ~ ` ` ' ~ ^ ^ ^ ^ ! ! ! ! ! ! ! ! ! ! ! ! E E E Q T Y Y Y Y U D F Z M z g i i 2 & O X . # 5 5 5 < 9 8 < 5 8 8 8 8 5 5 5 5 8 8 8 8 8 8 8 8 9 9 9 9 9 9 9 9 6 0 i p p g g g k g a a S ! ! ] ~ ! ] o.] ] ! ! ^ ^ ^ ^ E ! ! ! W T W T c a p i i i i i i i i i p p g i e i i e i i i i i i i u u u u u u i i i i i i u i i i i i i i i i i i i u u u u u u i i s s p p p p p p p p p s s s s s a a a p p p a a s s p s i s p p p p p p p p p p p p p p p p p p p p p p i i i i t t t t s s s s p p p p p i t e e t t t e e e e u u u u u u u u u u u u u i u u e e t t u u u u s p p p p p p t u e 0 6 p g p u u u u u u u u u 7 e s u m H E E E E E Y Q ^ ~ ! ! ! ~ ` ` ` ! Y Y ! ] ] n s s a a a a a r p e t r r r r e e e t u u e e r r e 0 e 0 0 0 0 0 0 0 e e 9 3 0 9 5 9 r 5 = O @ @ ; h k k l l Z Z D F G U G A G G L L Y Y Y Y Y Y Y Y E E E E E E E E E E E E ` ! W T Y Y Y Y Y Y T T Y G M c i 0 3 2 < < < < < < < < 3 3 3 3 < < < < > & .                   ",
"                    # < < < < < < < < < 3 3 3 3 4 4 5 8 9 0 p c m n S F G Q ' ^ ^ ^ ^ ^ ! ! ! ! ` ` ' ~ ~ ~ ~ ~ ! ! ! ! ! ! ! ! ! ! ! ! E E E E T Y Y Y H F A Z M c k h i 2 $ + X . & 5 5 5 5 5 9 9 1 3 8 8 8 8 5 5 5 5 8 8 8 8 9 8 8 8 9 9 9 9 0 0 9 9 6 0 i g h g h k k k a a b Y ! ] ~ ! ] o.o.! Y E ` ~ ^ ^ ! ! ! W W W W W G b k x a g b x h g a p a g k x a s s s s g k a a a a a a a a a a a a a k k k k x x x x x x x x k k k k k k k k k z z k k z k k k k k k d d d d d d d d d d d a a z z k k k k k x z k k k k k k d d k k v v v v v v v z z z k k k k k z z k k k k z k z k k a a a a a a a k k z k k k k k g k d d d a a k k k d d a a a a a d a a d d d k z z z v k k k k k a p k k k h g a a a a x x k k k x x F K E Y E E E E Q ^ ~ Q W W ! _ ` ~ ! E T ! ] W m a a a a a a a p p p r r r p p i u u u i i i i r r r r r e e e e e e e 0 e ; 6 0 0 9 0 q i r = X X @ > h g h l b Z Z D F G H G H H H L Y Y Y Y K K Y E E E E E E E E E E E Q ~ ] _ ! E Y Y Y Y Y Y Y Y T Y F M c p 0 5 < < < < 3 3 3 3 < < < < < < < < , > %                   ",
"                    & 8 < < < < < < < < 3 3 3 3 4 4 5 9 0 i k b b Z S G K ! ` ' ! ! ! ! ! ! ! ! ' ' ~ ~ ~ ~ ~ ~ ! ! ! ! ! ! ! ! ^ ^ Q Q E E E E Y Y Y Y H F Z M k g h p 2 % O . @ - 5 0 5 5 5 5 9 9 > 1 4 8 8 8 5 5 5 5 8 8 8 8 9 9 8 8 9 9 9 9 0 0 0 0 5 0 i g h g h k k k k k b F W ] ~ ~ ] o.X.~ Y E ! ! ! ! ! ! ! ! ! ! ! ! ~ E W ! G G E ~ W E E Y H Y Y Y G Y E ! Y W ~ ` E E E E Q E E E E E Q Q Q Q ! ! ! ! ! ! ! ! ! ! ` ` ` ` ] ] ] ] ] } } ` Q Q ! ! ! ! ! ! ` ` ` ` ` ' ' ~ ' ~ ~ ! ~ ` ` ~ ` ` ` ` ` ` ` ` ` ` ' ` ` ` ] ] ] ] ] ] ] ] ] ] ] ` ` ` ` ] ] ] ] ] ] ] ] ] ] ] ~ ~ ] ] ` ` ] ] } }  .o. .o.o.} } } } } ] ] ` ~ ~ ~ ~ ~ ! ! ! ! ! ! ! ! ^ ^ ^ Q Y Y Y Y E Y Y Y K G G F G G G G G G G H H K H G K K E E E E E E E E ^ ^ ^ ' ! E T E ! _ ~ ~ ! ! ! ~ ] Y x k a a a a a a h p p r r r i p i u u u i i i i r r r r r e e e e e e e e 5 = 6 0 0 9 0 q r g i > o X @ 2 p k h z b Z Z F F G H H H H H Y Y K Y K K Y E E E E E E E E E E E ! ] ` ! E E Y Y Y Y Y Y Y Y Y T H Z b k i 7 5 < < < 3 3 3 3 < < < < < < < < < , & .                 ",
"                  X & < < < < < < < < 5 3 3 5 3 5 5 8 0 i g b M n Z F H E ' ` ^ ~ ! ! ! ! ! ! ! ~ ~ ~ ~ ~ ~ ~ ~ ! ! ! ! ! ! ! ! ^ ^ ^ ^ E E E Y Y Y Y H F Z b l a h p 3 % O O @ 1 8 0 0 8 8 8 8 9 9 3 = 3 8 8 8 5 5 5 5 8 8 8 8 9 9 9 9 9 9 9 9 0 0 0 0 5 0 i g h g h h k k z z m Z W ] ~ ] ~ ] ] W K Y E ^ ' ' ` ~ ! ! ~ ~ ~ ~ ] ` ` ] E K ` O.+.+.o.o...o. . . . .o... . .o.&.+.+.+.+.+.+.@.+.+.+.+.+.-.-.-.&.+.+.+.+.+.+.+.+.+.+.-.-.-.-.-.-.;.;.-.+.+.+.+.+.&.&.-.-.-.-.;.;.-.;.;.;.;.;.-.-.-.;.;.-.-.-.-.-.@.*.-.-.;.;.;.;.4.4.4.;.;.;.;.;.;.;.;.;.;.;.-.-.-.-.-.-.-.-.-.-.=.=.=.=.&.&.&.&.&.-.-.-.-.;.;.>.:.:.:.;.;.;.;.;.-.-.+.+.+.+.+.+.o.o.o.o.o.X.o.o.......o.#.#.o.o. .` _ [ ] ] ` ` ] ] ] ] ] ` } }  .} Q ! ^ ~ ' ` ` _ ^ E Q Q ! ! ' ' ^ E Y Y T E W ~ ` ` ] ] ` H z z z k k k k k a a p p r r r i i i u u u u i i r r r r r e e e e e e e 0 - = 0 0 0 0 9 q q i c h > @ O @ 2 g h k z b Z Z F F G H H G H K K K K K K Y E E E E E E E E E E E ! ] _ ! E E Y Y T Y Y Y Y Y Y E Y F Z b k i 7 5 < < 3 3 3 3 < < < < < < < < , 1 $ * X               ",
"                . # X & < < < < < < < 5 3 3 5 5 5 5 6 r p c n Z V S H E Q ` ` ~ ! ! ! ! ! ! ! ^ ^ ! ~ ~ ^ ^ ^ ^ ! ! ! ! ! ! ! ! ^ ^ ^ ^ E E E Y Y K H G Z M z h h h 6 $ o O @ - 8 0 8 5 8 8 8 8 0 0 9 1 > 4 8 8 8 5 5 5 8 8 8 8 9 9 9 9 9 9 9 9 0 0 0 0 5 0 i p h g h k k k c c Z Z Y ~ ~ ~ W E E Y G G K E ~ ` ` ` ` ` ` ` ` `  . . .O.` K _ +.&.+.+.+.+.+.O.O.+.+.+.&.o. ...+.+.+.+.+.-.-.*.@.@.@.@.@.-.@.@.@.@.@.+.+.+.@.+.+.+.+.+.+.-.-.-.-.;.;.+.#.-.-.-.-.-.-.-.-.;.;.;.;.-.-.-.-.-.@.@.@.+.-.-.+.-.-.-.*.*.-.;.;.-.-.-.-.;.;.-.*.-.-.-.-.-.-.-.-.-.&.&.&.-.-.-.-.-.-.-.-.=.=.=.=.&.&.&.&.+.+.-.-.+.+.-.-.-.-.&.+.+.+.+.+.+.+.+.+.+.+.+.+.X.X.+.+.+.&.+.+.+.+.+.+.+.+.+.+.+.` ` o. . .o...o.o.....X.X.X.+.+.o.Q ' ' ' ` ` ] ` _ ^ ! ! ! ! ' ' ^ Y E Y K H Y E ` ] ] ] ~ G x x z z k k k k g a p p r r i i i i u u u i i i r r r r r e e e e e e e 6 @ > 0 0 0 0 0 9 u q p l g 2 + O $ 2 g k k z b Z Z F F H H G G K K K K K K Y E E E E E E E E E ! ! ! ~ ! ! E E Y Y T Y Y Y Y Y Y E Y H S M b k i 7 5 2 < 3 3 3 < < < < < < < < & # .   .               ",
"                # # # # # > < 8 < < < 5 5 5 5 5 5 0 i k b Z S Z S H E ~ ` ` ' ' _ ' ` ` ] ' Q Q E ' ~ Q ! ! ! ! ! ! ! ! ^ ^ ^ ^ ^ ^ Q E E E Y K H H F Z M k p p p 2 $ O @ & > 8 9 9 8 8 6 6 6 6 0 0 0 3 ; 5 5 5 6 6 6 6 6 6 9 9 8 8 9 9 9 9 9 9 9 9 9 7 6 0 e i g g g h k z m n F G K ~ ~ ] ~ Y H G G G K E ! `  .] ! ` ` ` ` ` O.O.O.O. .T _ O.O.O.O...O.O.+.+.+.+.+.+.O.o...O.+.+.+.+.@.@.@.@.+.+.+.+.+.+.+.+.@.+.+.+.+.+.+.+.+.+.*.*.*.*.-.-.-.-.-.-.-.-.-.-.-.-.-.-.-.-.-.-.+.+.+.@.+.+.&.&.&.&.-.&.&.-.;.;.;.-.-.-. .! ! ] ` ` ' ^ +.&.&.+.+.+.@.@.+.+.&.-.-.&.+.+.&.&.&.+.+.+.+.+.+.+.+.+.+.o.X.+.&.&.-.;.-.-.+.+.&.+.+.+.+.+.+.+.+.+.+.o.+.o.+...............+.+.+.+.+.+...T '  .} } } } ..o.....+.+.+.+..._ K Q ] ] ] ] ] ` ! E Q ! ' ` ~ Q E K G H F Z Z Y _ ] ] } ^ Z v x v v k k k k g p p i i i i i i i i i i i i i i i i i r r r r i e e r ; $ 0 0 0 0 0 e e u i p g g r 2 @ O + > p k k k b n Z S F G H H H K K K Y Y Y Y E E Y Y E E E E ! ! ! ! ! ! ! ! E E Y E Y Y Y Y Y K K H G S Z n h u 7 5 3 3 3 3 , < 3 < 3 < > & # # o X .   X       X   ",
"          . * . X # # # # $ > 5 < < < 5 5 5 5 5 0 i g b n Z F F H Y ! ` ` ` ' ' _ ' ` ` ! ~ ^ ' ` ' ~ Q Q Q ^ ! ! ! ! ! ^ ^ ^ ^ ^ ^ E E E Y K K H F Z M l h t j 3 % o @ $ > 5 0 9 9 8 8 6 6 6 6 0 0 0 6 2 5 6 0 0 0 9 9 9 9 0 0 0 0 q q 0 q q q e e e e e t p i g h x x k x m b S F H ! ` ] ~ E H F Z F K Y W ! ] } ] ! ] ] [ [ [ [  . .O.' ` O. . ... .....o.o.o.o.O.O.o. .[ ....O.+.+.+.+.#.#.+.+.+.+.+.+.+.+.+.+.+.+.+.+.+.+.+.+.+.+.&.&.@.+.+.+.@.@.+.+.+.+.+.+.+.+.&.&.&.+.+.+.+.+.+.+.+.+.+.+.&.&.-.-.;.;.-.-.;.;...] ] } ] ] ] ` +.&.&.+.+.+.+.+.+.+.+.+.+.+.+.+.+.+.+.+.+.+.+.+.+.+.+.+.o.o.&.;.:.4.6.6.6.6.5.>.:.:.;.;.-.-.-.-.&.&.+.+.o.+.+.+.........o.+.....+.+.+.+...E ]  . . . . . .o.............+. .' ] ] ] ] ] ] ` ! ! ! ! ` ` ~ E K H H F Z b Z Y ` ]  .` K v v v x x x z k k a p p i i i i i i i i i i i i i r r r r e e r r r r r e = 2 i r 0 0 0 e e e e i i i p r > @ X + ; p g g k b n Z S F G H G H K K Y Y Y Y Y Y Y E E E T E ^ ^ ^ ! ! ! ! ! E E Y E Y Y Y Y Y Y K K G F S Z m k u 7 5 3 3 3 , 3 5 < < > & # # # + . . $ & $ X       ",
"X     . # > < & + # # # # # & > < 5 5 5 5 5 6 0 i g c M Z S F H K Q ` ] ` ` ` ` _ _ ` ` ` ` +.5.@.} ^ ^ ^ ! ! ! ! ! ! ! E E Q Q ^ E E E Y Y H H F Z b l h t j 4 & @ @ & ; 5 9 9 8 9 8 8 6 6 9 9 7 7 0 0 0 5 7 a g g g g h h k k x x x x x x c x b b m m x v k k z x n V m m n n n F E ` ` } ] ! K Z b Z F G Y T ~ ] ` ! ` ` ` ` ] ] ] ]  .` ` [ ] [ [ [ [ [ [  . . . . . .` ]  .[  . . . . . . . . . . . . . . .......o.o...............O.O.O.O...o.....o.o.o.o.o.o.o.o.........o.o.o.o.o.o.o.o.o.o.+.+.+.+.+.+.+.+.+.+.+...o.......X.X.+.&.&.+.+.+.+.+.+.+.+.+.&.&.+.+..... . . . . . . . . . . . ...+.*.;.;.:.:.4.;.;.;.;.*.&.+.+.+.+.+.......o.o.+.+.......o.................] !  . .}  . . . . . . . . .} }  .[ ` ] _ _ _ _ ! ! ! W W ! ! ! E K G G F Z n n H Q ]  . .` Y Z V n b v m x k a a a a a p p p p p p p s p p p p p p s s p p p p p p t 0 2 u s u e e e e e e 0 e q 0 q i 6 - O   o ; i g k k b n Z S F G G G H K K K Y Y Y E E E E T T W W E W ! _ ! W W E E E E E E E E E E K K H G S Z M b k i 0 6 5 3 < 5 < < 1 & $ # # # + # & , , > % *     ",
".   * & < < w < & # # & # # # # - < 5 5 5 6 0 e k b M Z F S G Y Q ~ ` ` ` ` ` ` _ _ ~ ` ' ' ;.V.c.@.' Q ! ! ! ! ! ! ! ! E Q Q Q E E E Y Y K H G Z M k h t k 8 $ @ $ = = 3 9 6 5 9 9 8 8 6 6 9 7 7 7 0 0 i 0 0 k S S D S S D G G G H G H E E E E Y Y Y Y W T K G F G Y E H H H H E ! ` } ] } ] ~ K V b V Z F H Y E E E ! ! ! ! ! _ _ _ _ Q Q _ _ Q ! _ ` ] ] ] ` ` ` ` ` ` ` ` ] ` ` ] [ ` ` ` ` ` ` ` ` ` ` ` ` ] ] [ [ [ [ [ [ ] ] [ [ [ [ [ [ ] ` ` ` ` ` ` ] ] ] ] ] ] ] ] ] } } } } } } } }  . . . . .} ] ] ] ] ] ] } ] ] ] ] ]  . .] ] ] ] ] ] ] ] ] ` }  . . .] ] ] ] ] ` ` ` ` ` ` ' ' ' ` _ ` ` ] [  . .O... . . .[ ] ] ` ` ` ` ] ` ` ` ` ` ` ` ] ] ] ] ] ] ] ] ] ] ] ] W E ] ` ` ` ` ` ` ` ` ` ! ! ! ! Q _ Q Q T T T T Y T T Y Y Y Y K G G F F V n n V Y `  . .} ] ] ` Q E K G Z v k a s s a a a a a a k k k k k k k k k k k k d k k k p p t 6 a a u t e e e e 0 0 0 7 9 6 5 9 9 5 = X X O - i h k k b n Z S F G G G H K K Y Y Y Y E T T T T W E Y E _ _ ! W E E E E E E E E E E E E K K H G S Z M b h i 9 6 5 5 5 < , & $ $ $ # # # & < 5 < 5 5 - +   ",
"  # 1 < 8 8 8 5 5 > = = % % % % # & < 8 5 9 u g c M Z Z G F G E ^ ` ` ` ` ` ` ` ` ` _ E T Q o.c.).s. .' _ _ ! ! ! ! ^ ^ E E E E E E Y Y I H G S Z c g g l 3 % % @ & ; 3 0 0 6 9 9 9 0 0 0 0 0 0 0 0 0 0 a a 7 u Y Q E ! ! ! ! ! ~ ' ` ` ` ` ` ` ` ` ` ` ` ` ` ] ` ` ' ^ E Q ` ` ] ] ] } } } } } W b z v V Z F G G G G G K Y Y E E E E E Y Y T Y Y T E E W W W E Q ^ ^ ^ ! W ! Y W E W E Y Y Y Y E Y Y Y E E Q ! T T T T Y T Y Y T T T Y E E E E E E Q Q Q Q Q Q ! ! W W W W ! ! ! ! ! ! ^ ^ ! ! ! ! ! _ ~ ~ ! ! ! ! ! ! W W W W W W W W W W W ! ! ! ! ! ! ! ! ! ! ! ! ! ^ ! ! ! ! E E E Q Q Q ^ Q Q Q Q Q Q Q Q Q T T K Y Y K L L L L L H Y Y T Y Y K K Y Y Y Y Y Y Y Y T Y T I F T E E E E E E E E E E E E E E E Y K Y Y G G G G G F F F F F Z Z Z Z Z n v n G ! ` ]  . .} } } } ] ] ` E F v k x m Z G G G G G K K Y Y Y Y Y Y K K K H H G G F S z u k s 7 7 e e e e e e 0 0 0 9 9 9 6 9 9 5 ; @   O ; p k k k b Z Z F G H G H K K K K Y Y Y T T T T T W E W ! ! ! E Y Y E E E ! ! ^ ^ Q Q Q Q Y K G S Z Z b k k p q 6 5 > & # % $ # # # % - 5 5 5 5 5 2 5 ; + ",
"$ , 5 3 8 8 8 5 0 8 , 1 & % % % # # % - q q i g c M Z Z F G K ! ' ` ` ` ` ` ` ` ` ] ` Q L K ' i.].].;.' ' ! ! ! ! ! ^ ^ E E E E E Y Y K H G S M m p i l 3 $ @ $ = > 5 0 0 9 9 9 0 0 0 9 9 9 0 0 7 e e 0 a n k p H Q ! ~ ~ ~ ~ ~ ` ` ` ` ` ` ` ` ] ] ] ] ] ] ] ] } } ` E Q ~ ` ~ ] ] } } } } } } W b b v b Z Z Z Z Z S Z F G G H K K K H F G L G G G H L H L H H G G G H H H H Z G H H H H G G G F F F S S S F G Z A A Z Z Z Z Z A A Z Z Z Z F G F G G L G G G L H H H H H H H H H H G G G G G G G G G G K H G G H H H L G G F F F F F F H H Y Y Y Y Y Y Y Y Y Y K K K K K K Y Y Y K H K Y K K K K K K K K K K K K L L F F F A Z A A A A Z Z Z Z Z Z S Z Z Z Z Z Z Z Z Z Z Z F Z Z Y Y Y Y K K K Y Y K L H H H H H G G G G A Z Z Z Z Z Z C Z C b m b n n n n V F ! ` ]  . . .} } } ] ] ` ` _ ` ] ~ Q ! ` ~ ~ ~ ~ ` ~ ` ` ~ ~ ~ ~ ` ` ~ ! ^ ^ ~ ~ E m x n a e e t e e e e e e e e q 0 0 9 9 0 0 6 , @ X o ; p k g z b Z Z F G G H K K K K Y Y Y Y Y T T E E E W ! ! T H F S G K E ! ! ^ ^ Q Q Q E Y K H F Z Z M c c h i 9 1 & # # $ # # # % - < 8 5 5 5 5 5 5 5 ; ",
"5 5 5 8 5 5 5 5 9 9 8 < & % % % % # + # 5 q i p c M Z Z F G E ` ` ` ` ` ` ` ` ` ` [ ] ` Q E K #.c.T.;.' ^ ^ ^ ! E E ^ ^ Q ^ Q Q Y Y K H D Z M c g i k 5 $ O @ & , 6 0 0 9 0 9 9 0 0 0 0 9 9 0 0 0 u u p n G S n F ^ ~ ' ` ` ` ` ] ] ] ] ] ] ] ] ] ] ] ] ] } } } } } ` Q } ` ` ` } } } } } } } } ~ b z z v v v v v v m m b n n V V V V V b b V V C Z Z Z A A Z Z Z Z V V M M M h b M Z Z Z Z Z Z Z Z Z Z N Z S S S Z Z Z n Z Z Z Z Z Z Z Z A G G G G H K L L L K K K K K K K K K F F F F F F F F S S S S S S S Z Z Z Z Z Z Z Z Z Z Z Z Z Z D F G G G G G H H H H G F G G G G K K K G G H K K H H G G H G G G K K K K L G F F Z Z Z Z Z Z A A Z C V V V V b b b b b b b b b C Z z b A F F A F F F F F Z A Z Z Z b n Z Z Z Z Z V b b b b b b b b z z z k k n V S H ~ ` ]  .} } } } } ] ] ` ^ '  .+.` Q !  .} } } }  .}  .} } } } } } } ` ` ` ` ~ ~ S v Z G n k t t e e e e e e e e q q q 0 0 9 q q 9 , $ o @ , a h k z b Z F G G H K K K K K Y Y Y Y T T Y Y E ^ ' ! E K F Z G Y E W W Q Q Q Q Q E Q Y H G S Z M b c k r > # # * # # # # $ > 3 8 5 5 5 5 5 5 5 5 5 ",
"9 9 5 3 5 5 5 5 4 5 9 8 - & $ % $ # + + @ 6 p i c M Z Z F Y ! ` ` ` ` ` ` ` ` ` ` [ ] ` _ _ E ' +.;.#.^ ^ ^ Q Q E E ^ ^ Q E Q Q Y K H G Z M c h i k 6 % @ @ % < 8 0 9 6 0 0 0 0 0 q 0 0 9 9 0 0 u u g n K G H K F ~ ` ' ` ` ` ` ] ] } ] } } } }  .} } } } } } } } } } ~ } ` ` } } } } } ] ] ] ] ] F p d d d d a d d k k k k x v v v v v k k v z c b b b l l b c x x c c z c k 0 k z b b b b n n n n n n N Z Z S Z Z Z Z Z Z F H F F F F G G G G F G G G G G G L H H H H H H H H G G G G G G G G G G H H G F S S S Z Z Z Z Z Z Z Z Z Z Z Z Z S S F F F F G G G F F Z Z Z F G G G K G F G H H H H Y Y Y Y E E E E E E Y Y Y K H G F F F F F A Z Z Z Z Z Z Z Z Z Z Z Z Z Z C A Z d k C Z Z Z Z Z Z Z Z V V Z Z v s s k v b n Z V b b b v z z z z k k a s u x V G Y ~ ` ]  .} } } } ] ] ] ` ` ` ]  ...' Q ` } } } } } } } }  .} } } } } ` ` } ` Q E v Z F H G n k s u u u e e e e e q q q q 0 0 0 r e e 3 = o $ 2 p k k z b Z F G G K K K K K Y Y Y Y Y Y Y Y Y E ` _ ! E Y K Y ^ ` Q Q Q Q Q Q Q Q ! Y H G S Z Z M m h 5 + # # * # # # # & 8 9 8 8 5 5 5 5 5 3 5 9 ",
"8 5 5 5 5 5 5 5 5 5 5 6 9 > $ @ $ $ $ $ X & 9 p g c Z Z H E ` ] ] ] ] ` ] ] ] ] [ [ [ [ ` ` ` ` } ] ] ` ! ! ! Q E E Q Q E E E Y Y H H F Z b a g h 6 & @ + $ > 6 0 0 9 9 9 0 0 q e e 0 0 0 0 e u u a n E Y Y Y Y K Y ` ` } } ] ] ] ] ] ]  . . . .} } } }  . . . . .} } ` ] ] ` ] ` ` ` ` ` ` ` ] ] ` K F F F F F G G G G G G F F Z n Z Y G z a k k k k g h h h h h p p h g h g e 7 p k z c c c c k x k k b b m m x x x k v v v v m v v v x v b n Z Z Z Z Z Z F F G G G G G F A Z Z Z Z Z Z Z D D F F F F F Z A Z Z A A A M A A Z Z Z Z Z Z Z Z Z Z Z Z Z Z Z Z Z A A A A A Z Z Z Z Z Z Z S S F F F F F F F F F F G G H H G G G G F F Z Z Z Z Z Z A A A A M M M M M M M M Z Z z t a z b Z Z Z Z Z Z Z V V b b k e r 0 e a Y W W H I I I Y Y Y Y Y Y K K K Y E E Q _ ` ] [ [ [ [ [ ] ] ] ] ` ] ] ] [ [  . . . .[ [ [  . . .] ` } }  .] ] ` ` } E F S H K Y Y H Z a i i u u e e e e e e e e 0 0 0 0 9 9 9 6 = @ $ 2 p k k b b C A F G H K K K K K K E K E E Y Y E Q ` ~ E Y Q ! ' ' ! ~ ! ^ ^ Q Q ^ Q Y H G F Z Z M M 5 + + + % # + O # 1 8 9 9 5 5 5 5 5 5 5 5 5 5 ",
"5 5 5 5 5 5 5 5 5 5 5 6 q 9 > $ @ $ $ $ . X % q h k x m G E ` [ ] ] ] ] ] ] ] [  . .[ [  . . . . .} ] ` ! ! Q Q E E Q Q E Y Y K H H F Z b p a k 6 $ O @ $ ; 6 0 0 9 9 0 q q q r e e 0 0 0 u u 0 a n K ~ E E E E E K E ] ] }  . . . . . . . . . . . . . . . . . . .] ` ` ` ` ` ` ` ` ` ` ` ` ` ` ` ] ] ] ! ! ! ^ Q E E E Y Y K K G F H ! ~ Z m z i i i i r r r r t r r i i g x g 6 r p p h h h h g g g g h h h h a d d d k k k k k a a a a a k z b b b b b b C C Z Z Z Z C C C b M M M M M b b b b b b b Z C b b b b b b b b M M M M M M b n n n M M M M b b b n b b b b M M M M b b b b m m b b b b b b b b b b M Z Z Z Z Z Z Z V V Z Z b b b b b b b b b b M b b b b b b c i 6 p k b b b b b b b b b v k d s a p r e k Y ! W Y Y T T W E E ! ! E E E E E Q ^ ^ ! ` ` ] ] ] ] ] ] ] ] _ _ ` ] ]  . . . . . . . . . . . . .} ] ` ] ] ] ` ] ~ G H Q E E Q E Y H n p u u s e e e e e e e e 0 0 0 0 9 9 9 6 6 ; @ $ , t k k z b C A F H K K K K K K E Y E E Y Y Y E ! ! ! E ! ! ' ' ! ' ^ ^ ^ E E ^ E K G F F Z Z b 9 & + $ $ $ # . # = 5 0 9 8 5 5 5 5 5 5 5 5 5 5 ",
"5 5 5 5 5 5 5 5 5 5 5 5 9 e 9 > # @ $ $ # X O ; u a a k Z G ! ` ] ] ` `  . . . . . . . . . . . . .[ ` _ ! Q E E E E E Q Y Y K K H F M m p a k 3 % . O $ ; 5 9 9 9 9 0 0 q q q q i i e q 0 e u i n K ! ~ Q Q Q Q ` Y K ` ` ` ]  .] ] ] ] ] ] } }  . . .[ [ ` ` ` [ ` ` ' ` ` ` ` ' ' ' ' ' ' ' ' _ ] [ ` ` ` ` ` ! ! ! ! E E Y Y Y F G T W D Z b e e e e e e e e r 0 0 e i k b k 6 9 r e e e r r i i i i i i i i i i i i p p p i i i i u e u i p a h g k p h h k h h h h h h g g h h h h h g g h h h h h k k k k k g g g g h g h g g g g h k h h k k k k g g g g h k k k k k k h g g g g p p p p a p a a g g g g k k z c g g g k k k z z k k k k k h h h h g g g h h g g h a 0 7 i a k k k z z z k k d d p u u a g p a n Y E T K F H K Y Y Y E E E E Q Q Q Q ^ ^ ! ! _ ` ` ` ` ` _ ! ~ ! ! ! ` `  . . . . . . .[ [ [ [ [ } ` ] ` ` ] ` ` ^ G F Q  .` ! E E ! E H b i e i e e e e e e e e 0 0 0 0 0 0 9 6 e 6 = o @ 2 i h d z b C Z G H H K K K K Y Y Y E E E E E T W ! ~ ` ` ' ' ~ ~ ! ^ ^ E E ^ Y H F Z F Z b p = @ # # # + + + 1 5 0 q 5 5 5 5 5 5 5 5 5 5 5 5 ",
"5 5 5 5 5 5 5 5 5 5 5 5 5 e i 0 = # # $ $ o O + > 0 p h k V K E ] ] ` `  . . . . . . . . . . . . .` ` ! E E E E E E E Q Y K K H F Z m k p h 2 % + O $ > 3 6 9 9 9 9 0 0 q q q q i i u e e 0 i m E ~ ~ Q ~ ~ ~ ~  ._ G K G H Y E ! ! ! ! ] ] ] ] [ [ [ [ ` ` ` ` ` ] ` ` _ _ _ _ _ _ _ _ _ _ _ _ ! E ` Q ! _ _ ~ ! ! ! ! ! ! E E E G S F F b b c e e e e e e e e r 0 0 e i g k g 8 4 0 0 9 9 0 0 0 0 0 0 e e e r e e e e 0 0 0 0 q q 0 0 9 9 0 q e e r r e e r r r e t t e t r p p p i i r r r r p i i i p p p p i i i i i i p p p p p p p p p p p p p p p p p p p p p p p p i i i i i i e e r r e e r r r r i r r i p p i i i i p i r r r r r r i i i i r r r r r r r r r 0 2 2 e p a a p p s s p p p p e e e e p p k F K K K G Z F K Y Y E E E ^ ^ ^ ^ ^ ^ ^ ^ Q ! _ _ _ _ ! ! ! Q ! Q ! ! ` ` ` ` ` ] ` ` ` ` ` ` ` ` ] ! H S Y W ~ ~ F V F }  .| ~ E W ~ ~ E Y x e e e e e e e e e e 0 0 0 0 0 0 9 6 6 6 2 = O @ 2 p d d z b Z G G H H K K K Y Y Y Y E E E E Y T ! ~ ` ` ' ' ~ ~ ^ ^ Q E E Q K F S Z Z b g ; $ $ # + + . + & 8 0 q 9 5 5 5 5 5 5 5 5 5 5 5 5 ",
"5 5 5 5 5 5 5 5 8 8 6 6 6 9 0 r 0 > # o @ + . . + & 5 p k k M Y ! ] ] ] } }  . . . . . . . .[ [ ' _ ! ! ^ ^ E E E E E Y K H G F Z b h p k 6 = + O % > 6 9 9 9 9 9 0 0 q e u u u p r i i 0 u S E ~ ~ ~ ~ ! ` }  . .] Y Z V v v F G F G Q ` ` ` ] ] ] ` ` ` ` _ _ _ _ ` ` ! ! ! ! ! ! ! ! ! ! ! Q E ! _ _ _ ! ! ! Q ^ ^ ^ ^ Y K G F Z Z Z b a a u e 7 7 6 e e e e t r 9 6 q r i i 6 , 9 0 9 5 5 6 9 8 8 8 9 9 9 9 8 8 8 8 9 8 8 8 8 8 8 8 8 8 8 9 9 9 9 9 0 0 0 0 0 e e e e 9 9 9 r r r r q q q r r r r r e e e e r r r r r r r r r r r r i i i i i i i i i i r r t i g h h g i t e e e e 0 0 0 0 0 0 0 0 e e e e e e e e r r r r e e e e e e e e 0 0 0 0 e 0 0 0 0 0 0 0 0 0 2 2 0 0 r i i 5 0 r t r r t r r e e r 0 z Z Z F F A Z G K Y E E Q ^ ! ! ! ^ ^ Q E E E E E E E E E E E E E E E E E ! ! ! ! ! ! ! ! ! _ _ _ _ ` Y a k z F K F b V E } }  .] ! ! ! ~ ~ Q H x e e e u u u e e e e 0 0 0 0 0 0 9 6 6 6 6 = O @ ; k k a a n Z F G H K Y Y Y Y Y Y Y Y E E Y Y Y ^ ! ! ~ ~ ' ~ ! ^ ! E K K F F S Z b 0 > - + @ + . . . & 5 q 0 0 8 9 5 5 5 5 5 5 5 5 5 5 5 ",
"5 5 5 5 5 5 5 5 8 8 6 8 9 q i i i 9 - @ O @ + . . . ; g h g c D E ` ] ] } } } }  . . . . .[ [ [ _ ! ! Q ^ ^ Q Q E E Y K K G S Z c p g h 6 & O O % > 5 9 9 9 8 9 9 0 q q u i i i r i i e s M Q ~ ~ ~ ~ ~ ~ ` ] }  .` K F G b Z E F v V E ' ' ' ` ` ` _ ! ! ! ! E ! ! E T Y Y Y Y Y Y Y Y Y Y Y Y Y Y E E ! ! ! _ ! E K K V b k k Z n Z S b p i e e e 7 7 e e e 0 r r 6 5 9 0 q 0 5 > 6 0 9 9 9 5 8 8 8 9 9 9 9 9 8 8 8 8 8 8 8 8 5 5 5 5 8 8 8 8 9 9 9 9 9 9 9 9 9 9 9 9 8 8 9 9 9 9 0 0 0 0 0 0 0 0 0 0 0 0 0 0 0 0 0 0 9 0 0 0 0 0 0 0 0 0 0 0 0 0 0 0 0 0 0 0 0 e r t t r e e 0 0 9 9 9 9 9 9 0 0 0 0 0 0 0 0 0 0 0 0 0 0 0 0 0 0 0 0 e e 9 9 9 9 9 9 9 9 9 9 9 9 9 9 9 6 , , 0 0 e r r 5 0 r r r e e e e q q r e k Z Z F A C G V C F E Q ^ ~ ` ' ' ! E E K K H G G G H H H H K H K H Y T W W W W W ! W E ! W ! ! ! ! T V p m F Z V V V F E ' } } } ~ ~ ! ! ~ ] ! K m s u u u u e e e u e 0 0 0 0 0 0 6 6 6 6 9 = X o 2 r g k c m Z F H H K Y K Y Y Y Y Y Y Y Y Y Y Y Q ! ^ ! ~ ~ ^ ^ ! ^ E K L F V d 6 ; & $ @ + . . . % 8 8 0 0 r i 9 5 5 5 5 5 5 5 5 5 5 5 ",
"5 5 8 8 5 5 5 5 8 8 6 6 r g h g i r 9 - @ O + + * * & q q i k Z H ! ] ] } } } } }  . . .[ ` ` ` ! Q Q Q ^ ^ ^ ^ E T K K G Z n m p a k 6 = O o = , 5 6 9 9 9 8 9 0 q q q u i u i g i e u n Q ] ~ ~ ~ ~ ~ ] ] ] ] ` E K G F Z Y E Z V G Y E E E ! W W T T T Y Y Y Y K G F G G G G G G G G G G H G G H K K E ! _ _ ] ` _ ^ Z v d p x x n S b p t 7 e e e 7 0 0 0 0 0 q 5 < 5 9 9 0 5 ; 5 0 8 9 6 6 9 8 8 8 8 8 8 9 8 8 9 9 9 9 9 9 8 8 9 9 9 9 9 9 8 8 8 9 9 9 8 8 8 6 5 6 9 8 9 9 9 9 9 9 9 9 9 9 9 9 9 9 9 9 9 9 9 9 9 9 0 0 0 0 0 0 0 0 0 0 0 0 0 0 0 0 0 0 0 0 0 0 0 0 0 0 0 0 0 0 0 0 0 0 0 0 0 9 0 0 0 0 0 0 9 9 9 9 0 0 0 0 9 9 9 9 e e e e 9 9 9 9 9 9 9 9 9 9 9 9 9 6 > > 6 6 6 7 7 2 0 e e e 0 0 0 0 0 0 e e x V V F V z k p k Z W ! ! ` ` ` ' ! K H H G Z V n b Z Z Z Z Z Z A Z F H Y T T T T T E T E E T T T W T Z g m K Y G b V G E ^ } }  .] ] ~ ! ! ` ` ~ E m s s s u u u u u u e 0 0 0 0 0 6 6 6 6 q 3 & O o > i k g k b Z F H H K Y Y Y Y Y Y Y Y Y Y Y Y E E ^ ^ ~ ~ ' ' ' ^ E K H S d ; @ - - $ + O . + % 9 q q r i g h 0 9 5 5 5 5 5 5 5 5 5 5 ",
"5 5 8 8 5 5 5 5 8 8 6 6 i k c k g i r 9 - @ O + $ & - : = 5 g S F E ~ ] } } } ] } }  . .` ` ` ' ! Q Q Q ^ ^ ^ ^ T K K L Z n x a g g 5 - @ o = 5 8 9 9 9 9 9 9 8 0 q q q u i u u p i u m Q ~ Q ~ ~ ~ ~ ~ ] ] ] ] ! Y H K H Y E k V K K G Y Y Y Y T T Y Y I H H G G F Z n Z Z Z Z Z Z S S S S S S S F G G Y E _ _ ] ] ] ] E G V k a k b F Z a i 0 t e e e 0 0 0 0 9 0 5 > 5 6 9 7 5 - 2 0 6 6 6 6 9 9 8 9 9 9 9 9 9 9 9 9 9 9 9 6 9 7 7 7 7 7 7 7 6 9 9 9 9 9 9 9 6 6 6 6 9 9 8 9 9 9 9 9 9 9 9 9 9 9 9 9 0 0 0 0 9 9 9 9 0 0 0 0 e e e e e e e e 0 0 0 0 0 0 0 0 0 0 0 0 0 0 0 0 9 9 9 9 0 0 0 0 0 0 0 0 0 0 0 0 9 9 9 9 9 9 0 0 e e e e e e e e 0 9 9 0 0 9 9 9 0 0 0 0 7 6 2 2 6 6 6 6 5 2 0 0 e 0 0 7 7 9 9 9 0 e v V V F C d b b A T ! ~ ` ` ] ` ` ! G F F F F S Z Z n V V V C M C M C A A H H H H H L H L L L I I Y H G Z Z F K G V V G E Q ~ } } } } ] ~ ! ! ~ ` ~ K n a s u u u u u u e e 0 0 0 0 6 6 6 6 5 0 5 $ O @ , i g g c M Z F G H K Y Y Y Y Y Y Y Y Y Y Y E E ^ ~ ' ' ` ` ` ! E E E F s % @ ; ; @ O O + % 6 0 i i g g h h i 9 6 5 5 5 5 5 5 5 5 5 ",
"8 8 8 8 8 8 5 5 9 9 0 g l c c c k h h i r ; $ + + + + + : u m S G Y ! ] ] ]  . .} }  .} ] ` ! Q ! ! ! ^ ^ E Q E Q K G A Z b p k h 5 & + X & 3 0 0 0 0 0 0 0 0 0 e e e e u u i i u s b E ~ ~ Q Q ! ! ! ` ` ` ` Q E K H H E E H Z F F F F G H H Y T E W W W W E E Y H G S G G G G H H H H H K K K K K K K Y E ' ` ` ` ` ` ! Y G Z z k z b b z p e 0 e e 0 0 0 0 0 9 0 9 , < 3 8 8 6 ; , 9 9 0 0 0 9 0 0 0 0 0 0 0 0 0 0 0 0 0 0 0 0 0 0 0 0 0 0 0 0 0 0 0 e e e e 0 0 0 0 0 0 0 0 0 0 0 0 0 0 0 0 0 0 0 0 e e e e r r e e e e e e r u u u e e e r e r r r r r r r r r r r r r r r r r r r i i i i i r i i i i i i r r r r r r r r r r r r r r r r e q q q q 0 0 0 0 0 0 0 q 9 ; < 0 9 6 6 6 9 0 q 0 0 9 9 9 9 9 9 e t x n Z V d z b Z F Y _ _ ~ ~ ` ! W T G G G G G G G G G G G G G F F F Y Y Y Y Y Y Y Y Y Y Y Y Y K H G G G G G Z n n m V S G E E ~ ] } o. .] ! ~ ~ ~ ~ ` ! n s e e e u u e u e e 0 0 0 0 7 7 7 0 0 e 6 @ o $ > p c l h M A D G H Y Y Y Y Y Y Y Y Y Y Y E E ^ ^ ! _ ` ] _ ! E E K G v 7 = @ % % @ @ - 9 0 r i g h l b b l i 0 6 5 3 5 5 5 5 5 5 ",
"8 8 8 8 8 8 5 5 9 0 g b b b b b b c c h i i > $ + O O % u c G G H Y W ~ ] ] ]  .} } } ] ` ` ! Q ! ! ! ! E E Q T K L A A l p h h 5 = + @ $ > 6 0 0 6 0 0 0 0 0 0 e e e u u i s i s n E ^ ~ ~ ~ ~ ` ` ] } ] ` ! Y E K H K G G S n S S S S F F G H Y Y E E E Y Y K Y H G S G G G H H H H H H H K K K K K K T E Q ` ] ] ] ] E Y F Z b k k z b k r 0 6 0 0 6 0 0 0 0 0 r 0 5 3 5 8 8 9 2 5 q r r r r r r e r e e e e e e e e r r r r r r r r r r r r u u u u i i i i t r r r u u u u r r r r r r r r i i i i i i i i i i i i i i i i p p p p p p p p i i i i i i i i p p p p i i i i i i i i p p p p g g g g p p p p p p p p p p p p i p i i p p p p i i i i i i r r r r r r r q 2 5 q q q q 0 0 0 q r r 0 0 9 9 9 0 6 e k m b z s V Z F K W ` ` ` ` ] ~ W T H G H H G G G G G G G G G G G G Y Y Y Y Y Y Y Y Y Y Y Y H H G F F F F F Z Z n n n V S G Y E ~ ] ] ] ` ! ~ ~ ~ ` ` [ ' n p e u u e e u e e e 0 0 7 7 7 7 9 0 0 e 5 % O @ > r h k l M Z D G H Y Y Y Y Y T Y Y Y Y E E Q ^ _ ` ` ` ! ! E E K G Z x e : @ $ $ , 0 0 q p k b M M M M M l g e 6 5 3 3 5 5 5 5 ",
"8 8 8 8 6 6 6 6 e g b M Z Z Z Z Z M M c k k a ; O @ ; u n Z F H Y W ! ! ] ] ] ]  . . .] ` ! ! ! ! ! ! ! E E E K G A A b h k h 6 & + + $ , 5 9 6 6 0 9 0 0 0 e 0 e e u u u i i a n E ~ ! ~ ~ ~ ~ ] ] } } ] _ E K Y H H Y H F S S Z Z Z Z D F D G G H Y Y H H G F G F Z Z S S S S F F F F F F G G G G L G K K K T ! ! ! ! Y L F Z b p i p p r e 0 6 0 0 6 0 0 0 0 0 0 0 8 8 0 0 0 9 5 9 q q q q q r r r r r r r r r r r r r r r r i i i i i i i i i i i i i i i i i i i i i i i i i i i i i i i i p p p p p p p p p p p p p p p p p p p p a a a a g g g g g g g g h g g g p p p p p p p p p p p p p p p p p p p p i i i i i i i i p p p p p p p p i i i i i i i i r r r r q 0 6 5 q q q q q q 0 9 i r 0 9 0 0 0 0 7 0 a k p 7 e Z F G H E _ _ _ ~ ! W T Y F D F F S S S S S S S S S S S F G G G G G G G G G G G G F F A Z Z Z Z Z Z n n b n n Z Z G Y E ~ ! ` ` ! ~ ~ ~ ` ` _ [ ! m i u i u u u e e e e 0 7 7 7 6 9 6 0 0 e 3 % @ + > e h k l b Z F G H Y Y Y T Y Y Y Y Y Y E E Q _ _ ! ! ! ! E E Y G Z Z Z e = @ 5 i g e g c M Z M M M M M M b h q 6 5 3 5 5 5 5 ",
"w 8 8 8 6 6 6 6 g b M M Z Z Z Z F A Z M b b z t : 3 a n n x Z E ! ] ] ! ~ ] ] ]  . .] ` ! ! ! ! ! ! ! ! E E Y H A A b h h l 9 = + @ $ = 6 6 6 6 6 0 9 0 0 0 e 0 e e u u u u a b Q ~ ~ ~ ~ Q ~ ~ ` ` ` ` ` E Y Y Y H Y H S n n Z Z Z Z Z A D F F G G H H F F F S S Z n b Z Z Z Z Z Z Z A Z Z Z Z F F F F A G G F K K K K L H F Z b t 7 0 6 6 6 6 5 0 0 5 0 0 0 0 9 9 8 3 9 0 0 5 5 5 6 6 9 9 9 9 9 9 9 9 9 9 9 9 0 0 0 0 0 0 0 0 0 0 0 0 0 0 0 0 0 0 0 0 e e e e 0 0 0 0 0 0 0 0 r r r r r r r r e e e e r r r r r r r r i i i i i i i i i i i i i i i i i i i i p p i i p p p p p p p p u u u u r r r r r r r r r r r r r r r r r r r r r r r r q q q q i r e r q q q q 9 9 8 3 9 9 q q q 0 9 9 i q 9 5 0 0 0 0 6 5 0 0 2 - i b Z Z Z G E E E E Y I H F M b M M n n M M n n Z Z Z Z Z Z Z Z Z Z Z S S S S S S S Z Z Z Z Z Z Z Z m m x x n n n Z Z G Y E ! ` ` ` ~ ~ ~ ` ! ` ` ` I m p i u u u u e e e e 7 7 7 7 6 6 9 0 9 e 6 = + @ ; r g k k M Z F G H K Y Y Y Y Y Y Y Y Y E E ^ E E E ! ! E E E G Z Z b z t 2 g p p b b M M Z Z Z Z Z M Z Z M g q 6 5 5 5 5 5 ",
"8 8 8 8 8 6 i m Z S D S F F F F F F F F H Z b z p x n v d k Z E W ] ] ` W W ! ] ] ` _ ! ! ! ! ! ! ! ! E T Y G Z A b h k l 8 - $ $ & ; 5 9 9 9 9 0 9 0 0 0 0 e e r r u i u a V E ~ ~ ~ ~ E ! ~ Q ! ! ! ! W E Y H H G S Z b x b M Z Z Z Z Z Z D F D Z G F Z Z M M M M b b b b b b b b b b b b b b b b v z b b b b M Z Z Z D Z Z Z b p ; > 2 2 2 6 9 9 0 5 5 9 6 3 3 5 5 3 5 6 6 2 5 5 6 6 6 6 6 6 9 9 9 9 9 9 9 9 0 0 0 0 0 0 0 0 0 0 0 0 0 0 0 0 0 0 0 0 0 0 0 0 0 0 0 0 0 0 0 0 0 0 e e e e e e 0 0 0 0 e e e e e e e e e e 0 0 e 6 0 u i i i i i i i i i i i i p p i i i i i i u u u u e e e e r r r r r r r r e e e e e e e e e e e e 0 0 0 0 0 0 0 0 0 0 0 0 e 0 0 0 0 0 6 > 5 5 6 9 q 0 6 6 9 6 3 < 5 6 7 0 5 3 3 5 2 = e b M n n n F Z Z b c b M b k k k k z z z z z z z z z z z z k b M b M M M M M M n n x n Z Z Z Z Z Z b b z k k k x b Z H K Y E ~ ~ E ` ` ` ` ` ` ` ` } Y n p s i u e e e e e e 0 0 7 0 0 0 0 0 0 0 5 & @ + ; p h h c M Z F G H I Y Y Y Y Y Y Y Y Y E E Y K Y ! W W W T H Z n n m b k k l M A A A S S Z Z Z Z A A D F M g 0 5 3 5 5 6 ",
"5 3 3 3 9 i c N S S S G G G G G G G G G H F F Z x d x a a a n K E _ ` ! W W W ! ! ! ! ! ! ! ! ! ! ! E E Y K F Z b g h k 4 = # # & 1 5 9 9 9 9 9 0 0 0 0 0 0 e r r r i i a n E ` ` ` ` ` ! ~ ~ Q ! ! ! ! W E Y F Z Z b c z z c b M M Z Z Z Z D F M b b b z k k k k k a a u u t r r t t t t t t r r e e 0 0 p k k g k k k c c c z l p > 2 2 2 6 0 e 0 e 5 5 6 5 2 5 8 8 3 5 6 5 5 6 6 0 0 0 0 0 0 0 0 0 0 0 0 0 0 0 0 0 0 0 0 0 0 e e e e e e e e e e e e e e e e e e e e e e e e e e r r r r r r r r r r r r i i e e e e r r e e u 0 e i i i i i i i i i i i i i p p i i i i i i i i i i i r r i i i i i i i i i r r r r r r r r r r r r e e e e q q q q q q q q e e 0 0 0 0 9 3 5 5 6 9 q 0 9 6 9 9 6 5 6 9 9 0 0 9 5 5 3 > t k k k k k k k c k a g k k i i i i p p u u p p p p p p p p p a k g p p a a p a a g x n Z Z Z Z Z V b b z k a a k x m Z F H Y H H Y ! ` ` ` ` ` ` ` ] ~ I n u u u u u e e e e e e 0 0 0 0 0 0 0 0 0 9 = + @ ; r h k b M Z F G H I Y Y Y Y Y Y Y E Y E Y Y Y E E E E T G Z m x k b c v C A A F F F F F F F D D A F D G Z l i 5 3 5 6 ",
"8 3 5 9 i c N N H K H F H H H H H H H U U Y Y Y G v a p p p v F Y E W E T E E E E ^ ! ! ! ! ! ! ! E E Y K F Z b h h h 4 % # o $ 1 5 9 9 9 9 9 0 0 0 0 0 0 0 e r r i i p n Y ~ ` ` ` ` ` ~ ` ~ E E E E E T Y Z b z k g k k l b b b b Z Z Z Z D F M k k g a p p p p p r e 6 6 6 6 9 9 9 0 0 0 9 9 9 6 5 5 6 i p h p i i i i i p p h i 2 2 6 6 0 e i r r 6 6 9 6 3 0 0 0 5 6 6 6 9 0 0 0 e e e e e e e e e e e e e e e e e u t t t i i i i u u u u u u u u e e e e e e e e u u u e e u u i i i i i i i i i i i i i i i i i i i u e i 0 u p p p p p p p p p i i i i s s i i p p p p p p p p i i i i i i i i i i i i i i i i i i i i i i i i r r r r u u u u e e e e u e e 0 0 e e 6 7 6 7 0 e q q 0 q q q 9 9 0 0 0 e e 0 9 9 5 e p t t t t e t a p i p g p e 0 e e e e e e t t t r r r r r r i p i r r r r q r i p b C Z Z Z Z Z b c c c z a p p a z b n F H Z Z H Q ` ` ` ` ` ` ` ~ / ` E x p s i i u e e e e e e 0 0 0 0 0 0 0 0 i 5 & O O ; u h z b M Z F G H Y Y Y K K E Y E E E E Y K Y Y Y E T H Z k d t k b A A D G G G G H G G H H A D F H I U D c r 5 5 6 ",
"8 3 9 i n S S S P ^ E F H H H H I I I H E T T Y ! S e d d p v Z G Y T Y L Y E T E E ! ! ! ! ^ ^ E E Y K G Z b z k h 4 = # o $ , 5 9 9 9 9 9 9 0 0 0 0 0 0 0 e r i i p k Y ~ ~ ` ` ` ` ` ] ] ~ E K K K K K F b a i t p a z b M b b b M Z Z Z D F Z z k g a a p p p p i r 0 0 0 0 9 9 9 0 0 0 9 9 r e e 0 0 r r 0 i r 0 0 0 0 e r i i 3 3 6 6 0 r g p i 6 0 e 0 6 r i r 9 9 0 0 e e e r r r r u u i i i i i i i i i i i i p p p p a a a a p p p p i i i i i i i i i i i i i i i i i i p p p p p p p p p p p p p p g g g g p p i i p e i a p p p p g g g g p p p p a s s s a a p a p p p p p p p p p p p p g p p p p p p p p p p p i i i i i i i i i i i i i i i i i i e e e e u 0 e 0 0 e u u u u q q q q q q q e r r r e 0 0 e e e e e e t i a t e p p p 7 7 0 0 i i i i i i i i i i i i i p p r i i i i r i p g b C Z Z Z Z b b z c c c k i e t k k c M F Z Z S Y ~ ` ` ` ` ` ` ] ] ] ~ Y x a i i i u e e e e e 0 0 0 0 0 0 0 0 q i 6 $   O ; p k z b M Z F H H Y Y K K K K Y Y Y Y L G G H K Y Y H n k p y d C F G U U H H H H I H I I F F H Y U U G D l r 9 5 ",
"6 6 u n Z Z S J E ' ~ Y Y H Y T Y Y Y Y E E Q ^ Q T k Z Z b b S G K K G F K E Y E E ! ! ! W Q E T Y K K S c g g c 3 $ $ + % , 9 9 0 0 9 0 0 0 0 0 0 0 0 e e e t p s m T ~ ] ] ` ` ` [  . .] ! Y F G H H F v s e 6 e i g M Z M b i b M Z Z Z D F Z k u u p i i r r r r e e e e e e e e e e e e e i i 0 0 0 0 0 0 0 0 0 0 0 0 0 0 0 0 0 0 0 0 0 0 t e 4 9 8 9 e 9 r q 0 0 9 e u u e e e e e e e e u u u u i i s s p p p p a a a a a a a a a a a a a s p s s s p a s s p p p p a a a a a a a a g g a a a a a a a a a a a a a a p p p 7 u p a a a a a a a a a a a s p p p p h k k k p p p p p p p p p p p p p p p p i i i i i i i i i i i i i i i i i i i i i i i i i i i i i u u u u e 0 0 e e e u e 0 e i i 0 7 0 u u u e e e e e e e e e t t 6 e 0 0 0 0 6 6 5 5 6 e i r e e e 0 0 0 0 0 e e e 0 0 0 0 0 q i i b b b M b Z Z b b n n n n c a e 6 t p a z b b Z Z K Q ` ` ' ' ` ` ` ` ] ] ` K n d a s s u r e e e 0 0 0 0 0 0 0 0 e r r 6 o X + > e k z z m Z S F G H K K H K E Y E T G n n n S Y H G Z V z p G Z G H Y Y H L L K K Y K Y W Y H Y I U H G F b i 6 ",
"0 g S Z S S F K Q ` ` ! E K Y E E E E E E Q Q Q Q E Z F Y K F F K G Z b x Z H K E E Q ! W W E T K K G F l g a i < % O @ % > 5 0 0 0 0 0 0 0 0 0 0 0 0 e e e u s s v Y ] } ] ` ` ` ` ] ] ] ! T H F F G G S k e 7 e t g c M Z M b i c b M Z Z D F Z d s p p i r e e e e 0 0 0 0 0 0 0 0 0 0 0 0 0 i p e 0 0 0 0 0 0 0 0 0 0 0 0 0 0 0 0 0 0 0 0 0 r 9 4 e e e e 0 9 9 6 6 0 e i i u u u u u u u u u u i i i i s s i i i i u u u p i i p p p i p p a p u s p p s s i i i i s s s s p p p i u i p p a a a a a a a a a a a a a a p p s 7 i p a a a a k k k k a a a p p p a a p p p s p p p p p p p p p p p p p p p p i i i i i i i i i i i i i i i i u e e e u u u u e u e e i i i i i i e e e e e e 0 9 0 e e 0 6 5 e e e e e e e e 0 e e e e e 2 6 0 7 0 7 0 0 7 6 6 0 r e 0 0 0 0 0 0 0 0 0 0 0 0 0 0 0 0 7 9 p M M M M Z Z Z M b n n n n b z p 0 6 e p d z b M Z G Y Q ~ ' ' ' ` ` ` ] ] [ ' K n f s s s r e e e 0 0 0 0 0 0 0 0 e e r r 9 $ O o = e k z z m Z S F G G H G K Y H Y H n a u s z n G G F Z F G K V G I Y Y Y Y Y Y Y Y Y Y ! E T Y Y Y I H H F b e ",
"k H G F F G K E ` ` ` ` ` T T ! ! ! ^ ^ ^ Q Q E Q L G Y E E H S m p e u s x S K Y T E W E E Y Y K F Z b a p r < $ O @ % , 5 9 9 0 0 0 0 0 0 0 0 e e e e e t s a v K ] } } ] ] } o. .` ' Q Y H G S S F Z b p 7 7 i g c b M Z M b i z c M Z Z D F S x d k k a p r r r e e r r e e e e e e e e e e i g i r r r r r e 0 0 e r r r r r r r r e e e e r e 8 r r t r 9 9 0 0 0 0 r i i p s p p p p p p p p p p a a a a a a a a a a a a a a a a k k k k c k k k g k k k g g k k h h h g k g g a a a k k k g g g g g g g g g g g g a a a i e a g h h h h k k k z z z z k g g g g g g g g k k k g k k k k k k k k k k k k h h h h h h h h g g g g g g g g p a p p a p a a p a p p p p p p p p p i u u u i r 0 0 e p p u 6 t t t t t t t t r e e e e e 5 0 e e e e u u e e i p p i i i i i p p p p p p p i i i i i e e k M Z Z Z A A Z M b b b n n n b k i y e t h a k b M Z G E ~ ~ ~ ` ` _ ] ` ] ` ` ` E n a i i u e e e e 0 0 0 0 0 0 0 0 0 0 e i 6 @ X X ; t g k z m Z Z S F G G H H F G Z a 6 6 e p a Z G G F Z L F Z H Y T T T T T Y Y T E W W ! W T Y Y Y I H Y F z ",
"W Y G G K K E ' ` ` ` ` ` ` ! ' ! ! ' ' ^ ^ E E K A G Y T ! E G z u u z m x m G Y Y T E E T Y K G Z b a p r , @ $ @ % > 9 0 9 8 6 0 0 0 0 0 e e e e e e t p p k E } } ` } o...+.+. .' ^ K H G F Z S S z k e e p g c b b M Z M b i k z M Z Z D F H n m b b c g p i i i i r r r r r r r r r r r r r p r r r r r r e 6 6 r i i i i r r i i i i i i p r e g p p t e 0 9 e e 0 i p s a p g g h g a a a a g g g g g g a a a a g g k k g g g g z z z z z k g k a a k k g g g g g g g g k k k g g g k k k k k k k k k k k k k k k k a a i e k k k k k k z z x x z z k k g g g g g g g g g g g g g g k k k k k k k k g g h h h h h h g g g g g g g g g g g g g g g g g g g g g g g g g g g g a p p p p p g p i p p g i 5 p p p p p a a p i i i i p p 6 e u u u i i i u e i g p i i i p p p p p p p p p i i i i i i g M b Z Z Z Z A Z M b n b n n n m z a p t t p p h l b n S K E ~ ` ` ` _ ` ] ] ` `  .` K m a s u e e e e 0 0 0 0 0 0 0 0 0 0 0 0 0 2 o X o ; 7 s k z m n Z Z S G H G Z Z Z m a e p s t z F G H G G A A I Y T T E E E E Y T W ! W ! ! T Y Y Y Y Y I H S ",
"W Y Y Y E ! ` ] ] ] ` ] ] ] ` ' ~ Q ! ] ` ^ E Y Y L L T W ! E H x i e p a c Z H Y Y Y Y Y K H G G b a p r < $ + @ $ > 5 9 9 9 9 0 0 0 0 e e e e e e e u t u z E o.} ] ` ] !  .:.+. .^ K K G F D Z Z b k e e i a c b b n M b b b c b c b Z Z Z F F S S F Z z p r p p p p i i i i i i i i i i i i r r r r i i i i r 6 6 r r i i i i i i i p p p p h p e p p p p e e i i i u s a a k k g h h h g a g g g g g g g g g g g g k k k k k k k k k k k k g g g g k k k k h h h h h h h h k k k k k k k k k k z z z z k k k k z z z k a a i 7 p g k k k k z z z z z k k k h h h h g g k k k k k k z z k k z z z z k k k k k k k k k k k k k h h h h h h g g g g g g g g g k k k g g g k k g g g g g a p p g e e g k g 7 7 p p p p p p p p p p p p p p 6 9 i i i i u i p p g g g g g g g g p p p p p p p p p p p p p M D M b Z F D M Z Z F m m n n M b b z k d p t p p j g b Z S Y W W ! ! ! ] ] ` ` ` ` ` ~ E V s s u e e e e 0 0 0 0 0 0 0 0 0 0 0 0 0 , @ O + ; 2 i k k b Z Z Z F F D Z Z S Z k p t e i k G Y H F F F F H H K T ! ! W E T W ! ! W W W W E E T Y Y Y Y K ",
"W E E Q _ ` ] ] ] ] ] ` ] ] ` ` ~ E ^  .` ' E E Y K Y Y E W E H c i 0 e e a b D T T Y H G G Z Z b a r 0 < & # + $ > 5 9 9 9 9 9 0 0 0 0 0 e e e i u e e u z Y }  .} ` ~ ! E [ -.+. .^ K G Z Z Z Z b k p e i a z b b M M M M b b b Z b b b Z Z S G F F H F x a p p p p p i i i i i i i i i i i i i i i i i i p p i 6 9 i i i p p p p p p p p g g h p e p h h p e i i p p s a a a k k g k h h k a g g g g g g g g g g g g k g k k k k k k k k k g k g g g k k k k h g g h h h h h k k k k k k k g k k z z z z k k k z z z z k a a i 7 p g k k k k z z z z z k k k h h h h g g k k k k k k z z z k z z z z k k k k k k k k k k k k k h h h h k h g g g g g g g g g k k k k g g k k g g g g g g p p g 0 e h k g 7 6 a a a p p p a a g g g g g h 0 0 i i i i i i p p g g g g g g g g p p p p p p p p p p p a c D G Z b M Z b c M F F b m m b M M b b b z d a p r r i k b n S G Y ! ] ~ ! W ! _ ` ' ` ~ ` K v p s u e e e e e 0 0 0 0 0 0 0 0 0 0 0 0 2 @ + @ = 3 r g b b M M M Z Z D Z n k p p t e p b G K L G G G G F K T ! ! ! W E W ! ! ! ! ! W W W W E E T Y Y Y ",
"! ! _ ] ] ] ] ] ] ] ] ] ] ` ` } ' ^ !  . .` ! E T Y Y Y Y W T Y Z a 0 e e p g b Y W Y G G G Z v i r e < & # # % > 5 8 8 8 9 9 9 0 0 0 0 0 e e e e e u i k Y o.}  .] ` ! E E '  . .` E F Z M b b c g p p p a z b b M M b M M Z Z H Y n x c b Z S G G H E H x a a p p p p p p p p p p p p p p p p i i i i p p p p p 0 0 p p p p p p p p p p g g g g p e p a a p e u p a p s a k k k k k k h h g a a a g g g g g g k k g g g g g g k k k k k k k k k k k k g g g g h h h h h h k k k k k k k k k k k k z z z k k k k k z z z k a a p 7 p g k k k k z k z z z k k k k h h h h h k k k k z z z z k k k k k k k k z z k k k k k k k k k k k k k k k k h g g g g g g g k k k k g k k k k k k k h h g g g e e g k k e 7 a a a p a a a a g g g g g g 0 0 p p p p p p a a a p p p p p p p g g g g p p p p p p p k Z G I G M Z b k z Z I Y F n b m b n n b b b z k p e e r p g c b M D Y ! / Y F G E ' ' ' ^ ~ ~ H m p u u r r e e e 0 0 0 0 0 0 0 e 0 0 0 0 2 @ @ = > 5 0 h k l b A Z Z A c a t t p i i g V H K K H H H H G T ~ _ ! ! W E W ! ! W ^ ^ W ! ! Q Q E E E E Y ",
"_ ' ` [ ] ] ] ] ] ] ] ` ` ` } } ` ' ' ! ] ] ` E ! Q E Y Y T T Y G z e e p p p h k Z F n b M z t 0 e 6 - # # & - 5 9 8 5 9 9 9 9 0 0 0 0 0 e e e 0 e i k E } ` } ] ] _ ^ ! E E ^ ` E G Z M b c c a i i a a z b b M Z b b M Z Z Z ! ~ F v z b n Z H H K ! E m g g p p p p p p p p g g p p p p p p p p p p p p p p p 0 0 p p p p p p p p p p g g g g p e p a a p e i a h a p a x x k k k k h g g a a a g g g g g g k k k k g g g g k k k k k k k k k k k k g g g g h h h h h h h h k k k k k k k k k k z z z k k k k k z z z k a a p 7 p g k k k k z k z z z z k k k h h k h h k k k k z z z z k k k k k k k z z z k k k k k k k k k k k k k k k k h g g g g g g g k k k k g g k k g k k k k k g g z p p z c k e 0 a a a a a a a a g g g g g g 0 e p p p p p p a a a a p p p p p p g g g g p p p p p p a b G I Y I D Z b a b G T E Y S V n b b n n C b b v a r e e e r a z c b N D Y Z Z F L Q ' ' ~ ~ } } H m p s i r r e e 0 0 0 0 0 0 e e e 0 0 0 9 2 @ = ; > 2 0 6 3 2 k c k k s t e i i i p z F K H Y H H H H Y ~ ` ! ! W E E ! ! W E ^ Q Q ^ ^ ! Q Q Q Q E E ",
"' ` ` ` ] ] ] ] ] ] ] ] ` ` ` ` ` ` ` ! ~ ] ] ] ` ~ E K Y Y E E Y F c p p h h h i p p p 5 2 < 5 6 < = $ $ & 1 3 8 6 6 9 0 0 9 9 0 0 0 0 e e i i r e x E ~ ! ~ ` ` ` ! ! ! Y K K T L A C b l k h p p a g z c b b b M M b Z Z F E } ] Y n x b M D H Y W ! ! Z p i a a g g p p p p p p p p p p p p p p p p p p p p a 0 0 p p p p p a a a a a a a a k p e p k k a t s k k k d k d d d k k k g g g g k k k g g k k k k k k k k k k k g g g h g g g g k k k k k k k k k k k k k k k k k k k k k k k k k k k k x z k k x x x x k x a a a e a a x k k k k k k k z z z z k x x x x z z z k z z z z k k k k k z z z k k k k k k k k k k k k k k k k k k k k k k k k k k k k k k k k k k k a k z x z z k z l p p c b b i 0 g g a a p a p p g g g g k g i r g h g h g g g g g g g g g a a a g g g g p p p p p p c D H Y Y Y S Z k x S I ! ! ] E F m n n n n b b b v l h p r e e i h g l m N n n G Z G L K T E E ^ ^ Q J m p i r e e e e 0 0 0 0 e e e e e 0 7 7 6 > @ $ - 3 5 ; ; , 6 9 0 9 i r p a p k b Z Z Z H Y Y Y T T W W W E E W E E E E ^ ^ ^ E ^ ^ Q Q Q Q Q Q Q E ",
"` ` ] ] ] ] ] ] ] ] ] ] ` ` ` ` ` ` ` ` ~ ` ] ] ] ] ! Y Y Y E ! Q Y F b g k k p e e e e 3 , < 5 , > - = & 1 3 8 6 6 0 9 9 0 9 9 0 0 0 0 e e u i e c I ~ } ~ Q Q ` ` ! E E Y Y Y G A Z b k k p i p a g z b m b b M M M M Z I ~ ..X.X.~ H m m Z F Y R ! ] ] G g g a a a g p p p p g g g g g g g g a a a a p p p p k u e p a a a a a a a a g g g g z a u a k k a u a k k k k k d k k k k k k k k k k k k k g g g g k k k k k k k k g g g g h h h h k k k k k k k k k k k k k k k k k k k k k k k k k k k k k k k k x x x x k x a k h u g k x z z k k k k k z z z z k x x x z x z z k z k z z z k k k k z z k k k k k k k k k k k k k k k k k k k k k k k k k k k k k k k k k k k k d k x b z z z z l h a c m m i e h g a a a g g g g g k k k a i i k g h h g g h g k k h g g g g g g g g g p p p p p k M H Y T T Y G n x Z G E ~ /  .] Q G V n n n Z Z C b b l a p r e e i i g l c h k n F H Y E Q Q ^ ! ~ ! Q J m p i r e e e e 0 e e e e e e e e 0 0 0 7 < & $ = = & - 2 3 3 6 6 r p a g c b Z F G G H Y T T E E W E E E E E E E E E E E E E Q ^ Q Q Q Q Q Q Q Q ",
"] ] ] ] ] ] ] ] ] ] ] ] ` ` ` ` ` ` ` ` ` ` ` ] } } ] ! E K Y ! ~ ! E G b c k i 0 0 6 5 , > , 5 1 > > > - 3 8 8 6 9 9 0 0 0 0 0 0 0 0 0 e e t i x I ~ ~ ` ^ Q Q ! W Y K K Y Y Y C b b z a p r r a g z c b b b b n n Z G T ~ X.+.+.&.o.! G Z Z F T W ~ ] | E x a p p g g p p g g g g g g g g g g a a d a k k k k m s u a a a a a a a a a k d k k x k p k x x k a k z k m x x x x k k k k k k k k k k k k k k k k k k k k k k k k k k k k k k h h k k k k k k k k k k k k k k k k k k k k k k k k x x x x x x x x x x x x x k a m x s z x b b z z z z k k z z z z z z z z x x z z k k k k z z z z k z z z x z z z k k k k k k k k x k k k k k k k k k k k k k k k h h h h k k k k k z x m x x c c b h a b b b s t k h g g g g g g k k k k x k s p b h g c k k k k k k k k k h h k g g g g g g g g a b F T E W E H H Z Z H Y ~ } }  . .} ~ G V n n Z Z Z Z b b k a i r e e e i p h g x m F F H Y T ! ! ! ! ~ ~ ! H m p i e e e e e e e e e e e e 0 0 0 0 0 r q < & % = - > ; > 5 0 i p a k A F H U H G H Y W E T T E E E E E E E E E E E E E E Q Q Q Q Q Q Q Q Q Q ",
"] ` ] ] ] ] ] ] ] ] ] ] ` ` ` ` ` ` ` ] ] ` ` ] ] ] } ` E K K ^ ] ] ~ W b m k r 6 6 3 3 > 1 , 3 > > 1 1 3 8 8 5 9 9 9 9 0 0 0 0 0 0 0 0 e e u g E / ~ ^ ^ Q E ! E Y G Z b Z Z Z b b z k p p r r g z c b b b b b n n F E ] X.+.X.&.-.+.} ~ Y G F T W ~ ] | / M x p p g g g p p p h h h g k k k k d d d d x x x x m p u a a a a a a a a a d d k k x k s k b b v k k z x n x x x x x z z z z z k k k k k k k k k k k k k k k k k k k k k k k k k k d k k k k k k k k k k k k k k k k z z k z z z z z z z z x x x x x x x x x k k n v p v b b b b v z z k k k z z z z z z z x x z z z k k k z z z z z z z z x z z z z z z z z z z z z z z k k k k k k k k k k k k k h h h h k k k k k v b b v x v b b g g b b b a t z k k g g k k k k k k k x k p s b k h b k k k k x z z k x k k k h k k h g g g g z Z I W ! ! E H H S Y Y E ] o.o. .o.X. .~ G Z n Z Z Z Z Z b m z h i r e 0 r i p i k k c M M Z F Y T W W ~ ~ ~ ~ G b p i e e e e e e e e e e e 0 0 0 q q i i 9 , = & % @ = - 5 r p p k b F G H H H G H Y W W T Y T T E E E E E E E E E E E E Q Q Q Q Q Q Q Q Q Q ",
"` ` ` ] ] ] ] ] ] ] ] ] ` ` ` ` ` ` ` ` ` ` ` ` ] ` ` ` Y Z S E ~ ] ] ! F b k e e 8 > = % = = $ - , 3 , 5 8 8 9 6 6 0 0 0 0 0 0 0 0 e e e u x G ~ ~ ~ ^ ^ Q E T G Z b z p i p g l z k h i i p k b b b b b Z Z b Z H E } } o.&.&.-.;.-.&.X.! H D T ]  ...| ..Y x x x x x x x x x m m m m m v v x v v v v m x x V F k s x n n n n n n n n Z n V n Z n x b G E S Z S n m S F F S n V V V n n b v x v v v v x v b b b n b b m m v v v v v v v v v v v v v v v v v v m m m m m m m m m v v v k v b v v v v v b b b b n n n n n n n F Z v F G V V b b v v b b b b b b b b b b b b b b b b b b x c b b b b b b m m m m x v v v v v v v v v v v v v v v v b b v b m b x x x v m m n n n V Z A Z Z Z Z Z V Z Z Z F F p e V x x n n b b C V V V V b v s v Z M M Z m m m m m b b m x z z z x x x z z z z z z G ! ~ ! ! H H Z Y W T ` ] } ..o.o.X.X.o.~ H Z Z Z Z Z Z Z M b c g p u q e 0 e i r e 0 h l M Z Z D Y T E ! ! ! ~ E n i u e e e e e e e u e e u 0 q q q 9 9 6 < ; @ + + @ 1 0 r p p k M A H Y T K H G G H Y T T T T T T E E E E E E E E E E E E Q Q Q Q W W W W ",
"` ` ] ] ] ] ] ] ] ] ] ] ` ` ` ` ` ` ` ` ` ` ` ` ` ` ! E G V F Y ! ` ] ! G m a e 6 4 > = # $ $ # - , 5 5 8 8 9 9 6 6 0 0 0 0 0 0 0 e e u i x H ~ ~ } } ^ ' E K F M b k a u e u p l g p i p h k b M M Z Z Z Z Z Z H E } o.X.&.-.-.;.>.:.-.o.W U F H !  ......./ Y E E E E Y Y E E T Y E E E Y Y K K E E E E K K E ` H n H Q Q Q Q E E E E Q E E K Q E F Z ] X.} ] } ` ^ ~ ^ ~ ^ P K K Q ! E E E E E E E E E Q ! ! ! ! ! ! Q Q Q Q ~ Q E E Q Q Q Q Q Q Q Q E E E E Q Q Q Q Q Q Q Q ! ! Q E E ! ! ! ! ! ! ! ! ! ! ! ^ ^ ^ ^ ` ' ^ `  .Q ' ` K K E E Y Y E E ! ~ ! ~ ~ ~ ~ ~ ~ ~ ~ ~ ~ ~ ~ ~ ~ ~ ! ! ! ! ! ! ! ! ! ! ! W W W Q Q E E E E E E E E E E E E E E ! ! ! ! ! ~ ~ ` } ] ! Y Y E Y Q ' ' ~ ~ ` ` ] ] _ ^ m V Y K Y E E T E ! ! ^ ^ ^ E G x E ` W W W Y Y Y Y Y Y Y Y K K K K Y Y Y Y Y Y Y Y ! ] ] ~ ~ W H H Z T ~ W ` } ..o.X.X.+.+.&.o.] Y F Z Z Z Z Z Z M b c k a e q e e e 0 0 0 q i g l Z A F Y Y E ! ! ~ ~ Y Z a u e e e e u u u e e u q q q q 9 9 9 6 6 ; O O & 3 i i e r a b Z H I Y Y H F V Z K Y T T T T T E E E E E E E E E E E E Q Q Q Q W W W W ",
"] ] ] ] ] ] ] ] ] ] ] ] } } } } ` ` ` ] ` ` ` ` ' ' ! K v Z K K Q ~ ~ E H b p 0 8 4 < = o o # = > 3 9 9 8 9 9 9 6 6 0 0 0 0 0 0 e e u s m H ~ } ` ` ` ^ T L A M k h i e e 9 0 i g p i i k l M A Z Z Z M Z Z D K E } o.+.-.-.-.;.>.>.>.-.X.} / U Y ~ ..X. . .} +.X.&.-.-.-.+.+.+.&.*.*.*.+.+.+.+.@.+.+.@.O.#. .#.;.o.E ` -.+.+.+.+.+.+.X.X.o.o.`  .| ~ H o.6.>.;.>.;.-.@.+.+.X. .` ` ~  .;.;.:.>.>.>.>.>.>.5.5.6.6.6.6.6.6.6.6.6.t.6.>.;.4.4.>.>.>.>.>.>.>.>.>.>.>.>.>.>.4.4.4.4.6.5.5.4.;.5.6.5.;.;.;.;.*.*.*.*.*.@.@.@.;.;.@.;.6.@.+.+.@.@.@.@.-.-.;.;.:.:.:.5.>.>.>.>.>.>.>.>.>.>.>.>.0.0.>.>.6.5.>.>.5.5.>.6.>.>.6.6.6.6.6.6.6.6.6.5.5.5.5.>.>.>.>.>.6.6.6.6.6.t.y.y.y.>.X.` o.+.o.+.-.-.-.-.-.-.-.-.+.` Q `  .} o.X.+...+.&.*.-.@.@.@.' F ;.-.&.X.+.o.o.o.o.o.o.o.o.o.o.....+.+.+.+.+.+.+.+.o.] ] } ! T T E H ~ ] ] ....+.+.+.+.+.+.&.&.X.} E F Z Z Z Z Z N M M b c a p t e e 0 9 5 0 0 q i l M Z D H Y E ! ! ~ ! E N a u e u u u u u e u u q q q q 0 0 9 9 0 0 = X - 0 i e 6 0 p b Z F H Y Y H Z v V L Y Y T T T T E E E E E E E E E E W W Q Q Q Q W W W W ",
"] ] ] ] ] ] ] ] ] ] } ] } } } } ` ` ] ] ` ` ` ` ` ' ^ K G G K K Q ~ ~ E K x t 7 e 4 > % o o % > 3 8 9 9 9 9 9 8 6 6 0 0 0 0 0 0 e u s p K ~ } ` Q ~ ! E A A b k i r 0 0 9 9 9 e 0 r i h b M A A Z Z M M Z Z Y ] ] o.+.+.-.-.;.:.>.>.>.;.=.>.-.W _ ..X.+.} ] Q ` +.-.;.:.3.3.3.;.:.4.4.4.;.;.-.-.;.;.;.;.;.;.@.@.6.0. . .>.>.>.>.>.>.>.>.6.6.>.o.+.+.+.Q  .y.y.6.6.6.6.6.>.>.;.@. .o.K } 6.0.y.y.i.i.i.i.i.i.s.s.s.s.s.i.s.s.s.s.s.s.s.s.t.t.t.t.i.i.i.y.y.y.y.i.y.t.t.t.t.t.i.i.i.q.0.6.6.q.i.i.q.0.0.0.i.i.i.i.i.i.i.t.t.i.y.k.V.s.5.6.s.i.y.t.t.i.i.s.i.i.i.i.i.i.i.i.i.i.i.y.y.y.y.y.a.a.p.p.s.p.p.p.p.s.s.s.p.p.p.p.k.k.k.k.s.s.s.s.i.i.i.i.i.y.i.i.i.i.i.y.y.y.i.i.y.>...^ -.5.-.6.6.6.6.6.6.5.>.3.+.' ;.+.+.;.:.>.;.*.:.6.6.6.5.5.6.[ Q i.0.:.:.>.:.:.:.:.:.:.:.;.;.;.:.:.:.:.:.:.:.:.:.:.o.~ E ~ Y Y ] ] ]  .X.+.&.&.+.+.+.+.+.+.X.+.&.X.] E F Z Z Z Z Z M N Z Z n z p e 0 9 5 5 8 9 0 0 g l b C Z H Y E Q E Q ! I M a u u u u u u e u u q q 0 q q 0 0 9 r 0 5 % , e e 5 3 6 p b Z F G I Y H Z b Z K Y Y T T T T E E E E E E E E E E E W Q Q Q Q ^ W W W ",
"[ [ [ [ [ [ ] ] ` ` ` ` ] ] } } ` ` ` ` ` ` ` ` ' ' ^ Q ^ E Y K E Q E H F a i e 8 3 = $ % - , 5 9 9 9 9 9 9 9 9 0 0 0 9 0 5 0 e e t x E ] ` } ] _ _ T G A M k p 0 0 0 9 9 0 0 q e p c M Z Z D D Z S Z n Z Y ] X.+.&.;.;.:.:.:.>.6.6.6.6.6.0.6...X.:.:.&.`  .+. .} +.4.3.;.4.5.;.4.4.4.3.3.3.4.3.;.;.;.;.3.3.3.4.>.i.>.o.6.y.y.y.5.;.+.>.0.y.i.+.+.:.;.o.Q i.6.y.6.6.>.>.t.s.t.6.>.>. .E 5.6.6.0.6.6.6.6.6.6.6.6.y.y.y.y.0.0.0.6.6.5.4.;.6.6.6.6.8.8.8.8.0.0.q.0.q.q.q.0.q.6.q.q.y.y.y.y.y.i.p.p.s.s.s.s.s.s.s.h.i.i.i.i.i.k.V.`.A.k.>.6.c.k.i.6.6.6.0.6.6.6.6.6.6.6.y.y.0.0.y.0.0.0.0.0.y.y.y.y.i.i.s.p.p.p.p.i.s.y.s.s.s.i.p.p.p.s.y.i.0.0.0.0.0.0.y.y.t.t.t.y.y.i.i.y.t.-.~ ~ ;.5.5.y.6.4.;.>.>.>.;.@.` +.;.@.4.i.s.q.-.;.4.q.6.8.8.6.3.[ -.q.6.6.6.6.6.6.6.6.6.6.6.6.6.6.6.6.6.6.6.6.6.4.5.4.;...! Y K Q ..-.+.&.;.:.;.-.&.&.&.&.&.+.-.-.&.&.o.] K S Z Z Z Z D D D S Z c g p e 6 4 5 8 9 0 e e k b b C A G K E E E E E H n a i u u u u u u u u e 0 7 e e e e r q 0 0 9 q > = > 4 r k b M Z D Y H G F H H Y Y Y Y Y Y E E E E ^ Q Q E E E ^ ! ! ^ Q Q Q Q Q Q ",
"[ [ [ [ [ [ ] ] ` ` ] ] ] ] } } ` ` ` ` ` ` ` ` ' ' ^ Q _ ! E Y P Y H S z a k t > % o o - 3 8 9 9 9 9 9 9 9 9 9 0 0 0 0 0 0 e 0 p m T ] ` ` ` ` _ T U A M l p r 0 0 0 0 9 q e i g c M D F F F F S Z Z Z E } &.=.&.-.;.:.:.>.6.6.6.6.0.0.0.y.w.0.0.q.0.:.] +.:.;.+.+.@.3.4.6.6.;.3.3.3.3.3.3.3.3.;.;.;.;.;.;.;.;.-.i.y.+.+.;.;.>.;.&.+.-.y.i.p.;.;.>.6.>.` +.6.6.6.6.6.6.6.y.y.y.6.6.+.] ;.;.:.>.5.5.5.5.5.5.5.5.5.6.6.6.5.5.5.5.3.;.;.;.;.-.;.;.6.6.6.6.6.6.6.6.6.6.6.6.5.4.4.:.4.4.4.4.:.4.6.6.6.6.6.6.6.6.8.8.8.8.6.6.6.i.k.m.C.k.>.5.s.s.t.6.>.5.5.5.5.5.6.6.6.6.6.6.6.6.6.6.6.6.6.6.4.4.4.:.>.5.6.6.0.0.0.0.6.6.6.6.0.0.0.0.0.0.0.0.0.6.6.6.6.6.6.6.6.6.6.6.6.6.6.6.;.o.` } 6.5.6.8.3.-.-.;.;.5.;.#.' 8.t.6.q.h.h.8.;.;.3.6.4.5.5.4.-.+.;.3.6.6.6.6.8.6.6.6.6.6.6.6.6.6.6.6.6.6.6.6.:.;.;.*.&.&.&.+.+.+.-.;.:.>.6.0.0.>.;.-.-.&.+.+.-.-.&.-.&.o.] Y F Z Z Z D D D D Z Z Z Z h 0 8 8 9 9 9 e e p k v C Z F G Y E Q E E E H V k i u u e e e e e e 0 0 e e e r r r 0 0 9 < $ $ 4 9 i h k b M Z H G F F H U Y Y Y Y Y Y E E E E ^ Q Q Q E E Q ^ ^ ^ Q Q Q Q Q Q ",
"[ [ [ [ ] ] ] ] ` ] ] } ` ` } } ` ` ` ` ` ` ` ` ~ ~ ^ Q ' ^ E Y H H Z m a k z e % X . = 3 9 9 0 9 9 9 9 9 9 9 9 0 0 0 0 i e 0 e m E ] ` ` ~ ^ E Y A C c k p e 0 0 0 0 0 q e i g b Z D G G D F D Z Z Z H } &.-.=.;.;.:.>.6.6.6.6.0.0.0.0.y.p.p.p.p.p.i.y.;.&.+.o.` ` o.4.5.6.5.-.-.-.-.-.*.*.-.*.+.+.+.+.-.-.-.-.+.6.y.&.} ` ` X.-.+...&.6.0.i.6.:.>.0.0.+.! ;.-.;.5.0.0.:.&.0.6.6.6.;.&.;.4.4.5.6.6.6.6.6.6.6.6.6.6.6.6.6.6.6.6.6.6.8.8.6.6.6.6.q.q.8.8.q.q.8.q.q.q.q.q.q.6.4.4.4.3.4.4.;.;.4.5.6.6.6.6.6.6.6.6.6.6.6.6.3.5.6.0.y.5.+.*.6.6.6.6.6.6.6.6.6.6.6.6.6.6.6.4.4.4.4.4.4.4.4.4.4.4.4.:.;.;.:.>.:.:.:.:.:.:.:.:.:.:.4.:.:.:.4.4.4.4.4.4.4.4.4.4.:.4.:.4.4.5.5.5.;. ...-.i.;.6.4.;.*.-.;.3.;.;.' 3.h.6.8.8.q.4.*.+.O.+.*.+.+.+.+.&.;.:.*.*.;.4.4.4.4.4.4.:.:.:.:.:.:.>.>.:.:.>.>.4.;.*.[  ...&.&.;.:.:.>.0.0.y.i.i.y.0.5.;.-.+.+.-.-.-.-.-.&.+.} T F Z Z A A Z Z D G I I Z p 0 0 9 9 8 9 9 0 e p v b b Z F Y E E Y T E Y S k i e 0 0 0 0 0 0 e e e e e r r r q 0 0 < @ $ 6 0 i g h k b M F F F F H U Y Y Y Y Y T W W E E Q Q E E E E E ^ E Q Q E Q Q Q Q ",
"[ [ [ [ ] ] ] ] ` ] }  .` ` } } ` ` ` ` ` ` ` ` ~ ~ Q Q ^ E Y K F S b k a h p 3 o X % 3 0 0 0 0 9 9 9 9 9 9 9 9 0 0 0 0 0 0 e b E ~ ~ ~ ~ ! E Y A c k p p r 0 6 0 0 0 0 q i h c G G I I G D D Z n Z H ] &.-.-.&.;.:.>.6.6.6.6.6.y.y.y.y.p.p.p.a.a.a.p.p.:...] Y H K ] ;.q.0.6.;.O.O.O.O.....O.O.O.O.+.+.+.+.+.+...&.;.&.-.G S H  .o. .+.:.:.6.:.>.:.:.>.:.Y ~ ] ..+.;.5.*.[ 4.*.4.;.;.4.*.*.*.;.*.-.-.-.*.*.-.&.&.&.*.*.&.&.&.&.@.@.;.;.;.;.-.;.;.;.;.;.;.;.;.;.4.4.4.4.4.4.;.*.*.+.+.*.O.+.+.&.*.*.*.*.-.&.*.-.@.@.@.@.;.;.;.*.*.O.[ +.*.;.3.3.;.;.;.;.*.*.*.;.;.:.:.:.:.;.;.;.;.;.;.;.;.;.;.;.-.-.;.;.;.;.;.;.;.-.-.-.*.*.*.*.&.=.;.,.*.*.*.*.*.-.-.*.*.@.@.@.4.4.4.4.3.;.6.i.i.@.;.@.;.-.;.;.*.@.' ' 3.+.*.+.*.*.O. . .[ [ [  .] ]  .*.;.=.=.O.O.=.*.@.@.@.+.&.&.&.&.&.&.+.+.:.:.:.:.0.;. .E ! E !  .;.6.0.6.0.0.y.y.p.p.i.y.5.;.;.&.-.-.-.-.-.;.;.&.] T F Z A A Z Z G I I G G b g e e 9 8 8 4 3 3 0 p k k k b Z G Y H Y W ! E Z g e 0 0 0 0 7 0 e e e e e r r r q 0 0 9 - - 2 6 r p p h k b Z Z F G H H Y Y Y Y T T E E E E Q E E E E E E ^ Q E E E Q Q Q ! ",
"[ [ } }  .} } ] ]  . . . .` } ` ` ` ` ` ! ! ! _ ~ Q E E E Y K G S m k z k t 6 $ o % 3 8 5 9 9 0 0 0 0 0 9 9 9 9 0 0 0 0 0 e Z E ~ ` Q E E K F b h t e e p 4 > < 8 8 8 9 i g b S G I I G F F S Z Z T ..&.-.-.-.:.:.:.6.6.6.0.0.y.y.y.y.y.p.p.a.k.j.j.j.i.+.G S Z K G E ..0.p.6._ H H H H H H K L G G G G G G G G G H K Y W F b V G G H K Y Y Y Y E E E E W G G H Y ! ] ` _ L Q ! _ ! ! ! T T T Y Y Y Y Y Y Y Y Y Y Y T Y T Y Y T K Y Y Y Y K K Y T T T T T T T T T T T T T T T T Y Y Y Y Y K K K Y K K K Y Y Y Y Y K Y Y ! ` [ [ [ [ ' ' ' ' ' _ Q T T Y Y Y Y Y T T T T T T T T T T T T T Y T Y Y Y T T W W W W E E E E Y Y Y Y T T T Y T T T T T E E E Q Q Q Q _ _ ` ` ` [ o.+. .' Q _ ` Q _ [ [ K v V A A A A L L L G F F F F Z v b W W Y D Z A A A A Z Z Z Z Z Z Z Z Z Z Z Z G ~ -.:.:.&.! ! E Z x F +.6.0.6.y.y.y.y.p.a.p.p.6.>.>.;.&.;.;.;.;.;.;.;.&...! F S Z S G H H I I Y D c e 0 9 5 3 3 > > , 9 e 9 6 r k M F G Y W ! ! W D k i 0 7 6 u u e e e e i i u e q 0 6 q i q 5 - - 3 k k k l b A D F H H H Y Y Y T T E E E E E E E E Q Q ^ Q Q ! Q Q E E Q Q ",
"[ [ } } }  .} ] ]  .] ] ` ` ` ` ` ` ` ` ! ! ! _ ! E E Y Y Y G Z x z k k e > = $ = 3 8 8 6 5 9 9 0 0 0 0 9 9 9 9 0 0 0 0 u m E ~ ! ~ Q K F M k t e e 6 4 5 2 , 5 8 8 8 9 g b S H I I G D Z Z Z Z T } &.-.-.-.:.:.:.5.6.6.0.0.y.y.y.y.y.y.p.p.a.k.k.k.i.6...Z H !  .] ] ] ;.0.&.Z C b b C b V V V V V V V n n C C V V Z Z F b v b b V Z Z Z Z Z Z Z Z Z Z Z b Z F Z G L L G b Z Z F A A A Z Z Z Z Z Z V V Z Z Z Z Z Z Z A Z Z Z Z A A A Z Z Z Z Z Z Z A A Z A A A Z Z A Z A A A A Z Z C Z Z C Z M V V n n Z Z Z Z V Z Z Z F G K L K L F A A A A A V Z C V V V V V Z Z Z Z Z Z Z Z Z Z Z Z M Z Z Z Z V Z Z Z Z Z Z Z Z Z Z V V V V b C C b b b b b b C V V V V V V V n V b V V V A V V V A A Z F G K k d v v v v b b b b b b b V n b a z D Z c k z b b b v v v v v v v v v v v v v m F  .&.-.X.] } ! F k Z +.>.0.0.y.y.p.p.p.p.p.p.;.;.:.>.;.-.;.;.;.;.;.;.;.&.X.[ I Z S H G G H H Y G Z k r 0 9 5 3 2 > > 5 9 5 4 e j l N G H H Y Y Y I G h e 0 0 e e e e e e i i u e q 0 7 6 0 p r - @ = 2 i k k c b Z D F H H H Y Y T T T T E E E E E E E ^ ^ E E E Q Q E E Q Q ",
" .} } } } } } ] ] ] ] ` ` ` ` ` ` ` ` ` ! ! ! ! ! W T Y I G Z b k c g e > @ o = 4 9 0 9 9 6 5 9 q 0 9 0 9 9 9 9 0 0 0 0 i S Q ^ Q Q E H n k e 6 0 8 3 , 3 < 3 8 8 9 r g b D G I I G D D S Z F Y  .&.-.-.;.;.>.>.6.6.0.0.0.y.y.y.y.y.y.y.p.p.s.k.k.s.0.;.+.] ..X.] | | ] $.w.,.D M M M M n Z Z Z n n n n n n n n V V V b b b b b b b b C C b b b b b b b b b Z F Z Z Z A F z b b Z C C C b b b b b b b b M Z Z C Z Z Z Z Z Z Z Z Z Z Z Z Z Z Z Z A Z A Z Z Z Z Z Z Z Z Z Z Z Z Z Z Z Z Z M M M M n n n n n n n n n n n n Z Z Z A Z Z V C b b b b b C Z Z Z Z Z Z A A A A M M M M M M M M A A Z Z Z Z Z Z Z Z Z Z Z Z Z Z Z Z Z Z V V V n n n n n n b b C b b b b b m v z m b v v v b b b b b Z Z H k v n m m m m b b b b b b b b x k x n m c c m b b b b b b b b b b b b b b n n n G +.&.X. .} } ] Y G ^ &.>.6.0.p.p.p.p.p.p.a.p.>.;.;.6.:.;.;.;.;.;.;.;.;.*.&.+.] Y G G F F G H I H D Z k r 0 6 3 3 2 > 3 4 3 4 8 r j l A D D Y Y I G G Z c p i e e e e e e i i i e q q 0 q 0 9 p 5 @ + @ 2 r k z c b A D F G H Y Y Y Y E E E E E E E E E E E E Q Q Q Q E E Q Q ",
" .} } } ] ] ] ~ ] ] ] ` ` ` ` ` ` ` ` ` ^ ^ ^ ! ! E Y H L A b z k k 0 = + o $ 2 9 9 e 9 0 9 6 5 0 0 0 0 9 9 9 9 0 7 0 s a n F E E E K G b a r 0 4 4 3 , < 5 5 5 5 r c N D G I I G D D D S F W X.&.-.-.:.;.:.>.>.6.6.0.0.y.y.i.i.y.y.y.y.p.p.s.k.s.i.6.:.:.:.>.$.] ! W ! ] -.,.T M M M M n Z Z Z n n n n n n n n Z Z V V b b b v b b V Z Z Z Z Z n n n n b m S G F Z Z F S z m x M b b b b b b b b M b b Z Z Z M Z Z Z Z Z Z Z Z Z Z S Z Z Z Z Z Z Z Z Z Z Z Z Z Z Z Z Z Z Z Z Z Z Z Z Z Z M M M Z Z Z N N N N N n n n n Z Z Z C V V n n b M M b b C Z Z Z Z Z Z M C C Z M M M M M M M M M M Z N Z Z Z Z Z Z Z Z Z Z Z Z Z Z Z Z Z Z Z V n n n n n n n n n n n n n n c x x b m b z v m b m n Z n H V V n m m m m b b b b m m m m m m n n a b Z M M M M M Z M M M M M Z Z Z Z Z Z Z E :...] } } ` ] ] o.;.5.>.:.>.p.p.p.p.p.p.p.p.i.:.;.6.5.5.:.;.;.;.;.;.;.;.&.&.+.o.Q G S F G G H H G D M g e 9 5 3 3 > > 3 3 w 5 0 t h N A H ! ~ E G G D Z g 0 0 0 0 0 e e i i i q q q 0 q q 0 e e 2 @ @ o ; p k z c b Z D F G L Y Y Y E E E E E E E E E E ^ ^ Q Q Q Q E E Q Q ",
"` ` ` ` ] ] ] ] ] ` ` ` ` ` ` ' ' _ _ ! Q Q ^ Q T Y L G A z k z z e = O X $ 2 0 9 0 0 0 0 0 9 6 8 9 q 9 0 0 0 0 5 7 0 p x b Z G Y Y I D M h 0 5 5 < < , , < 5 9 i c Z G D D G G A F D F Y / o.-.;.;.;.:.:.>.5.5.6.0.0.0.y.i.p.p.y.y.s.p.p.k.k.a.:.6.6.0.w.y.0.=.~ W W ! ] o...E S b n V Z Z Z Z Z Z Z Z Z Z Z Z Z Z Z Z V n v v n n Z Z Z Z Z Z Z Z Z Z n b Z G S S S S G m k b b b b b b m m b n n Z Z Z Z Z Z Z Z Z Z Z Z A A Z Z Z Z Z Z Z Z Z Z Z Z Z Z S S S S S S S S S S Z Z Z Z Z Z Z A S S S S Z Z Z Z Z Z Z Z N Z Z Z Z Z Z Z Z Z Z Z Z Z Z N M M M M M M Z Z Z Z Z Z M M Z Z Z Z Z Z Z Z S S S S S S Z Z Z Z Z Z Z S S S S Z Z Z Z Z N N M n n n n n n b b b b b b b v m b n S S G G G F S Z n n n n n n n n b b b b n n n b x Z Z Z Z Z Z Z Z Z Z Z A A A A A A Z Z b ! -.o.~ ~ ] ] o.-.6.y.6.6.0.0.>.p.n.a.y.w.0.0.i.i.5.5.6.5.4.;.;.;.;.;.;.;.;.;.&.+...} Y F S S G G G H S Z x i 6 2 1 > < < 3 w 8 9 t g b A U ! I H F Z Z k u 0 0 0 0 0 e i u 0 e e e q e e r r e e 0 , @ O @ ; p h k c b A D F G I Y Y Y T E E Y E E E E E E E W W W ! W W W W ",
"` ` ` ` ] ] ] ] ` ` ` ` ` ` ! ! ! ! ! ! Q Q Q E K L G A b z z k e - + O @ , 0 e 0 0 0 0 0 0 0 9 5 6 9 0 0 0 0 0 6 7 0 u g k M F I I U A c h e 8 < < < < , < 6 u c M N Z M n M M F F G Y ..&.-.:.;.;.:.>.>.5.6.6.0.0.y.i.p.a.a.p.p.s.s.k.k.m.a.0.6.0.0.0.p.p.p.0.:.-.,.>.0.>.:.&.H Z Z Z Z Z Z Z Z Z Z Z Z Z Z Z Z Z Z Z V n v v n V Z Z Z Z Z Z Z Z Z Z Z n n F S S S S H Z n n Z Z Z Z Z Z Z n Z Z Z Z Z Z Z Z Z Z Z Z A F F F Z Z Z Z A Z A A S S S S S S S S S S S S S S S S D D D Z S Z A A S S F S S S S S S S S S Z Z S S Z Z Z Z Z Z Z Z Z Z Z Z Z Z Z Z Z Z Z Z S A D Z Z Z Z D D D D S F F F F F S S F Z Z Z Z S S S S S S S S S S Z Z Z Z Z M M n n n n b M Z Z M n b n n Z Z S S F F S Z Z Z V V n n n n n n n n n n n n n b n Z Z Z Z Z Z Z Z Z Z Z A A A A A A Z Z Z ..6.:.-.:.6.6.-.>.y.y.y.y.y.w.:.0.p.n.p.y.y.0.i.j.p.q.6.6.5.4.:.;.;.;.;.;.;.;.*.*.&.+.} K Z n S S F F Z n n b p 0 3 , , < < 3 8 8 e i k b A I D Z b c k i 0 9 0 0 e e i u e 6 e e e e e e r r e e e 0 5 @ X + - r l c b b Z D F G H Y Y Y Y T Y Y E E E E E E E E E E W W W W ",
"` ` ` ` ] ] ] ] ` ` ` ` ` ! ! ! ^ ^ ^ ^ Q Q E K L G Z b k k k e = + o @ > 0 r e 0 0 0 0 0 e 0 0 6 6 9 q 0 0 0 0 7 7 0 0 i p z M D D A M l h t 8 8 5 5 < 5 6 i h c M M M c k c c A G ! X.-.-.:.;.;.:.>.5.5.6.6.0.0.y.p.k.k.k.k.a.s.s.k.k.k.k.y.6.0.y.y.i.p.a.a.p.p.p.y.p.p.y.y.p.W F Z F A F F F F A A A A Z Z Z Z A S S n n v x V Z S S S S S S S S S S S Z n S S S S S G G Z Z S S S S Z G G Z Z S S S S S S S A A A A F F F F D D D D D D D D S S S S F F F F S S S S S S S S D D D D D Z D D S S F S S S F F G D D D S S S S F F F F F F F F S S S S S S S S A A D D D D S Z Z Z S S D D D G F F F F F F F F Z Z Z Z F F F F G G G F F F S Z Z Z Z Z Z Z Z Z n n Z F Z Z Z n Z Z Z S S S Z Z Z Z Z Z Z Z Z Z Z n n n Z Z Z Z n n n b S F Z Z Z Z Z Z Z Z Z Z Z Z Z Z Z Z Z Z W 0.p.y.0.0.0.6.>.y.i.y.y.y.y.u.0.>.0.p.a.p.y.i.i.s.k.k.6.6.6.5.:.:.;.;.;.;.;.;.;.;.;.-.&.] H Z V V V V m n n b l g e 3 < , , < 5 6 9 t g k b A Z M z h u 0 7 6 0 q e i s e 6 6 e e e e e e r r r e e e i > @ X O > p c c c b Z D F G H Y Y Y Y Y Y Y T E E E E E E E E W W W W ",
"` ` ` ` ` ` ] ] ` ` ` ` ! ! ! ! ^ ^ ^ ^ E Y K H G Z b z h k r = O O @ - 0 i i e 0 0 0 0 0 0 e 0 9 0 q r 0 0 0 0 0 7 0 0 5 0 i k M A b l h h i 8 8 5 5 5 7 i x c k m M M c c x x F ~ X.&.&.&.;.>.:.>.5.6.6.6.0.y.0.i.k.m.k.k.a.p.s.s.k.k.k.0.6.0.y.y.p.p.k.a.p.p.p.w.:.,.>.p.a.p. .G F F F F F F G G G G A A Z Z Z A F G n n v x Z S F F F F F F F F F F G S Z S S S S S S F F F F F F F S I I S S S S S S S S S F F A A F F F F F F F F F F F F F F F F F F F F F D D D D D D D D D D D D D D D F F F S S S F G G G G G D D D F G G G G F F F F F S S S S S S S D D D D D D S Z Z S S D H G G G G G G G G G G G Z Z Z Z F F F G G G G G F F S S S S S Z Z Z Z Z n n F H S S S Z Z S S S S S Z Z Z Z Z Z Z Z Z Z n n Z Z Z Z Z Z n n n b F F S S D D D D D D D D F F F F F F F F X.n.k.y.y.6.;.+.:.0.i.i.i.i.i.p.p.0.:.4.p.a.p.y.i.q.i.k.q.6.6.6.6.:.:.;.;.;.;.;.;.;.;.;.;.&. .E b b b m m b b n c c h 9 5 < , , 4 6 9 e i g k b b l p e 0 9 6 6 q e i i e 7 6 0 e e e e e e e e r r e e e i 2 O O @ > p k c c b Z D F G H H Y Y Y Y Y Y E E E E E T E E ! ! W W ",
"` ` ` ` ` ` ` ` ` ` ` _ ! ! Q Q E W W E E Y Y G Z b z k c 0 $ O O $ > e 0 0 0 0 0 0 0 0 0 0 0 0 e e u i 0 0 r e e e 0 0 6 9 0 9 p h h t i i i 9 5 5 5 9 p g x c m m b b z k a k ~ X.&.-.;.;.;.>.>.5.6.6.6.6.0.y.p.k.m.m.k.k.k.k.k.m.m.k.>.>.y.s.s.p.p.a.k.k.k.k.p.6.X.-.>.y.n.n.:.K F Z F F G G G F A A A A F F D D D D S m m n V F F G G G G G G F G H K F S F G G F S S G F S F G H H G E ! T H F S F F F F F F F F F H G F F G G G G G F F F G G G G F F F G G G F S G G G G H H G F F F F F F F F F F Z F H H H H G H G G G G G G G F F F F n S H H G G G G G G G G F S S Z F D F H H H H H H H H H H H H H S S S S S S F F F F F S S Z Z Z S S S F F S Z Z v F K F F Z V S Z Z F F F F S Z Z V Z F G G F F F F F F Z S F F Z n Z V G G F F F F F F F F F F A A F F A F F G &.p.k.y.y.;.+.o.>.y.i.y.p.p.p.a.a.p.0.6.6.y.s.p.h.s.i.s.k.k.k.s.p.i.6.5.:.;.;.;.-.;.;.;.&.&.&.+.G n V v n n M M M c k i e 5 2 6 2 5 6 6 e r i j h i 0 6 6 6 6 9 e u a t e e e e e e r e e e e e e e e e r e e 0 $ O o > h b k c b A D F G H I I Y Y Y Y T T E E E E T T E E E W ",
"` ` ` ` ` ` ` ` ` _ _ ! ! Q E Q W W E Y Y K G A v z k h 9 & X   $ 1 0 i 0 0 0 0 0 0 0 0 0 0 0 e e e 0 7 a i 0 0 e e 0 9 9 6 5 5 0 e e 9 r e 9 5 5 6 e p x c n n n n b b x g s k ] =.;.;.;.;.;.>.5.6.6.6.6.0.y.y.k.m.m.k.k.k.k.k.N.N.s.0.>.6.y.s.p.p.a.k.k.k.k.k.n.y.-.&.>.y.a.n.6.K Z Z F F F F G F A A A A F F D S D F S V F E F H H H H H H H F H H K H F S S G F S S S G G S F G H H Y ~ ] ~ H F S F F F F F F F F F F F F S F F F F F F F F F F F F F F G G F F F F F F G G G G G G F F F F F F F F F G K Y E K K H G G H H G G H G G G G G Z G H H G G G G G G G G F S S Z F S F H H H H H H H H H H H H H H H H H G G G G G G G G S S S S F F F F S F F F F K K H G S V V Z Z Z Z Z Z F F S Z S G G G G F G G G G G G G K V n F F G G G G F G G G F F F F F F G G H H G G ;.a.a.y.6.-.:.;.y.p.p.i.s.a.a.a.a.a.p.0.6.6.y.s.k.s.s.h.k.m.N.N.m.k.p.i.6.:.;.;.-.-.-.;.;.&.+...K V m d c b b b M b c g p 0 6 6 2 6 6 6 0 9 9 9 0 9 6 5 6 6 9 q 0 k k t u u u i r e r e e e e e e e 0 e e e 0 0 0 $ O o ; i b k c b A D F G H I Y Y Y Y Y Y T T E E E T E E E E ",
"` ` ` ` ` ` ` ` ! ! ! ! ! ^ E E W E Y Y H F Z b k z h 9 %     # 1 9 e r 0 0 0 0 e e e e 0 0 0 e e q 0 7 g g 0 0 e e 9 0 9 4 3 3 3 4 9 6 0 6 5 5 5 u g x m m n n n n c c z a a S } -.;.-.;.;.;.>.6.6.6.0.0.y.y.s.V.N.m.m.k.k.k.k.N.k.y.5.y.y.i.s.s.k.k.k.k.k.k.k.s.i.6.+.6.y.s.k.s.E F F H H H K K K G G G G H H H H H H H G E ..H G H K K K K K H Y K ~ Q ! Q E E K K H G K H G H H Y Y Y ! ] ! Y H H H G H Y Y I I I I Y Y Y T E E E E Y Y Y K Y Y Y Y Y K K H H H H H H H H H H H K K H H H H Y K H G K K E E Q E K H G H K K K K K K K K K K H Y E E K K K K K K K K H H G G H G H Y Y Y Y Y Y Y Y Y Y Y K K Y Y E E K K K K K K K K H H G H H H H H G K K F ` K K ! Y G F F S S S S V F K K E K E ^ E E K K K K K K K K E E V V G G G H K K K K K K H H H H K K K K G G H K 0.k.p.0.y.0.a.m.n.a.p.s.s.a.a.a.n.a.a.p.0.6.6.y.s.j.k.k.N.N.N.N.V.m.k.k.y.6.:.-.;.-.-.-.;.+. .` Z n v v k x b b M M c l k z a t 7 e 0 5 6 5 4 4 3 3 5 5 9 9 0 i g i p n k u e t r r r e e e e e e e e e e e 0 0 p 0 @ O @ - i c z c b Z D F G H K Y Y Y Y Y Y Y Y E E E E E E E ",
"` ` ` ` ! ! ! ` ! ! ! ! ! ^ E E E Y Y L A A b k k k e =     . - 9 r e 0 0 0 0 0 e e e e 0 0 0 0 e e u u n G a 0 0 9 0 0 8 4 , > 1 3 5 3 3 2 5 0 h n S m m b b m M n c z k z n ~ ~ +.-.-.;.;.;.>.6.6.0.y.y.y.s.k.V.m.m.m.k.k.k.k.s.y.6.0.s.p.s.s.s.k.k.k.k.k.k.k.k.N.N.6.6.y.i.a.k.o.` E ^ ^ ^ ^ ` ` ! ! ! ! ~ ! ~ ~ ~ ~ | ` o.y. .E ~  .~ ~ ~ ~ E E K o.-.;.-.o.} } ` ` E ! ! E Y Y E E T ] ] ~ ! E Y E Y T W ! ` ` ` ` ]  . .o.........] ] ` ` ` ` ` ` ] ] ] ] ] ] } } ] ] ] ] ] ] } } }  . . .o. .] `  . . .`  .} ' Q ^ ` }  . . . . .} } } } ~ ` ` ` ^ ^ ! ! ! ! ~ ~ ! Q Q E Q Q Q ~ ~ ` ` ` ` ` ` ` ` ` ` ` ! ^ ~ ~ ` ` ` ` } ` ` ` ^ ^ ^ ^ ! ! ! ! ^ ' ^ G ' ^ ! ` ! Y H H G F S S F K E '  . . .+. . .} `  . . . . .o.+.+.Q K ^ E P E Q ^ E E E E E E E E E E E E Y Q ` } p.k.s.0.i.y.m.V.N.a.s.k.s.s.a.a.a.a.j.a.s.0.6.6.q.k.V.C.C.V.N.N.m.m.k.k.a.y.6.:.;.-.;.-.&. .` K V n x m z k z b M M m c b F F m x a 0 3 3 3 3 3 , 3 3 5 8 9 r g p i m S F x s s e r r e e e e e e e e e e e 0 0 r p 0 % + @ - i k z c b A D F G H H K K Y Y Y Y Y Y E E E E E E ",
"` ` ~ ~ ! ! ! ! ! ! ! ^ E E E E Y Y H D A l h k l 0 = X   + , 0 0 0 e e e e 0 0 0 e e e u e e e 0 p b Y ~ ~ H m e 6 6 3 3 < < 1 > > > 3 > 2 q x E ^ P v n n b v Z m z k z Z E ]  .` +.&.;.:.5.5.6.0.y.y.y.p.k.m.m.m.m.m.m.m.k.y.5.6.i.s.s.s.k.j.k.k.k.k.k.k.k.k.N.N.m.s.k.s.s.k.k.p.y.6.:.:.:.:.0.6.5.5.5.>.>.6.5.6.6.5.6.6.h.z.i.8.8.t.i.i.6.;.o.+.;.t.i.s.s.y.y.6.>.5.;.5.>.>.>.>.>.>.6.6.0.6.6.6.6.0.0.0.q.q.i.i.i.i.h.s.j.j.k.k.k.s.s.p.p.p.p.p.p.p.p.a.k.k.n.n.n.n.a.p.p.i.k.k.k.k.k.k.k.k.k.N.c.k.k.j.k.h.k.s.s.s.z.z.z.c.c.c.k.z.s.s.z.z.s.k.p.p.i.i.i.i.y.y.y.y.y.y.y.y.t.t.t.t.t.t.t.t.i.i.i.i.6.6.6.6.6.6.6.6.t.t.t.i.i.i.i.t.t.6.t.t.t.t.t.t.6.5.;.-.4.4.>.;.4.;.;.5.+.+.@.@.#.#.@.5.i.k.N.V.N.k.k.k.k.k.k.k.k.i.6.8.8.q.q.4.6.6.6.6.5.5.5.5.>.>.:.:.;.+.....;.6.y.6.k.a.y.0.y.k.V.m.T.m.k.m.k.k.k.k.a.a.a.a.a.p.y.0.q.j.V.C.T.C.V.m.m.k.k.k.p.i.0.:.;.-.-.-.&.o.` K F S Z V b b c b m c m k b G E Y F S x ; , 3 < 1 1 , 5 9 6 0 q q a b G Y ! Y b a a i e e e e e e e e e e e e e e 0 r p 0 @ o @ > e l g k b M Z Z G H H H Y Y Y Y Y Y T T E E E E ",
"` ` ` ` ! ! ! ! ! ! Q E E E E Y Y H D A l h h h 5 & o X @ 1 9 q 0 0 e e e e 0 0 0 e e e e e e u p m W } ..X.} H z 0 2 2 > > > > > > > > , i M I ~ } K f n b m v z k z m Z E ]  . ...o.&.-.;.5.6.y.y.y.i.p.k.m.m.m.m.m.m.V.k.s.6.6.t.i.s.h.s.z.k.k.k.k.k.k.k.k.k.k.N.V.N.k.k.k.k.m.k.y.0.p.p.a.k.V.C.U.E.A.C.c.k.z.s.k.s.z.j.z.V.V.c.V.Y.N.N.c.c.s.c.c.c.m.N.N.c.k.k.k.p.s.p.a.n.N.m.m.m.m.N.N.N.N.N.V.V.V.V.C.V.N.N.N.N.V.I.T.T.T.T.T.T.T.T.T.T.T.T.W.W.W.W.W.`.W.W.W.W.Z.C.C.C.C.C.C.C.C.C.C.C.T.T.T.A.T.R.].].].).).).).R.).].].].T.T.T.T.T.T.R.W.T.T.C.C.T.T.Z.Z.Z.Z.T.T.T.T.A.A.A.Y.Y.A.A.A.Y.T.T.T.V.V.V.V.C.C.A.T.A.A.T.T.T.T.T.T.T.T.T.T._.T.T.T.T.T.A.C.A.A.V.C.T.A.A.T.A.Y._.).Y.c.c.A.T.T.T.W.R.C.V.A.R.R.T.C.T.m.k.C.C.C.T.V.C.C.C.C.C.C.C.C.C.C.C.A.V.m.k.a.p.i.0.6.k.a.p.y.i.k.m.m.C.m.k.m.k.k.k.k.n.k.a.a.a.a.a.p.y.i.p.m.U.U.U.V.m.m.m.k.p.p.y.0.>.;.;.;.-.-.+.E Y E K F Z b b c c c c c x S Q E Y Y F t ; > , 1 - > 2 5 9 9 9 r c Z H E ! ! E n a u e t e e e e e e e e e e e e e 0 i i 0 @ O @ - e c g c b M Z S G H H H Y Y Y Y Y T T E E E E ",
"` ` ` ` ! ! ! ! ! W W W E E Y K H S Z b h h g 8 $ X O & , 9 q q q q q q e e e 0 r r e r e u i s n ! X.| o...} ! F k 5 ; - - - 1 > > > > q N ! / } ~ F s m m v d k k b F Y ] ..[  ... .;.;.4.6.q.p.p.k.k.k.m.m.m.m.m.m.m.k.p.0.0.i.s.s.s.k.k.k.k.k.k.k.k.N.N.N.N.k.A.T.N.N.k.k.N.m.k.i.0.0.y.i.p.k.N.V.V.A.T.Z.A.c.c.c.k.k.k.k.T.T.C.C.Y.Y.C.A.T.Y.V.c.V.N.N.N.N.N.k.s.s.k.N.S.W.`.`.`.`.`.`.`.`.T.T.T.R.T.T.W.W.W.Z.Z.Z.Z.W.W.`.[.[.[.[.'.'.'.'.{.{.{.{.[.[.[.'.'.'.'.'.!.!.!.`.'.'.'.`.`.`.`.`.`.`.`.`.W.`.[.{.[.[.[.[.].`.'.'.[.'.`.W.W.`.`.'.'.'.'.'.`.`.`.`.'.'.[.[.[.[.{.{.`.[.[.[.[.[.[.`.`.`.`.`.`.`.`.`.`.`.`.`.`.`.`.`.`.`.`.Z.Z.Z.Z.Z.`.`.`.`.`.`.`.`._.T.T.T.[.`.`.].}.oX#X@X}.c.r.t.C.N.V.T.T.N.m.A.T.T.T.C.C.m.k.m.m.k.N.N.V.C.C.C.C.C.A.A.N.N.N.N.m.k.p.y.p.y.y.y.m.k.k.k.a.k.m.k.V.m.m.m.k.k.k.k.n.n.n.k.k.a.a.a.j.y.y.p.V.U.T.T.C.V.V.m.j.j.p.y.0.>.>.;.:.:.+.E Q ~ ! K G Z M b k c c b n Z Q Q Y E ! Z 5 2 > 1 - ; > , < 3 r l b Z H T ] ~ ] E m s e i e e e e e e e e e e e e e e 0 e i 6 @ o @ = 0 k k k m b Z S G H H I Y Y Y Y T T T T E E ",
"` ` ` ` ^ Q Q Q W W W W E Y K L S Z b l h h 6 % o . & , 0 q q r q q q q e e e e r r r r i s a k Q o.o.} } } ] ~ Y Z i ; = = = = - 1 > > m W | UX` ~ F s v v d p x v Z Y ` +.+.] +.` ] >.5.6.i.j.m.m.V.V.m.m.m.m.n.m.m.m.p.0.0.y.k.s.k.k.z.z.N.N.N.N.N.N.N.N.N.N.V.`.T.k.N.k.k.N.V.k.p.y.0.y.p.k.`.`.T.T.[.6XaXaXeX5X5X5X1X>X>X1X{.`.T.T.`.A.A.T._._.T.T.V.m.m.V.p.6.q.V.T.3XsXtXsXsXsXsXsXsXsXsXaXaXaXaXaXsXsXsXsXsXsXsXsXsXsXsXsXsXsXsXnXnXnXnXnXnXnXnXxXsXsXsXsXsXsXsXsXsXxXnXsXsXsXsXsXsXsXsXsXsXsXsXqXsXxXsXsXsXsXsXsXsXsXsXsXsXcXcXsXsXcXnXnXnXcXcXsXxXxXxXxXxXxXxXnXnXnXnXnXnXnXnXgXgXsXsXsXsXsXsXhXhXhXhXsXsXsXsXsXsXsXsXsXsXsXsXsXsXsXsXsXsXsXsXsXsXsXgXgXgXgXgXgXsXsXgXhXgXgXgXaX).s.t.k.p.k.T.T.k.s.V.T.T.].].[.>X5X5X2X<X2X5XtXtXtXtXaXaXaXaX[.`.T.V.V.V.m.i.y.0.p.m.m.m.m.N.k.m.m.p.m.m.N.m.m.k.k.k.n.n.n.n.k.k.k.a.k.i.y.i.k.V.T.Q.W.C.V.V.k.j.p.p.i.y.0.6.6.&.` H E ~ ` E T H Z M k z c b Y m K E K E ] E b 5 ; - - - - ; ; 6 i g b Z H T ! ] ` ] K x u u t e e e e e e e e e e e r e 0 6 5 i 0 @ O @ = 0 a g k c b Z S G H H I Y Y Y Y Y Y Y T T ",
"` ` _ ! ! ! ! ! W E E T Y U G F n b k h h 2 $ o O % < q 0 0 0 0 0 0 e e e e e r r r r u p u m H } } } } } ] ] ~ K Z k e , : $ & & - ; h / o.X.| } ~ H x k e e k m b H ] +.X.......Y G +.;.6.k.N.k.N.C.V.m.m.m.m.n.n.k.p.0.y.y.i.k.k.k.k.k.z.N.N.N.N.N.N.N.N.N.N.N.V.T.N.V.C.V.V.V.m.p.0.0.0.y.m.[.>XC.V.].tXGXKXKXJXJXGXGXGXGXGXnXnXnXnX5X[.[.T.A.A.s.y.A.V.C.W.p.-.k.].>XtXnXGXnXmXGXGXmXmXGXmXmXmXGXDXmXmXGXGXGXGXVXVXJXJXZXmXZXZXZXVXZXZXZXZXZXZXZXZXZXZXZXZXZXZXZXZXZXZXZXZXZXZXZXZXZXZXZXZXZXVXVXVXVXZXZXVXVXVXVXVXVXVXVXVXVXVXVXVXZXZXZXZXZXZXZXZXZXZXZXZXZXZXZXZXJXLXNXNXNXNXNXNXZXZXVXmXmXVXZXZXVXVXVXVXZXZXZXZXvXvXZXVXVXVXVXVXVXVXVXVXVXVXVXVXVXVXVXVXVXVXVXVXVXVXVXVXGXgXsX1X1X].W.k.k.k.A.R.T.k.>.N.]. XoX>X4XSXHXGXDXDXDXDXDXGXGXGXJXGXGXnX{.W.T.k.C.V.y.:.:.0.p.a.m.k.k.m.k.V.V.m.k.m.m.m.m.m.m.m.m.m.m.m.k.k.k.k.k.k.p.y.0.a.C.Q.Q.Q.T.U.k.j.p.p.i.i.i.s.6. .V F E ! ]  .~ E G b n a 7 e n S S E ` ~ Q Q Y c > & & & & = < 9 p g b Z H T ' ` ] } ` K x u e e e e e e e e e e e e 0 0 0 9 0 e i e + @ @ = e h h k c b A A D F G H Y Y Y Y T T T T ",
"` _ ! ^ ! ! W W E T T Y Y H F Z m k k k 8 = o @ % > 9 q 0 0 0 0 0 0 e e e e r r r r u i u m E ` } } } } } ] ! E K Z x s 0 , ; : $ : u H | o.X.o.` Q Z s 6 > 2 p b Z Y } ..X.o...! K V +.6.i.m.V.m.C.C.V.m.m.m.m.k.a.i.0.y.y.p.p.k.z.z.z.k.c.N.N.N.N.N.N.N.N.N.N.k.k.T.N.V.A.C.N.m.m.y.-.o.&.6.y.N.W.V.M.!.;XnXVXJXZXZXZXZXZXZXZXVXVXGXHXaX[.[.`.`.N.>.>.V.T.T.T.W.k.m.W.[.9XxXmXnXmXmXVXmXmXmXmXmXmXmXmXvXvXNXZXZXZXZXZXZXZXZXNXZXZXNXNXZXZXZXZXZXZXZXZXBXBXZXBXZXZXZXZXZXZXZXZXZXZXZXZXBXBXBXBXZXZXZXZXZXZXZXZXVXVXVXVXVXZXZXZXVXZXVXVXZXZXZXZXZXZXZXZXZXZXZXZXZXZXZXZXZXZXNXNXNXNXNXNXNXNXNXNXNXNXZXZXZXZXZXZXZXZXZXZXNXNXZXZXZXZXZXZXZXZXZXZXZXZXZXZXZXZXZXZXZXZXZXZXZXNXNXmXnXnXnXtX5X'.Z.p.N.V.T.T.A.y.+.N.]. XoX>X5XSXGXGXmXNXZXZXZXNXNXNXZXGXGXsX{.W.C.N.V.y.;.:.:.y.k.a.V.k.T.V.C.T.T.C.k.m.m.m.m.m.m.m.m.m.m.m.k.k.k.k.k.k.a.p.0.y.a.V.Q.Q.Q.T.V.k.p.s.i.6.6.q.:.` n Z E ~ ` ] } ~ Y Z z 7 ; ; 7 m E Q ~ ~ ! ! W D q - - - - > < 6 r p c Z H E ~ ' ` ` } ~ H x u e e e e e e e e e e 0 0 0 0 0 0 0 r p e $ o @ = e l l z c M A Z D F G K Y Y Y Y Y Y Y ",
"_ ! ^ ^ Q Q E E T R Y I G A C b k a p 0 = O o = < 7 q q 0 0 0 0 e e e e e r r r i u i p x E } } } } } } ` ! T H S Z x a u 7 7 6 u x S W o.| | | } S t 2 ; = ; e b G ! X...+.+. .E H K &.q.s.k.N.V.A.C.n.m.n.m.m.p.i.y.y.s.s.a.k.z.k.z.c.N.N.V.V.V.V.V.V.N.N.N.N.k.N.W.T.T.A.T.].V.m.p.6.o.o.;.y.k.Z.Z.C.'.;XsXGXJXJXJXJXNXNXNXNXZXZXVXGXnX;X}.[.}.C.i.s.a.W.W.W.Q.U.m.].[.2XsXVXmXmXZXZXmXmXVXvXVXVXVXVXvXvXZXZXZXZXZXZXZXZXZXZXZXZXZXZXZXZXZXZXZXZXZXZXNXNXNXNXZXZXZXZXZXZXZXZXZXZXZXZXBXBXZXZXZXZXZXZXZXZXZXZXVXVXVXVXZXZXZXZXZXZXZXZXZXZXZXZXZXZXZXZXZXZXZXZXZXZXZXZXNXNXNXNXNXNXNXZXZXZXNXvXZXZXZXZXZXZXZXZXNXNXNXNXNXNXNXNXNXZXZXZXZXZXZXZXZXZXZXZXZXZXZXZXZXZXZXZXZXZXNXmXnXbXSXaX5X].V.k.N.R.].C.T.i.;.T. XoX.X3XsXGXGXJXZXZXZXZXZXZXZXZXZXZXVX8X<XT.m.k.k.;.+.;.:.i.k.a.a.Z.>X`.].].Q.T.k.n.m.m.m.m.N.N.m.m.m.m.m.k.k.k.k.k.k.a.i.y.y.p.V.T.W.T.T.V.k.p.k.6.5.6.6.] n Z ! ~ ` ` o.] T F a 2 - ; 6 s V H ^ ^ ~ ~ E Y S c i 9 2 5 2 5 9 i k n G E ! ! ~ ~ ~ ` ~ K k u e t r r r r e e 0 0 0 0 0 0 e e e i g 6 @ @ o > r g z z c M Z Z F F G Y Y Y T T Y Y ",
"! Q ^ Q Q E E E R Y I H Z M l k p i 5 $ O o = , 0 q q 0 9 0 0 0 e e e e e e r r i i i a Y ] } ` ` ` ` ] ~ E H D n c k s e u s h G W E / | ~ ^ / Y u ; 4 > = = 2 b Y ] o.&.=...! ` K ] 5.6.i.j.k.V.V.m.s.k.k.m.m.p.y.p.k.s.k.k.k.c.c.c.c.N.N.C.C.V.V.V.V.N.N.N.N.s.N.A.N.4XR.T.oXoXC.a.p.+.+.-.6.k.B.C.n.W.5X7XVXJXJXJXJXZXmXmXZXZXZXZXGXGX<X{.{.oX`.k.a.p.T.].!.Q.U.j.U.'.>X8XVXmXvXZXZXvXvXVXvXVXVXVXVXVXVXZXZXZXZXZXZXZXZXZXZXZXZXZXZXZXZXZXZXZXZXZXZXNXNXNXNXZXZXZXZXZXZXZXZXZXZXZXZXBXBXZXZXZXZXZXZXZXZXZXZXZXZXZXZXZXZXZXZXZXZXZXZXZXZXZXZXZXZXZXZXZXZXZXZXNXZXZXZXNXNXNXNXNXNXZXZXZXZXNXvXZXZXZXZXZXZXZXZXNXNXNXNXNXNXNXNXNXZXZXZXZXZXZXZXZXZXZXZXZXZXZXZXZXZXZXZXZXZXvXmXbXhXfXeX,XQ.m.N.T.].W.C.V.y.s.`.oXoX}.2XbXGXJXJXZXZXZXZXZXZXZXZXZXJXVX9X<XW.k.p.5.-.+.&.6.i.k.a.N.1X3XC.W.W.T.N.k.n.m.m.m.m.N.N.m.m.m.m.m.k.k.k.k.k.k.k.n.p.y.0.p.m.T.T.].C.k.p.k.6.;.6.6.O.F Z ~ ~ ` ` } ~ Y Z p 2 2 5 5 , 7 n Q Q ~ ~ / W I H M c p 6 6 5 9 e g b G E Q Q ~ ~ Q ^ } ` F x s u i i i i e e 0 0 0 0 0 0 e e r e 9 r 9 $ o @ - 0 h z l c M Z Z D F K Y Y Y Y Y T ",
"W W W W W E E T Y I U A A l g g g 6 & + O % , 9 q 0 0 0 0 0 0 0 e e e e r r r i i p x H ] ] ] ` ] ` ` W Y G Z b b z p u i k n N Y Y W / ! ! ! Z p 2 2 3 > - % 7 F W ]  .&.+.o.K ! V o.6.5.i.6.i.C.m.k.k.k.k.p.y.y.s.s.s.k.k.c.c.N.c.N.N.N.N.V.V.V.V.V.V.m.V.V.m.p.6.] V.tX3X].>X5X`.N.k.6.o.o.;.0.k.V.V.V.1X5XnXVXJXJXJXGXVXVXZXZXZXVXGXGXsX[.`.>X[.V.p.6.V.W.W.Q.T.z.j.[.[.5XnXJXJXZXZXVXMXmXVXVXVXZXmXvXvXVXZXZXZXZXZXZXZXZXZXZXZXZXZXZXZXZXZXZXZXZXZXZXZXZXZXZXZXZXZXZXZXZXZXZXZXZXZXZXZXZXZXZXZXZXZXZXZXZXZXZXZXZXZXZXZXZXZXZXZXZXZXZXZXZXZXZXZXZXZXZXZXZXZXZXZXZXZXZXZXZXZXZXZXZXZXZXNXNXNXZXZXZXZXZXZXZXZXZXZXZXvXvXZXZXZXZXZXZXZXZXZXZXZXZXZXZXZXZXZXZXZXZXZXZXZXZXVXVXmXbXSXfX4X Xm.n.m.T.`.W.V.p.;.V.`.].}.;X8XGXJXZXZXZXZXZXZXZXZXZXZXmXDX9X;X'.V.k.0.5.*.+.;.y.i.n.N.{.4X`.!.].U.&.6.p.k.n.m.M.M.M.M.V.V.V.V.m.m.n.k.k.k.k.k.k.k.p.y.q.q.m.T.].W.m.k.V.0.*.6.6.5.` Z ! ~ ! Q } } E G u 2 5 5 > & ; r M I W ~ / W H S D D n p 0 9 0 e p z S E Q Q ! ~ ~ ~ ` } ` J f u u i i i t e e e 0 0 0 0 e u e e r r r r $ o @ = 9 h p g b b M S F G H Y Y Y Y Y ",
"W W W W E E T Y I U A N l k g g 5 & + . $ > 9 e q 0 0 0 0 0 0 0 e e e e r r i i a c H ~ ] ] ` ` ] ` W Y G Z b z k a p g b Z N M D N D U Y I A t 3 < 3 , ; = 2 z Y ! ] ..+...^ ^ G G -.6.5.6.6.i.C.i.k.k.a.p.i.y.p.k.k.k.k.c.c.c.N.N.N.N.V.V.C.C.C.V.C.C.N.V.m.k.k.:. .y.W.eX}.[.6X1XV.N.i.-.X.-.>.p.N.N.V.`.3XhXmXVXGXGXGXVXVXVXVXVXVXGXGXnX2X'.{.{.W.n.y.p.W.W.Q.R.V.k.T.[.3XsXJXZXmXNXVXmXnXVXVXVXZXvXvXvXVXZXZXZXZXZXZXZXZXZXZXZXZXZXZXZXZXZXZXZXZXZXZXZXZXZXZXZXZXZXZXZXZXZXZXZXZXZXZXZXZXZXZXZXZXZXZXZXZXZXZXZXZXZXZXZXZXZXZXZXZXZXZXZXZXZXZXZXZXZXZXZXZXZXZXZXZXZXZXZXZXZXZXZXZXZXZXZXNXNXZXZXZXZXZXZXZXZXZXZXZXNXvXNXZXZXZXZXZXZXZXZXZXZXZXZXZXZXZXZXZXZXZXZXZXZXVXVXVXnXbXfXiX,XQ.m.m.V.W.].W.V.>.w.W.].].}.2XsXZXZXZXZXJXZXZXZXZXZXZXJXJXbX2X:XZ.m.j.;.:.+.*.5.i.p.N.W.tX`.C.'.Q.:. .&.p.k.n.m.M.M.M.M.V.V.N.V.N.m.m.n.k.k.k.k.k.k.k.p.i.q.i.m.T.T.N.N.N.y.+.6.i.i.+.H E ~ Q Q ] ] ~ K a 7 7 5 - $ = < i M D G H G D S M Z Z c a e e r t s x S E ! ~ ~ ` ~ ~ ` } ~ F d s i i t t t t e e e e e e u e e r r r r 6 % O @ & 9 h p k l b Z S F F H Y Y Y Y ",
"! ! W E E T Y I U A Z b h h i 9 $ + + + ; 6 0 q 0 0 q q q q q q e e e e u i i p b H ~ ] ] ~ ~ ~ ` W Y F Z b z g a a g m b b c g g j g h U A g 9 > > - ; : : k E ! ~ ` o.o.` E ^ V ` 6.6.6.5.:.i.m.y.k.p.i.y.y.p.k.k.k.m.c.N.c.c.N.V.N.N.V.V.C.C.C.C.C.C.V.V.m.k.p.0.:.+.y.oX3X].1XaX`.V.n.6.&.+.-.y.k.N.V.V.{.sXnXVXGXGXVXVXVXVXVXVXVXGXGXGX7X'.[.oX[.V.p.0.C.T.Q.Q.U.k.I..X>XtXVXZXmXmXVXmXnXVXVXVXZXZXVXVXZXZXZXZXZXZXZXZXZXZXZXZXZXZXZXZXZXZXZXZXZXZXZXZXZXZXZXZXZXZXZXZXZXZXZXZXZXZXZXZXZXZXZXZXZXZXZXZXZXZXZXZXZXZXZXZXZXZXZXZXZXZXZXZXZXZXZXZXZXZXZXZXZXZXZXZXZXZXZXZXZXZXZXZXZXZXZXZXZXZXZXZXZXZXZXZXZXZXZXZXZXNXNXZXZXZXZXZXZXZXZXZXZXZXZXZXZXZXZXZXZXZXZXZXZXZXVXGXmXnXnXyX5X[.m.m.m.T.].W.C.M.=.n.[.[.}.}.aXmXZXZXZXZXZXZXZXZXZXZXZXJXDX7X>X'.M.V.4.;.;.&.;.i.p.a.C.1X4XW.W.!.m.*.5.i.p.k.n.M.V.V.N.N.V.N.N.N.V.V.m.m.m.k.k.k.k.k.k.k.p.i.y.y.k.m.k.N.N.6.+.5.i.s.>.` Y Q Q ! ~ ] ] E m p p 0 = $ & = 3 i c M c l k k x n n c c g i i e e p x S E E ! ~ ` ~ ~ ` ` ! F z p i i t t t t u u e e e e e e r r r r i 5 $ O @ & 9 h g h l M Z D F D U Y Y Y ",
"! W E E T Y K H A Z c k h h 9 = + + % ; 5 9 0 q 0 0 q q q q q q e e e e i i p a Y ] ] ~ ~ ~ ~ ! W Y F V b z g p k k c b l l g r q 9 9 0 j e 8 4 - = = = % 7 W | ` ~ ` }  .^ ^ Y H -.s.y.6.:.;.i.y.p.p.s.0.0.p.k.k.k.N.N.N.N.N.c.V.N.N.N.V.V.C.C.V.C.C.C.V.V.m.k.k.p.>.&.:.a.3XoX1XaX1XA.V.s.:.X.&.6.p.k.B.C.Z.tXsXmXGXGXVXVXVXVXVXVXVXVXGXGXsX<X'.{.[.Z.k.y.k.C.W.W.T.m.m. XoX4XnXZXNXvXVXmXmXVXVXVXZXVXVXVXZXZXZXZXZXZXZXZXZXZXZXZXZXZXZXZXZXZXZXZXZXZXZXZXZXZXZXZXZXZXZXZXZXZXZXZXZXZXZXZXZXZXZXZXZXZXZXZXZXZXZXZXZXZXZXZXZXZXZXZXZXZXZXZXZXZXZXZXZXZXZXZXZXZXZXZXZXZXZXZXZXZXZXZXZXZXZXZXZXZXZXZXZXZXZXZXZXZXZXZXZXNXNXZXZXZXZXZXZXZXZXZXZXZXZXZXZXZXZXZXZXZXZXZXZXZXGXGXnXsXhXtX>XU.k.V.V.`.].T.m.k.w.Z.`.[.oX>XnXVXZXZXZXZXZXZXZXZXZXVXJXGX7X1X4XW.M.m.;.:.*.;.6.j.i.n.[.5X[.'.[.C.6.5.k.k.p.k.m.M.V.V.N.N.m.N.N.N.V.V.V.m.m.m.k.k.k.k.k.k.i.p.i.y.0.i.p.k.n.5.+.4.6.i.i.-.K E E ! ! ` ] ! F b v u ; & = = - 6 i h l h a p a x c x k k h p e e i a k Z H Y ! ~ ` ~ ~ ] ] ! F z p i t t t t e e e e e e e e r r r r r r 5 @ o @ & 0 p p h b M Z D F F U Y Y ",
"W E E T Y K H A M c c k l 4 $ @ + & > 9 0 0 q q 0 0 q q e e e e e e e i u s m Y ` ] ] ~ ~ ~ ! ! W Y F b g p i p g g k k k h g i r r r r 8 8 3 1 = = = = 3 S } } ~ E ! ~ ! E ` F  .0.i.0.5.;.4.i.i.s.0.5.y.i.k.k.m.m.N.N.N.N.V.V.V.V.V.V.C.C.V.V.C.C.U.T.U.N.k.p.s.k.y.:.:.6.C.3X[.3X3X`.Z.N.0...-.:.0.p.n.V.Z.;XsXnXGXGXVXVXVXVXVXVXVXVXVXGXnX7X'.`.{.[.V.0.y.C.W.Q.Q.U.I.T.oX>XsXNXZXvXVXmXmXnXVXVXZXZXZXZXZXZXZXZXZXZXZXZXZXZXZXZXZXNXZXZXZXZXZXZXZXZXZXZXZXZXZXZXZXZXZXZXZXZXZXZXZXZXZXZXZXZXZXZXZXZXZXZXZXZXZXZXZXZXZXZXZXZXZXZXZXZXZXZXZXZXZXZXZXZXZXZXZXZXZXZXZXZXZXZXZXZXZXZXZXZXZXZXZXZXZXZXZXZXZXZXZXZXZXZXZXNXZXZXZXZXZXZXZXZXZXZXZXZXZXZXZXZXZXZXZXZXZXZXZXZXGXVXnXxXSX4X.XV.k.T.T._.[.C.a.y.p.W.}.}.>XtXGXJXZXZXZXZXZXZXZXZXZXZXVX7X>X4X[.V.n.6.=.=.*.;.k.m.p.Z.4X5X{.;XW.y.5.5.6.0.i.m.m.m.k.m.V.V.M.m.V.V.V.V.N.N.V.V.m.k.k.k.k.k.k.p.p.i.y.6.y.N.V.p.+.;.q.s.y.>.} E E Q K E  .! ' A m k 2 - = ; & - 2 i p i i i s i h Z c p i i r 0 e i a x N G Y E ! ! ~ ] ] ] ~ Y z t u u t t e e e e e e e e r r r e e e e 0 = o o & 5 h p g c N Z D F D U Y ",
"E E T Y K H F Z l l k l 6 # o @ & ; 6 0 0 0 q q q 0 q q e e e e e e i i s x Y ] ] ` ~ ~ ~ ~ ! ! T Y Z c p t e t p p p a k l l g g g p p e 6 2 ; = - 2 7 n Q ~ ` ~ E ~ Q G F E E +.y.i.6.4.;.5.i.s.0.6.6.0.y.s.m.m.m.N.N.N.N.V.V.V.V.V.V.C.C.V.V.C.Z.U.U.C.k.s.p.s.s.p.6.:.:.i.[.[.oX3XoXT.C.a.:.X.-.>.i.n.N.C.'.tXnXGXGXGXVXVXVXVXVXVXVXmXVXGXsX{.`.{.{.Z.p.y.N.W.W.Q.Q.I.U.].>X8XvXZXmXVXmXmXmXVXVXZXZXZXZXZXZXZXZXZXZXZXZXZXZXZXZXNXNXZXZXZXZXZXZXZXZXZXZXZXZXZXZXZXZXZXZXZXZXZXZXZXZXZXZXZXZXZXZXZXZXZXZXZXZXZXZXZXZXZXZXZXZXZXZXZXZXZXZXZXZXZXZXZXZXZXZXZXZXZXZXZXZXZXZXZXZXZXZXZXZXZXZXZXZXZXZXZXZXZXZXZXZXZXZXZXNXZXZXZXZXZXZXZXZXZXZXZXZXZXZXZXZXZXZXZXZXZXZXZXZXGXmXnXsXgX3XQ.j.k.T.T.`.`.V.a.y.n.].}.{.5XbXJXZXZXZXZXZXZXZXBXZXVXVXnX5X>XOXW.V.a.:.&.&.;.6.V.V.k.].1X1X{.{.C.6.5.5.6.0.s.C.m.k.m.m.V.V.V.V.V.V.V.V.V.V.V.m.m.k.k.k.k.k.k.k.p.p.i.y.k.Z.T.k.;.-.:.5.5.:.-.] E E K K } ..` K A C v t 2 = = ; < 5 i p p p u u a m c p e e r e e u i a c Z G Y E ! ! ~ ] ] ] ~ H d g e 7 e e e e e e e e e r r e e e e e e 5 = O o $ 5 h g h c M Z D F D U ",
"E Y K K H F V b l h h 9 # o @ $ > 6 9 0 0 0 q q q q q q e e e e e u i s m K ~ ] ` ` ~ ~ ~ ! W Y I D M g r 0 0 e i i p a c c m c k g p i 0 3 2 2 7 u m Z E E ~ ` ~ ^ ~ Y m v V  .6.i.i.5.;.;.6.s.s.6.y.y.0.p.k.N.m.V.N.N.V.V.V.V.V.V.C.C.C.V.V.V.C.C.T.T.T.k.s.s.i.k.a.y.6.:.0.n.`.[.3X5X`.W.A.p.X.&.:.y.p.M.V.Z.>XhXnXmXJXVXVXVXVXVXVXVXmXGXGXDX4X[.[.oX].k.y.v.Z.W.].Q.U.U.Q.3X9XxXZXZXVXVXCXvXVXVXZXZXZXvXvXvXZXZXZXZXZXZXZXZXZXZXZXZXZXZXZXZXZXZXZXZXZXZXZXZXZXZXZXZXZXZXZXZXZXZXZXZXZXZXZXZXZXZXZXZXZXZXZXZXZXZXZXZXZXZXZXZXZXZXZXZXZXZXZXZXZXZXZXZXZXZXZXZXZXZXZXZXZXZXZXZXZXZXZXZXZXZXZXZXZXZXZXZXZXZXZXZXZXZXZXNXZXZXZXZXZXZXZXZXZXZXZXZXZXZXZXZXZXZXZXZXZXZXZXmXVXmXcXsXtX.XU.i.N.R.R.`.T.V.a.p.Z.[.{.<XtXGXJXZXZXZXZXZXZXZXZXZXVXVXsX1XOX[.V.N.y.-.X.&.>.y.W.C.V.oX1X{.[.`.p.;.5.5.6.0.s.C.y.V.OXk.V.V.V.C.C.V.V.N.V.V.V.m.m.n.m.k.k.m.k.k.k.p.p.k.V.A.A.k.;.+.+.-.:.;.0.o.H Y F S '  . ._ L A F b s 2 > < 5 7 i p p h n c k k k p e 0 r r 0 e r p h b D G Y W W ! ` ] ] ~ ] ! m e 7 t u u u u u u u u r r r r e e e e u 5 = o O @ 5 h g h b M Z D F D ",
"Y K K K F V b z h h 8 $ # % @ > 9 q 0 q 0 0 q q q q q e e e e e u i s p Y ` ] ~ ` ` ~ ! E Y G D G D b g r 0 0 e e u p p m c c c k a i e 7 7 a n G Y Y K E E ~ ^ ` ~ ~ K V b S 5.6.i.0.6.-.-.6.k.y.p.i.s.a.k.m.N.m.V.N.N.V.V.V.V.V.C.C.C.C.V.V.V.C.C.C.T.HX].z.k.t.i.p.p.0.>.>.6.C.].#XeXoX`.`.C.-.X.-.0.p.n.V.Z.Z.7XsXsXVXVXVXVXVXVXVXVXmXVXGXGXtX>X[.oX}.V.p.v.B.S.].Q.T.Q.U.,X7X8XMXJXVXVXCXvXVXZXZXZXvXvXvXvXZXZXZXZXZXZXZXZXZXZXZXZXZXZXZXZXZXZXZXZXZXZXZXZXZXZXZXZXZXZXZXZXZXZXZXZXZXZXZXZXZXZXZXZXZXZXZXZXZXZXZXZXZXZXZXZXZXZXZXZXZXZXZXZXZXZXZXZXZXZXZXZXZXZXZXZXZXZXZXZXZXZXZXZXZXZXZXZXZXZXZXZXZXZXZXZXZXZXZXNXZXZXZXZXZXZXZXZXZXZXZXZXZXZXZXZXZXZXZXZXZXZXZXVXmXnXsXsX>XW.C.i.N.R.W.].C.m.p.p.W.[.oX1XbXJXJXZXZXZXZXZXZXBXZXZXVXxX5X1XoXR.N.s.6.X.X.&.6.k.[.T.T.{.{.[.Z.n.:.;.5.5.6.0.N.N.m.[.3XA.k.V.C.C.C.C.V.N.V.V.V.N.m.m.m.m.m.m.k.k.k.k.m.V.V.N.n.y.;.-.+.-.;.;.>.&.K F G G ` } [ ' P A F Z Z b g i 0 q i p h x n n x k g i 0 e 0 r e e e i g c A D G Y W W ! ` ~ ] ! ~ S k t u i i i i i i i i i i i i r e e e i u 5 = o O # 5 i g h b M Z F F ",
"K L G Z n b k g h 2 $ $ @ = 2 0 q q q q e 0 0 0 r r r r e t i s s s v E ` ` ~ ! Q ! ! ! Y A N N D M h i r 0 0 0 q p k M b x x x a a a z n H Q ~ ` ~ Q E E Q ' '  .' F V K E o.i.y.i.s.;.+.;.i.s.s.i.i.s.m.m.V.N.N.N.N.V.V.V.V.V.C.C.C.C.V.V.V.C.V.M.W.aXHXaXT.k.6.i.k.a.p.w.>.:.i.W.[.oXeXoX[.`.p.&.:.>.0.p.m.V.Z.[.7XsXDXJXZXVXvXZXZXZXVXVXGXGXDX5X>X.XoXW.n.v.N.Z.]..XQ.Q.U. XeXtXyXVXZXVXCXvXvXZXZXZXZXZXZXZXmXZXZXZXZXZXZXZXZXZXZXZXZXZXZXZXZXZXZXZXZXZXZXZXZXZXZXZXZXZXZXZXZXZXZXZXZXZXZXZXZXZXZXZXZXZXZXZXZXZXZXZXZXZXZXZXZXZXZXZXZXZXZXZXZXZXZXZXZXZXZXZXZXZXZXZXZXZXZXZXZXZXZXZXZXZXZXZXZXZXZXZXZXZXZXZXJXVXmXvXZXZXZXZXZXZXZXZXZXZXZXZXZXZXZXZXZXZXZXZXZXZXmXVXDXnXfX5X[.W.m.j.W.Q.W.Z.V.m.0.m.[.oX>X5XVXJXZXZXZXZXZXZXZXZXZXZXmXaX6X1X].T.m.0.-.X.X.-.k.V.`.[.oXoX[.Z.V.0.:.6.6.6.y.p.k.m.1XtX>X3X.XV.U.U.C.C.V.V.V.V.V.V.N.m.m.m.m.m.m.k.k.k.k.N.V.m.p.>.;.;.+.+.;.:.:.:.o.K ` o. .] ] ` E L K K E W H Z x g x x x m b m c x m b z e 0 9 0 e r r g h b M A A H Y ! _ _ ! ` H W Y x i i u i i i i i i i i i i u u u e r e r e = + @ $ < i p k l C A A ",
"L G Z b b k g i 2 $ + + % , 0 e q q q q e e r r r r r r r t t u d V E } ` ~ ^ ! E E T T D A M M M g i e r e e r p k b N b x x x x b F Y ` } o...o. .} ~ ' ' ` ' ` G x K +.+.6.6.6.6.6.-.+.6.i.t.k.s.p.k.m.V.V.V.N.N.V.V.V.V.V.V.C.C.C.C.Z.Z.C.C.V.V.sXnXgXgX#XY.i.i.p.a.n.p.0.>.0.m.W.[.5X3XoX].W.0.;.;.6.y.k.M.C.W.:X9XGXJXJXJXZXmXZXZXGXVXGXGXGXbX3X>X{.`.B.a.v.B.`.[..X].U.U.wXiXyXmXZXVXCXCXvXZXZXZXZXZXZXZXmXZXZXZXZXZXZXZXZXZXZXZXZXZXZXZXZXZXZXZXZXZXZXZXZXZXZXZXZXZXZXZXZXZXZXZXZXZXZXZXZXZXZXZXZXZXZXZXZXZXZXZXZXZXZXZXZXZXZXZXZXZXZXZXZXZXZXZXZXZXZXZXZXZXZXZXZXZXZXZXZXZXZXZXZXZXZXZXZXZXZXZXZXZXZXZXJXmXmXZXZXZXZXZXZXZXZXZXZXZXZXZXZXZXZXZXZXZXZXZXZXZXVXVXmXbXiX4X'.C.m.n.Q.Q.W.A.m.p.p.C.[.>X4XsXZXZXZXZXZXZXZXZXZXZXZXNXsX5X3X[.C.V.i.;.&.&.-.>.A.C.[.1XOX[.`.Z.i.>.>.0.0.0.i.a.m.[.fXSX5XgXlX.Xm.m.V.C.C.C.V.V.V.V.V.N.m.m.m.m.m.m.k.k.k.k.m.n.p.:.*.4.*.+.+.&.:.6.>.X.+.o.! K K Q ` ` ! `  .o.} ~ Y G Z n b b b m c x n n b a e 9 9 0 q q r i k l b M Z G Y W ] ! Y Y ~ W I b g i i i i i i i i i u i u u u e r e e r 0 % @ O @ < p p h v V Z ",
"G Z b c k p r , @ o @ $ > 0 r 0 q q r e r r i i t t i i p t u a S ! | } ~ ! Q Q E Y H F Z M b c h i e e 0 r i g c M Z Z b x x x Z H ~ } +.+.&.&.X.X.} } ] ] ! K Z v Y -.+.;.0.6.>.&.+.o.&.6.;.+.s.i.i.s.m.V.V.V.V.V.V.V.V.V.C.C.C.C.C.C.T.C.V.M.N.tXSXnXfXkXdXOXc.i.y.p.n.k.p.0.:.i.C.].1XtX>X].oXV.;.&.:.0.p.m.V.Z.!.<XmXDXJXKXJXZXmXZXGXVXDXGXKXJX7X>XoX{.S.v.a.N.W.[.oX].Q.m.,XeX8XxXZXVXVXCXvXvXZXZXNXZXZXZXmXZXZXZXZXZXZXZXZXZXZXZXZXZXZXZXZXAXZXZXZXZXZXZXZXZXZXZXZXZXZXZXZXZXZXZXZXZXZXZXZXZXZXZXZXZXZXZXZXZXZXZXZXZXZXZXZXZXZXZXZXZXZXZXZXZXZXZXZXZXZXZXZXZXZXZXZXZXZXZXZXZXZXZXZXZXZXZXZXZXZXZXZXZXZXZXZXmXNXZXZXZXZXZXZXZXZXZXZXZXZXZXZXZXZXZXZXZXZXZXZXZXVXmXnXbXtX:XW.m.k.V.].].W.V.a.V.W.W.[.>XtXmXZXZXAXZXZXZXZXZXAXAXJXMX9X>X{.N.N.a.0.-.+.-.>.n.T.T.OX5XOX].W.V.0.>.6.0.w.q.p.n.T.tXgXaXaXHXHXSX].m.m.C.C.C.C.V.V.V.V.N.N.m.m.m.m.m.m.k.p.p.k.m.p.+...6.0.;.+.+.-.:.>.>.&. .E F Z G E ` ` [ +.&.&.X.o.~ E H F Z b m b x M Z M b k p 0 6 9 0 q q p h h l M Z F Y T T Y ~ ~ ~ ! E Z k i u i i i i u u u u u u u u r r r r i 0 $ @ X O 2 p p p k v ",
"Z b c k g i , @ @ O @ > 0 i r 0 q q q q i i i i p p p p a u a n ` | ` ` ! Q Q E T Y Z Z Z b k h i r e r 0 t p k Z A Z Z b x x x H ! } o.+.+.+.+.&.X.o. .} ` K V S ' -.&...y.;.;.+.` ` ..>.>.' ' i.t.t.i.V.V.V.V.V.V.V.V.V.V.C.C.C.C.C.C.C.V.n.a.fXHXDXnXhXnXHXdXQ.s.y.p.k.k.a.y.6.6.k.W.[.tX4X].].[.p.;.;.6.y.k.V.V.W.;XsXxXmXJXJXJXZXmXGXGXDXGXJXGXhX;X}.[.W.N.a.N.Z.]..X]. XI..XwXtXxXJXVXVXVXVXvXZXZXNXZXZXZXmXZXZXZXZXZXZXZXZXZXZXZXZXZXZXZXZXZXZXZXZXZXZXZXZXZXZXZXZXZXZXZXZXZXZXZXZXZXZXZXZXZXZXZXZXZXZXZXZXZXZXZXZXZXZXZXZXZXZXZXZXZXZXZXZXZXZXZXZXZXZXZXZXZXZXZXZXZXZXZXZXZXZXZXZXZXZXZXZXZXZXZXZXZXZXZXNXmXZXZXZXZXZXZXZXZXZXZXZXZXZXZXZXZXZXZXZXZXZXZXZXZXVXmXxXyX9X!.T.V.m.C.[.].W.N.0.k.Q.T.].5XnXGXZXZXZXZXAXZXZXZXAXZXZXyX>X3XT.y.i.0.>.,.&.:.i.W.T.`.3XeX}.T.C.a.y.0.0.y.p.p.a.n.tXgXtXsXbXHXFXFXfX!.m.C.C.C.C.C.V.V.V.N.N.m.m.m.m.m.m.m.p.i.p.a.y. .` 4.6.+.] ! } +.-.:.&.+...] K G F K Q ` ..&.&.+.X.o.] ~ T F b m b x Z Z Z Z Z c i 5 6 9 9 0 i p g k m b Z F Y T T W ~ ! ~ ~ ! Z g i i i i i u u u u u u u u r r r r r i 5 $ O . @ 2 p t t a ",
"M z t i h < # X O @ > 0 e e e e e e e e i i i i p p p p s u Z `  . .} ~ ! ^ E E Y Z Z A b g u e e 0 0 0 0 i l Z D G G G n m m n Y ~ } X.&.&.&.&.....] W G G G K  .-.>.;.;.] +.:. .`  .;.6. .E  .i.y.y.i.m.V.V.V.V.V.V.V.C.C.C.C.C.C.C.C.C.a.w.7XHXHXGXGXnXnXHXkX4XC.y.i.k.m.k.p.y.0.p.C.`.oXtX1X].}.C.:.-.:.0.p.V.C.T.[.:XyXyXKXJXJXVXVXZXZXVXmXZXJXnX5XoX}.`.C.p.k.T.[.oX.X].U.Q.wXtXyXmXZXZXZXZXNXNXZXZXZXZXZXmXmXZXZXZXZXZXZXZXZXZXZXZXZXZXZXZXZXAXZXZXZXZXZXZXZXZXZXZXZXZXZXZXZXZXZXZXZXZXZXZXZXZXZXZXZXZXZXZXZXZXZXZXZXZXZXZXAXAXAXAXAXAXZXAXAXZXZXZXZXZXZXZXAXAXZXZXZXZXZXZXZXZXZXNXNXNXNXZXZXZXZXNXNXZXZXvXvXZXZXZXZXZXZXZXZXZXZXZXZXZXZXZXZXZXZXZXZXVXVXVXZXGXmXxXnX4XW.V.n.V.].[.].C.n.6.k.C.R.W.tXSXJXJXZXZXAXZXZXZXZXZXNXsX5XoX[.N.y.p.0.;.+.;.y.C.W.V.oXtX5X].T.m.6.0.0.y.y.p.p.w.>XSXhXfXhXSXSXSXSXSXaX[.C.T.W.T.C.V.V.V.V.V.m.m.m.m.m.m.k.i.0.0.y.p.+.K  .;.[ K G Q ] o.+.] ..+...O. .! T G K !  ...o.X.o.o.o.~ G n m b m n Z S F H Z k e 6 6 6 7 9 i p g l b M Z F Y T E ~ ~ ~ ~ ~ ! S p u u i i i u i i i i u u i i i i r e r 0 & + + = 6 t t i ",
"z r 0 i 5 % . o $ > 0 i e e e e e e e e i i i p p p p s s n Q  .o. .} ~ E E Y Y L C b b g t 0 0 e e e r i l Z D G G G G S n n S H ~ ..&...+.+. .} Q H F F T [ ..-.;.;.;.` G ` ] ` } +.>.+.` } ;.y.6.y.i.m.V.V.V.V.V.V.V.C.C.C.C.C.C.U.C.j.j.4XSXHXGXDXVXnXnXSXSXdX3Xn.y.a.k.k.s.i.0.y.m.].].3XaXoXoX].a.&.-.:.0.m.V.Z.!.!.2XyXDXJXGXVXVXZXZXVXZXZXJXDXfX>XoX[.T.p.k.V.`.oX[.].U.U.,X4X8XxXJXJXZXZXNXNXZXZXZXZXZXmXmXZXZXZXZXZXZXZXZXZXZXZXZXZXZXZXZXAXJXZXZXZXZXJXJXJXJXJXJXJXJXJXJXJXJXZXZXZXZXZXZXJXJXJXJXJXJXZXZXZXZXZXZXZXZXZXAXZXZXZXZXZXZXAXZXZXZXZXZXZXJXZXJXJXZXZXZXZXZXZXJXJXJXJXJXJXJXJXJXJXJXZXZXZXZXvXZXZXZXZXZXZXZXZXZXZXZXZXZXZXZXZXZXZXZXZXZXZXVXmXJXDXnXxXsX;XT.m.n.C.[.[.W.M.w.y.N.T.].oXhXDXJXJXZXZXZXZXZXZXZXJXmX7X{.].T.V.k.w.>.&.X.:.p.T.W.T.3XtXoXT.V.k.0.y.y.i.p.p.w.V.hXhXfXbXSXSXSXSXnXCXSXaX.XT.].'.V.V.V.V.V.V.m.m.m.m.m.m.k.i.y.0.0.y.:.! K `  .] E Y E E ! E ` ..+.*.+.O.[ E K G H Q ] ..X.X.o.} E Z Z n n Z Z S F G D M g i 0 6 5 9 0 i p g l b M Z F Y T ! ~ ~ ~ ~ ] ~ F a u i s i u i i i i u u i i i r r r r q r ; $ & - 2 0 r ",
"e 2 r 5 & + o & < 0 i r e e e e e r e e i i p p p p p h V ~ X.o.o. .} ` E E Y Y F b v k p e 0 t e e i p k Z D G U U G G G G G G Y ~ } X... .] ! E Q `  .o.+.+.+.&.+.+.&. .` Y Q `  .;.>.#.` +.i.6.6.0.p.m.V.N.N.V.V.V.V.C.C.C.C.U.U.U.V.a.iXHXSXDXDXVXVXmXgXgXSXHXfX].y.p.k.k.k.s.y.0.p.C.`.[.eXeX[.[.T.;.+.;.6.a.m.C.T.T.:XyXbXJXVXVXVXZXZXZXZXNXZXGXSXwXoX}.].k.k.m.T.[.[.[.T.I. X3XyX8XLXKXNXZXZXNXNXZXZXZXZXVXmXvXZXZXZXZXZXZXZXZXZXBXBXBXZXZXZXZXJXmXDXDXDXmXmXmXmXmXmXmXmXmXmXmXmXMXMXMXMXmXmXmXmXmXmXmXmXmXmXmXmXmXmXmXmXMXmXmXmXMXMXMXMXmXmXmXmXmXmXmXmXmXDXDXmXmXmXmXmXmXmXmXmXmXmXmXmXmXmXmXmXmXmXVXVXmXVXZXZXZXZXZXZXZXZXZXZXZXZXZXZXZXZXZXZXZXZXVXVXZXJXmXsXbX9X!.C.m.m.W..X'.T.a.0.k.T.].].4XFXDXJXJXZXZXZXZXZXZXZXKXsX2X[.].C.m.n.6.;.+.&.y.V.R.T.}.eX4XT.C.k.y.0.i.i.p.p.p.p.tXSXsXbXSXSXSXSXmXnXnXSXSXdXi.k.W.T.V.N.V.V.V.m.m.m.m.m.m.k.y.y.6.6.y.p.*.Y Y O.:.&. .Q K Y ` ] ` ` O.+.+.O.+. .] ! ! ` ` o.o.o.} ! Y H H H G Z Z F F S Z b c p e 6 7 9 9 q i g c b M Z G Y E ! ~ ~ ` ] } ~ Z a i s s i u u i i i i i i i r r r r r r 0 ; @ & - < 9 ",
"; 6 5 = + . & < r p i e e e e e e r e e i p p p p p g m ] X.X.+.+. .} ~ Y Y K K Z b k t e 0 e i u i a k Z D D G I I I I G W W G W ] ] } ] E Q ] +.;.>.:.-.+.+.o.+.....+.o.] ` `  .+.6.+. .+.>.6.>.>.0.p.m.V.N.N.V.V.V.V.C.C.C.C.U.U.C.m.[.FXgXhXDXDXVXVXmXnXhXgXFXFXfXV.s.s.k.k.k.i.0.y.y.T.`.>XdX].W.W.y.+.&.;.y.m.V.Z.C.W.4XyXGXVXVXVXZXZXZXZXNXZXGXDXfXOXXX].m.k.m.C.[.[.[.W.I.Q..X9X7XmXKXNXZXZXNXNXZXZXZXZXVXvXvXVXZXZXZXZXZXZXZXZXZXBXBXZXZXvXMXnXxXfXsXsXsXsXsXsXsXsXsXsXxXxXxXxX8X8X8X8XsXsXsXsXyXyXyXsXyXyXsXsXsXsXsXsXyXsXsXsXsXsXsXsXsXsXsXsXyXyXyXyXsXfXfXsXsXsXsXsXsXsXsXsXsXsXsXsXsXsXsXsXsXsXcXcXnXVXJXZXZXZXZXZXZXZXZXZXZXZXZXZXZXZXZXZXZXZXVXVXZXmXnXyXsX2XU.m.n.V.Q.].W.m.q.0.N.`.].}.tXDXmXZXJXZXZXZXZXZXZXJXGX4X{.Q.Q.V.m.p.>.=.X.6.p.T.`.C.3X3X[.C.N.i.0.y.p.p.p.p.p.;XnXsXsXnXSXSXSXSXmXnXnXSXSXSXQ.q.p.k.V.N.V.V.V.m.m.m.m.m.m.k.y.y.0.6.p.k.k.*.] ;.y.0.:.o.] ` :.:.] K Q ` ..O.+.&.-.&.;.+.}  .o.o.} ! ! ~ ~ ~ W G S S Z Z Z Z M c g q q 6 6 6 9 i h m M M Z G E ! ~ ~ ] ] ] ] W Z h s s i u u i u i i i i i r r r r r r r 9 > @ + + + ",
"> ; % # # & , 9 0 0 0 0 e e 0 0 r r i p p p p p p a Z ] X.o.o.o.+. . .] ^ G V n Z v a e p e e i p g b D F F F F H T T Y ~ } } ~ H Y Y Y I E } :.6.>.;.-.o...o.o...;.;...` ` `  .-.;. .o.+.:.6.5.4.5.i.k.m.N.M.M.V.V.V.B.V.V.A.Y.I.k.C.,XiXfXfXgXSXGXmXnXnXnXnXhXSXFXSXeXk.k.k.m.m.k.i.y.0.k.T.[.eXeXT.T.W.:.&.&.>.p.M.V.C.Z..XyXnXmXnXMXvXvXNXNXNXvXmXVXnXeX]. XE.j.j.V.W.>X[.`.R.I.oX4X5XbXJXJXZXZXZXZXZXZXZXZXZXZXvXZXZXZXZXZXZXZXZXZXZXZXZXZXZXmXnXsXsXsXaXaXsXsXsXsXaXtXtXtXtXsXaXaXtXtXtXtXaXsXsXsXtXtXtXtXtXtXtXtXtXtXtXtXtXtXtXtXaXaXaXaXaXaXaXaXtXtXtXtXyXyXtXtXtXtXtXtXtXtXtXtXtXyXyXyXsXsXsXsXaXaXaXaXsXmXJXJXZXZXZXZXJXJXJXZXZXZXZXZXZXZXZXZXZXZXJXGXVXmXxXyXtX'.B.M.m.U.].].T.p.0.k.T.}.oX3XSXVXVXvXZXZXZXZXKXZXJXGXsX>XW.U.U.U.n.0.&...+.6.n.Z.`.oX1XoX`.A.s.y.y.p.p.p.p.p.Z.gXhXsXnXnXnXnXnXnXnXmXDXDXSXSXSX9XM.0.k.N.m.V.N.m.m.m.m.m.n.k.s.s.6.6.6.6.6.-.-.+.*.-.*.+.+.o.&.:.+.` Y K T _ ` &.:.;.-.;.&.X.~ H n G / ] } } } ` Y F V V Z S Z M b k a u 6 5 5 0 g c M M Z S K Q ! ` ` ] ] [ ] W Z a s s i i i i i i i i r r r r r r e e 0 9 & X X . ",
"$ # . + = < 9 0 0 0 0 0 e e e e r r i p p p p p a Z ~ o.o.o.X.o.o. . .` K F F Z Z v a u p t r p k b A A F F G G T E W ~ X.=.=.X.] H Y T ! X.:.;.;.+. .} ] ! ` } :.&.} Q ] ..&.&.+.o.+.o. .:.i.s.6.6.s.k.m.N.B.m.V.V.V.B.N.V.c.t.5.6.oXfXlXlXfXfXnXnXmXnXmXnXnXnXnXSXHXSX}.N.k.k.N.k.p.y.0.p.V.W.>XeX}.C.C.m.-.X.;.0.k.m.C.C.Q.5XDXVXVXVXVXvXNXNXvXvXvXmXDXsX.X XQ.m.j.m.T.oX[.].].T.].OX5XfXVXJXZXZXZXZXZXZXZXZXZXZXcXvXVXVXZXZXZXJXZXZXZXZXZXZXJXnXsXsXdXdXaXaXfXfXdXdXaXaXaXaXaXaXaXaXtXtXtXtXdXdXdXdXtXtXtXtXtXtXtXtXtXtXtXtXtXtXtXtXaXaXaXaXaXaXaXaXaXaXaXaXtXiXiXiXiXiXiXtXtXtXtXtXiXtXtXtXdXdXdXdXaXaXaXaXsXbXmXVXmXZXZXZXGXGXJXJXZXZXZXZXZXZXZXZXZXZXJXGXVXmXsX8X2XS.M.M.C.R.].).V.t.y.m.W.oXOXeXHXVXCXBXZXZXZXZXZXZXKXnX5X.XQ.U.U.m.w.*.....0.y.N.T.`.}.#X[.A.N.i.y.i.a.p.a.a.V.fXnXsXnXnXnXnXnXnXnXmXDXGXSXnXbXSXSX9XM.y.p.m.k.N.m.m.m.m.m.n.k.s.i.>.>.i.>.:.;.;.+.' ' ' [ o...&.;.:.o.[ _ Q E L Y `  ...o...o.! S n ! o.o.X.X.o. .~ K Z V n n Z Z Z b b g t 0 5 0 i k Z S S G H E ! ' ` ] ] [ ] ~ E Z a u i u i i i i i i r r r r r r e e 0 9 > @   o ",
". X X % , 0 q 0 0 0 0 0 e e e e e u i p p p p p Z ~ X...X.X.o.o.o. .] ` K Y Y Y Z v k a p p p h b Z Z A F F G G Y W } X.&.=.=.&.&.] K ~ .. .} ] ~ ~ Q Q ` ]  .X.=.] ` ..&.&.&.+.}  .6.s.+.&.5.p.k.s.p.k.n.N.B.V.V.V.V.V.N.C.j.*.;.V.fXkXSXlXgXhXhXnXSXnXGXGXnXnXnXnXSXHXkXW.m.k.m.m.k.i.0.0.k.T.].3X3XT.C.T.6.X.+.>.p.m.V.C.U.>XnXnXVXGXVXmXvXvXvXvXvXmXGXgX>XQ.].U.k.k.V.'.[.[.[.T.C.}.4XsXmXJXZXZXZXZXZXZXZXZXZXZXvXvXVXVXVXVXZXZXZXZXZXZXZXJXGXbXsXtXdXdXdXdXfXfXfXfXdXdXdXdXiXiXyXaXdXdXdXdXfXfXfXfXaXdXdXdXdXdXdXdXaXaXaXaXaXaXaXaXdXdXdXdXdXdXdXdXdXdXdXdXfXfXfXfXfXfXdXfXaXaXdXdXdXdXdXdXdXdXdXdXdXdXdXfXfXfXhXnXnXmXVXVXVXGXZXZXZXZXZXZXZXZXZXZXZXZXZXZXmXnXsX7X;XV.n.V.T.]. XT.s.;.s.T.].XX3XgXnXmXCXVXmXZXZXZXZXJXGXaX>X'.Q.C.C.j.4.O.] &.m.m.C.].`.`.}.Z.N.p.y.y.p.a.a.k.N.5XnXnXnXnXnXnXnXnXnXnXmXDXGXbXfXbXbXnXSX5Xa.>.i.V.m.N.z.k.k.m.m.n.s.i.-.6.6.:.5.5.6.-. .` ` [  .o. ...;.+.+.+.O. .` E G F Z V b n Z K ! ..X.&.-.-.-.+.} E G Z n b Z D Z M b c k i 0 e p c Z D F G F K Q ~ ` ] ] ] ] ] ~ W V a u u i i i i i i r r r r r r e e 0 0 0 = X O ",
". . + 1 5 0 0 0 0 0 0 0 e e 0 e e u i p p p p g ] X...X.X.X.X.X. . .] ! K Y Y K n v z k p p g l A A A Z F F F G Y ~ X.:.,.-.-.,.-.&.X.] ] ~ ~ ~ } } o...-.-.&.o...` [ ;.;.&... . .+.:.k.y.+.+.q.N.k.k.k.a.M.B.C.V.V.V.V.C.V.i.*.V.fXFXFXfXgXSXSXsXgXSXnXGXGXmXmXmXnXnXSXHXeXV.m.m.m.k.p.y.0.p.V.`.].>XoXT.Z.k.-.o.;.0.k.m.V.U..XsXsXnXnXVXVXmXVXvXvXvXmXGXnX3X[.].T.m.k.m.`.`.].oX].V.R.4XtXnXJXZXZXZXZXZXZXZXZXNXZXvXvXVXVXVXZXZXZXZXZXZXZXZXJXxXsXfXdXdXdXdXdXfXfXfXfXdXdXdXdXyXyXyXyXdXdXdXdXdXdXdXdXdXdXdXdXdXdXdXdXtXtXtXtXtXtXtXtXaXaXaXaXaXaXaXaXdXdXdXdXfXfXfXfXfXfXfXfXaXaXaXdXdXdXdXdXdXdXdXdXdXdXdXfXfXfXtXtXsXxXbXnXmXmXmXZXZXZXZXZXZXZXZXZXZXZXZXVXmXhXaX7X!.M.n.W.Q. X].k.4.;.m.Q.].OXtXnXnXnXCXZXZXZXZXZXZXKXGX1X[.].Q.C.n.0.*.&...p.V.N.A.}.`.A.T.V.k.0.y.y.p.a.k.n.W.HXgXgXnXnXnXnXnXnXnXnXDXDXnXsXsXDXnXnXnXSX2Xp.-.y.k.m.z.k.k.n.n.n.p.s.o.6.-.>.6.6.6.*.+.+.o.+.....+. .&.;.*.;.:.:.;.;.&. .! H Z Z G ~ } X.$.&.-.-.:.;.+.` ! Y S Z Z Z Z Z M b z g g p h b Z Z D F G H E ! ` ] ] ] ] ] ] ] Q Z k i i i i i i i r r r r r r e e 0 0 0 5 + X ",
". % > < 0 0 0 0 0 0 0 0 0 0 0 0 e i i i e p m ! o.o.o.o.o.o.+. . .' E Y K Y H Z S n x a a z M A A A A F Z F F G W ..=.-.-.-.;.:.;.;.-.-.o.+. .+.6.y.y.6.6.>.>.:.=.....=.=.X._ ] +.+.&.>.s.:.;.*.i.m.m.k.:.0.C.N.N.V.m.m.V.6.4.W.FXkXgXgXgXgXgXgXfXfXhXDXGXmXmXmXmXnXnXnXHXFX>Xm.V.V.m.p.y.0.0.p.V.C.].3X[.C.N.y.-.&.:.0.V.V.C.W.>XhXsXGXmXvXVXVXVXVXVXmXDXHXfX.XoX.XU.k.k.C.[.oX{.[.T.C.oXtXsXJXZXZXZXvXZXZXZXZXZXZXVXVXZXZXZXZXZXZXZXZXZXZXZXMXsXsXfXfXdXdXdXaXdXdXdXdXtXtXdXdXfXfXfXiXaXdXdXdXdXfXfXfXdXdXdXdXdXdXdXaXdXdXdXdXdXdXdXdXdXdXdXdXtXtXaXdXdXdXdXdXaXaXaXaXfXfXfXfXfXdXdXdXdXdXaXaXdXdXdXdXdXdXdXfXfXfXfXfXfXbXbXbXnXmXmXZXZXZXZXZXZXZXZXZXZXZXVXGXnX8XaX5XZ.m.m.T.].XXQ.k.-.4.C.}.].3XdXnXnXVXVXZXVXZXZXZXZXJX8X>X[.].T.V.p.:.&...;.k.C.T.[.`.T.T.C.k.0.>.w.u.a.v.N.B.sXnXnXbXnXnXnXnXnXnXnXGXGXDXsXxXnXnXnXbXbXgXnX2XC.>.6.k.I.j.i.6.>.6.T.k.o.+.6.6.6.6.:.+.+.O.+.O.o.+.*.*.:.6.:.4.0.y.6.5.:.:.:.;.;.;.-.&.X.o.X.&.-.:.6.:.&.} ] E Y F Z Z Z Z M b b z k k c c M Z D D Z F H E ` ] ] ] ] ] ] ]  .` G z u t p p p i i r r r r e e e 0 0 e 0 - X ",
"% < 5 < 8 0 0 0 0 0 q q e e e e u u u u a m W o. . . . . . . .} } ! Y K F F G F S n z k z b A A A A F F G S G Q ..&.-.-.;.:.:.:.:.;.:.;.-.o.X.y.0.y.y.0.0.0.6.0.p.,.=.:.&. .^  .&.+.-.>.y.y.0.5.6.k.V.V.y.+.-.X.+.m.s.V.j.q.Q.fXSXkXgXhXhXhXhXhXfXdXgXnXGXmXmXmXmXmXnXnXnXHXSX[.V.M.m.k.y.0.0.0.p.V.W.}.oXW.A.n.>.&.&.6.k.V.V.T.].tXhXsXnXnXmXmXnXnXnXnXnXnXfX3XoXoXQ.k.k.V.W.[.[.[.W.V.].5XtXmXNXZXZXvXZXZXZXZXZXVXVXVXZXZXZXZXZXZXZXZXAXZXAXMXsXfXfXfXdXdXdXaXdXdXdXdXtXtXdXdXfXfXfXaXaXaXdXdXdXfXfXfXdXdXdXdXdXdXdXaXdXdXdXdXdXdXdXdXdXdXdXdXtXaXdXdXdXdXdXdXaXaXaXaXaXaXaXaXfXdXdXdXdXdXaXaXdXdXdXdXdXdXdXfXfXfXfXbXnXnXmXmXmXmXmXZXZXZXZXZXZXZXZXZXZXZXVXVXnXtXtX>XV.m.V.T.Q.].T.s.;.s.T.]..XwXfXnXnXnXmXVXGXGXVXVXKXnX2XoX}.Q.C.n.0.,.+.X.0.m.C.W.}.}.`.T.a.0.>.6.y.p.v.n.C.2XhXhXnXnXnXnXnXnXnXnXGXmXnXsXxXnXnXnXbXbXnXnXnXnXfX>XC.k.j.;.` [ ` y.Z.6.>.s.s.i.6.5.;.@.+.+.-.+.o.O.&.&.;.y.5.4.5.6.0.q.0.0.0.0.0.0.>.:.-.&.+.&.-.:.:.:.;.+.] ! ~ Y Z n n Z M M b b k c c c M M Z Z D Z G E ! _ ` ] ~ ` ]  . . .` G k p u p i i i r r r e e r r e e 0 2 @ X ",
"1 , > - 0 r r 9 0 0 0 0 r r r u i u s k n Q } } } } } } ` ` `  .] Q K H F Z Z Z Z m z z b M Z A A D F F H H Q ..&.-.-.:.:.:.:.:.>.>.>.>.y.>.6.p.i.y.y.i.0.>.>.y.p.>.:.6.6.:.+.;.;.-.-.:.6.y.i.0.6.k.C.C.p.&./ } ] 4.j.V.z.oXFXSXSXgXgXgXfXfXfXfXfXfXfXhXGXmXmXvXvXmXnXnXnXSXHXsXZ.M.m.k.y.0.0.6.0.C.W.].>X[.`.T.a.:.&.;.q.k.V.C.C.4XfX8XsXxXxXsXsXsXsXsXyXsXfXtX.X,X.XV.k.k.C.`.[.'.].V.C.3XtXsXNXZXZXVXVXZXZXZXZXZXZXZXZXZXZXZXZXZXZXZXZXZXJXnXsXfXfXdXdXdXdXaXdXdXdXdXtXtXaXdXdXdXdXdXaXaXdXdXaXfXfXfXaXaXaXaXdXdXaXaXaXaXaXaXaXaXaXaXaXaXaXaXaXaXdXdXdXdXdXdXfXdXdXdXtXtXtXdXfXfXaXaXaXaXaXaXdXdXdXdXdXdXdXfXsXfXbXnXmXmXmXmXGXVXmXmXZXZXZXZXZXZXZXZXVXGXGXmXsXtX5XT.p.k.T.W..X}.k.0.6.V.).].3XuXfXgXnXcXmXmXmXmXVXVXJX7X>XoX].T.V.w.,.;.X.>.m.C.R.oX[.[.W.V.0.>.>.0.u.p.n.N.[.nXnXsXnXnXnXnXnXnXmXmXHXnXsX8XnXnXnXnXnXnXnXhXbXnXSXkXtXR.i.#.~ ..y.T.V.k.V.N.i.q.5.3.;.;.;.;.q.5.;.:.6.:.O.6.q.:.;.:.4.0.y.y.y.y.y.y.0.>.:.:.-.-.-.;.;.;.;.;...]  .` F Z n Z n n n n m m c c b b M A I H G H L K Y Y W ! ] ]  . .[ _ G z p t i i i i r e e 0 e 0 5 2 > = o o ",
", 1 , 9 9 0 5 1 0 0 0 0 i i i i s s k S ! } ` ~ } } } } o.] E Q ] Y H H H Z V Z b z z x Z A Z A A D F F F ! +.;.-.-.:.>.:.:.:.:.>.>.0.y.i.n.`.C.s.y.y.s.>.;.:.y.0.;.;.6.0.s.6.6.4.-.-.:.>.y.y.0.s.s.V.C.p.,.-.>.&.+.3.h.3XkXlXgXSXgXgXgXfXfXfXfXfXfXtXsXDXmXNXBXNXvXmXnXnXHXnXSX>Xm.m.k.y.y.0.0.6.C.].].[.>X{.`.Z.i.:.;.:.j.N.C.T.].5X5X7XtXsXtXaXaXyXyX9XtXtXtX[.>X,XQ.m.k.V.T.'.`.`.C.V.oX4XtXGXZXVXVXVXVXZXZXZXZXZXZXZXZXZXZXZXJXJXJXVXmXVXxXsXfXdXdXdXdXdXaXdXdXdXdXtXtXdXdXdXdXdXdXaXdXdXdXdXfXfXfXaXaXaXaXdXdXaXaXaXaXaXaXaXaXaXaXaXaXaXaXaXdXdXfXfXfXfXfXfXfXfXdXtXtXtXdXdXfXaXaXaXaXaXaXdXdXdXdXdXdXdXfXhXbXnXmXLXNXZXZXZXmXmXmXZXZXZXZXZXZXZXZXVXGXGXnXaXtX4XN.p.m.T.W.oX].k.i.p.T.R. XrXdXdXhXxXxXnXmXmXmXmXmXnX1X>XoXQ.C.k.:.&.=.=.p.T.].oX3X].[.T.p.>.6.0.0.p.a.n.N.hXSXhXhXnXnXnXnXnXmXmXmXDXsXyXsXnXcXnXnXnXnXgXgXgXnXSXgX4XoXk.+. .p.N.N.N.N.N.p.:.:.4.4.4.3.4.6.6.5.5.6.4.;...0.i.5.;.*.;.4.6.y.y.y.y.y.0.0.6.>.:.-.-.-.-.;.;.;.>.&.&. .Y F Z Z n n n n n m c c b b b b D Y Y G G G H H ! ! ! ! ] ` ' ' ! G z s i i i i e e 0 0 ; > > > 5 6 5 6 ",
"9 9 q q 0 9 5 < 3 3 r 0 r u i p z Z Y ~ ~ ~ / / ] }  ... .] ` ! T Y H F Z M b c z z b M Z Z Z Z D D D G ! ..-.;.;.:.:.:.>.>.5.5.0.y.i.s.s.N.T.V.N.a.s.s.6.@.;.+.-.6.q.6.i.i.t.t.6.6.t.y.6.0.y.a.a.k.k.y.p.y.X.o.:.+.:.V.wXuXlXgXkXSXkXgXfXfXfXfXfXfXiXtXfXGXZXBXBXBXvXnXnXgXnXnXfXW.m.k.p.y.w.0.w.a.C.T.].>X3X[.'.Z.p.:.;.0.k.A.R.].>X5X5X7XsX8XtXyXyXyXtXtXtXtX,X.X,X,XC.j.k.T.[.;X[.C.k.U.wXtXcXVXVXVXmXVXVXVXnXmXmXmXmXmXmXmXmXDXDXDXbXfXfXhXsXdXaXaXdXdXdXdXaXaXdXtXtXtXaXdXiXiXiXiXdXdXdXdXdXfXfXgXfXfXdXdXdXdXdXdXdXdXdXdXdXdXdXdXdXdXdXdXdXdXdXdXdXdXdXdXfXfXfXfXdXdXdXdXdXdXfXdXdXdXfXfXdXdXdXdXdXdXfXfXbXbXnXbXnXMXvXvXmXNXNXNXJXZXZXZXvXCXCXCXVXGXnXsXtXtX>Xp.y.V.T.Q..XV.i.j.m.T.].@XeXuXdXfXsXxXnXmXGXGXDXgX>XoXOXoXT.V.p.,.;.:.0.k.T.3XeX[.1X}.V.0.:.6.0.p.v.n.N.5XgXbXbXbXnXnXxXxXDXGXGXGXnXtXtXbXnXnXnXMXMXnXnXnXhXfXtX3X3XOXC.+. .y.;.i.s.s.s.i.4.;.;.5.i.6.6.8.i.i.y.6.6.-.+.y.p.0.&.&.;.:.p.W.T.p.y.0.0.0.w.0.0.>.,.&.;.+.*.;.4.6.-.` G H S n Z n n n n n m b z z c c b Z H I H H K Y ] &...! E ^ ` ` ^ Y F z d a p e 9 3 > = & - 2 9 0 0 e r ",
"9 9 q q r r i i 5 - 3 e 6 6 i g S E ] ~ ~ ~ ~ ~ ] }  .....] ] ~ W T H F Z b z k z b M Z Z Z Z Z G D S Y o.-.;.;.:.:.>.>.>.5.6.6.y.y.s.s.s.k.N.n.k.p.i.i.;.o.+.+.-.0.s.t.i.s.i.s.s.s.s.s.0.0.i.a.n.n.s.>.>.>.] E ] y.].>X.XoX5XfXfXgXlXgXlXfXfXfXfXfXfXfXyXmXZXBXBXBXvXnXnXgXnXnXfXtXC.k.j.i.w.w.w.>.y.T.`.oX3X>XoX!.m.6.-.>.p.V.T.Q.}.3X3X5XyXtXtXtXyXyXtXtXtXtXwX,X,X,XT.j.j.V.].{.[.T.n.m.oXtXqXcXCXnXsXbXbXhXhXhXhXhXbXbXbXbXbXbXbXbXbXgXgXgXfXfXdXdXdXdXdXdXfXdXaXaXdXdXtXaXiXiXiXiXdXdXdXdXfXfXfXfXfXfXdXdXdXdXdXdXdXdXdXdXdXdXdXdXdXdXdXdXdXdXfXdXdXdXfXfXfXfXfXfXdXdXfXdXfXfXfXdXdXdXfXfXfXfXfXfXfXfXfXgXnXbXnXbXnXcXmXvXmXNXmXDXmXvXvXvXvXvXcXcXmXGXnXaXtXeX`.6.p.C.T.Q.Q.k.p.n.U.].3XwXuXdXdXfXhXbXmXDXGXHXgX4X].[.}.].T.k.0.;.,.6.a.C.oXdX3X[.oXT.p.:.:.6.w.p.n.n.{.hXbXbXbXbXbXnXnXnXGXGXGXGX8XsXbXmXnXnXnXnXxXnXnXnXnXtX1X>X>X.XR.q.+.^ ..p.i.6.5.4.-.;.q.k.k.j.j.j.j.k.s.s.s.s.s.:.;.0.6.:.;.6.p.C.C.V.p.y.y.y.w.w.y.0.>.>.&.o.+.@.;.5.;.o.E K H n Z Z n n Z Z n b c l z z c b Z H Y K Y Y `  . .! ! ! ! ` ! E K G v p p 0 > , 9 5 - , 6 e 0 e r r ",
"0 q q r 0 q i i i 6 > 2 = > 7 g F ~ ] ~ ~ ~ ~ ~ ] ] ] ..[ ] _ ! ! T G Z b k g z b M Z Z Z Z Z Z F F Y ] +.;.>.:.>.6.>.>.6.6.0.0.y.p.s.a.a.p.a.p.y.0.0.>.;.+.;.5.6.i.s.i.s.j.k.c.k.k.k.p.0.y.i.k.k.k.y.o. .X.] ! +.T.3X>X,X>X>X3XuXfXfXgXlXlXfXfXfXfXbXbXyXbXmXZXZXBXvXnXnXnXnXnXSXSX,Xm.k.p.p.y.y.:.:.k.W.[.3XeX3X>XT.y.;.;.y.m.T.R.].oX>X>XtXsXtXtXtXtXtXtXtXtXuXwX>XoX.Xm.s.k.`.}.}.W.m.p.W.5XtXsXSXbXfXfXfXfXhXhXfXfXgXgXgXgXhXhXhXhXSXnXgXgXfXdXdXdXdXdXdXdXfXaXdXkXgXfXdXtXiXiXtXtXdXdXdXdXfXfXfXfXdXdXdXdXdXdXdXdXdXdXdXdXdXdXdXdXdXdXdXdXdXdXfXdXdXdXfXfXfXfXfXfXfXfXfXdXfXfXfXfXdXfXfXfXfXfXfXfXfXgXgXnXnXbXbXbXnXcXmXmXmXmXmXDXmXMXMXnXVXVXVXVXGXDXnXaXdX4Xm.>.k.T.T.Q.W.p.y.V.].3XwXaXdXdXfXfXbXnXDXDXGXSX5X[.].].[.Q.W.a.:.;.:.0.V.oXdXdXOX4X[.N.6.=.>.6.y.n.a.`.sXnXbXnXbXbXbXnXmXDXJXGXDXbX7XxXnXmXnXnXnXnXxXnXnXfXtX4X3X4XoXW.V.y.` K +.p.5.;.+.+.5.6.s.k.V.j.z.k.k.z.k.k.k.p.k.p.:.>.y.>.;.0.p.i.p.k.i.y.y.y.w.w.w.w.w.0.-...o.+.*.;.;.&.o.E H H Z Z Z n Z Z Z n b b c k z c b Z Y Y T Y W ~ ] _ ` ! ! ! ! E Y H v s 6 @ - 9 i 5 3 9 e r e e r r ",
"0 q q r i i i i p i 5 0 2 2 6 e n T ] ] ~ ~ ~ ~ ` ` ] ] ] ~ W T W Y Z b g p g b M Z Z Z Z S Z Z S Y ] +.+.:.6.>.6.6.6.6.6.0.0.y.p.p.p.a.p.a.v.p.y.i.0.>.5.i.s.i.p.s.s.p.j.k.V.I.V.N.k.p.s.p.s.k.s.i.-.` Y ! ..&.:.m.W.[.4XwX4X>X3XtXfXfXfXlXlXlXgXbXnXDXiXyXMXJXZXVXmXnXnXnXnXhXbXSXfX].k.j.p.p.p.>.:.6.T.].>XtXtX>X].m.:.;.6.s.V.].].!.[.>X7XsXfXtXtXtXtXtXtXtXtXuX3X[..XI.k.k.T.[.[.W.V.y.V.>XtXdXgXkXlXFXFXkXkXlXgXgXgXgXkXkXSXSXSXSXHXSXkXfXdXdXdXdXdXdXdXdXtXtXfXHXHXgXfXtXiXiXiXiXdXdXdXdXlXfXfXdXdXdXdXdXdXdXdXdXaXdXdXdXdXdXdXdXdXdXdXdXfXfXfXfXdXdXdXdXfXfXfXfXfXfXfXfXfXfXfXfXdXfXfXfXfXfXfXsXhXhXnXnXnXbXbXbXnXnXmXmXDXDXDXDXDXDXmXmXGXGXGXGXGXHXSXfXdXoXi.0.V.W.T.Q.C.j.p.T.3XwXaXuXlXlXkXkXSXSXSXDXnXfX1XW.].].].W.C.i.:.:.0.a.W.5XkXeX4X5XZ.p.,.=.6.0.p.M.N.5XnXhXbXbXbXbXbXnXDXGXGXDXbX9XsXbXnXnXnXnXnXnXnXSXgX5XeXeX4X>XoXm.y.&.+.o.] ;.-.O. .#.k.s.s.k.N.k.k.N.k.k.k.k.k.k.s.N.k.p.y.y.6.>.y.m.k.k.i.y.y.y.p.p.0.0.y.y.>.&.+.+.&.&.&.;.&.+.~ Y H Z Z Z Z Z Z Z Z b c z k z c b G Y E W E T W _ ` ` ! E E Y K H V y = = 6 i 5 3 0 r i i e e e e ",
"0 q q e i i i i a k k z p k x x x S Y Y Y ! ` W ~ ~ ! ` _ ~ T Y Y H Z d p a c b Z Z D D Z Z F F G } &.-.;.:.>.>.0.0.0.0.q.p.p.p.p.p.j.j.p.j.n.N.C.n.>.:.k.k.k.k.k.k.N.N.V.V.V.V.N.N.k.k.m.k.s.k.k.6. .K K F Q 0.y.0.p.U.>X,XtXtXwX4XwXfXlXlXlXgXSXnXmXmXGXbXyXbXGXVXVXVXnXxXhXhXhXgXlXtXT.m.p.p.p.w.6.6.a.W.oX5XtX3XoXW.y.+.-.i.N.T.T.V.!.[.2XyXnXfXtXtXeXeXeXeXlXtX,X]..XU.n.6.k.W.[.].V.0.i.`.tX5X5XtXtXiXiXiXfXfXlXSXSXSXSXlXgXgXSXSXSXSXgXfXfXfXfXdXdXiXiXiXdXdXfXkXfXfXfXfXfXlXlXfXfXdXlXlXlXfXfXdXdXdXdXdXdXdXdXdXdXdXdXtXfXdXiXfXfXfXfXfXfXfXfXfXfXfXfXdXtXtXtXtXtXtXfXdXfXfXfXfXfXfXfXfXfXfXfXfXgXgXnXbXbXnXnXnXnXnXnXnXbXbXbXbXnXnXnXnXnXnXnXnXSXgXfXeX>XZ.0.0.C.U.W.Q.k.0.i.R.,X3X3X3XuXuXdXdXfXsXyXsXsX1X`.T.[.[.Q.T.m.>.:.:.p.V.1XkXdX3X6XT.k.>.&.;.;.0.m.n.>XsXsXsXbXxXxXxXnXmXGXDXHXgXyXbXnXmXmXmXGXnXDXhXhXfXaXaXdX4X>XoX].;.+.&.6.:.] ] ! H E +.;.y.s.m.k.s.k.N.N.N.N.N.k.k.k.k.k.k.p.i.0.6.y.m.C.m.p.y.y.y.q.w.0.w.0.0.0.>.-.+.;.;.;.;.;.-.&.} Y F Z n Z Z Z Z Z Z b c z k c Z G H Y Y W W W ! ! W Y Y K H F V k e a x m g r i p i i r 0 0 e e ",
"0 q q e i i i i p g M F G G Y W Y S Z G Y E W W W ! W ! ! W Y Y F C k p a c b M Z D D D F Z F F ` +.;.:.>.>.6.6.0.0.0.y.p.p.p.p.p.p.j.j.j.n.N.C.V.p.6.y.k.k.k.k.k.N.N.V.V.V.V.V.N.0.-.-.y.i.5.;.;.o.^ K K Q [ 4.p.m.k.0.C.[.5XfXgXwX4XtXdXfXSXbXnXMXmXVXGXbXiXtXmXVXVXVXmXnXxXhXhXgXlXlX3XC.a.w.p.p.0.6.y.V.].3XfXtX4X'.V.5.+.-.k.C.C.C.C.W.;X7XtX3X>X3X3X3X3X4X,X[.Q..XQ.V.j.6.j.U.Q.[.C.p.y.V.;X>X{.3X4XwXwXwXwXeXuXtXtXtXtXtXtXtXtXdXfXfXfXiXtXdXdXdXiXdXdXdXdXdXfXkXdXdXdXdXdXdXdXdXdXdXdXdXdXdXdXuXdXdXdXdXuXuXuXuXtXtXeXeXiXtXtXiXfXfXlXlXlXgXkXSXSXlXfXfXfXfXfXfXfXfXdXdXlXlXlXlXfXfXfXfXfXfXdXdXgXgXSXFXHXDXDXDXDXFXSXnXgXgXgXgXgXgXgXhXhXgXgXgXgXtX4XoXW.N.w.w.Z.U.T.W.i.4.i.].}.XXoXOXOX3X4XwX5X5X5X5X>X`.m.C.W.T.U.m.0.;.6.0.m.W.tXfXeXaX}.N.p.:.;.:.0.a.V.`.sXfXsXsXxXxXxXnXnXDXGXGXSXtXyXSXmXmXMXMXnXmXnXsX5XfXgXdX3XoX3X].6.&.6.p.0.>. .Y Z Z F K ^ -.6.y.6. .5.N.N.N.N.N.k.k.k.k.k.k.k.k.p.y.y.p.C.m.p.p.y.y.w.0.w.w.0.0.y.y.5.-.;.;.;.;.;.;.-.&.] T G Z Z Z Z Z Z Z M b z k b Z F G H L Y Y T E L L G F Z F G F S Z F F I M g g p i i r 0 0 e e ",
"0 q e r i i i i p a Z ! X.} ] ] ~ E G Z V V F H T E W W W T Y H b g p a c b M Z D D S S F F K ! &.;.4.6.6.>.>.6.0.0.y.i.k.p.i.j.i.p.j.k.m.m.N.N.k.y.y.k.k.k.n.n.N.N.V.C.B.B.B.B.a.+.' ' ` +.@.O.o.` Q Q _  .+.;.0.m.V.p.y.V.[.eXgXfXwXwXwXtXfXbXmXmXZXJXDXgXtXwXsXGXVXvXvXnXnXbXfXfXlXlXdX[.n.u.p.p.y.6.0.p.T.>X5XSX4X1X].i.+...y.k.k.n.b.n.C.[.!.C.V.S.Z.S.T.T.C.N.V.Q.U.n.j.4.q.k.C.].T.n.y.a.V.N.m.C.W.Q.Q.Q.Q.Q.Q.Q.W.W.W.W.R.W.`.].].'.'.'.'.`.`.].].].].].].XXOXoXOXOXOXOXOXOXOXOXoXoXoX.XoXoXoX.XoX.XoXoX.X.X.X.XoX X}.].].Q.Q.].,X,X,X,X3X3XeXeXwX3X,XoX,X,X,X,XOXOXOXOXOXOXOXOXOXoXoX.X.X.X.X.XoXOXOX,X,X>X,X3X4X3XOXoXoXoXoXoX}.}.}.[.[.[.[.[.[.].W.T.N.a.p.p.V.V.V.V.6.5.s.T.N.V.C.T.W.Q.Q.'.'.'.`.`.V.n.y.m.M.n.b.p.=.&.6.p.C.oXdXtX5X5XA.y.0.-.>.0.p.M.W.tXfXfXsXsXnXxXxXnXnXGXGXnXtXiXfXSXmXMXMXMXGXDXsX5XfXgXfXeX>X3XoX0.&.p.m.k.p.*. .T H V n H } >.y.6.-.G o.k.N.k.N.N.k.k.k.k.m.m.m.m.m.p.i.p.m.m.p.k.i.y.q.w.w.w.w.w.0.y.q.5.;.;.;.;.;.;.;.-.&.] E H S S S S D D Z M b c b Z Z Z F G G H K Y H F Z b V K E K K E E E ! Z g i p i i r 0 e e e ",
"0 0 q e i i i i k a Z ~ X.X.o.] ] ` Q Y p s k b G Y T E T Y H F k i p c b M Z Z Z Z S S F F ! +.5.6.6.5.6.>.>.6.0.q.i.p.k.j.j.j.p.p.j.k.V.m.a.p.i.y.k.m.n.n.n.N.N.V.C.C.C.B.B.B.n.:. .` +.i.s.5.#. .`  .[ +.+.4.q.p.m.V.k.a.k.[.wXlXkXiX5XeXtXbXnXmXVXJXnXfXuXwX5XSXVXvXvXmXnXnXsXfXgXfXdXtXC.a.y.p.y.0.0.6.m.oX[.5XfX4X[.k.>.o.;.5.0.0.<.0.0.p.p.p.p.p.u.y.y.y.s.k.z.m.V.j.w.4.:.4.i.C.T.N.a.a.n.i.0.0.j.n.n.k.k.j.j.h.i.i.i.i.i.i.y.s.i.i.p.p.a.a.s.k.k.j.z.k.k.N.C.N.k.k.k.k.z.z.z.m.z.k.j.j.s.s.j.k.k.k.k.k.k.k.k.k.j.k.s.s.k.p.p.k.k.k.k.k.V.C.T.R.C.V.k.j.k.j.k.k.k.z.z.z.j.j.j.j.h.h.h.h.h.h.h.h.s.h.i.6.4.6.i.j.k.s.i.6.i.i.i.i.s.s.s.s.k.k.k.k.m.k.k.p.p.N.n.p.n.k.a.p.6.i.k.k.6.y.y.s.k.p.w.<.<.<.>.6.s.k.0.0.0.0.4.,.&.;.0.V.W.tXeX4XdX}.s.>.>.,.0.p.a.n.>XgXfXfXsXsXnXxXcXmXDXGXGXhXtXtXiXfXmXmXMXMXnXhX7XtXSXfXtXeX3X[.p.:.a.V.k.k.j.&. .] ] K G Q o.5.y.i.:.X.p.N.n.k.N.N.k.k.k.k.m.m.m.m.m.k.p.p.p.m.p.p.k.i.s.p.w.w.w.0.0.y.i.q.;.;.;.;.-.-.;.;.-.&.} E G S S S F F D Z Z b c b Z Z A F F F G G F V d e V K E H E Q E ~ ~ D x h p i i r 0 e e e ",
"0 0 q r i i i s p a Z ~ X.X.X.X.o.} ~ E a 7 e s x F Y Y K K Z a i p k b b M Z Z Z Z Z Z G ~ +.5.5.5.>.5.6.6.>.0.y.i.p.k.k.m.m.p.i.k.V.V.m.k.p.y.y.p.m.N.N.N.V.V.C.C.C.V.V.V.V.V.N.k.y.;.c.h.@.h.8.@. . .+.O.+.*.6.y.y.s.[.V.i.k..XeXlXSXbXyX8XnXVXVXVXxXtXtXuXuXiXiXnXGXmXvXmXnXnXbXhXgXfXlX3XN.y.y.y.0.0.6.y.Z.[.>XtXeX{.T.s.;.@.*.;.>.,.=.;.4.0.0.0.y.y.y.y.y.i.i.i.i.k.j.q.:.;.;.5.s.N.N.k.p.p.i.6.>.y.0.0.6.y.w.0.0.6.6.6.0.0.0.6.6.6.6.6.6.5.6.6.6.5.5.5.5.y.y.y.i.s.i.i.q.q.q.q.q.q.q.q.q.6.6.i.i.i.i.i.i.s.y.i.y.y.y.y.0.s.p.k.k.a.p.y.6.6.6.q.p.p.p.y.0.0.0.0.0.y.y.y.0.0.0.6.6.;.;.;.;.5.6.0.q.i.q.6.4.5.6.s.k.i.5.;.;.;.:.5.5.5.5.5.6.0.0.0.0.0.y.0.;.:.N.A.N.n.i.-.&.:.p.n.a.p.p.p.p.p.w.w.0.0.0.0.0.i.6.5.:.>.:.:.,.&.>.k.C.3XeX3XeX1XV.0.>.,.:.w.w.a.W.hXhXsXsXhXsXnXnXmXVXVXGXsXtXtXtXtXtXbXnXmXmXhXsXaXgXgXfXtX5X4Xp.-.k.V.y.p.m.q.4.@.;.+.[  . .+.4.6.y.p.a.v.n.N.N.m.m.m.m.m.n.m.m.m.m.m.m.k.p.y.p.k.a.a.p.i.y.p.y.y.0.y.y.y.y.0.:.;.;.;.;.-.-.;.-.+. .E G F F F S S Z Z Z b z a z b Z F F D Z b p 7 z K Y E E ` ` ` ` ~ H x a p i i r e e 0 0 ",
"0 0 q q i i i s s d S ` +.+.+.+.X.o.] ! b u p s a n G Y H G b p a z b M M Z Z Z Z Z S F E  .4.t.5.5.5.5.6.6.0.y.y.i.p.k.k.m.V.k.k.V.C.V.k.p.i.y.a.m.N.N.V.V.A.C.C.C.C.V.V.V.V.V.V.V.N.V.E.x.#.3.j.i.-. .+.+.+.;.0.y.y.i.p.T.].s.h.T.eXiXiXfXmXVXVXVXcXyX7XeXeXeXiXiXyXnXVXVXmXmXMXxXhXhXgXkXdXOXs.i.y.0.0.6.0.i.Z.1XtX4X>X[.V.y.;.;.>.0.w.w.q.0.0.0.y.i.y.y.i.i.i.s.s.s.i.y.q.q.:.:.;.y.N.V.n.p.m.k.p.i.a.p.p.p.p.p.a.p.p.p.a.a.k.k.a.p.s.s.s.s.p.j.j.j.p.s.s.s.s.p.p.p.j.p.p.p.p.j.j.j.j.p.p.j.i.i.p.p.k.k.a.a.k.p.y.6.0.y.s.k.s.s.a.k.s.i.y.>.0.6.q.p.p.p.p.p.p.p.p.p.a.s.p.p.k.k.a.a.i.i.i.i.p.s.s.k.k.s.s.p.j.k.k.k.s.s.k.k.s.s.p.k.i.i.i.i.i.i.y.y.y.p.i.0.y.N.V.n.N.y.X.X.6.p.p.y.y.y.p.p.w.w.0.w.p.p.p.p.s.i.0.0.0.0.>.:.-.y.V.].tXwX3X3XC.i.0.:.:.<.w.p.W.tXgXhXsXhXhXsXnXnXVXVXmXxXaXtXtXtXtXtXyXbXnXSXhXfXfXaX5X{.>XoXk.0.m.m.p.6.6.6.6.6.4.;.*.-.-.@.-.-.;.i.n.M.M.M.n.m.m.m.m.m.m.m.m.m.V.V.V.m.n.k.p.p.p.k.a.a.s.p.p.p.y.y.y.y.y.y.y.0.:.;.;.;.;.;.;.;.;.+.} E G F F S S Z Z Z M b a z b Z Z Z M b z k u a G E ` ! ] ] ] ] ] H x a p i i r e e 0 0 ",
"0 0 q q i i i s s d F } +.+.+.+.&.&...} H n Z S x n Z F H F M c k b b M Z Z Z Z Z S G Y o.;.0.0.6.6.6.6.6.0.y.y.y.p.a.a.k.m.V.V.V.C.C.V.k.p.p.k.V.V.V.C.A.A.A.C.C.C.C.C.V.C.C.C.C.C.C.V.I.K.;.@.i.N.k.-.;.&.-.>.y.0.6.6.y.i.C.].V.q.I.3XuXlXGXJXmXxXyX7X7XeXeXuXuXiXtXtXnXGXJXNXvXnXxXgXgXkXdXuXT.s.i.y.0.0.6.>.a.{.1X1X{.{.`.n.0.;.0.w.n.n.p.0.0.0.s.s.k.k.N.N.N.N.N.N.k.i.6.6.6.6.0.s.V.C.V.a.V.V.m.k.k.m.m.m.k.m.N.V.Z.Z.Z.Z.T.Z.A.C.C.C.C.C.U.U.U.U.U.T.T.T.T.T.W.W.W.T.T.U.U.U.U.U.U.U.U.U.U.C.V.M.N.N.n.a.a.s.i.y.y.s.N.A.s.y.y.i.a.k.k.n.N.n.n.V.m.V.V.V.C.C.C.C.C.C.V.V.C.Z.Z.Z.Z.Z.Z.Z.Z.Z.A.A.C.A.Z.T.C.C.V.V.C.T.`.].U.C.C.C.V.V.V.V.V.m.k.k.a.k.N.V.a.k.n.n.A.s.:.6.i.p.k.a.k.k.k.k.k.k.k.m.k.p.p.p.j.h.s.i.q.0.>.;.:.k.T.3XdX,X,X].p.y.>.>.0.w.p.n.3XnXhXhXhXhXsXgXnXmXGXGXnXtX5XeXtXtXtXtXtXyXhXnXfXSXSXfX>X{.N.=.&.m.V.a.y.;.+.-.3.4.;.@.;.6.6.4.6.4.h.k.C.C.V.V.N.m.m.m.N.N.N.m.N.N.N.N.V.N.m.n.a.p.i.p.a.a.k.k.k.p.p.y.y.y.y.y.y.y.0.:.:.;.;.;.;.-.;.-.+.} E G G S S Z Z n M b b b M Z b b c b S G n x K ~ ] ` } } } } } Y x s p i i r r e 0 0 ",
"0 0 q q i i i s s d F  .-.-.-.-.-.-.&.X.] G F F S Z Z Z M b b b z c b b Z Z Z Z Z S H } ;.5.6.6.6.6.6.6.0.y.y.i.p.p.a.a.k.m.V.C.C.C.C.V.k.a.m.V.V.C.A.T.A.A.A.C.C.C.C.V.C.C.C.C.m.I.V.c.5.x.OXi.5.k.A.k.:.;.;.6.y.6.5.>.&.;.>.s.T.R.8.h.,XiXSXnXsX8X9X5X5XeXeXuXuXuXtXtXxXmXJXJXZXMXcXbXhXfXfXlX3Xm.p.y.0.0.>.-.0.V.W.oX{.>X{.W.k.,.,.0.M.n.p.4.6.y.p.k.C.T.R.].}.}.}. XT.N.h.y.q.y.m.T.C.C.V.k.i.0.0.i.k.m.m.V.N.V.T.T.[.[.[.[.].].W.W.W.W.W.W.Q.Q.Q.Q.Q.Q.].].].].].]..X X].Q.Q.Q.Q.Q.Q.Q.Q.Q.[.Q.C.C.V.M.k.s.s.s.p.i.s.k.C.T.k.i.t.s.m.V.W.'.W.C.C.U.T.T.I.I.T.T.T.T.R.R.T.T.C.T.T.R.}.}.}.[.[.].W.T.T.`.[.}.].].].].].}.}.Q.R.W.T.U.C.C.C.C.E.U.V.m.k.p.p.p.y.p.N.N.k.s.0.y.p.k.V.T.T.T.R.T.T.T.Q.].I.k.i.i.h.h.p.p.w.>.-.&.0.V.}.wXwXoX>XV.i.0.0.0.w.w.p.Z.sXhXhXhXhXhXgXnXnXGXGXGXsXtX5X5XtXtXtXtXtXtXaXfXgXgXtX>X[.V.=.=.6.y.p.0.6... .-.6.;.@.@.5.8.6.h.h.j.OXU.T.U.C.V.V.V.N.m.N.N.N.m.N.N.N.N.m.V.N.m.m.a.i.y.p.k.k.k.k.k.p.p.y.y.0.0.y.y.y.0.6.>.:.;.;.;.;.-.-.+.} E K F Z Z Z n b b b c z k g k b b Z H H Y ~ ~ ` ` }  . . .} Y k i p i i r r e 0 0 ",
"9 0 r i i i i p a x H o.-.-.-.-.-.&.X.o.] Y G Z n n n b p e g z k p p k b M Z S S H ~ +.>.5.6.6.0.0.0.y.p.p.p.s.s.s.s.k.k.m.V.T.W.V.k.p.k.m.V.C.C.Z.T.A.A.A.A.A.C.C.C.C.C.V.V.C.U.I.E.z.3.t.OXT.4.4.k.].C.i.6.5.5.>.;.+.+.-.y.i.s.U.Q.9.8..XSXsXtXtXtXtXeXtXeXeXtXtXtXtXtXfXmXLXNXvXnXxXnXgXgXkXdX].k.y.q.0.6.>.>.y.V.`.3XoX{.[.C.p.+.6.j.m.k.w.y.s.N.].OX@X@XrXrXwX3XOXOX].E.V.m.j.C.W.m.C.V.N.i.-.4.k.E.T.R.].].R.].oX3XwXwXwXwX3XwXwX4XwXuXdXdXzXzXuXOXrXrXrXrXwXrXwXwXrXrXrXOXOX,XOXOX3XrXuXdXuX.XE.].].R.T.T.E.E.T.C.R.T.#X].c.V.T.).]. XoX X].].]. X X).|.|.|. XOXXXOXXX).T.I.Y.).XXXX X}.)._._.).OX@XrXrXrXeXrX3X.X.X X XoXoX X].].].].].].}.R.k.k.k.;.;.p.N.A.V.N.k.k.k.C.}.3X4X3XeX3X3XwXwX3XOXI.h.i.h.j.k.m.U.a.&.X.>.p.W.3XuX3XoXC.s.0.0.0.0.0.>.n.5XnXgXfXhXhXnXnXDXDXGXDXhXtXtXtXtXtXtXtXtXeXeXtXdXfXeX[.[.>Xp.y.C.m.6.&.+.o.+.-.;.>.5.q.q.h.8.V.h.s.oXrX3X6.V.T.E.C.V.V.V.N.N.N.V.V.V.V.V.N.m.m.k.m.m.a.p.y.y.i.s.k.k.p.y.y.0.0.0.y.y.y.y.0.0.6.>.>.>.;.;.-.-.+.` Y H Z S n m c z h r e e p g b Z F Y Y Y Q ~ ` ]  . . . .] Y g p i i i r r e e 0 ",
"9 0 r i i i i p a x K +.-.-.-.-.&.&.X.o.] Y H S b n n m e e p g z p p a n Z S G H ~ +.;.4.5.6.6.0.6.q.i.p.p.p.p.p.s.k.k.m.V.V.V.m.k.p.a.k.m.V.V.Z.T.A.A.A.A.A.A.C.C.C.C.C.C.C.C.R.^.c.r.h.3XdX].i.6.q.m.oX].s.6.>.;.;.+.o.;.s.s.y.y.m.R.8.4.].fXtXfXfXtXtXtXeXeXeXtXtXtXtXtXbXDXJXZXvXnXnXnXgXgXfX4XT.j.y.q.0.6.>.>.y.V.1XoX[.W.`.V. .4.i.j.n.n.k.s.k.R.OX@XrXrXeXeXeXeXeXrX3X@X].z.m.V.j.m.V.N.C.s.s.].OX@X3X3X3X3XrXeX3X@X@X@X3X3X3XrX3XrXeXdXlXzXzXeX@XrXrX@X@X@X@X@X@X@XrXrXrXOXOXOX.XOXuXlXkXzXOX].].@XOX@X@X@XOXOXOXOXXXrXrX).].3XOX.XOX.X.X X.XOXOXOX@XOXOX+X+XOX+X@XrXrXOX]._._.).).)._.Y.E.).+X@X@XOX+XXX+X+XXX X X X X X X X}.].}.}.]. XoX].V.R.k.6.s.C.T.A.k.s.s.k.V.oX1X4XeXdXkXuXuXrXrXrX+Xz.i.i.x.j.V.C.V.w.,.>.p.C.oXeXeX.XC.i.>.>.6.0.0.0.0.W.gXnXgXfXfXbXnXnXDXGXnXhXfXtXtXtXtXtXtXtXeXeXeXeXtX3XV.T.].k.k.V.C.p.;.o...+.&.>.5.5.:.j.k.i.m.E.O.R.3XuXdXs.3.V.E.T.C.V.V.N.N.V.V.V.V.V.V.V.N.m.m.m.m.m.a.p.i.y.6.p.k.p.p.s.y.y.y.y.y.y.y.y.0.0.6.>.>.;.;.;.;.@. .` E Z n m x k a r 0 6 0 a k b M b G Y E ! ]  . . . . . .] E k p i i i r r e e 0 ",
"0 0 i i i i i s a v K -.-.-.-.-.&.&.X.o.~ H H G n Z Z Z z z k g z k g k M Z F H ^ o.;.:.4.6.6.0.8.t.i.s.s.s.s.p.s.a.k.m.m.V.V.k.i.i.a.m.m.V.V.C.T.C.T.A.A.A.A.A.Z.C.Z.Z.U.U.U.T.R.z.6.7. XdXkXaXV.m.s.5.N.wXoXk.5.-.+.+.+.y.k.i.y.y.6.N.].;.0.>X5XaXfXiXtXtXeXeXtXtXuXuXtXiXsXnXJXJXZXmXmXnXSXgXSXgX,XN.s.i.y.0.0.>.>.y.[.1X>X[.W.V.O.+.i.p.k.V.m.p.k.C.Y.).@XrXrXrXrXrX@X3XwXrX3XU.i.j.q.n.V.N.).V.s.R.3XwXwXrXeXuXlXlXOX).R.].). XXX+X+XOX@XrXrX@X+X X+X@X@X+XXXXXXXXX XXX+X+X+XR.E.^.^.R.OXrXrXrX#X X6XdX6X6XrXrXrX3X@XXX).rX@XY.T.@XOXOX+XXXXX X.XOX@XrX3XOXoX].).].).].OX3XOXXX).)._.Y.Y.Y.T.Y.Y._.).].].).).R.R.T.R.R.R.].].].}.}.}.oXoX XoX3XOXR.R.h.5.k.R.].C.i.i.k.V.T.oXOX3XeXHXHXdXwXwXwXoXI.h.q.h.z.V.E.N.0.:.:.0.a.}.4XeX3XC.i.>.-.;.>.6.0.>.p.1XFXnXnXhXfXfXbXnXDXGXnXfXtXtXtXtXtXtXtXtXtXeXeXwX3XT.m.p.p.p.p.M.a.0.&...+.-.;.>.0.6.k.C.k.V.Q.@.m.1X5XdXdXoX;.5.V.T.T.C.V.V.V.V.V.V.V.V.V.V.V.N.m.m.m.m.m.k.a.y.6.y.a.k.a.p.p.i.s.y.y.y.i.i.i.i.6.5.>.>.:.;.:.;.#.] E Z m b z a p 0 0 e p z b M Z c F H W ! ]  . . . . . .] ! c p i i i i r e e 0 ",
"0 0 i i i i i s s v E ;.-.-.-.-.&.&.X.o.~ H H H Z F H H Z Z g t k c b M Z Z F !  .@.;.:.4.6.6.0.t.r.i.s.s.s.s.p.a.k.k.V.m.V.m.i.y.a.V.V.m.V.C.C.C.C.T.T.T.A.A.C.C.C.Z.U.W.T.T.T.z.5.5.E.dXdXdXgXtXC.j.k.N.].3XT.y.;.+.o.>.k.N.5.:.6.6.i.A.y.>.m.{.tXiXfXtXtXtXeXtXuXuXuXtXtXsXnXJXAXZXNXVXnXnXnXSXHXdX].s.s.y.y.0.0.>.>.V.3X4X3X`.V.m.@.6.i.j.m.k.k.k.z.z.).@XeX@X@XOX+X).+X3XrXwX}.p.p.0.j.m.N.T.I.i.k.OX@X3X3XrXdXzXdX@X].R.].R.). XXX+X+X@XrX@XXXR.|.+X@X@XXXXXXXXXXX+X@X@X@XOXR.^.Y.E.|.OXrX@X@XXX#X#XdX6X@X@X@X@X@X#XXX).eX3XY.).rX@X@X@X@X+XOXOX3XeXuXrXOX}.].].].}.).T._.T._.].).T.Y.Y.Y.).T.Y.T.).).R.T.].T.E.R.T.R.].].].].}.XXwXdXdXrXwXrX3X].V.t.i.V.T.T.N.6.i.z.T.]..XwXdXdXHXkXwX.X3XwX}.k.q.q.h.m.Q.U.i.+.6.y.a.k.oXwX3X].k.i.>.-.-.;.6.0.>.Z.gXSXnXhXhXfXfXbXnXDXGXDXnXsXtXtXtXiXtXtXtXtXeXeX4X}.T.C.n.a.m.m.m.y.5.&.o.&.;.:.6.y.N.T.k.V.OXh.j.oX5XeXaXdXdX).7.t.V.T.T.C.V.V.V.V.V.V.V.V.V.V.V.M.M.m.m.m.n.m.k.i.i.y.a.k.k.p.p.p.p.s.y.y.i.i.i.i.6.5.>.>.-.;.&.o.! Y Z Z x x g p 0 e h M Z Z D F b G Y E ! ]  . . . . . .] ~ b s i i i i r e e 0 ",
"0 q i p p p i i s x ! &.+.*.;.-.&.&.+.....W T H Z H K K F F b e a p b n Z Z S T } +.;.:.0.6.q.q.i.h.s.s.s.s.s.s.k.m.m.V.N.n.k.a.s.m.N.N.N.V.C.C.C.Z.Z.T.T.T.Z.Z.Z.Z.U.T.W.W.W.U.6.h.].eXdXdXaXaXdXdX].R.].T.T.].V.y.6.5.6.:.;.;.+.-.;.6.k.k.i.i.V.[.tXgXfXtXtXtXuXuXuXtXtXaXhXmXJXAXZXZXZXvXnXgXSXSXHXT.i.k.k.p.0.0.>.>.p.oXtXeXoX].oXq.;.6.q.p.V.V.k.i.s.c.wXrXwX@XOX+X).].@XwX3XoXT.p.w.p.p.T.E.T.s.4.I. X X.XOXrXuXuXeXXXR.T.).).).).).]. X+X+X+X+XXX+X+XOXOXOXOXOXOX@XpXpXpXOX).E.E.R..XOX@X@XOXOXXX.X3X@X3XrX3X@X@X@XOXOXuXOXC.].wXwXrX3X@X@XrXrX3XrXwXOX}.].].].].].].R.R.).).).).T.T.T.T.T.T.T.R.R.R.R.Q.Q.R.R.R.R.R.).).]. X.X3XdXlXzXrX@XXX X).c.i.z.V.T.I.q.i.6.k.].}..XoXoX].,X,XOX@X3X.XI.h.j.j.m.T.R.k.-.+.0.k.p.].4X3X,XC.p.6.:.:.:.:.6.0.N.tXnXnXSXhXhXnXhXbXnXDXDXGXDXSXfXdXtXtXtXtXtXeXdX3X].oX].U.m.m.m.a.w.6.:.+.+.-.&.:.+.y.C.a.N..Xi.I.wXuXaXaXaXdXuXeX).r.j.U.W.U.Z.V.B.B.V.V.V.V.V.V.V.V.m.m.M.m.m.n.n.n.a.0.0.y.k.k.k.j.s.s.s.i.i.s.i.i.6.6.5.;.;.&.X.] ! Y G S n z p 2 2 t M Z Z b F Z C H Y W ! ]  . .} } } ] } ~ b s i i i i r e e 0 ",
"0 q i p p p i i s x Y  .+.*.;.-.=.&.+.....] ! H Z K H K K G Z z a k m n m n F Y ` [ +.;.6.6.q.q.h.s.s.s.s.s.s.k.n.m.V.V.n.p.p.k.m.N.N.N.V.V.A.T.C.C.T.T.T.T.Z.Z.Z.T.W.W.W.Q.C.q.j. XdXlXdXdXaXaXeXdXdXwX].k.k.C.R.T.T.y.0.;.+.+.+.+.;.>.i.s.c.k.i.n.'.tXfXfXtXtXtXtXtXtXaXhXVXGXZXZXAXAXZXVXnXhXnXHXuXC.k.k.k.p.w.0.6.>.y.W.4XtX3X}.OXT.;.;.6.y.k.V.m.j.s.h.).@X@XOX X].).).@X3X@XXX].k.y.p.p.C.E.T.z.5.k.T.].]. X@XwX3XwX.X].).).).).).).]. X+X+X+X+X+X|.). X.XOXOXOXOXOX@XOXOX).R.R.R.R.|.+X+XOX+X+X+XOXOXOXOX@X@X@XOXOXOX.XeXOXI.].wXwXrX3X@X3X3X3X3X3X@XXX].R.R.R.R.R.R.R.R.R.R.R.R.T.T.T.T.T.T.R.R.R.R.Q.Q.].].).].].R.).).}..X3XdXlXdXuXwXOX X].I.i.i.k.V.V.z.q.h.5.V.}. X,X XQ.]. X.X+X+X XE.z.h.h.j.I.Q.V.5.+.>.p.p.m.OX3X4X.Xj.6.:.:.>.0.q.y.y.3XFXSXtXSXnXhXfXgXgXbXnXmXDXDXSXSXfXsXtXtXtXtXtX3XW.W.].U.C.m.C.k.p.w.6.:.+.+.-.y.0.y.m.y.m.].m.oXwXdXkXdXaXdXdXuXlXuX.XI.m.U.W.U.C.V.B.V.V.V.V.V.V.V.V.m.m.m.m.m.n.n.n.k.y.0.y.k.k.k.j.s.s.s.i.i.s.s.i.i.6.>.;.+.X.] _ E H G S n s 3 7 b M Z Z D b F F Z I Y ! ` } o.o.} } ] ] ] ! x s i i i i r e e 0 ",
"0 r p j p p i i s k K [ +.*.;.&.;.=.&.X.] ] ] Y F Y H Y K F F Z Z F Z Z V Z H Y E ! ] +.:.6.q.i.j.h.h.p.s.k.k.k.m.V.V.n.k.p.k.m.N.N.N.V.V.C.A.A.C.C.T.T.T.T.T.Z.T.W.W.W.Q.U.m.m.OXdXdXdXdXaXaXaXdXeXdXuXdX].I.j.T.].}.`.s.6.+.o.-.;.;.;.6.6.s.N.m.a.M.!.tXfXtXwXtXtXtXsXxXVXGXVXZXZXAXAXAXZXCXnXhXlXQ.E.U.k.q.6.y.0.0.>.6.p.[.eXtX1XoX Xi.-.5.0.p.m.V.k.s.i.c. X].].R.R.T.R..XOXOXXXXXV.y.p.p.C.W.R.C.6.6.C.].].]. X.X.X.X}.].).R.R.R.R.).).]. X X X+X+X).). X X+X+XOX+XXX+X XXX X).).Y.R.R.). X|.|.).XXOXOX@XOX@X@XOXOXOXOX+XeX@XI.].rXwX3X3X@X@X@X@X@XOX X].R.R.R.R.R.R.R.T.T.R.R.T.T.T.T.T.T.R.R.T.R.R.R.R.R.].].].].].].).).]. X@XuXdXuXrXOXXX].R.k.6.k.C.C.V.i.q.h.s. X,X,X,X].T.].].].].].R.V.j.x.j.m.U.R.i.*.-.s.a.k.W.4X3X3XT.6.:.:.>.0.p.p.p.p.3XSXkXtXfXbXbXhXbXhXbXnXnXnXSXSXnXnXfXaXtXtXtXwX].U.W.U.C.C.m.m.p.q.0.0.:.&.+.;.p.C.C.p.k.].k.OXdXdXtXdXdXdXdXdXeXuXkXkXwXW.V.U.T.U.Z.V.V.V.V.V.V.V.C.C.C.m.M.M.m.m.n.n.k.p.i.y.i.k.k.p.p.s.s.s.s.s.s.s.s.i.:.&...] _ W H F Z n z k n G R F Z Z F M G F Z Y T ! `  .....o.} ] ] ~ W x s p p i i r r e 0 ",
"0 r p p p p i i s x Y  .+.*.;.&.,.;.=.+.] ~ ] ! H E Y Y F Z F G K E S Z b Z Z Z F Y E ` &.6.y.p.j.j.j.p.k.k.k.V.V.V.m.p.a.k.m.N.N.N.V.V.C.C.A.A.C.C.T.T.T.T.T.T.W.W.W.W.U.n.T.4XSXgXeXeXaXaXaXaXdXdXdXuXwX3X3XI.U.oXR.R.V.y.-.X.;.6.6.6.;.@.>.s.k.V.M.M.>XtXdXtXtXtXsXhXVXGXVXVXZXZXAXAXAXAXVXnXgX].R.R.T.j.:.&.0.0.0.6.;.:.m.>XtXwXOXR.C.-.;.6.i.k.V.V.k.k.N.T.Y.Y.T.T.I.I.].}.].]. XQ.p.p.s.V.W.].T.i.q.N.].].R.].R.R.T.R.).T.R.R.R.R.R.R.).).).).]. X+X+X X XXX+XXXXXXXXX XXX). X.X).R.R.R.R.R.XX+X+XXXXXOX+XOXOXOXOXOXOX+XrX@XI.].rXwX3X3X@X@X@X@X@X}.R.T.T.T.T.T.T.T.T.R.T.R.R.T.T.T.T.T.T.R.R.R.R.R.R.R.R.Q.R.R.R.R.R.).).R.]. XOX}..X X].}.].T.s.s.N.T.V.m.i.q.i.k.,X,XoXoX].]. X].].].].E.z.x.z.m.I.U.V.+.;.y.k.p.C.3X>X3X[.k.5.:.>.0.y.k.k.k.k.C.>XfXfX3XfXSXSXbXbXbXbXbXnXbXnXDXnXnXfXtXkXiX[.W.].U.C.C.U.m.p.w.w.0.6.:.&.+.;.m.W.a.a.].m.OXkXdXdXdXdXdXdXdXaXeXeXdXkXHXwXW.m.U.T.U.C.V.V.V.V.V.V.C.C.C.V.M.m.m.m.n.n.k.k.p.s.y.a.k.p.p.p.p.i.i.s.s.s.p.i.:.+. .~ T Y S n b k a x E G M z Z Z F Z H D A Y T ~ `  .....o.} ] ] ! T x s p i i i r r e 0 ",
"0 r p p p p p i i x Y  .+.&.-.;.:.,.,.;.&. .] ] Y W Y Y Y F Z A G S b x m m b n Z D H I ! &.0.a.p.i.y.i.s.k.m.V.m.m.k.a.k.m.m.m.N.N.V.V.A.A.A.A.T.T.T.T.T.T.T.W.W.W.W.Z.j.Z.5XSXHXSXgXfXtXaXaXaXdXdXdXdXdXuXoX3Xz.E.}.N.N.i.>.-.:.>.>.;.;.;.;.;.y.m.'.m.n.[.tXfXtXhXDXGXVXVXVXVXZXJXAXAXZXKXJXKX>XT.U.Q.U.q.&.-.6.y.0.6.;.&.6.C.3XtX3XR.T.i.&.;.6.i.m.C.N.k.z.z.z.I.E.I.I.I.E.].R.].].}.m.p.s.k.C.W.R.N.6.k.T.Q.T.E.T.R.).R.T.E.R.R.R.R.R.R.R.R.R.R.R.R..XOX.XR.|. XXXXX+X@X@X).)..XOX XE.E.E.R.E.R.XX+X|.XXOXOXOXOXOX+X.X]..XeX3XI. XwXOXOX.X.XoXoXOXoX X].R.E.R.T.T.I.I.T.T.R.R.T.T.T.T.R.R.)._.R.T.E.R.R.T.T.T.T.T.T.R.R.T.R.R.R.E.Y.I.I.E.T.].T.N.t.k.V.V.N.k.q.i.h.E. X.X].].].].].Q.R.R.T.z.h.h.j.m.C.V.q.o.;.i.y.i.oX3X1X3Xm.6.6.;.4.6.0.y.s.p.p.k.m.T.,X.XtXSXgXhXbXbXbXbXbXbXbXnXnXSXHXHXdX[..X4XW.m.T.[.W.p.0.6.4.>.>.:.>.y.m.C.6.p.`.k.>XfXdXdXfXtXtXtXtXtX5XeXaXgXFXFXHXfXQ.m.V.T.C.C.C.V.V.V.V.V.V.V.V.V.V.M.m.m.m.k.k.k.p.p.s.k.k.k.k.p.p.p.0.y.y.6.0.+.] W Y F Z Z n b b k z M G Z Z Z Z F Z H D Z T ! ]  .+.+.+.o.} ] ] ] W k a i i i i i r e 0 ",
"0 r p p p p p p i x E  .+.+.&.&.,.:.>.6.6.&. .] T ! Y Y K F Z F G Z m b n n Z F D G H Y T ~ X.:.:.-.:.0.s.k.m.m.k.n.n.k.k.m.m.m.N.N.V.C.A.A.T.A.T.Z.T.T.T.T.T.T.W.C.W.Z.Z.2XnXGXGXnXnXhXtXtXaXaXdXdXdXdXdXdXuXoXQ.j.I.].s.>.:.y.i.>.;.;.;.;.;.;.6.p.].[.a.p.W.fXHXHXHXDXnXnXnXcXVXZXAXAXKXJXGX4XR.U.U.m.j.;.*.&.6.y.0.6.;.*.:.a.oXwX3X}.R.m.5.*.;.6.j.V.V.k.s.s.j.I.E.I.I.I.Y.E.R.R.).].V.p.s.a.V.T.Q.C.5.s.T.].T.T.T.R.R.T.E.I.E.E.E.E.E.E.E.E.E.E.E.E.].].].E.R.R.|.|.OX@XOX).R. X XR.R.E.E.E.U.E.R.R. X+XOXOX.X X X X].R.].rXOXV.].OXoX XXXXX].}.oX.X X).R.E.T.E.Y.I.I.I.E.T.T.T.T.T.T.R.R.).T.T.T.T.T.R.T.T.T.T.T.E.T.T.T.T.R.R.T.T.I.I.I.I.C.V.k.5.V.Y.Y.N.s.i.z.E.E.R.Q.U.T.T.T.T.I.U.T.E.k.s.s.k.N.N.s.-.o.>.y.i.V.>X3X4XT.0.:.6.:.:.:.;.;.y.k.V.k.k.p.k.].eXdXgXnXbXxXxXbXbXbXbXhXnXHXHXSX>X>X3XQ.V.C.[.[.m.j.p.0.6.>.>.;.0.V.C.p.0.W.k.].dXfXdXdXdXtXtXtXtX5X5XaXhXnXDXDXGXSXfX[.V.N.C.C.C.C.V.V.V.N.N.N.V.V.V.V.V.m.m.k.m.k.k.p.s.p.p.n.a.p.p.p.0.-.:.>.&.` T Y H G F S Z n b c b M F A A A A F A I H H ~ ] .. .o.&.&.-.o.} ] ] ! z p i i i i i r e 0 ",
"0 i p p p p p p p m E ..+.+.+.o.+.=.6.0.p.;. .] ! ! K Y Y H F F G n m b Z Z F H Y Y Y Y E Y ! X.X.| &.0.p.a.p.y.p.a.k.m.m.m.m.V.V.V.C.A.A.A.T.T.Z.Z.Z.Z.T.T.T.T.W.W.W.C.2XbXGXmXmXmXmXnXsXaXaXaXdXdXdXdXdXeXlXuXwXR.i.C.Z.>.-.i.k.y.;.;.6.6.6.6.s.p.V.W.V.p.p.>XHXKXHXnXsXsXhXxXCXVXZXKXJXGX9XQ.C.m.j.q.8.8.6.5.6.y.0.6.;.;.&.6.V.>X4X3X}.R.i.;.+.;.y.m.N.m.k.s.k.V.T.C.I.I.I.I.R.T.E.E.C.k.y.s.k.T.R.R.0.i.N.].].R.R.T.].R.T.E.E.U.U.U.U.U.E.E.Y.Y.T.E.T.R.T.E.E.E.R.R. X+X X).R.R.R.R.R.T.T.E.R.R.Q.Q.R.R.R.R.R.R.].].].R.].wXoXC.].oX X XXXXX].].]. X).R.R.E.E.E.E.E.E.E.E.E.T.T.T.T.T.R.R.).Y.Y.T.T.T.T.T.T.T.T.E.E.E.E.E.T.R.R.].].].R.I.V.N.k.t.i.Y.R.T.k.8.i.E.T.V.U.U.U.U.U.U.U.C.C.V.V.s.s.k.N.N.k.;.o.+.6.i.N.].1X>X}.i.6.:.6.5.4.>.>.i.s.k.N.k.k.h.s.V. X3XaXnXnXxXxXxXbXbXbXsXSXFXgX3X>X>XT.n.m.U.].W.m.n.j.w.w.0.0.0.m.C.m.p.T.V.T.tXdXdXdXaXaXtXtXtXeX5XtXnXnXnXmXmXmXnXnX7X[.V.c.C.C.C.C.V.N.N.N.N.N.N.N.V.V.V.V.m.m.m.k.k.a.p.y.p.p.p.u.a.>.` Q  .] Y K H K H H G F Z Z b b M Z F Z Z F F Z Y Y T ] ] .. .o.+.+.&...} } ] ~ b a i i i i i r e 0 ",
"0 i p p p p p p a m ^ ..+.O... .] ..;.0.y.=...] ` ] Y Y K H G G S n n n Z F H Y T T Y Y ! H Y } | } &.y.p.p.6.-.,.p.k.m.m.m.m.V.V.C.A.T.A.A.A.U.Z.Z.Z.Z.T.T.T.T.Z.Z.C.7XhXmXmXmXmXmXmXVXxX8XtXaXdXdXdXdXdXdXdXdXeX.XN.s.C.N.s.0.k.k.i.6.y.y.t.t.i.s.p.a.y.W.m.T.5XSXSXfXtXsXfXsXcXCXVXJXDX4XQ.R.k.i.q.6.h.j.j.C.6.y.0.6.;.;.&.:.i.].3XwXOX].V.6.+.*.6.p.k.k.k.s.k.k.V.V.I.I.I.I.T.E.I.C.C.k.y.s.k.C.T.T.p.0.k.R.].].R.T.}.].].R.R.E.U.I.U.U.U.U.I.I.U.Y.I.I.I.U.C.T.E.E.E.T.).).R.T.R.].T.R.T.T.T.R.Q.].R.R.R.R.R.R.].].].R.Q.wXoXC.].}.}. XXX.X X].].].R.R.R.R.R.R.R.R.R.R.R.R.T.T.T.T.T.R.R.R.E.Y.E.T.T.T.T.T.T.T.T.T.E.E.E.E.R.].].}.OX XT.I.V.z.t.V.T.R.C.s.8.z.U.V.m.I.T.Q.U.U.U.U.T.C.c.k.s.k.k.N.k.y.o.+.+.6.y.W.}.3XoXk.6.6.>.>.4.5.i.i.].C.s.s.i.s.j.s.N.h.T.3XgXnXxXxXxXxXbXbXfXSXgX5X>X>XV.0.j.m.V.U.n.C.m.j.p.p.y.w.V.C.k.k.].T.V.dXfXaXtXtXtXtXtXtX5X5XtXhXnXmXnXnXmXnXxXsXsXsX}.p.m.V.U.C.V.N.N.N.N.N.N.N.V.V.V.V.N.m.m.m.n.p.y.0.:.>.y.p.a.0.` ~ ..o.! Y H H Y Y H G S Z b b b Z F A A F F Z Y T T ] ] ..+.+.+. .} ] ] } ] ] m s i i i i i r e 0 ",
"0 i p p p p p p s m ! ..+.+... .Q ` &.4.6.*.O. .` ] Y T Y L G H H D Z M M Z F Y T W W W ~ E ~ | } } &.i.k.i.:.X.X.>.p.n.m.m.N.N.C.C.T.Z.A.A.C.T.T.T.T.T.W.W.C.V.Z.`.9XnXmXmXmXvXmXvXVXmXVXnXsXaXdXdXdXdXdXdXdXdXlXwX XT.k.V.Z.C.k.k.m.k.y.y.i.s.s.p.y.0.0.0.V.W.[.4XfXfXsXsXsXgXsXnXHXkX,X+XQ.^.h.q.q.i.z.I.}.OXN.:.6.6.y.5.;.&.5.k.].3X,X.X`.C.-.+.;.0.p.k.k.s.k.k.N.V.T.T.T.C.R. XN.N.N.k.k.0.k.k.N.k.k.i.s.T.].T.C.]..XOX.XE.E.Y.E.].R.R.T.I.U.U.U.U.I.I.I.I.C.C.C.U.U.T.T.T.T.R.R.R.R.U.T.C.U.T.].].R.E.Y.E.R.R.Q.]. XU.R.OXoXV.Q.].R. X X].].).).E.Y.Y.Y.Y.R.].].R.T.E.R.R.R.R.Q.R.Q.Q.Q.Q.].].].W.R.E.E.R.R.R.R.T.R.R.E.T.T.R. X.XOX].T.I.N.k.5.T.R.E.k.8.6.8.V.T.Q.E.I.E.I.I.I.U.T.T.k.y.k.k.k.N.p.;...+.;.0.V.}.[.>XT.0.6.:.:.5.q.i.6.).XXY.c.j.i.i.i.s.z.k.h.N.R.dXnXnXsXsXsXfXbXSX>X:XtXW.w.0.w.y.a.p.p.a.a.q.y.p.k.V.T.m.m.Q.].W.5XtXuXuXtXtXtXtXtXtXtXsXnXDXmXmXmXnXxXxXvXmXmXGXfX].m.U.U.V.V.V.N.N.N.N.N.N.V.V.V.V.N.m.n.n.k.a.y.>.&.:.i.i.p.0.&.&.:.-.~ H H Y Y T Y I F Z Z b M Z D F D G H D W W ! _ ] +.&.o.] ~ } } } } ] ` Z s u i i p i i r 0 ",
"0 i p p p p p p s v Q ..+.+.....[ ` [ *.5.*.O. .] ] Y E T K H Y H F Z M Z Z F H H I Y Y ! E  .&.X.X.:.p.s.0.$.] } =.0.j.k.k.V.V.U.U.T.Z.Z.A.Z.Z.T.T.T.T.T.Z.m.Z.S.2XnXGXmXmXmXvXmXmXmXVXGXVXgXaXdXdXdXdXdXdXdXdXdXdXeX3X}.A.W.[.Z.p.i.s.k.k.k.s.i.0.5.:.:.;.y.T.[..X,XtXsXfXfXgXgXtX3XOX X+X^.h.8.6.q.h.I.R.oX3X].0.;.6.i.y.:.&.;.6.V.oX3XoX[.W.0.&.-.>.p.a.k.k.k.p.k.k.C.T.T.C. XXXC.N.N.N.k.0.s.k.k.k.N.p.i.m.C.C.C.}..X.X XT.E.E.R. X.X].T.V.V.V.V.I.E.E.E.U.T.W.T.U.T.T.T.T.T.U.U.U.I.C.C.C.V.U.T.R.Y.I.I.Y.R.Q.Q.Q.Q.I.E..X}.V.].].]. X X}.].Q.E.U.E.E.E.E.R.].].R.E.V.E.].Q.Q.]. XQ.Q.].]. XoX.XQ.E.I.E.R.R.R.R.R.T.E.T.E.R.R.]. X].R.Y.C.k.s.q.T.U.C.k.6.q.q.V.].R.I.I.U.I.Y.I.U.T.N.s.y.p.k.N.N.0.*.+.+.;.p.].].>X'.m.:.6.:.4.6.p.t.s.+X XE.V.z.j.h.i.i.j.z.h.x.I.OXfXnXsXsXfXfXyX>X[.>X].n.p.p.0.0.6.>.4.0.w.w.q.q.C.C.k.T.W.].oXtXeXtXuXuXtXtXtXtXyXsXsXnXmXDXDXmXMXbXxXMXMXvXmXJXGXfX].V.m.C.V.V.V.N.N.N.N.N.M.M.N.N.N.m.n.n.N.k.0.&.o...:.y.0.:.&.=.-.X.! F I Y Y Y Y I F Z b l c b D D G G G Z T W ! { ..%.X.] ' ^ } } } } ] ] Z s u i i p i i r 0 ",
"9 i p p p p p p s v Q ..+.+.+.o.+. .[ &.:.*.O...] ] Y E E Y K Y Y F g p p a g k a k z b Z Z E ..$.&.:.q.0.:.o.! E +.6.p.k.m.V.I.T.T.C.A.A.A.C.C.Z.U.T.T.C.n.n.`.{.sXGXGXmXmXvXvXvXvXmXVXVXGXVXnXhXfXdXdXdXdXdXdXdXdXdXdXdXoXT.T.].V.p.p.V.C.N.s.y.;.+.+.-.-.;.k.].].].,XtXfXgXgXdX>X]..XOXR.z.h.q.i.j.z.R.].OX3XOXC.6.>.i.p.y.-.+.*.i.T.3X,XoX].C.:.&.-.0.p.k.k.s.p.s.s.N.C.C.C.V.I.C.C.C.C.N.6.i.s.s.k.V.k.0.s.k.V.C.]..X.X X].R.R.). X].R.C.V.V.V.C.I.T.T.T.T.].].].T.E.E.E.E.I.I.I.I.T.R.T.C.C.I.I.U.I.c.I.Y.R.R.R.R.R.I.I.].R.c.).R.U.R.Q.R.R.E.U.U.U.U.U.U.T.R.R.T.C.k.C.T.R.R.Q. XQ.Q.Q.Q.]. X].R.U.I.U.T.R.R.R.R.E.E.T.T.T.T.E.R.T.I.I.z.k.6.p.C.m.k.i.4.q.V.T.T.T.I.V.I.I.I.U.U.U.s.y.i.s.k.k.k.;.&.+.&.6.C.oX>X>XC.0.:.5.4.6.i.s.5.].XX XE.I.I.I.z.p.i.j.z.j.h.V.T.4XfXhXhXhXsX3X>X>X!.n.a.p.0.;.;.;.:.:.>.0.p.j.V.C.j.V.U.W.eXtXdXtXwXuXuXtXtXtXtXfXhXnXmXDXDXmXmXMXMXvXMXvXvXZXJXGXHXfXC.k.k.N.V.V.V.N.N.N.N.N.N.M.M.N.n.n.n.n.y.X.! E ] >.y.-...o.} ..] H b Z M N M b b c z p p k b D G U U H D W W _ ....X.[ ] ' ! } } } } } ` Z s u i i p i i r 0 ",
"9 i p p p p p p s v Q ..+.+.&.&.&.*.&.*.;.&.+.O.] ] Y E E Y Y Y Y G g a a k g k h z b Z Z V E +.o.X.&.;.5.;.o.` ] o.=.,.y.k.V.U.T.T.C.C.C.A.C.C.Z.T.T.T.a.n.`.Z.4XnXGXGXmXmXmXmXvXvXVXVXVXVXGXVXnXnXhXfXdXaXaXaXaXeXeXaXkXkXwX].R..X`.k.V.C.V.y.6.+. . .;.>.;.6.m.T.!.[.4XtXgXSX[.C.U.OXR.z.i.i.k.m.C.T.T.].XXOX3XOXN.y.i.k.s.:.+.+.-.k..X,XoX].}.i.-.&.>.p.a.k.s.s.s.i.k.N.V.V.Y.I.T.C.C.C.N.y.>.y.s.N.k.k.0.i.k.V.V.T.].R.R.R.E.I.I.Y.C.V.V.V.m.V.C.I.T.T.R.R.R.Q.R.U.U.U.T.Y.V.V.I.I.).].A.V.V.C.C.V.I.I.I.Y.E.E.U.I.E.I.I.Q.R.z.T.C.z.I.I.I.C.I.V.V.V.V.V.V.C.C.C.C.V.N.C.V.I.Y.E.R.R.R.R.R.T.E.U.U.I.I.I.I.E.E.E.E.E.T.I.I.I.C.V.V.C.V.V.k.k.5.k.N.k.k.q.;.m.U.C.U.E.V.V.I.I.U.U.U.C.i.6.p.k.N.k.6.+.+.&.&.k.[.{.1X[.a.:.0.5.4.6.p.-.k.OXOX XR.E.Y.R.I.k.i.i.k.j.h.m.R.W.>XfXgXfX5X[.[.!.V.n.k.0.&.+.&.;.:.6.4.p.m.m.m.p.C.m.W.tXdXtXtXeXdXtXtXtXtXtXsXhXnXmXDXDXDXmXmXMXMXvXvXvXmXJXGXGXDX5Xk.k.k.k.V.V.V.N.N.N.N.n.n.M.M.N.n.n.n.0.>.&.} ~ X.0.:.-.&.6.0.+. .Y n b m c c p p p p 0 e g b G U U Y H D W W ! ..[ ] [ ] ] ` ] } } } } ~ Z s u i i p i i r 0 ",
"9 i p p p p j p a b ! o.+.+.&.&.*.*.*.;.*.&.+.O... .Y W E E E T T F a a a g k k b b b b V F ] :.>.;.-.;.;.*.:.>.>.-.=.0.p.k.V.T.U.V.m.n.V.A.T.C.Z.Z.C.M.a.M.V.V.[.[.4XnXVXVXVXmXVXVXVXVXVXVXVXVXVXnXnXhXdXaXaXaXaXaXaXdXdXkXkXeXQ.].[.T.p.k.C.k.6.+. .+.+.o.+.-.5.m.W.].`.tXSX4XC.T.T.j.q.q.i.i.m.C.R.].R.].}.oXOX3XoXN.i.s.i.6.-.+.+.6.C.oXoX].W.[.>.X.&.6.p.m.k.y.0.y.s.k.N.N.k.k.N.N.m.N.N.k.;.:.0.p.m.p.4.6.k.k.k.V.E.I.C.C.I.I.V.N.N.N.N.N.N.N.V.C.C.C.V.V.I.V.V.V.I.U.C.I.c.z.c.c.Y.C.V.V.V.V.V.V.V.I.I.I.Y.I.I.V.V.I.I.C.T.N.V.N.z.k.N.m.m.m.m.V.V.V.V.V.V.N.V.V.N.N.V.V.V.I.E.R.R.R.R.U.I.C.C.C.C.C.C.C.I.I.I.I.C.I.E.E.I.V.V.m.V.V.z.j.5.5.k.k.k.s.6.i.C.C.N.V.N.m.m.V.I.I.C.I.j.6.i.s.k.N.h.-.&.5.+.-.T.oX{.{.p.w.>.;.+.*.k.s.z.+X+XXXXXXXXX+XR.I.N.N.k.s.j.p.j.U.E.V.,XfXwXoX>XT.M.C.Z.a.-.X...;.>.>.=.w.V.k.V.j.V.T.>XtXdXuXtXtXeXeXtXtXtXtXsXxXmXGXGXDXmXmXbXbXxXxXxXvXVXGXGXDXyX;XC.N.n.m.k.k.m.V.N.N.k.k.n.k.n.V.T.N.a.0.>.:.;.&.&.+.+.+.6.m.k.y.;...T n M b n m c k g p r e h A U U Y Y H F W W _ ..[  ...[ ] ] } } } ] ] ~ S p u i i p i i r e ",
"9 i p p p p j p a b ! o.+.&.&.*.&.*.:.4.*.*.+..... .Y W E E W E W G a p a a k k b b b b Z F ] :.0.6.4.;.;.O.&.O.X.-.w.n.k.m.N.V.C.V.m.N.N.C.C.C.W.V.M.a.n.M.k.m.V.C.S.;XsXmXmXnXmXmXVXVXVXVXVXVXVXVXmXnXfXdXaXaXaXdXdXdXdXdXkXkXeX}.C.V.V.p.y.T.N.0.+.;.>.+.+.+.*.i.V.C.N.Z.`.`.T.V.i.3.8.h.k.N.T.R.].].Q.]..XoX,X3X3X].6.t.8.6.5.+.O.+.j.].>X}.T.].V.-.&.;.0.k.k.s.0.0.i.k.k.z.k.k.N.N.m.N.N.k.:.:.6.p.j.p.5.5.i.s.j.k.C.V.m.m.V.V.N.N.N.N.N.N.N.N.V.C.V.V.N.V.V.V.N.z.m.V.C.].).N.N.V.V.V.V.V.N.N.V.N.V.V.I.I.I.V.z.z.V.V.N.k.C.C.A.s.k.k.j.j.k.n.m.m.m.m.m.m.V.V.V.V.N.N.V.N.C.U.E.T.R.R.R.E.C.C.C.C.C.C.C.C.I.I.I.I.V.I.R.R.E.I.m.k.V.z.z.z.q.5.k.k.k.k.s.k.N.V.A.T.V.m.k.N.V.V.V.V.i.6.p.k.N.k.5.O.*.;.;.k.W.oX>XC.0.6.;.=.;.6.s.C..X].+X+X+X+XXX.XR.I.V.C.V.k.s.p.i.k.m.z.k..X>X].T.V.N.C.a.>.X... .+.=.*.:.C.m.V.i.p.Q.wXtXdXdXeXeXtXeXtXtXtXtXaXxXnXmXmXDXmXmXnXbXnXMXMXmXGXGXnXsX2X[.n.v.v.n.n.m.m.m.V.N.n.k.k.p.a.n.N.V.n.a.y.6.:.;.+.o. .+.:.k.m.k.j.,...E n M M b m c k g p r e h A U U Y Y H F W W ] .. ..... . . .} } } ] ] ~ S p r i i p i i i r ",
"9 i p p p p p p s b ! ..+.&.*.*.*.:.6.0.;.*.+..... .Y W E W ! ! ! H a p p a k z b b b C Z F ] :.6.6.6.4.5.+.4.;.&.<.n.N.n.m.N.N.C.U.C.N.n.N.V.V.Z.V.n.b.n.n.m.k.k.m.C.].>XfXSXnXnXnXmXmXVXmXVXZXZXZXVXmXgXdXdXdXdXdXdXdXdXdXdXlXdXaX[.m.n.V.a.i.T.].N.C.6.o.o. .&.0.p.p.n.p.0.C.W.p.;.*.h.z.U.].).).).].]. X.XoX3XOXoX).j.j.z.z.N.t.+.+.6.V.].}.T.W.`.y.+.&.:.y.s.s.s.y.s.k.N.N.V.V.C.C.V.C.C.m.0.:.6.a.j.k.8.6.p.m.C.C.U.I.V.V.V.V.N.N.N.N.N.N.N.V.C.C.N.N.C.C.C.V.N.N.V.V.C.].}.T.T.R.T.T.T.T.T.T.T.T.T.E.Y.Y.I.V.N.z.N.N.k.s.V.`.T.k.k.k.k.k.m.m.V.V.V.V.V.V.V.V.V.V.V.C.C.C.T.U.I.I.U.E.U.C.C.C.C.C.A.C.A.C.I.I.U.U.C.C.E.I.T.C.V.N.N.N.C.].m.6.q.6.p.s.i.k.N.T.R.T.C.m.k.k.z.z.k.k.k.s.m.N.N.y.+. .;.;.y.].[.}.T.0.>.:.;.=.y.p.6.k.z.I.+X@X@X@XOX.XR.U.C.T.R.V.a.p.y.i.h.j.q.E..XT.i.N.k.>.:.X. .} } ..+.:.p.n.T.a.i.].wXuXdXdXeXeXeXtXtXtXtXtXaXsXnXnXnXnXmXmXnXbXbXnXmXDXGXGXbX5X].oXW.N.N.N.n.k.N.N.m.m.m.k.k.s.p.k.n.n.a.a.a.p.y.>.:.+. . .&.0.y.0.y.y.:.X.W Z M M n b c k g p r e h A U U Y Y H D W W ] ......X..... .} } } ] ] ~ S p i i i p i i i i ",
"9 i p p p p p p s b ! ..+.&.*.*.*.4.q.0.;.&.+.O... .Y ! E W ! ! ~ H p i p a k z b b b C Z F ] :.6.6.5.6.;.+.y.y.-.w.a.n.k.k.N.V.V.].].V.a.n.V.m.V.n.n.M.n.n.V.m.m.k.m.Z.W.>XfXnXnXnXnXnXmXvXmXNXNXZXZXVXnXgXdXdXdXdXdXdXdXaXeXeXdXgXaX>Xm.].>XC.m.T.oX3Xk.} ` ` +.6.6.;.6.n.p.a.V.y.6.8.m.I.R.].).).).].]. XoX,X3X+XT.k.V.z.N.T.T.s.-. .:.5.p.W.`.C.W.W.;.+.&.6.p.V.T.T.C.T.].].}. XoX X}.oX.X].y.6.0.p.k.m.j.k.T.}.OXOX.X].].].].].).R.R.R.R.R.].].].[.[.}.}.oXoX X[.[.[.oX[.}.oX[.[.[.].[.[.}.}.}.[.[.}. X}.}.].].].].].].W.C.A.}.`.N.T.[.].].}.[.oXoXoXoXoXoXoXoXoXoX>X>X3X3X4X3X3X,X>X,X,XoXoXoXoXoXoXoXoXoXOXoXoXoX.X].].}.].}..XoXoXQ.Q.oXj.5.i.s.s.i.s.[.wXdXuX3XOX}.].].R.R.R.R.C.V.C.N.s.;.#.+.6.q.C.].[.].i.+.>.>.:.:.6.i.i.i.t.h.I.@X@X#X+X.XT.E.E.R.].R.V.k.q.q.q.i.j.C.].k.N.k.>.$.&.o.} ] ....=.0.a.V.p.p.].eXtXdXtXeXeXtXtXtXtXtXtXtXhXbXDXmXnXxXmXnXbXxXxXMXDXGXGXSXtX>XoXC.m.n.N.N.n.k.N.N.V.V.k.k.a.s.N.N.N.a.y.p.a.n.p.0.:.+.&...*.p.;.4.p.i.>.+.! Z Z M n b m k g p r e h A U U Y Y H F W W ] ....X.X....... .} } ] ] ~ S p i i i p i i i i ",
"0 t p p g g p p s m ! ..+.*.*.*.&.-.:.:.;.&.+...+.X.W ` _ W _ _ _ G p i i a k z b b C Z Z Z } >.0.0.0.q.4.*.&.>.>.w.a.k.k.N.N.k.V.T.W.V.p.a.m.m.n.p.a.m.a.n.m.V.V.V.N.n.C.W.oXtXhXSXnXnXmXmXVXmXmXmXmXmXGXHXnXsXdXdXdXdXaXaXaXaXaXaXaXtX}.T.oXwXT.m.C.].i.` Y ` :.6.:...;.V.T.p.y.i.i.j.m.U.]. X).Y.E.R.]..X3XwX.XV.s.s.i.6.0.q.6.5.;.5.....-.i.C.C.C.T.k. ...;.m.V.W.C.C.T.].[.[.}.oXoXoXoXoX[.V.0.j.k.U.V.i.q.i.V.,XOX].].R.R.T.Z.C.C.C.C.C.C.T.T.T.W.`.`.].].].!.W.W.W.!.!.Z.C.C.W.W.W.W.W.T.T.T.T.Z.W.T.T.T.W.W.`.`.Z.T.Z.B.`.[.C.k.W.[.[.[.}.}.oX}.[.[.[.[.>X>X>X>X>X>X>X>X5X4X>X>X>X3X3X1X>X>X>X>X>X>X>XoXoXoX>X,X].W.oXoX}.}.}.}.}.T.T.Z.i.0.p.p.y.p.p.].oX}.].].R.R.R.R.Y.^.I.I.z.m.I.V.i. .o.:.p.m.T.[.`.p.&.5.y.y.0.:.4.6.i.s.q.6.i.Y.+XOX+X].R.R.). X].].].T.i.q.i.j.k.m.T.V.n.>.:.w.=.X.} ] ] 0.0.p.k.k.m.].tXtXaXaXaXaXaXaXaXtXeX5XiXbXbXnXbXbXbXxXsXxXbXbXnXmXVXGXFXeX,X,XU.m.n.n.N.N.n.k.k.k.p.y.p.a.k.a.n.n.p.6.w.a.M.p.w.0.:.:.-.+.&.y.;.5.i.y.4.+.! Z Z M n b b z k p e e h Z G H Y Y I F W ! ] ....X.X... ...} ] ] ] ] ] H p i i i p p p i i ",
"0 t p p g g p p s m ! ..O.+.+.&.+.&.;.:.;.&.+...+.X.W ` ` ! ] ` ! G p i i a z z b b C Z Z Z } >.0.0.0.q.4.*.-.:.w.p.a.n.s.k.s.y.0.V.[.].W.m.p.p.p.a.n.a.a.k.n.V.V.V.B.N.V.C.W.`.4XkXSXhXnXnXmXmXmXmXmXmXGXGXnXnXfXdXdXaXaXaXaXaXaXaXtXtXeX[.T.[.3XQ.j.z.V.q.6.y.6.-...[ &.0.n.V.p.j.m.m.U.V.I.R. XR.E.E..X,XwX,XU.h.8.i.4.;.;.;.5.0.s.k.:...+.:.k.V.V.V.Z.:.} -.V.V.V.m.V.V.C.C.C.T.W.T.C.C.V.V.C.p.k.T.W.V.:.+.+.q.T.T.C.N.N.V.C.V.V.V.C.C.C.C.V.V.V.V.V.V.V.V.C.V.V.V.C.Z.S.Z.Z.T.T.W.W.W.W.T.T.T.T.T.W.W.T.W.W.Z.W.W.C.C.A.C.T.`.N.s.T.W.W.W.W.W.`.W.`.`.`.`.[.[.[.[.[.[.[.[.[.[.[.[.Q.].'.'.'.'.`.`.W.W.W.W.W.`.].].V.V.].[.[.[.[.[.W.C.W.`.W.`.W.k.j.T.C.C.N.N.k.z.m.z.m.m.m.z.l.z.z.z.z.z.4.o.+.y.p.V.W.W.y.+.+.6.k.k.i.6.;.;.6.q.q.6.6.i.I.]. XR.R.R.).).).).).R.j.j.j.V.a.y.Z.a.:.&.=.y.>.-.:.:.a.V.m.V.a.m.[.eXtXtXaXaXaXaXaXtXeXtX7X7XbXMXDXnXbXbXxXsXxXbXnXnXSXHXHXhXwX,XQ.m.m.n.n.n.V.V.n.k.k.:.0.0.y.p.a.p.a.a.i.0.p.b.n.w.0.0.:.;.;.*.&.0.;.5.i.y.5.+.~ Z Z M n n m z k p e e h Z G H Y T H F Q ! ] ....X.X. . ...} ] ~ ] ~ ~ H p i i i i p i i i ",
"0 t p p h h p p s m ! ....O.+.+.+.+.&.;.;.&.+...X...E ! ` ! _ W T F p u i a k v b b Z Z Z Z } >.0.6.0.0.*.*.;.>.w.y.p.p.s.N.N.s.6.n..XoX'.V.k.a.*.0.p.p.p.k.n.m.B.V.V.V.V.V.V.V.T.4XgXSXnXnXnXMXMXmXmXmXmXVXGXGXnXfXdXaXaXaXaXaXaXaXtXtXtX4X[.T.].,X].k.V.T.U.p.&. .]  .+.-.5.y.m.k.V.T.W.V.m.I.oX].T.R.OXrX.XE.h.8.6.6.;.;.:.5.p.k.V.V.k.6.&.+.:.V.m.m.T.C.:.&.C.T.m.m.k.k.m.V.m.m.V.V.V.m.m.m.T.C.k.q.j.W.T.V.k.V.T.V.k.k.k.m.C.C.Z.Z.Z.Z.Z.Z.V.V.V.C.V.V.V.V.C.C.C.C.C.C.Z.T.T.T.T.T.C.C.C.V.V.V.V.m.V.V.m.V.m.m.m.m.k.j.p.i.i.k.k.k.V.U.V.V.V.V.C.C.C.C.C.C.V.C.C.C.m.V.V.V.m.m.C.C.U.U.U.W.W.W.W.W.T.T.T.T.T.T.W.W.V.V.W.Q.`.`.`.].V.n.C.W.V.V.m.;.0.j.k.m.k.k.k.k.k.k.k.z.m.z.z.k.j.h.h.i.i.0.6.p.k.C.C.p.+...:.0.k.m.m.a.5.;.;.5.5.5.5.6.s.V.R.R.R.R.|.|.).R.).).I.m.z.m.p.a.0.-.X.} ..&.Z.C.V.W.T.T.W.k.V.[.eXdXtXtXeXeXtXtXtXtX5X7XsXsXmXDXDXbXbXfXsXsXbXnXSXSXHXSXtXoX>XI.j.m.m.m.n.n.m.m.k.k.y.o.y.y.p.a.k.a.a.s.p.k.V.M.p.0.0.6.:.;.;.;.&.>.;.6.i.y.5.+.~ Z Z Z n n b z k p e e h Z G G Y T H F ! ! ] ....X.X. .[ ..} ~ W ! ! ! G p i i i i i i r r ",
"0 t p p g g p p s b ! .. ...O.+.+.+.+.-.;.&.+..... .Y W ! E E H Y F p e i a k v b b Z Z Z Z } >.6.6.0.0.&.;.:.>.0.0.0.0.k.T.].A.p.a.Q.].[.!.V.p.:.=.=.;.0.p.n.m.N.B.B.V.V.B.N.M.U.W.>XfXnXnXnXnXnXnXMXmXmXmXJXJXDXnXsXaXaXaXaXaXaXtXtXtXtXeXwX>X[.].oX].C.m.i.q.6.;.+.....o... .j.V.V.T.T.U.I.I.}.Q.Q.].OX.XY.t.8.6.6.5.;.5.s.k.m.V.C.C.T.V.6...+.k.V.V.T.].V.0.0.y.:.:.0.y.a.m.k.k.m.k.p.p.p.y.k.i.k.0.*.p.j.i.y.p.j.i.6.6.0.y.y.p.p.a.a.a.a.a.a.a.a.k.k.k.k.m.n.n.m.M.m.n.n.m.k.k.s.i.k.p.s.s.y.y.y.y.0.0.0.0.i.q.q.6.;.*.*.;.;.4.3.6.6.q.6.>.6.6.6.6.0.0.0.0.0.q.q.q.6.6.0.0.0.6.6.6.4.:.4.6.0.6.6.6.6.6.6.6.y.y.i.i.y.0.6.6.0.0.0.0.>.;.0.y.k.k.i.*.4.i.q.i.6.0.y.y.y.y.y.y.q.0.0.0.6.4.4.:.].W.k.k.V.C.i.&...-.y.0.i.m.C.C.s.4.-.-.*.;.5.6.i.s.m.E.R.R.|. X|.|. X X].V.j.s.p.,.X.+.+.X.X.&.a.].[.V.C.].V.C.>XtXdXaXtXtXeXaXeXeXeXtXtXsXnXGXDXDXnXbXfXfXsXfXnXSXDXDXFX3X].].I.m.n.m.m.m.n.n.m.m.k.a.&.` i.y.p.n.n.k.N.k.N.A.'.V.0.6.6.>.,.=.;.;.&.:.;.6.i.y.4.+.! Z Z M n n b z h p e e h Z G G Y T H F ! ! ] ....X.X. .[ ..] ~ E E E E G p i i i i i i r e ",
"0 t g p g g p p s n ~ .... .O.+.O.O.+.&.;.;.&.+.&.] H ! ~ ~ ! E Y H p i i a k z b M Z Z Z F ` ;.6.6.0.:.! ]  .} } ] ] ~ ` ;.V.C.C.C.C.C.W.W.Z.n.0.n.w...X.0.a.p.M.N.B.B.V.V.V.V.U.U.W.'.5XgXnXnXnXnXnXMXMXMXMXVXGXGXHXnXsXaXtXtXtXtXtXtXtXtXtXtXtXwX>XoXQ.q.q.q.q.4.+. . .[  .o.;.k.C.C.V.R.3XoX.X[.].].].z.8.6.5.;.-.;.y.k.N.N.V.C.W.W.T.i.&.+.&.k.C.W.C.T.V.0.6.:.;.&.;.:.6.0.y.y.y.y.y.0.6.6.6.0.0.0.:.>.4.6.0.w.0.6.:.:.:.:.>.:.:.>.>.<.<.0.w.0.0.0.0.0.0.0.w.0.w.w.w.0.0.0.6.,.;.;.:.:.>.>.>.>.>.>.:.:.6.y.k.k.k.k.s.y.p.j.j.j.i.i.j.p.y.0.>.>.>.>.0.0.0.0.6.6.6.6.6.6.6.6.q.0.0.6.4.4.4.4.0.6.6.6.6.6.6.6.q.q.q.q.q.6.6.6.6.:.:.;.;.&.;.y.k.p.0.4.0.y.y.y.y.w.w.w.0.0.0.0.>.<.0.6.6.6.6.w.w.p.M.C.W.C.p.;.+.:.y.y.p.a.V.C.C.k.0.*.4.;.;.6.y.q.p.V.]. X X X X).R.].T.k.k.k.6.=.+.+.*.+.O.+.=.n.T.V.T.V.T.3XtXdXdXaXtXtXaXaXwXeXtXaXnXnXVXmXmXnXbXbXsXsXhXhXbXSXGXfX>X[.T.j.m.m.m.m.V.n.n.n.k.p.0.:.] &.p.6.p.n.N.N.V.N.N.C.k.;.w.&.] _ ! ] ! _ ` ` :.6.0.0.:.&.! Z Z M n n b k h t e 0 p Z G U Y W H G ! ~  ...O.&...] ] ] ~ ] ] ] ] ] F i i i i i i r r e ",
"0 t g p g g p p s V ` .... ...O...O.o.&.-.;.&.+.&. .Y ! ] ] ] _ T G i i i a k z b M Z Z Z F ` ;.6.6.0.:.Y G F H H Y Y Y K ` y.C.C.C.C.Z.W.W.T.m.n.W.W.m.&.-.>.y.y.p.n.N.N.N.V.V.C.V.C.W.oXtXgXgXnXnXnXMXMXMXMXMXmXVXGXHXnXfXdXaXtXtXtXtXtXtXtXtXdXtXeX3XoXz.*.;.6.4.&...]  .+.;.6.y.V.T.m.V..XeX,X.X].].V.t.5.6.5.;.;.6.k.k.N.m.C.T.T.V.p.&...:.0.V.C.W.Z.V.m.0.y.p.p.y.:.6.0.y.y.y.y.y.y.y.y.y.0.0.0.0.6.6.0.0.p.a.p.w.y.y.y.y.y.w.w.w.w.w.w.y.i.i.i.p.y.y.y.y.y.w.y.y.w.w.q.p.p.y.6.>.6.6.6.6.0.6.>.:.:.:.6.k.N.C.A.C.V.C.T.W.T.T.U.C.W.U.N.k.0.0.y.y.y.y.y.y.p.p.p.p.k.k.k.k.k.j.j.j.p.p.p.p.k.k.a.a.p.p.p.p.k.k.k.k.k.p.i.i.i.y.y.0.6.>.6.p.k.p.i.q.i.p.k.k.p.p.p.p.p.p.p.p.u.u.u.y.y.y.w.p.0.p.V.T.C.V.k.0.;.&.;.y.p.p.k.V.U.C.k.y.:.&.;.6.p.w.w.j.z.U.R.R.+X).).N.i.p.p.0.:.&.O.&.*.;.&.O.&.n.'.V.M.W.3XaXdXdXdXaXtXtXaXaXeXeXaXhXDXGXVXnXnXbXbXfXsXsXgXnXfXSXtX:X[.V.p.p.m.m.m.m.M.m.n.n.y.y.0.0.6.i.m.0.n.N.N.n.N.k.a.k.&.&.=.W F F F G L A F K :.6.0.0.:.&.! Z M M n m c k h t e e p Z H I Y W H G ! ~  .+.+.&.o.] ] ] ] ] ] ] ] ] D p i i i i i r r e ",
"0 i j p g g p p s Z ] ...... .O.......+.&.;.-.&.=.O.W ` ] ] ] ] ! A i i p a k z b C Z Z Z F ` ;.0.0.q.:.Y A Z G H Y E E ' +.s.k.V.V.Z.W.'.oXW.m.M.T.].].k.0.;.:.>.0.p.a.m.M.B.B.m.n.m.V.[.}.3XdXgXnXnXnXxXMXMXmXvXmXmXGXHXSXdXdXtXtXtXtXtXtXtXtXaXfXlXtXoX].j.;.4.;.&.+.] O.;.5.0.5.5.p.k.k.C.OX3XoXT.z.i.6.6.5.;.;.6.s.N.N.N.V.W.T.V.0.&. .&.0.k.k.a.V.Z.n.M.a.p.i.i.y.0.y.p.a.p.p.p.p.p.p.a.k.a.a.a.a.p.a.a.n.M.V.M.n.V.V.V.V.V.N.N.n.n.n.N.N.B.B.B.B.B.N.N.V.C.V.C.C.V.V.A.T.].W.T.C.V.V.V.V.V.V.M.m.n.m.V.W.`.].[.].!.'.'.[.{.[.[.[.oX[.`.W.V.V.V.V.V.V.V.V.C.C.C.C.T.T.T.T.W.T.T.T.C.C.Z.T.Z.Z.Z.Z.Z.Z.Z.C.C.C.C.C.C.V.N.N.V.N.N.N.n.k.n.m.m.m.m.m.n.n.M.n.n.n.n.n.n.v.n.n.n.v.p.y.0.6.5.6.y.p.m.C.m.p.k.a.y.;.&.:.y.p.k.V.C.U.C.k.i.;.-.5.w.w.p.j.q.z.I.E.R.XX).5.>.6.>.;.,.*.=.=.+.:.0.0.j.W.m.V.'.4XtXeXdXdXdXaXtXtXtXtXtXaXgXHXGXGXmXbXbXxXsXsXsXgXgXgXSXtX].Q.m.n.n.N.m.m.m.m.n.n.a.w.0.y.p.m.V.C.V.p.Z.Z.C.N.C.n.k.k.s.0.] T T Y Y Y K F G Y :.6.0.0.>.&.! M M M n m c k h p e e k Z Y Y W ! Y G ~ ` o.+.&.&.X.} ] ~ ] ] } } ] ] G p s s i i i r r e ",
"0 i g p g g p p s S  ........... ...o.+.&.-.-.&.=.=._ ] ] ` ~ ~ _ Z i u i a k z b C Z Z V S ` ;.0.6.q.:.K F F H Y Y E E Q  .y.y.m.V.T.W.].oXoX'.W.W.W.].C.m.y.6.>.>.>.6.y.a.M.M.N.n.m.V.N.T.R.].7XhXnXnXxXxXMXvXvXvXmXmXGXHXSXfXtXtXtXtXtXeXtXtXdXSXSXfXU.V.V.j.4.;.&.+. .&.:.:.*.*.o. .0.k.N.).].T.k.s.i.i.6.-.-.6.k.N.N.n.V.`.W.V.0.+.o.+.:.y.p.0.:.i.V.N.V.C.V.y.0.y.i.p.k.m.k.k.k.k.k.k.m.V.C.C.C.C.C.C.Z.Z.W.!.W.Z.!.!.!.!.`.W.Z.Z.W.W.W.`.`.`.`.].[.[.[.[.[.[.[.[.[.[.}.{.}.oXoX}.[.[.[.[.[.[.[..X[.oXoXoX}.oX>X>X>X<X<X;X<X>X{.{.oXoXoX>X[.[.[.[.[.[.[.[.[.[.[.[.[.[.[.[.[.[.[.'.W.!.'.[.'.'.'.'.].`.].`.`.`.`.`.].W.T.T.W.W.T.Z.Z.Z.Z.A.m.V.C.C.V.V.V.V.V.B.V.V.N.N.N.N.N.n.p.y.0.6.:.:.a.k.k.m.i.6.0.p.k.y.;.+.>.p.m.V.C.m.m.m.N.i.;.-.:.w.j.j.h.j.z.c.).R.s.6.>.+.o.+.*.4.4.O.O.O.*.6.C.n.j.[.5XtXdXfXdXdXaXtXaXtXtX7XaXhXGXGXGXDXnXbXxXsXsXfXgXgXgXfX>X].T.m.n.k.N.B.N.M.m.n.a.p.0.:.y.p.m.V.V.T.T.T.W.`.`.W.`.Z.V.V.A.m.` ` Y Y Y Y G G G H :.6.0.0.>.&.W M M M n b x k h t 9 e k Z Y Y W ~ Y G ~ ` ..&.&.=.+. .] ! ] } } ..} } H a s s i i i r r e ",
"q i j p g a a s s F  .+.+.*.+... . .X.+.&.-.-.*.=.X.] ! ] W T E ! M e p p a k z c b b n n S ! -.>.0.q.;.K F F H Y Y T E !  .y.i.n.N.C.`.`.[.{.oX>X1X{.[.C.V.m.p.y.0.:.:.:.p.M.m.V.V.m.m.k.m.V.T.W.2XfXGXmXxXxXxXmXmXmXmXDXJXGXnXsXaXtXtXtX5XtXfXkXfXtX>XQ.V.y.p.;.[ O.+.;.5.4.*.*.O.^ _ 0.T.T.N.k.s.j.s.q.5.-.;.y.k.N.N.C.T.].T.m.6.+...&.;.w.n.y.>.:.>.a.C.Z.V.V.y.:.6.p.k.k.k.m.m.m.m.V.V.C.C.W.W.W.W.W.W.`.].!.'.!.!.W.W.!.!.].W.T.W.[.[.[.[.[.[.[.[.[.[.[.[.[.[.[.[.[.[.[.{.[.oXOXoXoXoXoX>X,X,X,X,X>X>X>X>X>X>X>X>X>X>X>X>X>X>X>X>X>X>X>X;XoXoXoXoX{.{.oXoX}..X.X.X[.[.[.[.[..X.X].W.].[.[.'.'.'.'.[.[.[.[.'.`.`.`.!.W.W.W.W.W.W.W.W.T.Z.C.Z.Z.Z.A.C.C.C.C.C.C.C.C.C.V.V.V.V.p.y.p.y.6.0.p.a.a.k.p.;.5.0.y.p.p.6.-.+.;.w.a.m.V.m.m.V.m.y.;.:.5.q.i.j.i.s.V.].N.c.N.;. ...+.O.*.;.;.&...O.4.y.y.].3X3X>X4XdXtXtXaXtXaXtXtXsXxXmXJXJXmXnXxXsXbXbXSXnXSXgXdXoXT.V.m.n.M.n.M.N.N.a.p.p.>.>.>.y.k.n.N.V.C.W.[.{.>X1X1X[.].W.C.N.N.s.o.! T Y Y Y L G G T &.y.0.0.>.X.W M M b b b c g h p e t k v Z I W / H G ~ ` o.&.&.X.:.X.~ ] } } ..X.+.&.~ x a i r r p p p p ",
"r p p g p p a h m E +.;.5.4.&.......&.-.&.-.*.-.&.X.] ! ] W T E W Z t t p a g k c b b n n S ! &.>.0.q.;.K F F H Y Y T W E } y.k.N.N.Z.`.W.W.`.[.1X4X4X1X].W.T.V.k.p.0.:.;.;.0.p.V.V.V.V.k.k.m.V.V.W.1XsXnXmXMXmXmXmXmXmXDXLXJXGXnXsXtXtXtXtXfXkXkX4X[.W.3Xm.i.4. . .*.4.0.6.-.+.+. .`  .6.m.N.k.s.i.i.q.q.;.-.5.k.N.N.N.A.].`.N.0.&...+.>.0.p.y.0.0.>.0.w.n.n.n.k.p.0.:.0.i.k.V.V.V.m.m.V.V.C.C.T.T.T.T.W.W.W.W.!.!.!.S.Z.W.W.!.].].W.W.[.[.[.[.[.[.[.[.[.[.[.[.[.[.[.[.[.[.[.{.[.oXoXoXoXoXoXoX,X,X,X,X>X>X>X>X>X>X>X>X>X>X>X{.>X>X>X>X>X>X>X>XoXoXoXoX{.{.{.oX[..X[.[.[.[.[.[.[.oX[.].W.].'.'.'.'.'.'.'.'.'.'.`.`.!.!.Z.Z.Z.Z.T.Z.Z.Z.V.C.C.A.Z.C.C.C.V.C.V.V.V.V.V.V.V.V.m.m.k.i.y.p.0.>.0.i.p.N.k.:.;.:.>.6.y.p.i.6.&.&.:.w.a.m.V.V.V.V.k.y.&.+.;.q.q.i.s.k.N.k.N.k.+.]  ... .+.*.:.;.;.;.;.y.C.[.].>X[.oX4XtXtXaXtXtXaXsXnXmXJXZXmXxXxXxXbXnXnXSXSXfX3XT.V.m.k.n.n.V.N.M.M.n.y.>.>.:.0.p.k.N.V.A.T.[.>X5X5X5X1X{.W.W.Z.V.N.N.s.o.! T Y Y Y L G G T +.y.0.6.:.X.E M M b b b c g h p r r k v Z H W / G F ~ ] o.&.&.$.:.X.] ] } o.X.&.+.-. .G k i r r r r p p ",
") i p g a k n H ! ..-.;.5.;.+.]  .o.&.,.-.-.-.-.-.X.] ! ] W E E W F a t p s g k c b b n n S ! &.>.0.q.;.L F F H I Y T E E ` y.V.V.N.C.W.W.W.W.`.{.>X3X5X1X}.].T.V.m.p.0.6.;.=.>.p.m.V.V.V.m.m.V.N.C.W.oX9XbXDXDXmXmXmXmXmXmXmXGXnXgXaX7XtXaXtXtXoX].T.`.V.T.[.y.O.+.j.V.y.;.+.O.+. . .-.5.s.h.i.6.6.5.5.5.4.6.s.N.N.N.C.`.R.N.y.-.+.&.>.w.p.w.>.0.w.y.w.>.p.a.a.p.p.y.>.:.0.p.m.V.V.V.V.m.V.V.C.C.C.C.T.T.T.C.Z.Z.W.S.C.N.C.W.W.].].W.T.[.[.[.[.[.[.[.[.[.[.[.[.{.{.[.[.[.[.[.[.[.}.}.oXoXoXoXoX>X>XOX>X>X>X>X>X>X>X>X>XoX>XoX'.[.>X>X>X>X>X>X>XoXoXoXoXoX{.oXoX[.[.[.[.[.[.[.[.[.[.].W.W.Q.].!.].].].].].].].].!.W.W.W.C.V.C.Z.Z.C.V.N.n.N.C.C.B.N.n.n.C.C.V.V.V.V.V.V.m.m.k.k.i.y.0.0.:.:.6.y.p.m.p.&.:.:.:.>.6.y.y.y.6.-.=.>.y.a.m.V.V.N.m.k.5.-.-.4.6.i.t.5.;.6.i.6.+.]  ... .o.:.y.y.0.6.>.a.m.n.W.].].W.[.4XtXaXtXtXhXnXmXJXJXmXnXxXbXnXSXSXFXHXfX!.m.k.m.n.n.n.n.N.n.n.a.w.>.:.>.i.a.N.C.A.W.].}.1X4X4X>X>X[.`.W.A.C.N.k.N.s.o.! Y Y Y Y L G G T X.0.0.>.:...Y M M b b m c g h p t t k b Z G R ! F S ~ } ..$.&.-.:...] ]  .o.X.+.+.+.+.~ Z k h h p p r p ",
") u g h m m S E ]  .&.;.-... .] ~ ] X.-.-.-.-.-.-.X.] ! ] W E E ~ Y z p p a a k c b m b n Z Q &.>.>.0.;.L F F H I Y T E ! ` 6.N.N.k.n.V.W.'.].`.`.`.}.3XeX3XoX].T.V.m.p.a.w.>.;.:.0.a.k.V.V.V.V.m.V.C.T.W.5XSXGXmXmXmXmXmXmXmXmXnXnXhXaXaXaX5X>XW.W.T.V.y.T.`.;.&.*.k.W.i.;.+.+.o.#.+.5.s.5.5.5.4.:.;.;.;.q.k.N.N.N.A.R.].k.6.-.+.-.6.y.p.p.0.>.>.y.u.y.y.y.p.v.i.i.y.0.:.:.6.y.k.m.V.V.m.m.V.V.V.V.V.V.C.C.V.V.V.D.C.B.n.V.Z.W.W.W.T.C.].`.].].[.[.[.[.[.[.[.[.{.[.[.[.[.[.[.[.[.[.[.oXoXoXoXoXoXoXoXoXoXoXoXoX>XoXoXoX>X>X>X'.Q.>X>X>XoXoXoX>XoXoXoXoX{.oXoXoX[.[.[.[.'.'.'.'.'.].W.W.!.Q.Q.W.].].].].!.!.!.!.W.W.W.W.V.V.C.Z.Z.V.n.k.k.V.A.N.n.n.n.n.C.V.V.V.V.V.V.V.k.k.k.a.y.0.6.;.&.:.6.0.p.i.0.>.6.6.6.6.6.6.0.y.y.6.;.;.>.y.a.m.V.V.m.k.k.i.;.-.+.5.6.5.-.;.t.y.;. ...+. .+.0.C.T.p.0.i.6.0.0.k.V.T.T.V.}.tXfXaXtXnXGXGXJXmXnXxXmXDXDXFXHXHXaXC.p.m.m.m.n.n.n.n.n.a.p.w.:.:.0.p.n.N.C.Z.W.[.>X1X1X1X[.W.W.`.W.Z.N.k.p.p.N.s.o.Q Y Y Y Y L G G T X.0.>.:.:.o.Y b M n b m c g h p p p l b M D Y ! S S ~ } X.$.&.:.,...] ] }  ...X.X.+.+.] Y F M b l k p p ",
"e p h h m m n G E ~ }  ...} ! ! ~ ~ ] &.;.5.>.+.-.&.] E ~ ! E W ~ T b p p a a k c b m b n Z ! &.:.<.w.*.I G F H Y Y T E E ` :.n.C.N.:.>.n.V.`.[.}.[.}.}.oX1X4X1X}.`.A.N.n.a.p.>.-.-.:.y.m.m.V.V.V.V.V.V.C.T.>XbXGXGXmXnXmXmXmXmXnXnXnXnXfX>XC.V.T.].T.a.0.p.;.+.5.k.N.k.m.6.k.s.@.-.;.*.*.;.;.+.;.+.+.+.i.k.m.k.N.C.T.T.k.5.+.o.&.>.0.y.w.0.0.y.y.y.u.u.a.w.0.a.a.p.p.y.5.;.;.;.a.k.m.k.k.a.a.k.k.m.V.V.V.V.V.V.n.B.B.V.n.n.V.Z.W.W.Z.V.T.W.].].'.'.'.'.'.'.'.[.[.[.[.[.[.[.[.[.[.].[.}.}.}.}.}.oXoXoXoXoX.X.XoX[.[.[.[.>X>X>X[.W.>X>XoXoXoXoXoX{.{.{.{.oXoX[.`.'.'.'.'.'.'.'.'.'.!.U.U.W.W.W.W.W.W.W.W.W.W.W.W.W.Z.W.C.M.N.V.V.N.n.a.v.n.N.n.n.N.N.N.N.N.N.M.n.k.a.p.p.p.p.p.i.i.0.:.&.:.6.0.y.y.y.0.y.0.0.y.p.y.0.6.6.p.p.w.6.&.&.6.k.N.V.k.k.m.k.i.5.;.+.-.q.5.>.6.i.4.+.+...+.&.p.[.k.m.].C.6.6.0.y.p.N.T.T.U.>XtXtXSXDXJXJXDXmXnXnXmXHXHXFXHXwXV.k.N.N.m.k.n.M.M.n.p.w.0.0.y.p.a.n.C.C.W.`.>X4X4X1X{.`.W.`.].W.Z.n.p.p.p.p.V.s. .E W Y Y Y Y L G T ..0.<.>.:...Y M n b m m l g h p p p v b Z G Y W G F ~ ] X.&.-.,.&.} ~ ! ` ] ] } } ] ~ W H F A Z l c k p ",
"q i p g k x b Z G K E E ~ E H H E ! ] X.&.5.5.;.=.&.] E ~ ! E W ~ T b p p a a k c b m b n Z ! &.:.<.w.*.Y G F H Y Y T E Y ! -.s.Z.n.&.&.,.0.p.N.{.{.}.`.[.{.>X1X4X>X}.`.Z.N.M.n.0.>.;.;.5.y.k.V.V.V.V.V.m.M.m.Z.tXSXnXnXmXmXmXmXmXnXnXhXtX`.m.k.U.C.k.6.:.;.-.:.k.T.V.0.s.T.N.C.s.5.@.o.+.;.4.:.-.+.-.q.k.m.k.m.V.T.T.k.6.-.+.&.>.0.y.0.0.0.w.p.y.y.y.w.0.:.:.0.a.p.y.y.6.;.-.;.p.p.y.y.y.y.y.i.p.a.k.k.m.m.n.n.n.M.B.B.n.n.N.C.C.T.C.V.C.W.W.W.].].].].'.'.'.'.'.'.`.`.'.'.'.'.].`.].}.}.}.}.}..X.X.X.X.X].].[.'.'.'.'.[.[..XQ.W.oX.X.X[.[.[.[.[.[.[.[.].[.].T.'.'.].].].].].].'.W.U.T.W.W.W.W.Z.T.T.T.W.W.S.S.Z.C.Z.N.n.n.M.M.n.a.p.a.N.n.v.a.n.n.n.n.n.n.a.a.i.y.y.0.6.0.0.y.y.>.;.-.>.6.q.y.p.y.6.:.6.0.p.p.a.y.0.0.y.i.p.0.,.&.;.0.p.m.N.k.N.N.N.k.0.*.*.6.>.;.;.6.;.;.-.+.+.i.}.V.y.V.C.T.p.:.;.:.6.s.N.C.R.U.[.tXGXJXLXDXmXnXnXDXHXHXHXkXwXI.V.V.C.V.V.m.n.n.a.w.>.>.>.>.y.a.n.V.Z.`.{.>X4X1XoX[.`.W.`.[.W.V.p.6.>.:.0.N.V.k.o.E W Y Y Y Y L G T } 0.0.>.:...Y M n b m b l g h p p p v b Z H Y W H F ~ ] $.&.=.-.&...~ ! W W W W W Y Y I F D Z b l z a e ",
"8 9 q i a k b M Z F F F H F n Z H W ] X.o.>.6.>.;.&.] E ~ ! E W ~ T b p p a a k c b m b n Z ! &.:.>.0.*.Y G F H Y Y T E E ! +.y.V.p.X.-.=.-.;.0.p.V.`.[.[.[.[.oX1X1X3X>X{.W.Z.Z.n.p.0.:.-.:.0.a.m.m.V.V.V.k.p.a.Z.2XgXGXmXVXvXmXmXnXhX7X[.Z.M.n.m.p.6.&.+.-.p.C.].].V.0.k.3XQ.s.N.k.;.#.+.;.5.5.;.;.q.k.m.k.m.N.A.A.k.5.+.&.;.5.0.y.0.6.>.0.p.a.p.y.<.>.,.-.-.,.p.p.y.y.6.;.-.;.0.>.:.:.:.6.0.y.y.i.p.p.p.p.a.a.v.n.n.n.n.a.k.n.V.C.V.m.V.C.U.U.W.W.W.W.W.W.W.W.W.W.W.W.W.W.W.W.W.T.T.].].].].].].].].].Q.W.W.Q.!.W.W.W.Q.Q.].T.U..X[.Q.Q.Q.].].Q.Q.`.`.W.].W.Z.!.W.W.W.W.!.!.W.W.T.V.C.Z.Z.Z.C.C.B.C.C.B.C.C.C.V.N.N.n.v.v.a.a.p.p.p.a.v.a.a.a.a.a.a.a.a.p.y.w.6.>.>.:.;.:.6.y.6.:.-.:.6.0.y.i.q.0.:.-.;.6.i.p.k.a.p.y.0.0.y.y.0.:.&.&.5.p.k.N.N.N.C.V.k.6.;.:.;.+.+.-.*.6.:.:.V.[.C.p.5XoXn.k.V.6.;.-.;.6.s.k.T.V.C.>XSXGXDXmXnXnXDXDXHXHXfX].c.I.I.I.N.N.m.m.a.p.0.:.:.>.w.p.a.N.Z.W.'.>X1X>X>X[.!.W.`.`.`.T.k.y.:.,.:.,.y.C.C.k.o.! W E Y Y Y H G T ] 0.w.0.:.o.Y b n b m b l g h p p p v b Z H T ! H G ` } &.&.&.&.X.o.] W Y Y H F F F F G A Z M l h r e 6 ",
", , 5 0 i h l b M Z V n n m x m D Y } -.+.;.6.6.;.&.] E ~ ! E W ~ T b p p a a k c b m b n Z ! &.>.>.0.;.K F F H Y Y T E ! ~ +.i.`.a.o.&.:.:.:.:.-.6.i.V.`.[.{.{.[.>X4X5X4X{.`.W.C.V.k.y.6.>.>.0.i.a.m.m.V.k.k.k.C.A.;X8XGXmXVXVXnXmXhX<XM.N.V.M.k.y.6.>.:.6.C.].T.T.T.Q.oXOX].s.s.k.s.;.;.5.5.;.4.k.N.k.k.m.N.C.C.s.>.+.+.;.6.0.y.0.6.>.6.y.a.a.p.w.>.:.-.-.-.-.<.p.y.0.6.:.;.;.:.;.&.&.-.;.>.0.0.0.y.y.y.y.i.p.p.p.p.p.a.p.p.a.k.m.m.k.a.m.V.M.C.C.C.C.Z.C.C.C.Z.Z.Z.Z.S.Z.Z.Z.T.C.A.T.T.T.T.W.W.W.W.W.T.U.U.W.T.Z.T.T.Z.U.W.C.C.[.].Q.W.W.W.W.W.W.W.W.W.W.W.Z.W.T.T.T.T.W.T.T.C.V.V.V.V.V.V.V.N.B.N.N.N.N.N.N.n.n.n.a.a.a.p.p.y.y.p.a.a.p.p.p.p.p.p.p.p.p.0.>.:.,.;.;.+.=.>.w.>.-.-.0.6.0.i.p.;.6.>.-.&.:.6.y.k.k.m.k.y.0.0.w.y.w.;...+.5.s.N.k.k.N.C.C.k.i.:.-.+...o.;.0.0.k.oXC.k.oXkXfX{.k.m.k.y.;.4.5.y.p.N.V.C.W.4XbXDXDXSXDXDXFXFXeX].V.I.V.I.I.k.k.a.p.y.>.-.:.0.y.a.n.V.W.`.[.>X5X5X>X'.W.Z.W.Z.V.k.i.6.>.:.-.:.0.k.V.C.k.o.! E E Y Y Y H G T ] 0.y.w.-.| I b b m m x k g h p p p v b F Y W ! Y H ] } &.&.$.$.X.o.] E H F Z Z Z S F F A A M k 0 6 3 3 ",
"5 > , 5 0 r k b c M n n x k z b G ! ..&.-.>.y.6.:.&.] E ~ ! E W E K z p p a g k z c b m n Z ! &.-.>.0.;.H F F H K Y T T E ! +.i.W.V.....;.,.;.6.6.:.:.0.k.V.[.>XOXoXoX>X4X3X>X[.[.W.C.n.y.0.>.:.>.0.a.m.N.V.I.C.C.C.T.`.9XmXJXKXDXhX2XW.W.V.k.p.k.p.0.>.i.N.T.C.R.].oX3XuX,XT.T.s.q.y.s.0.>.:.6.j.k.z.m.k.N.V.N.p.:.&.+.;.6.0.y.w.>.>.w.p.0.y.a.p.>.>.:.=.X.,.:.=.0.y.i.6.6.:.-.&.;.;.&.+.&.-.6.0.0.0.q.w.w.0.0.w.w.w.0.i.i.y.0.p.p.p.p.p.a.N.n.M.m.B.V.m.B.B.B.B.B.B.B.V.V.V.V.V.V.V.V.V.V.V.V.C.C.C.C.V.V.V.V.C.C.C.C.C.Z.V.V.V.W.W.Z.C.C.C.C.C.C.C.C.Z.C.C.N.C.V.B.B.V.V.V.V.m.n.a.N.m.m.M.V.N.M.n.n.n.n.v.v.a.a.p.p.p.p.p.y.6.0.p.p.p.p.p.p.y.y.y.y.0.6.>.:.:.=.$.&.-.1.1.-.$.&.:.>.0.w.y.:.;.,.=.-.-.-.:.>.p.n.m.n.p.0.4.0.y.i.q.;... .-.p.k.k.m.V.V.C.m.p.4.*.+.O.;.;.y.T.N.k.`.dXkXdXeXoXC.k.i.0.6.6.6.i.p.m.V.V.`.5XhXbXSXFXHXkX,XR.V.V.V.V.V.m.p.k.p.0.>.>.>.y.a.n.C.W.[.oX>X3X3XoX'.].W.W.T.V.k.p.i.0.0.6.>.;.-.s.k.C.W.k...~ ^ E T Y Y H L E } 0.y.p.>.o.H m b m m v z k a p p p M A D Y W ! Y H ] } &.&.=.-.$.| ~ E H Z b c M Z F Z A b h i 3 5 5 6 ",
"5 , > > 3 9 r h h l l x k z x b G ! ..&.:.0.i.6.:.&.] E ~ W E E T G k p p a g k z c b b n Z ~ -.:.>.y.:.H F G Y K Y T T E ~ &.i.T.T.p.:.+.-.:.>.0.6.6.6.0.i.m.T.oXOX3X3XoX1X4X5X1XoX`.W.V.k.y.6.>.>.0.y.k.N.I.T.R.T.C.C.Z.4XSXGXHXtX'.C.Z.V.m.a.m.k.;.;.k.V.V.C.]..X3XwXdXwXT.c.k.s.0.6.:.;.6.p.k.k.k.k.N.N.N.s.:.&.+.;.6.0.y.0.0.0.p.p.u.y.p.v.p.0.>.&.X.&.,.-.=.>.y.p.q.6.>.,.X.&.:.:.-.-.-.;.4.4.6.6.:.>.>.>.6.6.6.6.6.0.0.6.0.0.y.p.y.y.a.a.a.b.n.n.n.n.n.n.v.v.b.v.n.n.n.n.p.p.p.p.p.p.p.p.p.p.p.p.p.v.n.n.n.n.n.n.n.n.a.a.a.n.n.n.n.n.n.n.n.n.n.n.a.a.p.p.v.b.a.b.n.n.n.n.p.p.0.a.k.n.m.n.N.n.n.n.a.a.a.a.p.i.y.y.y.0.y.>.>.y.k.a.p.p.y.w.0.0.0.0.:.;.;.=.=.&.-.>.0.0.:.&...$.-.>.w.p.0.;.>.-.&.&.-.>.>.>.6.p.n.m.n.p.0.6.q.y.i.q.;.o...;.y.k.m.V.V.C.C.m.p.4.*.+.#.q.k.s.k.k.].dXgXfXkXfX>XV.j.j.q.6.5.6.q.p.m.V.`.[.5XFXFXHXfXoX].U.I.I.V.m.k.s.q.6.:.;.:.0.p.n.C.Z.`.[.3X3X4X4X>X[.].].W.T.m.a.y.6.>.:.0.6.;.@.i.eXC.W.W.k.o.! ^ E T Y Y H L E  .0.w.p.>.o.Y n n b b m x k g a p p M Z D Y R ! Y H ] ..&.&.=.-.$.} ! Y H Z z k b M M b l p 0 6 3 5 5 6 ",
"9 3 > > > 3 9 0 r p p p a z b n G ! ..&.:.0.i.y.:.&.] E ! E T E T S d a a a g k z c b b b Z ` >.w.<.0.:.H F F H K Y T T E ` &.i.C.R.,X,Xk.;.-.-.>.>.6.6.6.0.y.a.V.Q.OX3X3X3X3X4X4X3X1X{.`.C.k.y.0.6.>.>.i.j.V.U.R.Q.T.U.W.W.>XtXgX{.Z.V.V.M.n.k.V.0.-.y.z.c.C.R.,X3XwXwXeX3XI.j.k.k.0.;.;.6.a.m.k.k.k.N.N.k.i.;.&.&.-.:.0.y.0.6.0.p.n.p.y.y.p.p.a.0.=.X.&.,.-.=.>.:.0.p.i.0.6.,.X.&.;.>.>.;.-.-.:.4.4.6.:.>.>.>.6.6.0.0.0.y.i.i.0.y.p.p.0.>.y.p.p.p.p.a.p.0.6.0.0.0.0.0.0.0.0.0.6.6.6.6.0.0.0.0.w.0.0.>.w.a.a.a.a.a.a.a.a.y.0.0.p.p.i.i.y.y.y.y.y.y.y.y.0.>.>.0.w.w.w.y.y.y.y.y.y.y.>.i.a.a.k.k.n.n.n.n.n.n.n.n.p.y.y.i.i.y.y.>.0.0.>.;.,.*.*.=.&.&.&.&.;.-.-.=.-.1.w.p.<.:.=.X.%.$.:.0.y.p.6.:.,.>.>.=.-.>.0.>.>.6.w.a.m.n.p.q.q.q.y.i.0.;.o...;.i.m.m.m.C.U.U.m.p.5.*.*.4.6.q.i.k.T.5XfXkXkXHXdX].k.p.j.q.6.6.6.q.p.m.C.C.{.FXFX>XW.[.W.U.U.U.m.j.y.6.>.:.:.>.p.n.C.Z.!.[.>X1X4X3X>X>X].].W.W.V.p.0.6.:.;.;.:.4.4.z.].k.V.>X[.].m.o.! ^ E T Y Y K L E  .0.0.y.,.} Y n n n b m b z k a p p M Z A U R R Y H ] o.&.&.=.-.X.] ! Y H M k a g k k a r 0 5 5 3 5 5 6 ",
"9 5 3 < , 3 9 9 9 r r t i k V Z G ! ..&.>.y.s.i.>.-.} E ! E Y T Y Z a a a a g k z c b b m Z ] >.u.<.0.:.H S F H K Y T T E ~ +.i.T.}.OXwXoXT.i.@.+.&.;.;.:.6.0.y.i.k.C.].3X3X4X3X3X4X5X4X>X].C.k.a.y.6.:.0.i.j.m.U.T.W.W.Q.W.W.Q.[.Z.V.n.a.a.a.a.i.6.p.m.k.N.).oXwXwX4X4X3X].z.k.p.k.i.>.y.V.C.m.k.j.k.N.k.i.;.+.&.-.:.6.y.0.6.6.p.N.N.p.y.u.u.y.0.-.&.>.0.>.&.=.w.:.:.0.s.q.6.>.&.&.-.>.>.>.:.:.>.4.6.6.>.:.,.,.;.:.:.6.6.6.6.0.0.y.p.a.w.:.0.p.p.p.a.a.q.4.:.4.0.0.0.0.w.w.w.y.0.0.0.y.0.0.0.0.y.w.0.>.p.a.a.a.p.p.p.p.p.0.:.>.n.N.n.a.p.p.p.p.p.p.p.s.>.;.:.0.u.p.p.a.p.p.p.p.p.u.y.a.a.a.a.a.a.v.a.a.a.a.a.a.p.y.y.i.p.i.y.>.:.;.&.=.=.=.,.:.;.;.;.;.;.;.;.,.>.w.u.w.1.:.-.,.-.-.0.y.p.6.6.0.=.:.y.0.&.=.>.w.0.>.:.0.p.k.n.n.i.q.q.y.0.0.:.+.+.:.p.m.m.V.U.T.C.m.i.5.;.*.;.6.i.s.N.[.5XgXkXkXdX3XC.i.j.j.q.6.5.6.0.p.C.V.Z.>X[.].T.U.U.U.V.V.k.y.6.;.:.;.0.a.V.Z.!.'.{.>X4X7X3X>X'.!.W.W.T.V.0.;.&.;.-.;.;.:.h.m.U.I.V.V.1X}.].m. .Q E E T Y Y K L T  .0.>.0.-.} Y n Z n n b m z k a p p M Z A U Y R Y H ] o.&.&.=.-.X.] W Y I M g p e t e 6 9 6 5 5 3 5 5 6 ",
"9 9 9 9 9 0 0 e i i p g k k b Z G ! } X.:.0.i.y.>.-.] Y ! E H Y Y b a p p p p g k z c c n n ] w.v.>.0.:.K F H H K Y Y T T ` ;.i.T.[.OX3XoX[.T.N.y.:.&.&.&.:.6.6.i.i.s.k.W.}.3X4X>X>X1X4X4X3XoXW.T.V.a.y.0.0.y.p.k.m.C.U.T.R.R.U.U.V.n.p.y.k.k.6.&.m.}.k.V.].oX3X@XwXwXoXE.j.s.s.k.6.0.V.W.U.m.k.k.m.V.N.6.-.+.@.&.6.y.y.0.6.6.0.p.y.w.p.n.p.0.>.,.-.>.p.0.&.&.>.0.0.6.;.i.i.0.>.:.-.-.:.6.>.:.:.=.=.=.=.,.,.,.,.:.:.:.:.;.&.&.;.-.-.-.:.:.:.:.:.>.>.>.>.:.=.&.&.-.-.,.:.>.>.>.>.>.>.>.6.:.:.:.:.>.:.,.;.;.:.>.:.:.:.:.:.4.6.6.6.y.p.y.>.:.:.:.:.:.:.:.:.-.&.&.-.>.>.>.>.>.>.>.>.0.0.0.0.>.,.=.&.&.&.&.=.-.,.,.,.:.:.:.:.:.:.:.-.=.=.=.=.;.;.;.;.:.;.-.&.&.&.&.&.-.<.w.0.:.-.-.-.:.:.w.p.0.:.y.6.-.=.>.p.0.&.>.0.y.w.w.w.p.a.n.n.k.p.y.y.0.0.>.;.&...-.i.C.C.C.U.T.C.m.p.0.=.O.*.i.k.s.k.].3XeXdXlXkXdXU.h.i.p.q.&.5.i.a.k.m.V.C.T.W.T.U.C.C.m.k.y.:.:.6.0.p.m.C.!.'.[.{.1X3X4X>XoXQ.W.W.W.M.p.>.:.;.;.-.&.;.6.k.Q.R.U.Q.>X5XeX>X[.k.} ! E E Y Y Y K K E o.a.w.-.X.! K V n n b b b z g p p a z c b A Y ! H Y ] ..&.=.-.-.X.~ Y H H Z k a a a p t e 0 0 9 6 5 5 5 ",
"0 0 0 0 e r i i p g g g k k b Z G Q } X.:.0.i.y.>.-.] Y K H S S Z z k k k z l b b b M M S Y } :.u.>.>.;.K F H H K Y Y Y T ` ;.s.T.}.5XfX5X1X[.`.].C.p.;.-.&.;.6.0.q.i.i.k.V.T.].>X3X1X1X3X3X4X4X>X].C.m.k.i.6.6.0.p.k.m.U.U.U.V.V.n.w.6.0.0.i.0.p.[.C.V.).OX3X6XwX3XoXC.j.i.i.t.;.;.k.C.T.U.V.k.m.m.k.i.-.+.@.;.6.y.y.0.6.0.p.k.p.0.y.a.n.p.0.>.-.0.p.p.-.=.:.0.0.6.5.;.5.6.0.>.>.:.;.;.>.>.:.:.>.>.>.>.>.>.>.>.6.6.6.6.5.:.5.6.:.:.>.>.>.>.>.>.>.>.>.>.:.;.;.*.-.,.:.:.>.>.>.>.6.6.6.6.:.:.:.:.:.:.;.;.:.6.6.4.0.0.0.6.0.0.q.q.0.y.0.>.>.>.>.>.6.6.6.6.>.:.:.>.>.>.>.>.>.>.6.6.>.>.>.>.>.,.=.=.=.-.,.,.>.>.>.>.:.:.:.:.:.:.:.:.:.:.:.:.>.>.>.>.:.;.;.&.-.;.;.,.,.<.<.>.-.=.,.&.-.:.w.0.;.>.y.6.-.=.=.:.>.-.:.0.p.w.p.m.V.a.p.j.k.k.p.y.0.0.0.>.>.&.o.-.p.m.V.V.C.C.C.m.p.4.*.*.i.s.s.s.k.T.3XdXHXHXHXoXm.k.j.p.6.0.y.i.p.p.k.m.V.U.T.I.m.n.p.w.:.:.6.i.V.C.W.W.[.{.>X1X1X>X[.'.W.W.W.C.a.0.,.=.:.:.;.;.:.a.T.Q.U.Q..X4XtXsXtX>X[.a.] ! E E Y Y Y K K E ..p.0.-.&.X.~ F b m c c k g g a a g z c b Z U Y H Y ] ..&.=.-.-.o.~ Y Y Y Z g p a a a s i r e 0 e 0 9 5 ",
"0 0 0 0 r i p g p p g g a k x V G Q } X.:.0.i.y.>.-.] Y G S Z Z Z z k d g k k l z c m m Y o.:.y.u.u.i.>.Y F G G K K Y Y T ~ -.s.T.>XsXGXnXaX2X}.`.}.[.V.p.>.-.:.6.6.0.q.y.i.p.N.`.>X>X>X>X>X3X4XeX3XoXW.C.m.p.y.>.0.w.a.m.m.m.m.j.y.6.:.:.;.6.k.[.N.N.[.@XrXwX3XwXXXI.h.i.t.6.;.+.6.C.T.T.C.V.m.m.k.q.;.+.@.;.6.y.y.0.6.y.p.p.i.6.>.0.i.p.y.0.>.>.p.p.>.&.:.0.0.6.6.4.:.*.:.>.>.-.-.-.-.:.:.:.:.0.0.0.0.>.>.>.>.6.6.6.6.6.0.0.0.0.0.0.0.0.0.0.0.0.0.0.0.0.0.0.6.0.0.0.y.y.y.y.y.i.i.i.p.i.i.y.y.p.y.w.0.0.w.q.w.y.q.0.6.5.6.6.0.6.0.6.6.0.0.0.0.q.q.q.q.0.y.y.0.0.0.0.0.y.y.y.y.w.w.w.w.0.6.>.6.>.>.0.0.>.>.>.>.>.>.>.>.>.>.6.0.0.0.0.0.0.0.0.0.6.>.:.;.:.6.6.>.:.:.:.,.-.&.$.X.&.:.0.>.&.>.0.6.>.-.=.&.&.,.>.y.p.0.p.V.C.p.q.q.a.k.k.p.0.0.0.0.0.>.&.o.;.y.k.V.N.V.C.V.j.p.0.;.6.t.h.h.i.h.R.rXHXHXHXrX].oXV.0.i.q.6.6.0.y.i.p.j.V.I.V.p.p.w.>.>.y.a.V.W.].[.[.3X4X4X4X{.'.W.W.W.Z.m.y.4.4.,.;.;.:.6.0.m.T.W.W.].1XyXhXnXhXtX1X].p.] Q E E Y Y Y Y K E +.a.y.0.y.0. .G n b b b k k k k k z c b b A D U H Y ] o.&.=.-.-.X.] W W T Z a p p p s s i i i e r 0 6 5 ",
"9 9 9 9 r i p p p p p g p g x n G Q } X.:.y.i.y.>.-.] Y G S Z Z b z k k k z l b c b m b H } -.>.<.p.p.>.Y F G G H K Y Y T ~ -.s.`.1XsXHXnXnXCXsX5X>X[.'.].C.s.;.4.5.6.6.6.0.0.y.p.T.[.{.>X>X>X>X4X4X4X>X[.W.V.n.0.w.w.p.m.k.p.i.y.0.>.:.6.6.i.p.0.C.1X3XrXeXrX3X.XV.h.s.i.6.;.+.6.C.V.T.U.C.V.V.k.q.-.#.@.;.6.y.y.0.6.y.a.p.0.>.>.>.>.:.>.0.0.>.0.y.>.&.&.6.0.>.:.:.5.5.*.;.;.-.o.+.-.&.-.-.:.>.>.>.>.>.>.>.:.>.6.6.6.6.6.0.0.6.y.w.w.0.0.0.0.0.0.0.0.0.6.0.y.0.0.0.0.y.y.y.y.y.i.i.i.p.i.i.i.y.p.p.p.y.w.p.p.p.p.y.q.0.6.6.q.i.y.0.0.y.y.y.y.y.y.y.y.y.0.y.y.0.0.0.0.0.y.y.y.y.y.y.y.y.y.0.0.w.0.0.0.w.0.0.0.0.>.>.>.>.:.>.6.0.0.0.0.0.6.6.6.6.:.:.;.-.;.:.:.&.-.-.-.,.-.=.] { &.,.>.:.,.:.:.:.0.>.:.-.=.=.>.0.p.0.w.n.p.0.q.q.i.a.k.k.y.0.0.0.0.0.6.&.O.;.i.m.k.N.N.V.k.m.n.q.;.3.8.h.h.i.h.R.uXlXkXuXrXwXk.:.q.6.:.;.:.6.6.0.i.k.V.V.i.w.0.0.a.N.W.`.W.].oX3X4X1X{.[.'.`.!.W.m.p.0.6.6.6.6.6.5.i.V.W.W.W.[.<XaXnXGXmXnXsX7X1X].p.] Q E E Y Y Y Y K E ` 0.0.y.>.:.~ F Z Z Z M M b b b b b b b M A D D H Y ] o.&.=.=.-.&.} ] ] W Z p p p p p p i i i i e 9 5 , ",
"9 5 5 9 t h h p a a h h a p z V G ~ o.o.-.>.y.0.>.-.~ G M c c k z k k g k z c b m b n Z H ] :.p.p.y.6.;.T F F G G H Y Y T ~ :.k.}.4XnXnXmXmXVXVXGXsX4X;X].].E.V.h.8.3.3.6.0.0.y.p.p.a.C.`.[.>X>X1X4X5X4X3X>X[.W.v.p.u.a.a.a.y.:.:.>.6.0.y.y.y.y.;.>.}.3X3X3XOX XV.h.i.q.6.+.o.;.k.N.C.E.U.T.C.m.y.;.&.&.:.6.y.y.>.>.y.p.p.y.>.>.6.>.:.;.>.0.y.>.0.6.:.;.>.6.:.:.>.6.0.6.;.;.&.&.~ ] =.-.-.,.:.>.>.>.>.>.:.>.>.>.6.6.6.0.0.0.0.0.w.w.w.w.0.0.0.0.0.0.0.0.0.0.0.0.y.y.y.y.s.i.i.p.p.p.p.p.p.p.p.p.p.p.p.p.p.p.p.p.p.p.i.y.0.y.y.i.y.q.y.p.p.p.p.p.p.p.p.p.p.p.p.y.y.y.y.y.y.y.y.y.u.u.p.u.u.y.y.w.0.0.0.0.0.q.q.0.0.0.0.6.0.0.0.0.0.0.0.0.0.>.>.>.,.-.-.&.-.-.-.-.:.:.:.-.,.&.] ..=.-.-.0.>.:.-.:.6.6.<.0.>.-.-.0.0.0.p.i.6.:.6.0.p.p.p.p.p.y.0.6.0.0.0.>.&.+.&.:.k.k.m.V.m.n.n.p.q.;.-.;.6.6.q.q.V.oXuXdX.Xz.5.5.5.6.5.;.:.6.0.4.6.5.6.y.y.i.a.m.W.W.].oX>X3X4X3XoX].W.`.].T.N.p.0.w.y.y.5.4.6.i.I.I.U.T.W.:X7XhXnXnXnXnXcXnXaX1XW.p.' ! E E Y Y T Y L _ [ 6.>.w.y.>.} G G F Z b x x k a k k z z b M M M b H ] | X.&.=.=.;.+.....W Z p p i i u u e e e e 0 5 2 ; ",
"3 , 3 3 0 e e 0 e e e e u u k Z Y ] &.:.:.:.0.i.6.+.! F M z k k a p p p p a a k z x m n S ! -.p.m.k.0.=.E F F G F H I Y T ] >.k.[.3XgXnXmXmXmXmXGXmXnXyX>X[.].]. XY.x.i.5.4.:.:.0.y.y.p.a.C.[.>X>X>X3X4X4X4X1X>XZ.M.n.n.n.p.-. .+.>.6.0.y.y.y.y.>.:.4.}.wXOXE.z.j.s.i.5.-.O.&.y.k.N.C.T.U.T.m.6.;.+.&.;.>.0.0.0.>.y.p.p.p.0.6.6.>.>.>.>.y.p.p.>.;.;.;.;.>.:.>.6.6.y.q.6.;.;.&.&.o.| =.-.-.,.:.>.<.1.1.<.>.<.>.0.6.0.0.0.y.y.y.y.y.y.y.y.w.w.0.0.0.0.0.0.w.w.y.y.y.y.y.y.s.s.p.p.p.p.p.p.p.p.p.p.p.p.p.p.p.p.p.p.p.p.p.i.y.y.y.y.y.p.p.p.p.p.p.p.p.p.p.p.p.p.p.p.p.p.p.p.p.p.p.p.p.p.p.p.p.u.y.w.y.y.y.y.y.y.y.y.y.w.0.0.w.w.w.w.0.0.0.0.0.0.0.>.>.>.>.>.>.>.>.:.>.>.>.:.-.o. .&.=.X.=.>.>.>.>.0.>.>.>.0.0.>.:.0.y.y.i.6.-.;.:.6.i.i.i.i.i.p.y.0.0.0.0.0.>.&...&.6.k.m.m.V.m.n.k.i.4.+.+.;.3.6.6.t.N.I.T.k.4.4.4.0.i.i.y.5.6.6.:.+.+.:.y.k.V.U.W.[.oX3X5X4X3X>XoX].].`.T.V.a.0.>.:.:.:.4.6.s.c.E.U.U.T..XtXbXmXmXnXnXcXcXcXnXaX1XT.s.` Q T T Y Y Y L L _ ] w.w.y.>.+.! S Z b b k x h a a a a g k a k z z k F ! ] ..&.;.;.&.&.&...W Z t 7 6 6 7 7 2 3 3 2 2 ; - = ",
"3 3 5 9 9 9 9 0 0 0 7 7 0 0 p m F Q o.:.0.0.y.p.>.+.] ! D b b b z k k k k k z c x b b n Z G ] &.w.p.p.6.W G F F F G Y Y Y } 6.c.[.1XsXnXMXMXMXmXvXvXmXnXbX7X>X].XX).R.z.h.8.:.:.,.:.0.y.0.a.N.W.[.>X>X1X2X4X4X4X{.!.Z.C.V.p.-.]  .&.6.y.y.y.y.y.i.6.5.6.I.R.I.z.k.h.6.-.+.&.6.y.k.N.C.T.I.N.q.+.+.+.;.:.0.0.6.6.y.p.s.y.i.0.6.y.>.>.>.y.p.y.p.0.&.=.;.;.>.>.0.y.i.y.0.4.;.;.&.&.-.X.&.,.-.,.:.>.<.<.<.<.6.0.0.0.0.0.0.0.y.y.y.y.y.y.y.y.0.0.0.0.y.y.y.y.y.y.s.s.i.i.i.i.i.p.p.p.p.p.p.p.p.p.p.p.p.s.s.s.p.p.p.p.p.p.p.p.p.i.i.y.p.p.p.p.p.p.p.p.p.p.p.p.p.p.p.p.p.p.p.p.p.p.p.p.p.p.p.p.p.p.u.y.y.y.y.y.y.y.y.y.y.y.y.w.y.y.y.y.w.w.w.w.0.0.0.0.0.0.0.0.0.0.0.6.>.0.>.:.&.o.+.-.:.X.&.>.>.>.>.w.0.>.:.>.0.>.:.>.0.p.i.:.&.;.>.6.y.y.y.y.y.i.p.y.0.0.0.0.0.:.&.+.&.6.k.m.V.V.m.p.p.q.;.O.@.;.4.8.i.i.i.j.3.4.5.4.i.k.k.s.y.6.&.o.o.&.0.m.T.W.].].oX3X4X5X1XoX[.].[.W.V.y.0.6.>.:.;.;.5.6.k.C.V.s.T..XtXhXDXDXmXMXnXnXcXcXcXnXaX1XV.i.` E T Y Y Y H L L _ [ a.w.-.] E G S b b b x x x k a a g k k k c b b U / | | X.&.=.=.&.X.] E Y Z i e 6 6 6 6 3 5 5 5 5 2 > ; ",
"0 0 r g h g p g g g g g a a x Z G G H E o.:.y.p.y.-.] ! G b b n b b c c z c b b n n Z S G E ] X.X.&.:.0.! G Z Z F G I I Y } y.c.].1XsXnXnXnXnXnXvXvXmXmXGXmXsX7X}.T.I.z.z.k.j.i.:.:.>.0.y.p.p.a.Z.[.{.>X<X1X3X4X3X>X[.`.Z.n.>...}  .&.0.y.y.y.y.6.y.t.s.6.k.V.z.k.i.;.+.;.6.0.y.k.N.C.T.C.i.;.+.+.&.:.6.6.6.>.6.p.p.y.y.y.0.>.y.>.>.y.i.y.>.w.>.;.;.;.;.6.y.s.y.y.y.6.:.;.;.&.&.>.-.-.-.-.,.:.>.0.0.0.0.0.0.w.y.0.0.0.0.y.y.y.y.y.y.y.y.0.0.0.0.y.y.y.s.p.p.p.p.p.p.p.p.p.p.p.p.p.p.p.p.p.p.p.p.k.k.s.s.s.s.s.s.a.a.p.p.p.p.i.y.p.p.p.p.a.a.a.a.a.a.a.a.p.p.p.p.p.p.p.s.p.p.p.p.p.p.p.p.p.p.p.p.y.y.y.y.y.y.y.y.p.y.y.y.y.y.y.y.w.w.w.w.w.w.0.0.w.0.0.0.0.0.0.0.>.0.>.:.&.X.&.-.>.X.] -.:.:.>.0.w.0.-.-.:.:.:.>.0.i.y.:.-.:.0.0.y.y.y.0.0.y.i.p.y.0.0.0.0.6.5.-.+.&.6.k.V.V.m.p.j.p.0.;.@.;.6.i.h.i.q.6.6.6.6.q.q.p.k.s.>.&.o...o.;.k.W.[.[.[.[.>X3X3X>XoX[.].W.T.m.0.6.6.>.:.;.-.5.s.c.N.k.C.`.5XgXDXmXmXmXmXvXnXnXcXcXcXnXaX1XN.i.` E T Y Y Y G G L _ +.,.] / ] X.] F Z Z Z M n m b x z z c c c b Z Z Y ] ..o.=.=.&.X.W H Z Z H Z k p p p p p e e u e u 0 0 0 ",
"e 0 e i g g h h a a g g p p x S E } ` F Z E -.y.i.6.X.] R A Z Z b b x z c c b b n Z Z F E ! X.y.w.6.:.&.W Z F F F H H G E o.y.c.[.3XsXnXcXnXnXcXMXvXvXMXmXmXDXDXSXeX].V.C.I.U.T.k.y.>.:.>.0.y.p.a.M.W.[.>X>X>XoX>X>X<X{.W.A.k.0.+.o. ...;.:.6.y.y.i.s.s.q.q.h.k.j.4.-.5.y.s.y.p.k.T.R.C.i.-.+.+.:.:.6.y.0.6.0.p.s.i.y.y.p.y.>.:.>.6.y.i.6.:.>.:.:.6.0.i.s.s.s.s.s.s.6.+.+.;.-.&.:.>.>.>.,.-.,.>.0.0.0.0.0.0.0.0.0.0.0.y.y.y.y.y.y.y.y.i.i.i.y.y.y.y.s.p.p.p.p.p.p.p.p.p.p.p.p.p.p.p.p.p.a.a.a.a.p.s.s.s.s.s.a.s.p.p.p.p.p.p.p.p.p.p.p.p.a.a.a.a.a.a.a.a.a.j.j.j.a.a.a.a.p.p.p.p.p.p.p.p.p.p.p.p.s.s.y.y.y.y.y.y.p.y.y.y.y.y.y.y.y.y.y.y.y.y.w.w.w.0.w.w.0.0.0.0.6.6.>.-.-.-.-.:.>.-.o.| -.:.>.w.p.w.>.-.&.&.-.0.6.:.:.6.;.:.6.6.>.0.y.y.0.0.y.p.s.y.0.6.0.0.0.6.;.;.>.s.m.m.k.p.k.k.k.j.;.;.6.k.j.h.i.8.8.8.q.q.i.p.6.+.&.&.+.;.6.p.C.].oXoXoX}.oXoX}.[.oX].T.m.6.:.:.:.:.-.-.;.k.N.V.N.k.T.3XfXSXDXGXLXmXvXmXMXnXnXvXvXcXnXtXoXC.s.} ! T Y H F F A A [ ;.] ` X.-.:. .G F Z Z n n m x z c z z b M M Z Z G / ] $.&.O.Y C b Z Y W E F a t i i i i u u u u i i e 6 ",
"r e r p p p g g p p p p p p x S E  .-.o.E G G ] :.p.-.] R A Z Z b b z k z c b b n n Z S Y ~ &.i.n.k.w...F Z G F G H H G E o.y.k.[.3XsXnXnXcXnXcXvXMXMXvXmXmXmXDXKXSXgX5X[.Q.T.R.C.V.a.y.0.>.>.0.y.p.a.n.`.[.oX[.}.;X<X1X{.[.`.T.C.a.6.;.+.+.-.6.6.y.s.s.j.i.q.h.6.;.5.i.s.p.s.k.V.T.U.s.;.+.+.4.6.0.0.0.6.y.a.a.p.i.y.y.y.y.>.:.>.>.0.y.:.:.>.>.6.0.y.a.p.s.s.s.s.6.;.+.&.:.>.;.0.0.0.0.>.:.>.0.0.0.0.0.0.0.0.0.0.0.y.y.y.y.y.y.y.y.y.y.i.i.y.y.y.y.s.s.p.p.p.p.p.p.p.p.p.p.s.p.p.p.p.p.a.a.p.a.p.s.s.s.s.s.s.s.p.p.p.s.p.p.p.p.p.p.p.p.p.a.a.a.a.a.a.a.a.a.j.j.a.a.a.a.p.p.s.p.p.p.p.p.p.p.p.p.p.p.i.s.i.y.y.y.p.y.y.y.y.y.y.y.y.y.y.y.y.y.y.y.y.y.y.w.w.w.w.w.0.>.-.-.>.:.:.>.>.>.-.X.X.=.:.0.p.p.w.>.>.>.>.0.0.+.+.6.6.>.:.;.:.>.0.y.y.0.y.y.p.s.y.0.y.0.0.0.>.;.;.5.i.k.k.k.k.k.k.k.i.4.:.6.i.i.i.i.i.i.i.q.6.;.+...&.:.0.y.i.V.W.[.3X3X>XoXoX[.].`.W.V.y.6.6.>.:.>.:.0.s.V.A.C.C.T.oXtXSXGXGXDXDXDXmXMXMXnXnXnXvXvXnXnXtX>XC.k. .` E Y H F Z F F ` [ X.:.0.>.>.o.H Z Z Z n m m x z k z b M Z Z Z b D ! ] $.X.Z b F ` ! ! ~ ! G k p i i i i u u u u i i e 6 ",
"e 0 e i i i p p p p p p p s x Z K } :.>.&.X.Q F ~ :.&.~ Y A M b b c z g k z c m m n V Z K ~ -.p.k.M.M.,.F Z G F G H H G E o.y.k.[.3XsXnXnXcXnXnXnXMXMXnXmXmXmXmXGXGXHXnXgX5X[.T.C.C.C.n.a.y.0.>.6.0.w.y.V.C.W.!.[.[.{.>X>XoXoX}.`.C.m.y.;.+. .+.;.6.i.s.h.i.6.3.4.8.s.s.s.s.k.N.T.C.p.;.@.-.5.6.y.y.0.6.6.k.N.a.p.p.u.u.0.<.>.>.>.6.6.6.:.6.>.:.0.w.p.k.s.s.s.s.y.;.&.&.:.6.6.>.w.0.0.0.w.>.>.0.0.0.0.0.0.0.0.0.0.y.y.y.y.y.y.y.y.y.y.y.i.i.i.y.y.y.y.y.s.s.p.p.p.p.s.p.p.p.s.p.p.p.p.p.p.p.p.p.p.s.s.s.s.s.s.s.s.s.p.s.p.p.p.p.p.p.p.p.p.a.a.a.a.a.a.a.a.a.a.a.a.p.a.a.s.s.s.s.p.p.p.p.p.p.p.p.p.p.p.p.p.s.s.y.p.y.y.y.y.y.y.y.y.y.y.y.y.y.y.y.y.y.y.y.y.y.y.y.0.-.-.>.0.6.:.>.0.>.>.:.=.X.,.0.y.q.p.w.p.p.u.0.;.-.;.:.0.6.:.;.-.;.>.0.y.y.y.0.y.p.s.y.y.y.0.0.6.>.;.;.:.0.i.k.k.k.k.k.k.i.4.;.;.6.q.i.i.i.6.5.-.+.&.5.y.p.k.k.V.T.[.>X3X>X[.].`.T.C.V.i.0.;.-.;.:.>.0.a.Z.`.Z.W.].>X7XhXnXGXGXDXmXmXmXnXnXnXnXnXnXcXcXnXnXaX1XC.N.o.` E Y H G K G F L ..p.i.p.y.>.} G Z Z n b m x z k g g z b Z M Z Z I ~ ] =.[ K  .;.X.] ! ! ~ H k a i u i i u u u u i i e 6 ",
"0 6 0 e i i i i i i s s p p x Z Y ] -.:.-.;.-.-.+.>.:.} F b b c b c k g k k z b m b n Z H ] :.a.n.M.V.j.! L F F G H H G W o.y.k.[.3XsXnXnXnXnXnXnXnXMXMXmXmXmXvXmXMXmXmXnXhXsX1X!.Z.C.V.N.k.p.y.0.6.6.0.n.n.k.m.T.].[.{.`.[.oX>XoX].T.k.6.-... .o.-.5.q.8.6.3.@.6.j.k.k.k.k.k.C.C.k.5.+.;.6.0.6.y.i.0.:.0.m.N.a.p.p.u.a.<.>.>.>.6.6.6.>.6.0.>.-.6.0.i.s.s.s.s.s.>.+.&.:.0.6.6.0.0.0.0.>.p.0.0.0.0.0.0.0.0.0.0.0.y.y.y.y.y.y.y.y.y.y.y.y.i.i.y.y.y.y.y.y.y.y.s.s.p.p.s.s.s.p.s.p.p.p.p.p.p.p.p.p.a.s.s.s.s.s.s.a.s.s.p.p.p.p.p.p.p.p.p.p.p.p.a.a.a.a.a.a.a.a.a.a.p.p.a.a.a.s.s.s.p.p.p.p.p.p.p.p.p.p.p.p.p.p.p.s.p.y.y.y.y.y.y.y.y.y.y.y.y.y.y.y.y.y.y.y.y.y.y.y.>.-.:.0.0.6.>.>.>.0.w.w.>.&.&.>.w.p.p.p.p.a.y.,.&.:.0.0.6.6.6.6.;.-.;.:.y.y.y.0.0.y.p.p.y.y.y.0.6.6.6.;.&.;.6.i.k.k.k.k.k.k.i.;.+.*.;.8.q.6.;.-.O.;.s.V.V.V.V.V.W.[.>X4X}.].T.V.V.m.p.y.:.;.&.+.;.6.p.N.Z.C.T.[.1XtXgXnXbXnXDXDXmXmXmXmXnXnXnXnXnXnXcXvXmXnXsX1XA.V.+.` E Y H G H G G L &.p.n.p.y.:.~ S Z Z n m c x k k a a a k g i g M Y ] X.-.:.+.;.:.X.` ! ] ` H z a u u i i u u u u i i e 6 ",
"0 6 9 q i i u i u i i p p p k n H ` -.;.:.-.:.>.6.0.0.+.Z b b V Z Z m z k k z x x v b n S Y &.p.a.m.V.p...Y F F Y H H I W o.y.k.}.3XsXnXxXxXnXbXnXnXnXnXmXmXmXmXmXmXmXmXmXmXbXsXfXiX>XT.V.V.k.p.p.y.6.:.6.6.y.y.m.C.[.>X[.`.`.oX>X3X>X].m.y.:.;.+...o.*.-.+.+.6.k.V.V.m.m.k.V.T.V.0.*.;.6.0.0.y.p.y.6.>.p.k.k.p.a.a.p.w.0.0.6.6.0.>.0.y.0.0.>.:.-.>.y.s.s.s.s.6.+.+.:.5.0.0.0.y.w.0.0.0.y.p.p.q.0.0.:.y.0.y.y.0.w.0.0.0.w.w.w.w.w.y.y.y.y.y.y.y.y.y.y.y.y.y.y.y.i.i.i.i.i.i.i.p.p.p.p.p.p.p.p.p.i.i.p.p.p.p.p.p.n.a.p.a.a.v.a.v.a.a.a.a.a.p.p.a.a.a.a.a.a.a.a.a.a.a.a.a.p.p.p.p.p.p.p.p.p.i.i.i.p.p.p.p.a.p.a.p.0.p.y.p.y.w.w.w.w.w.y.y.p.p.p.p.0.0.0.y.y.y.0.0.:.-.>.0.0.0.0.0.0.0.0.0.0.:.&.+.:.0.y.0.0.>.+.&.:.;.0.0.>.;.-.>.>.:.:.,.0.p.p.w.0.0.y.p.i.i.y.0.6.0.0.:.:.-.&.:.k.k.k.k.V.V.k.q.4.*.*.;.4.+.+.;.i.k.V.T.T.T.W.[.>X3X>XW.C.U.U.V.p.a.i.6.&.-.:.0.k.m.N.N.B.`.1XaXnXnXSXSXDXSXDXDXDXmXnXnXnXnXnXnXnXnXcXcXxXnXaX}.T.m.+.` E Y H H H H L G 5.k.N.k.w.&.Y n n n n n b x k k a a k x k p k Z W ] &.>.;.} &.-.;... . . .Y k t p p s s u u r r e e 0 5 ",
"9 5 9 q r r q q u u i i i i a n F ~ -.:.:.-.-.;.>.0.6.X.G Z V Z S Z n x z x x m b n Z S Z Z Y ] >.y.n.p.! H F H Y H I Y W ..y.m.[.5XbXDXMXMXbXbXnXnXnXnXnXmXmXmXDXmXmXmXmXMXmXmXmXnXgXtX[.R.N.k.k.p.i.y.6.5.;.;.6.p.C.[.[.].`.W.[.1X4X4X>XW.m.p.5.-.+.o.+.+.5.N.T.T.C.m.k.V.C.V.0.&.&.5.0.y.y.y.y.i.y.y.y.y.y.y.p.0.<.0.0.0.0.0.0.0.0.w.0.0.>.>.o.o.;.y.i.i.>.o...;.6.6.0.y.y.y.y.y.w.0.p.p.w.>.0.y.0.0.0.y.y.0.w.0.0.0.w.w.w.w.0.y.y.y.6.0.y.i.y.w.w.w.w.w.y.y.p.p.p.p.p.p.p.p.p.p.p.p.p.p.p.p.p.p.p.p.p.p.p.p.v.p.p.a.n.v.v.a.v.v.a.a.p.p.a.p.p.p.p.u.p.p.p.p.p.p.p.p.p.p.p.p.p.p.p.p.p.p.p.p.p.p.p.y.w.y.p.y.y.n.>.>.:.>.0.6.w.w.0.0.w.w.w.w.w.w.y.y.p.w.<.>.:.>.0.w.0.0.0.0.0.0.0.0.y.0.:.&.*.:.>.6.>.;.o...-.6.0.0.6.:.:.>.6.6.>.>.>.6.0.0.6.:.6.i.i.0.y.0.0.0.0.6.6.;.&.&.6.p.m.m.V.V.m.j.q.;.*.*.+.*.4.i.V.U.`.].].[.>X3X1XoXW.C.U.V.k.y.;.6.6.:.:.y.k.V.T.Z.Z.`.1XtXgXSXnXnXnXnXSXSXSXSXDXnXnXnXnXnXcXcXcXnXmXmXnXnXsX}.C.m.+.` Q Y Y H H H L L q.m.a.>.] W S F S Z Z Z b m x z z k x b M c M H T ] &.0.;.~ ] +.;.&...` } Y k t t t u t e e e e 0 0 0 3 ",
"5 3 9 r r r q q e e 0 0 0 u k Z Y ] -.:.-.-.&.&.>.0.6.X.G Z V Z S Z n x z x x m n n Z S F W X.>.p.p.p.,.Y F A F H H Y E W ..y.m.[.5XmXJXNXNXmXMXnXcXnXmXnXmXmXmXDXDXmXmXnXMXnXnXmXnXDXDXnX5X[.C.V.N.m.k.s.t.;.-.-.:.6.y.k.C.`.W.W.oX3X5XtX4X[.V.s.y.>.&.+.+.q.V.T.C.k.k.k.V.m.y.-.&.:.6.y.y.s.i.y.p.a.i.0.0.0.0.0.:.>.0.0.0.0.0.0.0.y.y.0.<.>.>.-.4.q.i.6.;.#.[ +.>.0.0.y.y.i.i.p.p.y.y.p.p.w.>.X.>.i.6.>.>.>.>.;.;.=.=.=.=.=.=.=.=.;.:.&.p.p.:.$.&.&.&.&.=.&.=.=.=.=.=.=.=.=.=.,.=.=.=.=.=.=.=.=.=.=.=.=.=.-.-.-.-.-.:.w.y.p.p.p.p.p.p.>.&.-.&.X.$.$.$.$.%.$.$.&.&.&.&.&.&.&.&.&.&.&.&.&.&.&.&.&.$.X.o.o.o.X.&.p.N.0.X.X.&.&.&.=.=.&.&.=.=.=.=.=.=.=.=.=.&.$.$.>.0.p.w.0.0.0.0.0.0.0.0.y.0.6.;.&.&.&.;.6.:.-.X.;.0.0.6.0.>.>.>.6.6.6.>.>.:.>.w.0.6.6.0.y.6.0.p.p.0.6.6.0.>.;.-.-.0.m.V.V.m.m.k.i.4.*.;.:.6.j.V.T.W.[.oX>X>X3X>XoX[.].W.V.y.&...&.:.y.y.m.C.W.!.'.[.3XtXnXSXSXnXnXnXnXnXnXnXnXnXmXnXnXnXnXnXvXcXMXmXmXZXVXGXhX}.C.m.&.] ! E Y Y K H L L +.0.w.:.&.&.] ~ G F Z Z b m x z x z v n M z b F Y ] =.0.0.&.&.6.>.+.] Q ] H k e t t u u u u r r e e 0 5 ",
"3 3 9 r i i u i i i e e e i x S Y ~ X.X.] $.:.>.:.6.>...Z b b V Z Z m z k k z x m n Z Z S F ..p.m.m.a.:.E H F Z G G Y W W ..i.N.[.9XDXKXAXNXNXvXvXvXcXnXnXnXmXmXDXDXDXmXnXnXnXMXMXxXnXDXDXnXhX7X{.`.A.C.N.k.t.>.:.;.;.;.-.p.V.T.C.].>X3XeXeX4X[.C.m.p.0.6.:.4.i.m.p.y.i.m.k.0.-.;.:.6.0.s.i.i.i.p.m.k.y.6.y.y.0.1.0.0.0.>.>.>.>.0.y.u.y.1.<.>.6.0.j.6.6.6.#.` o.&.>.0.y.i.i.i.i.p.p.p.p.y.p.p.y.&.] ~ ~ ~ ] ] ~ ` ` ! ! ! ! ~ ~ W ! ] ] p.T.T.p.| ] ] ] / / ] ] ] ] ] ] ] ] ] ] ] ] ] ] ] ] ] ] ] ] ] ] ] ] ] ] ] ] ] o.>.0.y.y.p.p.p.p.>.] ] ~ ~ ~ ~ ~ ~ ~ ~ ~ ~ ~ ~ ~ ~ ~ / / / / / / / ] ] / ~ ! E Y E Y Y ] V.n.n.p.=.o.! ! ! ! ! ! ! ! ! ! W W W W W W ! ~ 0.y.p.0.0.0.0.0.0.0.0.0.y.0.0.6.+.O.+.&.;.6.>.>.>.0.>.:.0.0.0.>.4.>.>.:.:.:.4.p.k.y.0.y.0.0.0.m.V.p.0.6.0.0.6.:.&.6.p.m.k.k.k.k.p.6.4.6.k.m.V.C.T.`.[.>X3X3X>X[.].[.W.m.6.;.+.&.:.i.V.T.W.].'.[.3XtXSXSXnXnXnXnXnXnXnXnXnXnXnXbXnXnXnXmXnXnXvXvXZXZXZXZXJXGXhX}.V.k.+.] ! E Y Y Y K L L O.0.i.0.0.=.~ W G S Z b x z k a k k z b M k c Z Y ] =.y.y.0.;...` Y Y ! } Y k t p p s s s s p p i i r 9 ",
"> , 8 0 9 q e u u i i i p a g M T ~ ..$./ U / &.0.p.:. .F b b b Z m x k k z z x b b Z S Z Z Y :.n.V.M.6.~ Y G G H Y W ! ! ..6.N.>X9XbXJXNXNXZXZXZXZXmXmXxXcXnXmXmXmXmXmXnXnXbXbXMXmXmXmXnXnXnXnXGXfX1X`.Z.V.N.i.y.6.;.-.&.6.V.W.T.T.W.[.>X1X4X4XoX].V.a.p.y.0.6.0.6.i.k.k.6.;.*.6.0.y.p.k.s.s.k.N.k.y.6.p.a.p.0.y.w.0.:.=.-.&.+.y.y.0.0.0.w.w.w.i.i.q.;.+.[ ..*.:.6.y.y.y.y.i.i.p.p.p.p.p.a.w.,.} E Y Y W W E E ! ! ! ! ! ~ _ ] ` ! ` ;.Z.C.V.M.=.] ! ! / / / / ] ] ] ] ] ] ] ] ] ] ] ] ] ] / / / / ~ ~ ~ ! ! ! ! T W &.n.n.M.M.n.n.N.N.:.Y E T ! ! ! ! ! ! ! ~ ! ! ! ! R W ~ / ! ! ! ! ! ! W W W W W W T E E &.`.Z.C.C.p.] W Y E E E E W W ! ! W ! ! W ! W ! ~ &.0.u.0.0.0.0.0.0.0.0.0.y.0.0.6.4.*.+.+.&.:.0.0.6.0.6.:.>.y.y.>.;.=.&.&.>.w.p.p.s.p.p.k.y.0.p.k.V.m.p.y.y.0.6.6.>.;.:.y.a.y.y.y.y.0.y.k.C.C.C.T.].oX3X>X1X{.].].W.V.y.6.0.y.y.y.k.T.T.W.!.'.>X3XbXbXbXbXbXbXbXbXnXnXnXnXnXnXnXnXnXnXnXnXMXvXNXZXZXZXZXZXZXGXgX[.C.k.+.] ! ! E E Y K L L ..y.i.y.y.&.W T S Z n m m x k k a k x m b b c M H ! -.y.0.X.! ! ! ` ] ] } H s p i i u u i i i i e r 9 5 ",
", < 0 i e r i i i i p p p p g Z W ] ..$.=.&...] ..;.=.] F z k z n m z k k z z x b b Z S H G Y &.a.m.m.6.! K H H Y Y W ! W o.6.N.oX9XnXKXZXZXZXZXZXZXZXNXvXmXnXnXnXnXmXnXnXnXnXnXnXnXnXnXnXnXnXnXDXnXgXsX;XC.A.Z.N.k.0.>.+.&.6.C.T.W.`.W.].[.oX>X>XoX[.W.V.k.y.0.0.4.4.y.y.:.;.4.0.y.p.p.s.s.a.m.N.a.p.p.p.p.y.p.p.0.:.:.&.X.;.>.>.>.>.>.0.u.p.p.y.i.6.&. ...;.5.0.y.y.y.y.y.y.y.p.p.p.q.p.y.&.! E ~ K Y W W T Y W W W E W W ! ~ ! E ` ,.C.n.a.n.X.] ! ! W W W W ! ! ! ! ! ! ! ! ! ! ! ! T T E E T T W T T Y T T Y Y W X.p.p.p.p.a.a.a.v.>.E E E Y Y Y Y T R W W W T T T I Y Y R W W W W ! ! W W W W W W W E W &.W.W.W.Z.:.] ~ ~ ~ ~ ~ ~ ~ W Y H Y T T Y ! E ! Y ~ X.>.0.0.0.0.0.0.y.0.0.0.0.0.0.0.0.;.+.+.;.>.y.y.y.0.>.>.0.y.y.:.X.&.0.n.k.q.0.6.6.0.i.p.p.p.k.m.m.p.i.y.0.0.0.0.:.-.;.:.;.;.:.0.y.k.N.W.T.W.[.>X3X3XoX[.].T.V.y.6.-.&.y.a.k.k.V.V.W.'.>X4XtXfXnXbXbXnXbXbXbXnXnXnXnXnXnXnXnXnXxXnXmXmXVXVXZXZXZXZXZXZXJXVXsX[.T.m.+.} ! ! E E Y Y L L +.p.p.i.:.o.Y I F Z n b m x k k a a k z z z k b H / &.&.! ! !  .] ] ] } } H s p i i i u i i i i r i 9 2 ",
"< 3 r p i i i i i i p p p p g Z ~ ] ..$.&.:.>.0.,._ ] ` K b k d m x z k k z z x b b Z S Y Y Y &.p.n.m.0.W K K Y T E W W W o.0.N.oXtXbXJXZXZXZXZXNXNXNXNXZXmXMXnXnXnXnXnXnXnXnXnXnXnXnXnXnXnXnXbXbXnXDXDXSXsXZ.m.N.V.V.p.>.;.;.y.k.N.C.C.T.T.W.].[.oXoX}.W.C.m.p.6.;.&.*.;.;.:.0.y.p.p.p.y.a.n.n.k.p.a.a.u.w.y.v.v.0.-.&.+.-.:.-.-.;.:.>.w.p.p.p.w.6.*.+.&.:.5.0.y.y.y.y.y.y.y.y.y.y.q.w.0.X.W Y W ! H } $.X.X.X.X.X.X...o.X.+.+.:.;.&.6.Z.C.V.n.=.....X.$.$.$.$.$.$.$.$.X.X.X.$.X.$.X.$.X.X.X.$.&.&.&.&.&.$.&.$.&.=.-.0.y.y.y.y.p.p.p.p.w.X.o.o.] ] ] ] } | o.X.X.X.X.X.+.+.&.&.:.:.:.:.:.;.;.=.&.&.&.&.&...} X.n.W.W.v.X.X.&.,.:.:.:.:.&. .~ W  ...o.} ] G F E W ~ } -.0.0.0.0.0.0.0.0.0.y.0.0.q.y.0.-.+.+.;.6.0.0.0.>.>.>.0.0.>.&.=.w.a.a.w.6.:.:.:.6.p.p.s.i.a.k.k.k.i.0.0.0.y.0.;...} } X.;.p.n.V.Z.Z.W.}.1X>X>X[.W.T.C.k.0.5.:.-.+.>.p.N.C.C.y.[.tXfXfXfXfXgXnXbXbXbXbXgXgXnXnXnXnXnXnXnXnXmXmXmXZXZXZXZXZXZXVXVXvXMXcXtX[.T.m.+.] ! ! E E Y Y K L +.i.y.y.-.] H H G Z Z n m x k k a a k k k k z M U ] X.!  .X.&.+.o. . . .} H s p i i i u i i i i r i 7 > ",
", < r g i i i i i i p p a p a Z ] ] ..X.,.0.1.0.:.[ X.` E V k d x z k k k z z x b b Z S G H E &.0.n.m.0.W H Y Y E E T E E o.0.N.oX5XsXnXZXZXZXZXNXNXNXNXNXmXVXGXnXnXnXnXnXnXnXnXnXnXmXmXnXnXnXnXnXnXmXmXnXDX2X+.;.k.T.V.y.0.i.i.6.6.y.s.m.V.C.T.].[.oXoX].W.T.V.k.6...Q ] *.6.y.p.p.p.p.a.n.n.a.a.a.p.0.>.w.p.v.v.u.-.o.-.-. . .-.;.>.0.w.u.p.y.:.+...-.6.0.0.0.y.y.y.y.i.i.y.y.0.w.w.0.} W Y E W E W -.u.y.y.w.0.0.0.0.0.0.w.w.w.p.0.>.p.V.M.>.>.y.y.y.y.y.y.y.y.y.y.y.y.y.y.y.y.y.y.y.y.y.y.y.y.y.i.y.y.y.y.y.p.a.u.p.p.p.p.p.p.p.p.p.p.y.p.0.0.0.0.0.0.0.y.y.y.y.y.y.y.y.y.y.y.y.y.y.i.i.y.y.p.p.p.p.p.p.p.0.>.y.u.>.=.>.0.q.y.y.y.y.w.0.6.:.6.0.0.>.:.~ Z Q ] Y Y ] =.0.0.0.0.0.0.0.0.0.0.0.0.q.0.:.;.+.X.-.:.>.0.6.>.:.:.>.>.0.6.>.6.p.q.w.:.:.,.,.:.w.y.y.y.p.k.m.a.0.0.y.i.i.6...E ~ &.6.n.C.Z.W.`.{.oX].`.`.W.C.a.y.0.0.y.y.>.:.;.y.p.p.k.p.tXSXSXgXfXfXgXhXnXbXbXnXgXnXnXnXnXnXnXnXnXbXJXVXZXZXZXZXZXZXZXVXvXvXqXsXtX[.T.m.+.] ! ! E E Y Y K K +.y.0.:.&.] Y Y G S Z n m x k k z k k k k z c Z G H ] X.&.;.:.-.+... . . .K p p i i u i i i i i r p 7 ; ",
", < r p i i i i i s p p a s a Z / ..$.&.0.w.y.0.,.~ ! F D Z b c b c c z z z x x n Z Z F W o.;.0.a.n.p.:.E H Y Y Y E T T Y } 6.N.>X5X8X8XsXcXmXNXAXJXZXNXvXvXmXmXVXVXmXnXnXnXnXnXDXDXDXDXbXnXnXnXnXnXMXMXDXSX7X0.y.t.5.>.0.k.C.V.s.y.>.:.y.s.m.C.W.W.].}.oX.X].T.V.p.;.` ! o.>.y.p.y.y.i.a.k.p.y.y.0.0.>.>.0.p.v.p.y.>.>.:.:.:.:.0.6.6.0.0.w.y.6.+.X.&.:.0.0.y.y.y.y.y.y.y.y.0.0.0.y.:.] W W Y W ! | -.0.y.y.y.y.0.0.0.y.y.y.y.y.y.y.y.y.y.y.y.y.i.i.i.i.s.s.a.a.a.p.p.p.p.p.p.a.p.p.p.p.y.y.i.i.y.i.p.p.p.p.p.p.p.p.p.p.p.p.p.p.p.p.p.p.p.p.p.p.p.p.p.i.p.p.p.p.p.p.p.p.p.p.p.i.p.p.p.p.p.p.i.y.p.p.p.p.p.p.p.p.u.u.u.u.y.p.p.p.i.y.y.y.0.0.0.0.0.0.0.0.0.;.] K ] E G Y ~ =.>.0.0.0.0.0.w.w.w.w.0.0.y.0.6.;.+...&.:.<.>.>.-.-.,.;.0.i.0.;.-.:.6.0.0.>.,.=.,.0.y.0.y.k.V.n.p.>.6.:.>.,.] Y | w.n.Z.Z.`.{.{.[.`.T.W.C.s.5.5.6.i.k.k.k.s.>.6.5.t.>.q.V.fXSXFXSXSXgXhXgXnXbXbXgXgXgXxXnXnXnXmXmXZXJXZXVXvXvXZXZXZXvXmXvXvXxXxXsXaX>XT.k.&.` ! Q E E T Y L T +.>.>.-.:.-.] W Y H F S b m m m m m m b c b b M b F ] X.;.,.;.&.*.+.+.o.o.K p r i i i u r r r r u i 0 ; ",
"> , u p i i i i p s p p a s a Z / ..$.&.0.w.y.0.>.X.! z c z z z c c z z z x x x n Z Z F ! >.V.V.V.C.m.6.Y G Y T Y T T T Y } 6.N.>X5XtX8XsXsXxXbXmXDXJXZXZXvXmXmXvXvXZXVXDXmXnXnXbXbXbXbXbXbXnXnXnXnXMXMXDXnX7Xy.y.>.@.;.6.V.R.T.N.s.i.>.;.:.5.6.k.V.C.T.Q.]..X[.`.V.p.:.&.>.y.p.0.>.0.y.N.k.p.y.0.>.:.-.-.>.p.0.w.0.y.>.y.y.y.y.0.0.0.0.6.>.;.+.X.&.:.6.0.0.y.y.y.y.y.y.y.0.0.6.6.-.] E T Y W / <.0.y.w.y.y.y.y.y.y.y.y.y.y.u.p.y.i.i.i.s.s.i.i.p.p.p.p.p.p.s.s.p.p.p.p.p.a.a.a.s.s.s.s.p.p.a.a.a.a.a.a.a.a.a.a.a.a.a.p.p.p.p.p.p.p.p.p.p.p.s.s.p.p.p.p.p.p.p.p.p.p.p.p.p.p.p.p.p.p.p.p.p.p.p.i.p.p.p.p.p.p.p.p.u.u.u.p.p.p.p.p.i.i.y.y.y.y.y.y.y.y.y.y.0.y.y.-.! Y I H Y ~ &.0.0.0.0.0.0.0.0.w.y.0.0.y.0.:.-.+...$.-.>.0.>.>.:.6.y.p.i.y.;.&.-.>.0.w.w.:.-.:.0.0.y.p.k.m.k.0.,.-.,.=.} $.0.B.!.Z.'.{.{.W.T.V.m.p.6.-.-.5.i.k.k.N.N.s.y.y.>.>.;.q.C.fXSXSXSXkXgXsXhXnXnXnXnXnXnXnXnXmXmXvXZXZXZXZXZXZXZXJXVXmXMXcXxXxXxXxXsXaX>XT.m.*.` ! E E Y Y Y L Y ] -.0.a.n.y.o.E H F S Z b m b m x z z z k z z b a C _ X.*.:.:.-.-.@.+.O.O.K p i i i i i r r r r u i 0 ; ",
"> , u p i i u i p p p p a s a Z ~ o.X.&.0.y.y.0.:.-.] z k k k g g a a a a a d k z x b M F ] y.V.C.T.C.q.E F G Y Y T T T Y } q.N.>X5XtX8XaXaXsXsXsXbXmXVXZXZXNXNXvXvXvXvXZXZXGXmXbXxXxXbXbXbXnXnXnXnXnXnXDXnX5Xi.6.>.6.T.,X].Y.V.k.k.s.i.>.;.+.+.:.0.p.k.V.T.].[.[.W.V.k.i.p.y.y.:.:.0.p.N.s.y.>.>.:.-.-.>.>.,.&.p.p.>.:.y.y.i.i.0.w.0.0.6.;.+. .&.:.6.0.0.y.y.y.y.y.y.y.0.0.6.6.-.] Y Y Y Y ! =.y.y.y.w.w.y.y.y.i.i.y.y.i.i.i.i.p.p.p.p.p.p.p.p.p.p.p.p.p.p.p.s.a.a.p.p.a.a.a.v.a.a.a.a.a.a.k.k.n.n.n.n.n.n.n.n.a.a.a.a.a.a.a.a.p.p.a.a.a.a.a.a.a.a.a.a.a.a.a.a.a.a.a.a.a.a.a.s.a.a.a.a.a.a.s.p.a.p.p.p.p.p.a.p.p.p.p.p.p.p.p.p.i.i.i.i.y.y.y.y.y.y.y.y.w.y.p.0.X.E H H H H ! X.>.0.w.w.0.w.y.y.y.y.0.0.y.0.:.;.&.| ..-.>.w.w.0.6.0.y.y.i.y.>.&.=.,.>.<.>.=.&.-.0.y.s.p.i.y.0.:.>.<.>.-.p.M.W.'.[.'.W.C.V.k.q.5.&.&.;.0.6.q.i.j.p.k.A.`.}.k.;.+.8.T.kXSXSXSXlXgXsXsXnXnXnXnXnXnXmXvXZXZXZXZXZXZXZXVXVXmXmXnXbXbXxXxXxXxXsXyXaXoXT.V.;.` Q E E Y Y H G Y } >.a.C.n.y.} Y Z b b z z k k k a a a a i p p a a b ~ ..*.:.6.:.;.-.@.+.O.K p i i i i i r r r r u i 7 : ",
"; > i g i i u i p p p p a s a Z / o.X.&.>.y.y.0.y.>.] c z z k k k k k g k z z x b m M Z H ] -.:.0.p.j.4.~ F Z G Y T Y T Y } q.N.>X5X8X8XsXaXaXsXfXsXsXxXnXmXJXNXvXvXvXvXZXZXZXJXmXMXnXnXnXbXnXnXnXnXnXnXnXbXeXs.>.:.6.OXHXdXXXV.s.j.j.s.i.6.;.+.&.-.;.6.i.k.U.Q.[.].W.V.m.a.0.>.:.:.y.n.a.y.>.-.;.:.,.,.>.-.| =.p.0.6.6.0.0.0.0.6.0.0.6.6.-.+.+.:.6.0.0.0.y.y.y.y.y.y.y.0.6.6.5.] Q W E T Y &.<.w.w.y.y.y.y.u.u.i.i.i.i.i.i.p.p.p.p.p.p.p.p.p.p.a.a.a.a.p.s.p.s.a.a.a.a.a.v.v.n.a.a.a.a.a.a.k.k.n.n.n.n.n.n.n.n.k.k.a.k.a.a.a.a.a.a.a.a.a.a.k.k.a.a.a.a.a.a.a.a.a.a.a.a.k.a.a.a.a.a.a.a.k.a.a.s.a.p.p.p.p.a.a.a.p.p.p.p.p.p.p.y.i.i.i.i.i.i.i.p.u.u.p.p.y.y.w.0.p.&.Y S Y I G H X.>.w.y.0.w.y.y.y.y.y.0.y.y.0.6.>...] X.0.y.w.0.y.0.y.y.0.0.6.6.=.&.&.=.-.&.X.X.:.0.y.y.;.&.6.y.p.a.p.p.C.!.[.[.!.C.m.m.p.0.;.+.;.6.q.q.;.4.6.q.k.N.}.tX5XV.+.O.8.R.SXSXnXbXgXfXsXsXnXnXnXnXmXVXZXZXZXZXZXZXZXZXZXVXnXxXsXsXsXsXsXsXxXxX8XyXtX}.C.V.*.! E Y Y K Y H G Y ..i.n.s.:.-.! H Z n m x m v x x x x x z g k k c z Z ~ [ =.:.6.6.;.-.+.+.O.K p i i i i i r r r r u i 7 : ",
"; ; u h p i u i p p p p p s p Z ` o.X.=.>.p.y.0.0.-./ c z z z z c b c k z x x b b b M Z Y } ;.:.&.O.] ..X.H Z F Y Y Y T T ` 0.C.>X5X7XsXsXaXaXaXfXfXsXsXsXxXnXmXvXvXZXZXNXNXZXZXZXZXVXGXDXnXhXfXhXgXbXfXfXfXeXk.6.>.6.1XHXdXOXY.z.x.6.i.s.p.p.i.4.-.&.*.;.6.i.m.T.T.W.T.C.V.k.p.y.0.<.i.i.y.-...&.-.:.-.&...=.w.y.-.>.0.0.6.6.0.0.0.6.:.-.;.>.5.>.0.0.0.0.0.0.0.0.0.0.y.6.0.:.] ~ W E G E =.p.y.y.w.y.p.u.u.p.p.i.i.p.p.i.i.p.p.p.p.p.p.p.p.p.p.a.a.a.a.p.p.p.a.a.a.a.a.a.a.v.n.a.k.k.k.k.k.k.n.n.n.n.k.n.a.a.a.a.a.a.a.a.a.a.a.a.a.a.a.a.a.k.k.a.a.a.a.a.a.a.a.k.k.a.a.a.a.k.k.k.k.a.a.a.a.a.a.a.a.a.a.p.p.p.p.p.p.p.a.p.p.p.p.i.i.i.i.p.p.p.i.p.u.u.p.y.y.w.0.y.0.&.! G H H S W ,.0.w.y.y.y.y.y.y.y.y.y.0.0.6.>.,.&.=.:.0.6.0.y.y.0.0.6.;.;.0.0.:.X.X.&.&.&.-.:.y.p.y.&.;.>.0.n.n.n.V.W.W.W.T.V.m.p.6.;.+.*.6.i.q.q.8.6.8.i.j.N.c.`.eX5XN.@.@.x. XgXSXhXhXfXfXsXsXcXnXVXVXVXZXZXZXZXZXAXZXZXvXnXsXyXsXsXsXhXfXsXsXxXxXsXsXsXoXT.m.6._ ` K Y E K K L ! ..X.&.$.X.&.] ! E G S Z S x k x m b x z z c c c z A ~ ..*.4.6.6.3.-.+.O.O.K p i r r u u r r r r u i 7 : ",
"; ; u h p i i i p p p p p s p Z ` o.X.=.>.a.y.0.0.-./ c z z z z k g a k k z z x c b b Z G ! &.0.q.0.,.+.X.W F F Y Y T W ~ +.s.C.}.5XsXnXcXsXsX8XsXfXsXtXsXfXsXxXbXMXmXZXZXZXZXZXZXZXVXZXGXDXSXhXfXsXyXyXaXfXeXz.>.;.6.oXHXdXXXY.Y.V.h.h.k.j.k.k.k.s.6.4.*.;.4.0.k.N.V.C.V.V.V.N.n.s.y.:.>.y.y.>.>.:.-.&...=.0.<.:.>.>.:.>.>.0.0.w.6.;.+.-.:.y.y.0.0.0.y.0.0.0.0.0.0.0.0.0.=. .` ~ W S G X.w.p.0.u.p.>.y.u.p.p.p.i.i.p.p.i.i.p.p.p.p.p.p.p.p.p.p.a.a.a.a.p.p.p.a.a.a.a.a.a.a.v.n.a.k.k.k.k.k.k.k.n.n.n.k.k.a.a.a.a.a.a.a.a.a.a.a.a.a.a.a.a.a.k.k.a.a.a.a.a.a.a.a.k.k.a.k.a.a.k.k.a.k.a.k.a.a.a.a.a.a.a.a.p.p.a.a.p.p.p.a.p.p.p.p.i.i.i.i.p.p.p.p.p.p.p.p.p.y.y.w.y.y.0.&.E G T H T o.:.p.y.y.y.y.y.y.y.y.y.0.0.0.6.0.>.=.&.=.6.0.0.0.0.0.:.-.-.:.0.>.&.o.X.-.>.y.0.p.i.6.;.>.y.a.N.V.V.T.W.W.V.a.y.6.-.+.+.-.5.i.i.s.h.s.j.m.U.R.E.V.].aX5XN.@.@.j. XfXnXsXfXfXfXhXnXVXCXVXZXZXZXZXZXZXZXJXmXMXxXsXsXsXsXyXyXsXsXxXxXxXvXMXnXgX>XU.k.6.] Q K K E Y E Y ! K ] &.6.>.:...~ T G S S Z m z m x x z z z c c c z F ~ ..&.:.6.6.;.-.+.O.+.K p r r r r u r r r r u i 7 : ",
"; ; i h p i u i p p p p p s p Z ~ o.X.=.0.a.p.y.0.,.~ c z z z z c z a k k z z x c b b Z n S ! ;.p.a.p.&.] ..~ ~ E W ] ] ..6.i.C.[.5XxXVXVXVXvXcXhXsXtXtXiXiXfXfXsXsXxXnXmXmXZXZXZXZXZXZXJXGXDXSXtXtXiXiXtXdXaXc.5.;.6.>XHXwX)._.).R.U.R.I.m.z.z.V.N.m.p.q.6.:.:.y.i.p.k.a.a.N.Z.A.N.a.>.&.>.i.u.i.>.-.$.,.w.<.=.:.6.>.:.:.>.<.0.0.,.&.+.:.0.i.i.0.0.y.y.y.0.0.0.0.0.6.:.-.] ! ` R D G &.0.y.y.y.0.0.0.y.p.p.p.p.p.p.p.i.p.i.p.p.p.p.p.p.s.p.s.s.a.a.a.a.p.p.a.a.a.a.a.a.a.a.a.n.a.k.k.k.k.k.k.k.n.k.n.k.k.a.a.a.a.a.a.a.a.a.a.a.a.a.a.a.a.a.k.k.a.a.a.a.a.a.a.a.k.k.k.k.a.k.k.k.k.k.k.k.a.a.a.a.a.a.a.a.a.a.a.a.p.p.p.a.p.p.p.p.p.p.p.p.p.p.p.p.p.p.p.p.p.p.y.y.y.y.y.0.-.Y G W ~ } X.>.y.p.y.y.y.y.y.y.y.y.0.0.0.0.0.>.=.&.;.:.>.0.0.>.;.:.:.:.-.-.-.-.:.>.6.y.y.y.y.>.>.y.n.N.T.C.V.Z.T.N.0.-.&.:.:.:.:.>.0.i.h.z.V.I.Y.R.]. X].V.].dX5Xn.+.@.z. XfXhXyXyXfXaXhXCXVXVXCXBXBXZXZXLXmXmXmXbXsXsXsXaXfXhXsXsXxXcXcXvXvXvXVXVXSX>XC.k.6. .E Y K Y E Q Y E Y ;.p.p.y.&.Y Z n z k z x k a d k k z z c c l l v F _ ..&.:.6.6.;.-.+.#.+.K p r r r r u r r r r u i 0 = ",
"; ; i h p i u i p p p p a s p Z ~ ..X.=.0.n.p.y.0.,.~ c x z z z Z Z z k z x b m b b Z Z Z S ` 0.a.M.V.>.~ ....] W ~ ] ..&.0.4.C.}.5XxXZXZXZXZXVXVXnXsXtXtXtXtXtXyXtXyXyXsXbXMXmXZXZXZXJXJXGXHXSXtXtXtXtXtXdXuXc.5.4.6.,XkX3XT.Y.).oX,XuXoXR.I.z.V.N.V.m.N.j.0.;.6.6.6.0.0.0.a.Z.A.W.Z.a.-.&.:.y.k.i.>.-.0.<.>.>.0.y.6.0.-.:.<.0.;.&.&.:.0.0.y.y.0.y.y.y.y.0.0.0.y.0.:.;.` ! ! ! Y Y $.0.0.0.y.p.>.-.p.p.p.p.p.p.p.p.p.i.i.i.p.p.p.p.p.p.a.s.s.s.a.a.a.a.p.p.a.a.a.a.a.a.a.a.a.n.a.k.k.k.k.k.k.k.n.k.k.k.k.a.a.a.a.a.a.a.a.a.a.a.a.a.a.a.a.a.k.k.a.k.k.k.k.k.k.a.k.k.k.k.a.a.k.k.k.k.k.k.a.a.a.a.a.a.a.a.a.a.a.a.a.p.p.a.p.p.p.p.p.p.s.i.p.p.p.p.p.p.p.p.p.p.p.y.y.y.y.y.p.&.Y E ] o.] o.>.y.y.y.y.y.y.y.y.y.0.0.0.0.0.0.:.*.O.&.:.6.6.:.-.:.:.:.-.-.>.y.y.y.>.>.0.y.y.>.0.p.V.Z.T.T.m.m.k.6.-.,.:.0.y.y.6.>.6.i.s.c.Y.).OXOXOXOX Xc.T.aX5Xn.+.@.z. XfXfXyXtXtXtXhXmXVXcXVXZXZXZXmXmXbXbXbXfXfXfXfXgXgXsXsXnXmXVXZXZXNXNXvXmXnXoXV.p.6.+.;...E H Y E K Y  .0.0.>.:.} G n n b x m z z k k a k k x l l l l v F _ ..&.:.6.6.;.*.+.#.+.K p r r r r u r r r r u i 7 = ",
"- ; i h p i i i p p p p p p s Z `  .+.=.q.m.a.p.0.:.~ b l c l x Z S k k z x v m M Z Z F F G } i.a.N.V.,.Y ~ ] ] K ! [ +.4.6.-.C.].7XxXJXZXZXZXZXvXvXmXmXxXsXsXsXyXtXyXsXyXyXyXsXnXmXGXGXKXGXGXGXtXiXiXiXtXdXuXN.5.4.0.>XkX3X).I.Y.R.OXkXdX3X XE.V.j.k.m.I.I.z.q.6.0.>.0.6.w.n.B.C.Z.Z.V.y.-.-.0.a.w.:.0.0.0.>.>.>.>.>.>.-.>.>.,.&.&.:.6.0.0.0.0.y.y.i.i.i.y.6.>.0.>.&.] E ~ W Y / =.>.w.w.y.y.y.:.6.y.p.s.s.s.p.p.p.p.p.a.a.a.a.a.a.a.a.p.p.a.a.a.p.p.p.a.a.a.v.a.a.a.a.a.a.a.k.k.k.k.k.k.k.k.k.k.k.k.k.a.a.a.k.n.n.k.k.k.k.k.k.k.k.k.k.k.k.k.k.k.k.k.k.k.k.k.k.k.n.v.v.v.v.n.n.k.k.k.k.n.n.n.n.v.v.a.a.a.a.a.a.a.a.a.a.p.p.p.p.j.j.j.a.a.a.p.p.a.a.a.p.p.i.y.y.y.y.p.p.y.w.&./ ~ ] ] ] X.0.p.i.p.p.y.y.y.w.w.w.y.y.y.y.0.:.-.+.-.>.6.>.:.>.:.:.>.0.y.s.y.5.;.;.6.:.:.w.n.V.B.N.C.N.y.6.6.6.w.u.p.j.j.h.i.s.k.s.c.T.XXrXuXrX@X).Y.I.).dX5Xk.+.@.V..XdXtXtXtXtXtXfXSXGXGXmXmXnXxXfXfXfXfXfXfXfXhXsXhXhXcXmXmXZXZXZXZXZXZXvXVXnXoXC.p.:.*.0...E E E E K T  .0.0.>.w.-.Y F S Z Z n b b v k k k b v c c c c c F ~ ..&.:.6.4.;.*.+.#.+.Y p r r r r i r r r r t i 7 % ",
"- ; i k p i i i p p p p p p s Z `  .+.=.q.m.a.p.0.:.~ b l l l x Z S k k z x v m M Z Z F F G } i.k.N.V.:.Y W W ~ K E ! `  .+.@.V.].tXxXZXZXZXZXZXNXNXNXNXZXmXmXnXxXsXfXfXfXyXtXyXfXgXnXnXnXnXnXSXtXuXiXiXiXdXuXN.6.3.0.>XfX,X).Y.T.R.3XFXkXuXwXOX].C.j.i.h.V.z.8.0.s.p.N.a.y.n.C.B.C.V.n.n.0.-.-.>.:.>.w.u.w.0.>.>.:.:.-.=.:.:.&.&.:.6.0.0.0.y.y.y.y.i.y.y.i.y.0.>.&.] E W ! H ] &.>.w.w.y.y.y.y.y.y.i.p.s.s.s.s.p.p.p.p.a.a.a.a.a.a.a.a.p.p.a.a.a.a.a.a.a.a.n.v.a.a.a.a.k.k.k.k.k.k.k.k.k.k.k.k.k.k.k.k.a.a.a.k.n.n.k.k.k.k.k.k.n.m.n.n.k.k.k.k.k.k.k.k.k.k.k.k.n.n.n.v.n.n.n.n.n.n.k.k.n.n.n.n.v.v.a.a.a.a.a.a.a.a.a.a.a.a.a.a.j.j.j.a.a.a.p.p.a.a.a.a.p.p.i.y.y.y.p.p.y.p.w.=.~ ! ] ] ! o.:.y.y.y.w.w.w.w.w.w.y.y.y.y.y.0.:.-.&.&.>.0.0.>.>.>.0.y.s.y.6.>.;.;.6.:.>.a.n.V.B.N.m.k.6.6.y.n.M.n.6.6.q.x.j.z.c.V.].3XdXkXdX@X).E.E.I.).dX5Xk.+.@.I. XdXtXtXtXtXtXfXSXSXDXbXbXsXsXfXfXfXfXtXyXhXnXCXCXVXCXvXNXZXZXZXZXZXZXmXVXnX>XC.p.;.+...! Y Y E Q L K ] 0.p.a.a.>.E F S Z Z n b b v k k k b b b b b b c F ~ ..&.:.6.4.;.@.O.#.+.Y p r r r r u r r r i t p 7 % ",
"= - i h p i i i p p p p p p s Z `  .X.;.q.m.a.p.0.:.~ b l l l x Z S k k z x m m M Z Z A F G } i.n.V.V.>.Y Y E ~ E E ! ! '  .+.V.oXtXhXJXZXZXZXZXZXZXZXZXZXZXJXVXmXmXmXnXsXfXyXtXiXfXhXfX7XtXtXaXaXdXuXuXuXdXuXN.6.3.0.>XfX,X].Y.Y.T.3XkXFXkXlXuXwXoXU.k.5.j.k.i.N.R.A.[.a.y.n.C.V.C.V.n.n.a.0.-.>.:.>.y.y.w.0.0.>.>.:.=.,.,.-.=.:.6.0.0.y.y.y.y.y.y.y.y.y.i.y.>.&.] E E W H ] -.>.w.w.y.y.u.p.p.p.k.p.p.p.p.p.p.p.p.p.p.p.p.a.a.a.a.a.a.p.a.a.a.a.a.a.a.j.j.j.k.k.k.k.k.k.k.k.k.k.k.k.k.k.k.k.k.k.k.k.k.k.k.n.n.n.n.k.k.m.m.k.k.m.m.m.m.k.k.k.k.k.k.k.k.k.k.k.k.n.n.v.v.n.n.n.m.n.n.n.n.n.n.n.n.v.v.a.a.a.a.a.a.a.a.a.a.a.a.a.k.j.j.j.k.a.v.a.a.p.p.p.p.p.p.p.i.y.y.p.y.y.p.p.y.-.] ! ! E ! } :.0.w.w.w.w.w.w.w.y.y.y.y.y.y.0.:.&.&.=.>.0.>.:.6.y.i.y.0.6.>.;.:.:.:.0.n.n.V.B.N.m.k.0.6.k.m.k.p.i.4.3.h.c.I.T.].rXdXzXdXXX).Y.E.E.I.).dX5Xk.+.@.I. XdXtXyXyXtXaXdXfXhXfXfXiXiXfXyXyXfXsXsXxXnXmXJXVXZXZXvXNXZXZXZXZXZXZXmXGXnX{.C.p.=.] ! E Y K Y E L K ] 0.a.n.a.>.W F F Z Z n b b v k d k b b b b b b c F ] ..&.:.6.6.;.@.+.#.O.K p e r r r u r r i i t p 7 % ",
"% & q g p i i i p p p p p p s Z !  .X.;.q.m.a.s.6.:.~ b l l c x Z S k k z x m m M Z Z A F G } i.n.V.C.>.K Y ! ! E ! _ _ ! ` +.V.oXtXhXDXJXJXJXJXZXZXZXZXZXZXZXZXZXZXJXGXsXyXyXyXiXfXsXfXdXdXaXtXtXuXuXuXuXdXuXN.6.3.0.>XfX3X].T.V.I.oXkXHXkXkXkXdXuX3XQ.i.h.j.m.T.R.6.y.0.w.n.B.Z.Z.Z.N.n.a.p.0.>.&.=.>.>.0.w.0.0.0.>.:.-.-.=.-.6.0.0.y.y.y.y.y.y.y.y.y.y.i.>.X.] E E Y H ! :.y.w.w.y.u.p.p.p.p.p.p.p.p.p.p.p.p.p.p.p.p.p.p.a.a.a.a.a.a.a.a.a.a.j.a.a.a.j.j.j.k.k.k.k.k.k.k.k.k.k.k.k.k.k.k.k.k.k.k.k.k.n.n.n.n.n.n.k.k.m.m.m.m.k.k.k.k.k.k.k.k.k.k.k.k.k.k.k.k.n.n.v.v.n.n.n.m.n.n.n.n.k.n.n.n.v.v.a.a.a.a.a.a.a.a.a.a.k.k.k.k.n.n.n.n.n.n.n.n.p.p.a.p.p.p.p.p.i.i.p.y.y.p.p.p.y.:...~ W W ! o.=.6.0.0.w.w.w.w.y.y.y.y.y.y.y.0.>.-.&.&.>.>.:.6.i.y.0.6.6.>.;.:.:.>.y.a.n.V.V.N.M.m.y.y.0.0.y.N.[.j.8.x.J.Y.+XrXeXdXeX#XY.Y.Y.).E.I.).dX5Xk.+.@.I. XdXaXyXyXtXaXtXfXdXtXtXyXfXfXsXyXsXnXGXZXZXZXZXZXZXNXvXNXZXZXZXZXZXZXmXGXnX{.V.j.&.! ! E Y E Y T F L  .y.p.i.y.,.T F F Z Z n b b v k d k b C b b b b c G ] ..&.:.6.4.;.@.#.o.O.K p e r r r u r r i i t s 7 % ",
"= & 0 g i i i i p p p p p p s Z ~ } +.;.w.n.p.i.6.:.~ b c l c x Z D z k z x v n M A A F Z G } 0.a.V.Z.p.T T ! W E ^ ! ! W ` -.c.>XeXfXsXMXmXJXJXZXZXZXZXZXZXZXZXZXZXZXJXJXmXxXyXsXyXtXtXtXaXtXaXdXdXuXuXuXfXdXV.6.4.0.>XfX3X].T.Y.E.T..XeXlXHXzXzXkXdX.Xi.h.k.U.R.R.;.+.>.0.n.V.Z.Z.A.A.N.a.p.y.:.&.X.&.&.:.w.p.w.w.-.&.=.&.=.:.0.0.0.0.y.y.y.y.y.y.y.y.0.6.o.Q E Y T H ~ =.0.y.w.y.p.p.p.p.p.p.p.p.p.p.s.s.p.p.p.p.p.p.p.p.a.a.a.p.p.p.p.p.p.p.p.p.p.p.j.j.j.j.a.a.a.a.k.k.k.k.n.n.n.n.n.n.n.n.n.n.n.n.n.n.N.N.m.m.m.m.m.m.m.m.m.n.k.k.n.n.n.n.m.m.m.m.n.n.n.n.n.n.n.n.n.n.n.m.n.n.n.n.n.n.n.n.v.v.n.a.n.n.n.n.a.a.a.a.a.a.a.a.k.k.k.k.k.k.k.n.a.a.a.a.p.p.p.p.p.p.p.p.p.p.p.p.p.y.>.X.Y ! / ~ ..;.0.w.0.w.y.y.y.y.i.i.y.y.y.0.6.>.;.+.*.>.6.:.0.5.;.+.o.+.-.:.0.>.w.a.n.V.Z.W.W.V.p.4.:.:.q.V.T.h.z.I.J.R.XXeXOX).Y.T.Y.Y.Y.Y.Y.I.R.dX5XN.@.3.I..XfXaXtXtXtXtXuXuXuXtXtXsXfXhXxXmXGXZXNXZXZXZXZXZXZXZXZXZXZXNXGXVXMXxXxXmXnX{.T.p...W ! W Y E Q Y L Y &.p.y.y.y.>.W F S Z Z n b b x k a k b n c b b b v G ] [ &.:.6.4.;.+.o. . .K p e r r r u r r r r p s 6 % ",
"$ $ 0 g i u i i p p p p p p s Z ! } +.;.w.n.p.y.6.:.~ b c l c x Z D z k z x v n M A A F S G  .y.a.B.C.p.W Y W W E Q ! ! W ` @.c.1XeXsXyX8XPXxXnXmXVXZXZXNXZXZXZXZXZXZXZXZXJXJXmXnXbXhXhXaXaXtXaXdXdXuXuXuXfXdXV.6.4.6.oXdX,X].T.I.E.I.E.R.oX3XwXeXuXwX Xi.h.j.E.].R.;.+.4.0.m.C.Z.Z.Z.Z.N.p.p.y.0.>.=...] } $.:.0.>.=.X.&.=.>.0.0.0.0.0.y.y.y.y.y.y.y.y.>.} ! E T W H E =.0.y.y.y.u.p.p.p.p.p.p.p.p.p.p.s.s.p.p.p.p.p.p.p.u.p.p.p.p.p.p.p.p.p.p.p.p.p.p.j.j.j.a.p.p.p.p.k.k.k.k.k.n.n.n.n.n.n.n.n.n.n.n.n.n.N.N.m.m.m.m.m.m.k.k.n.n.m.k.m.m.m.m.m.m.m.m.m.n.n.n.n.n.n.n.n.n.n.m.n.n.n.n.n.k.a.a.v.v.a.a.k.k.k.k.a.a.a.a.a.a.a.a.a.a.a.a.a.a.a.a.a.a.a.a.p.p.p.p.p.p.p.p.p.p.p.p.p.i.y.:.| E ~ ~ ~ ] =.0.0.0.y.y.y.y.i.i.y.y.y.0.0.6.4.:.>.6.0.6.:.;.+.` ~ o.:.0.0.0.y.n.B.C.W.!.W.V.p.>.:.;.0.C.T.j.z.I.I.I._. XY.Y.Y._.Y.Y.Y.Y.Y.I.R.dXeXN.@.3.I.OXfXaXtXtXtXtXuXuXuXtXtXsXnXnXmXVXZXZXNXNXNXZXZXZXJXJXJXJXmXmXnXnXxXxXsXnXgX{.C.p. .E ! W E E Q K L Y &.p.y.y.y.>.W F S Z Z n b b x k a k m b c b b b v G ] [ &.:.6.:.;.+.o. . .H i e r r r u r r r r i p 3 % ",
"@ $ 9 g i e e u p p p p p p s Z ! ] +.,.w.n.p.y.6.:.~ b c l c c Z D z k z x m n Z A A F F H o.y.a.N.V.p.~ Y E W E Q ! ! W ~ -.N.1XtXfXtX7X8X8XsXsXxXmXmXNXNXZXZXZXZXZXZXZXZXZXNXmXmXnXnXsXaXtXtXdXdXdXdXuXfXdXV.6.3.5.oXdXOX].E.I.I.I.C.V.U.I.R.]. X].U.i.j.z.R.].E.@.*.4.0.M.C.W.W.T.T.N.a.p.y.0.0.-.X.] ~ ] &.-.-.:.-.=.:.>.0.0.0.0.0.y.y.y.y.y.y.y.>.} ! E H W Y T &.0.y.y.y.u.u.p.p.p.p.p.p.p.p.p.p.s.s.p.p.a.p.p.p.p.y.p.p.p.a.a.a.p.p.p.p.p.p.p.p.a.a.a.a.p.p.p.p.p.a.a.a.a.a.n.n.v.v.a.k.n.n.n.n.n.n.N.N.m.m.n.n.k.k.k.k.k.k.k.k.m.m.m.m.n.n.n.n.n.n.n.n.n.n.n.n.n.n.n.n.n.n.n.n.k.a.a.a.a.a.a.a.a.a.a.a.s.s.p.p.p.p.p.p.a.a.a.a.a.a.a.a.a.a.a.a.p.p.p.p.p.p.p.p.p.p.p.p.p.p.y.0.,.] W ~ ! W ] =.6.0.0.w.i.i.y.y.y.y.y.0.w.0.6.4.0.4.6.6.>.-.o.] } &.0.y.w.0.u.n.C.Z.W.W.W.N.y.>.;.&.6.T.].m.m.I.Y.I.Y.Y.I.Y.Y.T.I.I.I.I.Y.I.).dXaXN.-.3.I.oXgXaXtXtXtXtXuXuXiXtXtXbXmXVXVXZXVXZXvXvXvXvXZXJXmXmXmXnXnXxXsXsXsXsXsXnXgX{.C.p. .E ! W E E E K L Y &.p.y.y.y.:.W F S Z Z n b c x k a h m b b b M b c D / ] &.:.6.:.;.+.o. . .H i r r r r u r r r r t i 2 $ ",
"& & 9 p i e e t r p p p p p s Z ! ] X.;.0.n.p.y.6.,.~ b c c c c Z Z z k z x m n Z A A D F H o.y.v.N.B.a.` Y T E E E ! ! W ~ -.N.3XtXaXtXyXyXyXyX7XtXyXxXMXMXmXmXZXZXZXZXZXZXZXZXNXNXmXmXsXtXtXtXdXdXdXdXuXfXdXV.6.;.4.}.dXOX].Y.Y.V.V.I.V.V.V.z.E.T.E.I.s.j.z.R.].I.+.+.4.6.m.C.W.W.W.W.V.a.p.y.:.:.:.-.&.] ] $.:.,.>.:.,.>.>.>.0.0.0.0.y.y.y.y.y.y.>.&.E E H H Y W =.0.y.y.y.p.u.u.p.p.p.p.p.p.p.p.p.p.s.s.p.p.k.p.p.p.p.p.p.a.a.a.a.a.p.p.p.p.p.p.p.p.a.a.a.a.p.p.p.p.i.p.a.k.n.k.k.n.n.n.k.k.n.n.n.n.n.n.N.m.n.m.n.k.k.k.k.k.k.k.k.k.k.k.m.m.n.n.n.n.n.n.n.n.k.n.n.n.n.n.n.n.n.n.n.n.k.a.a.a.a.a.a.a.a.a.a.a.s.s.p.p.p.p.p.p.a.a.a.a.a.a.a.a.a.a.a.a.p.p.p.p.p.p.p.p.p.p.p.p.p.i.y.w.w.-.~ ! ] Y Y ` &.6.0.0.y.y.y.y.y.y.y.0.w.0.0.6.0.:.,.:.;.o. .+.&.:.0.w.w.w.p.n.Z.W.W.W.Z.N.w.>.*.+.5.T.}.m.m.V.I.Y.T.A.Y.Y.Y.c.V.V.V.V.I.I.R.lXaXV.;.5.I.oXgXaXtXtXtXtXuXuXiXtXsXnXVXVXCXvXvXZXvXvXvXmXVXmXnXbXfXsXsXsXsXsXsXsXsXnXgX{.A.p...E ! E E E E K L Y &.p.y.y.y.:.W F S Z Z n b c x k a g m m b b M b c D / { &.:.6.:.;.+.o. .} H i r r r u u r r r r e u 2 $ ",
"= & 6 i r r u u i i i i p p s Z ! ] X.=.0.p.p.y.>.;.! b c z c c Z Z k k z b b n Z Z Z D F H | i.a.n.B.a.] Y Y E Y E ! ! W ~ -.k.3XtXfX7XsXsXfXfXfXiXiXtXyXiXfXhXnXDXGXGXGXJXZXZXNXNXmXnXsXtXiXuXaXdXdXdXdXfXdXU.6.;.;.}.fXOXR.E.C.V.I.V.V.V.c.V.z.V.I.V.z.k.C.T.].C.&.*.:.>.k.V.V.N.V.W.n.n.n.y.0.:.-.:.-.-.-.-.;.&.&.+.-.>.6.6.0.0.0.w.y.y.y.0.y.y.o.! Q K G H ~ +.>.0.y.y.i.i.p.p.p.p.p.p.p.p.p.p.p.p.p.p.p.y.p.k.a.p.p.p.p.p.a.a.a.a.s.s.p.p.a.a.a.a.k.k.k.k.k.s.p.s.k.k.k.m.m.n.n.n.n.n.m.m.n.n.n.n.m.n.k.m.k.k.k.k.m.m.m.m.k.k.k.k.N.N.N.N.V.N.N.N.N.n.k.k.m.m.m.m.M.m.m.M.m.N.N.n.a.y.a.n.n.n.n.n.k.k.k.k.a.a.a.a.s.s.a.a.a.p.p.p.p.a.n.n.k.a.p.p.a.a.a.a.p.p.p.p.p.p.p.p.p.p.p.p.w.0.&.] E E H F W ,.>.0.w.p.p.p.i.y.y.0.0.0.6.>.>.X.o.X.o...X.;.:.>.y.y.y.0.p.V.Z.B.m.U.C.m.q.:.;.+.5.}. XN.k.m.V.V.V.V.C.V.z.k.c.c.c.c.Y.I.R.dXaXV.;.8.h.OXdXtXaXaXaXaXdXdXiXtXfXnXVXvXVXCXmXvXmXMXvXcXsXsXsXsXfXfXfXfXfXsXsXsXsXhXsX{.A.p.] ! ! ! E E E Y G Y =.y.i.y.y.<.W F Z Z n n m m x k a h m b b b b b b F ~ ] +.:.6.5.;.+.o. .} H s i i i u u r r r r r i 2 @ ",
"- = 6 p r r u u u i i i s p s Z ~ ] X.=.0.p.p.y.>.,.! b c z l c Z Z k k z c b n Z Z Z S S G | y.a.v.B.a.] Y Y E Y E ! ! ! ~ ;.k.,XeXfXsXyXyXtXyXyXiXiXiXiXiXiXfXfXfXbXnXbXnXmXJXJXJXmXxXyXtXiXuXaXdXaXdXdXdXdXU.6.;.;.}.fXoXR.E.C.C.I.V.V.V.V.V.z.V.C.z.z.k.C.T.].V.&.:.>.>.k.C.Z.V.N.N.n.n.n.u.0.:.-.:.:.:.:.:.&.&.....&.:.>.>.0.0.0.w.w.w.w.0.y.X.E Y Y K K E X.>.0.y.y.y.i.i.p.p.p.p.p.p.p.p.p.p.p.p.p.p.i.p.V.m.k.k.k.k.k.k.n.n.n.n.n.n.n.n.m.m.m.m.V.V.V.V.V.N.k.k.k.m.m.k.M.M.M.M.M.M.m.m.m.m.m.m.m.n.m.m.m.m.m.m.m.m.m.m.N.N.N.N.N.N.N.N.N.N.N.n.N.N.N.n.N.m.m.M.C.C.C.V.V.V.N.N.a.p.k.N.N.N.N.N.N.N.N.N.N.N.N.N.n.n.n.n.n.n.v.a.a.n.n.M.n.k.a.a.a.a.a.a.p.p.p.p.p.p.p.p.p.p.p.p.p.y.0.&.] Y H F H ! } >.w.y.p.p.p.y.y.0.0.0.>.:.X.o... .&.=.:.6.>.>.>.0.>.y.a.n.M.n.m.C.C.m.p.>.;.+.5.}. XN.k.k.N.N.N.N.V.V.V.V.V.V.V.V.Y.I.R.dXaXN.*.8.h.OXdXtXaXaXaXdXdXdXiXtXtXbXmXVXvXmXmXMXxXxXxXsXsXsXhXhXfXfXfXfXsXsXsXxXxXnXsX{.A.p.] ! ! W E E E Y G Y ;.p.p.i.y.>.W D Z Z n n m m x k h k b n b b b b b F ~ ] +.:.6.5.;.+.o. .} G i u i i u u r r r r r i 2 @ ",
"= & 6 i r r u u u i i i p s s Z ~ ] X.=.w.p.p.y.4.;.! b c z l c Z Z z k z b b n Z Z Z S S G | y.a.v.B.a.] Y Y T Y E ! ! ! ~ ;.k.oX5XsXnXxXsXsXsXyXyXyXyXyXtXiXfXyXyXyXfXyXyXbXnXmXmXbXyXtXtXiXdXdXaXaXdXdXdXdXI.6.3.;.{.fX>XQ.E.C.C.V.V.V.V.V.V.I.E.Y.N.z.k.C.T.R.V.&.:.6.6.m.Z.!.W.C.N.a.v.n.p.0.:.-.:.:.:.:.:.*.:.:.;.;.:.:.>.0.0.0.w.w.w.w.0.&.E H E K H ~ &.>.0.y.y.y.y.y.y.p.p.p.p.p.p.p.p.p.p.p.p.p.y.i.a.C.V.m.V.V.V.N.N.C.C.C.C.C.C.C.C.A.A.A.A.T.T.T.T.T.C.C.V.V.V.V.m.n.n.n.m.M.M.m.M.n.n.n.n.m.m.m.V.V.V.V.V.V.V.V.V.V.B.N.N.n.n.N.N.n.n.v.v.n.n.n.N.N.V.V.N.m.m.m.M.N.N.N.C.C.V.Z.Z.Z.Z.Z.Z.C.C.C.C.C.C.C.C.C.C.C.C.V.B.N.N.M.M.N.N.M.n.n.k.a.a.a.a.p.p.p.p.p.p.p.p.p.p.p.p.p.p.y.0.&.~ Y H H G Y X.6.y.p.p.p.y.y.0.6.>.:.:.-.-.&.&.>.>.0.>.>.:.;.>.6.y.a.k.n.n.V.Z.T.V.p.>.>.+.6.}. XN.k.m.N.N.N.N.z.V.I.E.I.I.I.V.Y.I.R.dXaXk.@.8.h.OXdXtXaXaXaXdXdXdXiXuXfXbXmXGXMXnXnXnXxXsXsXsXsXfXhXhXhXfXbXxXxXcXcXvXmXVXsX'.A.p.] ! ! ! E E E Y G Y ,.p.p.p.y.>.W Z Z Z n n n m c x k x n n b b b b b F ~ ] &.:.6.5.;.+.o. .} G i i r r u u r r r r r i 2 @ ",
"= $ 5 r r r u u u u i i p s s Z ~ } X.=.y.p.p.y.4.;.! b c z c c Z Z z k z b b n Z Z Z S S G | y.a.v.B.a.] Y Y T Y E ! ! W ~ ;.k.{.4XsXGXVXvXVXmXbXbXyXyXyXyXyXfXfXfXiXfXfXyXyXyXsXxXsXtXtXtXiXdXdXaXaXdXuXdXuXV.6.3.;.{.fXOXR.E.C.C.V.V.V.V.V.V.).].R.I.z.k.C.T.T.V.&.4.6.6.m.T.`.'.`.Z.a.a.M.a.0.:.-.:.-.-.-.;.*.6.y.0.0.>.:.:.0.0.0.w.w.w.w.:.E F Y E H ~ &.0.y.y.y.y.y.y.i.i.p.p.p.p.p.p.p.p.i.i.p.p.p.y.y.k.V.m.m.C.C.C.C.C.Z.Z.Z.Z.S.S.S.W.W.W.W.W.W.W.W.W.W.W.W.T.T.T.C.N.n.n.n.n.n.n.k.k.k.k.k.k.m.m.V.C.A.Z.Z.Z.Z.Z.Z.Z.C.B.N.N.n.v.n.n.n.v.v.a.a.a.k.n.n.M.M.M.M.M.B.M.N.N.C.`.[.`.].W.W.W.W.W.S.S.W.W.Z.Z.S.S.S.Z.Z.Z.Z.C.C.V.V.V.V.N.m.m.M.n.a.a.a.a.p.p.p.p.p.p.p.p.p.p.p.p.p.p.p.y.0.-.] Y H Y H E =.0.p.p.p.y.y.0.>.:.:.:.0.:.-.:.>.0.>.-.>.-.-.>.y.y.y.p.n.B.Z.W.T.C.a.4.>.&.6.oX Xm.k.k.z.m.m.m.z.V.E.).Y.Y.I.I.Y.I.R.dXaXk.+.q.h.OXdXtXaXaXaXaXdXdXiXuXiXsXhXnXxXxXsXsXsXfXhXhXhXhXhXsXxXxXxXxXvXvXZXZXZXVXsX'.C.i.] W ! Q E E E K G Y ,.p.p.p.i.>.W Z Z Z n n n m c x x x n M b b b b b F ~ } +.:.6.5.;.+.o. .} G i i r r u u r r r r r i 2 @ ",
"& & 5 i r r e e u u i i i i s Z ` } X.=.w.a.p.y.6.;.W b b z k m Z Z b k z b b n Z Z Z S S F | y.a.n.n.k.] Y Y Y Y ` ] W W ~ ;.p.[.2XsXVXZXZXZXZXJXLXLXLXxXxXyXsXyXyXyXyXiXfXfXyXyXtXtXtXtXtXdXdXdXdXdXdXdXtXeXV.i.4.;.[.kX3X].Y.I.I.V.V.V.V.V.c.E.V.3XV.N.z.N.T.].m.&.4.y.6.m.T.W.`.`.W.Z.C.n.y.0.-.-.:.-.,.>.:.;.4.6.0.0.0.0.0.0.0.0.0.u.p.<.! G E ~ E } -.6.0.y.y.y.y.i.i.i.y.p.p.p.p.p.p.p.p.p.p.p.p.p.p.k.m.V.V.V.C.C.V.C.V.C.C.C.C.Z.Z.Z.Z.T.W.W.W.Z.Z.Z.Z.W.W.W.W.'.'.!.Z.n.n.n.n.n.n.n.n.k.k.k.k.m.m.m.V.Z.C.C.S.S.C.C.Z.C.C.V.N.M.V.N.V.M.M.V.V.V.k.a.k.N.N.N.N.M.V.C.Z.C.C.Z.`.[.!.W.S.W.W.T.T.T.T.T.T.C.C.C.C.Z.Z.C.C.C.C.B.C.V.V.B.V.V.V.V.V.k.a.a.a.p.p.p.p.p.p.p.p.p.p.p.p.p.p.p.p.w.0.:.o.H W ~ H ] >.p.6.w.w.6.6.-.>.0.y.w.>.:.:.>.>.:.:.:.-.>.y.6.0.p.M.U.W.W.!.W.C.p.>.0.;.>.oX].C.k.k.z.z.z.z.z.V.E.E.z.z.V.V.Y.I.).lXdXk.;.i.h..XtXtXaXaXtXtXiXiXiXuXiXtXaXyXyXyXsXhXhXfXfXsXsXsXxXxXMXmXZXZXZXZXZXZXZXZXhX;XA.s.} ! ! Q E E E Y F Y ,.p.a.p.i.0.W Z Z Z Z n n m c x g x n b b b b c b F ~ } +.:.6.5.:.+.+. .} G i u r r u u r r r t r p 2 % ",
"& & 5 i r r e e u u i i i i p Z ~ } o.&.w.p.p.y.6.;.W b z z c b n Z b k z b b n Z Z Z S S G ..y.a.a.n.n.] Y Y Y E ] ] ! W ~ ;.p.}.2XxXZXZXZXZXZXZXZXZXZXNXmXMXxXxXsXyXsXyXyXfXfXfXfXtXtXtXtXdXdXdXdXdXdXdXuXeXV.i.6.;.}.kXwX XR.I.I.V.V.V.V.c.c.C.V.R.I.c.k.N.T.Q.m.&.4.y.6.m.T.W.'.`.W.Z.C.n.p.w.-.&.=.-.:.>.:.:.5.0.0.0.0.0.0.0.0.0.0.w.>.| I ~ } ] } -.0.i.y.y.i.i.y.i.i.i.i.p.p.p.p.p.p.p.p.i.i.i.i.k.k.N.V.V.C.C.V.V.m.a.y.p.k.m.k.k.k.k.k.a.a.a.a.a.a.a.a.a.a.a.a.a.p.p.p.a.n.n.n.n.n.n.n.k.k.k.k.k.k.k.k.n.m.V.C.C.V.C.Z.T.T.T.C.V.V.V.V.C.C.Z.T.C.m.p.s.a.a.a.a.a.n.n.n.M.n.n.N.N.M.n.n.n.n.m.m.m.m.m.m.n.n.n.n.n.n.p.p.w.0.w.n.C.C.V.N.V.V.V.V.m.k.a.a.a.a.p.p.p.p.a.a.p.p.p.p.p.p.p.p.p.y.0.>.} Y Y ~ ` ..:.0.w.0.0.6.>.0.y.y.y.>.>.>.>.>.:.-.&.+.-.0.6.y.n.V.U.W.W.!.W.C.p.>.0.;.;.}.].C.z.k.N.N.N.N.N.V.I.I.z.z.V.V.Y.I.).dXaXs.@.q.j..XaXtXaXaXtXtXtXiXiXiXiXiXtXyXyXsXsXsXsXsXxXxXxXnXmXmXNXZXZXZXZXZXZXZXZXVXhX{.A.s.} ! ! Q E E E Y G Y ,.p.a.p.i.0.W Z Z Z Z n n m c x g k n b c b M Z Z F ~ } +.:.6.5.;.o.o. .} G i u r r u r r r r r r p 2 % ",
"& & 5 i r r e u i i i i p p s Z ~ } o.&.y.a.a.p.0.;.W b b b b m b n c k z v b n Z Z Z S S G $.i.i.a.n.n.] Y Y Y E ` ~ ~ ! ] :.a.}.2XxXZXZXZXBXZXZXZXZXZXNXNXZXNXmXMXxXxXsXsXyXdXlXfXfXiXiXiXtXdXdXdXdXdXdXdXuXI.i.8.;.].gXwX X).I.I.V.V.V.V.V.V.V.V.V.Y.k.c.N.Y.R.m.*.6.y.6.m.T.`.[.[.`.Z.Z.N.a.a.:.$.X.&.:.>.>.:.6.0.y.0.0.0.0.0.0.0.0.>...W Y ] ] o.:.y.p.i.y.y.y.y.y.i.i.i.i.p.p.p.p.p.p.p.p.i.p.p.s.n.N.N.V.C.U.C.V.V.y.;.+.;.6.6.6.:.:.5.6.0.0.0.0.0.0.0.0.y.y.y.y.0.6.0.0.0.q.y.y.y.y.y.y.p.p.p.p.p.p.p.p.y.y.0.6.4.:.4.6.q.y.y.q.0.y.y.y.p.j.k.k.k.p.s.i.q.q.q.q.q.q.q.w.u.w.w.w.w.0.<.0.0.0.y.y.y.y.y.y.0.0.0.0.6.6.>.;.-.$.X.>.V.Z.C.B.V.V.V.V.V.k.a.a.a.a.a.p.p.p.p.a.p.p.p.p.p.p.p.p.p.p.y.w.0.} H ] ! G ] 0.0.0.0.y.y.y.y.y.y.0.0.y.>.:.-.&.o.o.-.0.y.k.M.C.U.W.W.!.W.C.p.>.6.-.@.`.R.V.N.N.N.N.N.N.V.V.V.V.z.z.V.V.I.I.).dXaXs.@.q.z.OXaXtXaXaXtXdXdXfXfXfXdXdXaXaXsXsXyX8XyXxXMXmXDXJXJXJXZXZXZXZXZXZXZXZXZXVXsX}.A.s.} ! ~ ! Q Q E Y Y W :.p.p.y.y.>.! D Z Z Z n n m c x h k n n b b H ! F G ~ | &.:.6.>.-.}  . .} G i u r r u r r r r r r p 2 % ",
"& & 5 i r r u i i i i p p p a Z ~ } o.&.y.a.a.p.0.;.W b Z Z M c c b c k z v b n Z Z Z S Z H -.p.y.s.v.n.[ Y Y Y Y Q ! W ! ] :.k.}.3XxXZXZXZXZXZXZXZXZXZXNXNXZXAXZXNXvXnXxXxXsXsXfXfXtXtXtXtXtXtXdXdXdXdXdXdXuXI.h.8.;.R.dX3X XR.I.I.V.V.V.V.V.V.V.I.E.I.k.N.V.T.W.n.;.q.0.6.m.T.`.[.[.`.C.Z.V.n.M.p.>.-.&.=.<.>.4.6.0.y.y.y.0.0.0.0.0.0.X.} T I E ` -.y.i.i.y.y.y.y.i.i.i.i.i.i.p.p.p.p.p.p.p.p.p.p.a.n.n.N.V.C.C.T.Z.N.y.;.;.6.y.y.y.y.0.q.i.p.i.i.i.i.i.i.i.i.k.j.j.j.j.s.s.p.j.p.s.i.s.s.s.s.i.i.i.i.y.p.p.i.i.s.s.i.5.5.6.i.q.q.i.q.s.k.p.k.k.k.k.k.k.k.k.s.k.k.j.j.j.j.j.p.p.a.a.a.a.a.a.a.a.p.p.p.i.i.i.i.y.y.y.y.0.y.y.y.w.,.X.&.p.Z.W.Z.V.V.V.V.V.m.k.a.a.a.a.a.p.p.a.a.p.p.p.p.p.p.p.p.p.p.p.y.p.0./ ! ` Y ..>.4.0.0.y.i.y.y.y.p.y.y.u.<.>.=.&.&.&.:.p.k.m.V.T.U.W.W.!.W.C.p.>.6.&.+.T.T.V.N.V.N.N.N.c.V.V.c.z.z.z.V.I.I.I.).lXdXk.;.i.z.,XdXtXaXaXtXdXfXfXfXfXtXaXaXtXsXsXxXxXmXmXNXNXNXZXZXAXZXZXZXZXZXZXZXZXVXVXsX[.A.p.} ! ! Q E E E Y Y ! :.p.p.0.0.>.! F Z Z Z n n m m x h x n n c b Y ] H H ! ..&.:.6.>.+.` ]  .} H s i r r u r r r r r r p 2 % ",
"& & 5 i e e r i i i p p s s s Z ~ } o.=.y.a.a.y.0.=.~ b D F c b b M b z z v b n Z Z Z Z Z G &.a.u.p.a.N. .Y T T E E ! ! ! ] :.n.}.2XxXZXZXZXZXZXZXZXZXZXAXZXZXZXZXZXZXZXZXZXZXmXsXsXtXaXfXtXtXdXdXdXdXiXdXdXuXI.8.6.;.`.fX4X).Y.E.I.U.T.U.I.V.V.V.V.N.k.N.N.C.,X[.D.:.C.p.0.m.W.`.[.[.`.W.Z.C.V.m.p.0.:.+.;.0.:.5.0.0.0.y.y.y.y.y.0.0.p.0.] W F Y &.0.i.y.y.y.y.y.u.p.p.p.p.p.p.p.p.p.p.a.a.p.p.p.n.n.N.N.V.C.A.C.W.C.i.-.;.q.j.M.n.k.k.m.k.k.k.k.k.k.k.k.j.k.z.k.z.z.z.z.j.k.k.k.k.k.k.m.m.m.m.m.m.m.m.n.k.k.k.j.j.h.k.s.i.h.x.j.h.i.8.h.h.s.k.k.k.k.k.k.k.m.m.m.m.N.N.N.N.m.m.n.N.N.n.n.n.n.n.V.V.N.N.m.k.s.a.k.k.a.s.s.k.j.k.y.0.-.$.:.p.Z.W.V.N.V.C.V.V.N.a.n.a.a.p.p.p.p.p.p.j.j.j.p.p.p.p.q.q.p.p.p.p.0.! ! ] ..&.0.0.0.y.y.y.y.y.y.y.y.y.u.>.,.;.:.,.6.a.k.m.V.Z.T.W.W.].Q.C.i.>.>.;.+.}.].C.V.V.V.V.V.V.I.E.Y.I.V.I.I.V.Y.I. XlXdXs.-.6.z.OXdXtXaXaXdXaXfXtXyXyXyXsXsXxXmXvXZXZXZXZXZXZXZXZXZXZXZXZXZXZXAXAXZXZXvXcXnX{.V.m. .! ! Q Q E Y Y Y Y :.p.0.-.>.>.! S D Z Z V V b b x k z n m b z c Z n H ~ ..&.:.6.>.&.' ] o.} G i u r r i p t t t t e i , @ ",
"% % 5 i e e r i i i p p s s s Z ~ } X.=.y.a.a.y.0.;.] b a k a b b M b z z v b b Z Z Z Z Z G &.a.p.p.p.N. .Y T T E E ! ! W ] :.k.}.2XxXZXZXZXZXZXZXZXZXZXZXZXZXZXZXZXZXZXZXZXZXZXmXnXnXhXhXsXfXfXdXdXiXiXfXuXwXz.8.6.;.`.fX3X).Y.Y.Y.R.R.U.V.m.V.V.V.N.k.m.m.N.}.:X!.6.W.p.0.m.W.`.[.[.`.W.Z.V.N.m.p.0.:.&.;.0.>.6.q.y.y.y.y.y.y.y.0.0.w.1.W T F ] 6.i.y.y.y.y.y.y.u.p.p.p.p.p.p.p.p.p.p.p.u.p.p.a.n.M.N.V.C.Z.T.T.V.y.-.-.6.p.k.n.m.V.m.C.C.C.C.T.T.T.T.C.C.T.T.T.T.T.T.T.T.R.R.T.T.C.C.T.T.C.A.C.Z.C.C.C.V.V.V.m.V.N.V.C.C.C.T.T.U.V.V.k.k.m.N.N.m.m.m.V.C.V.V.C.C.C.C.C.C.C.V.Z.Z.Z.Z.A.A.A.A.A.A.A.C.C.C.V.C.V.V.V.N.N.m.m.m.k.p.0.:.=.:.p.C.Z.Z.C.C.C.C.V.N.n.k.a.p.p.p.p.p.p.j.j.j.p.p.p.p.p.p.p.p.p.p.p.&.] ~ W ] >.0.0.0.y.y.y.y.y.y.y.y.p.>.6.0.0.6.0.a.k.N.V.C.W.!.].'.].T.y.>.y.0.y.3XOXY.z.c.c.c.c.N.U.]. XY.V.I.V.V.Y.I. XlXdXs.-.6.z.OXdXtXaXaXdXdXfXfXfXbXxXcXmXZXZXZXZXZXZXZXZXZXZXZXZXZXZXZXZXZXAXAXAXAXNXcXhX[.V.k. .! ! Q Q E Y Y I I $.w.p.y.y.6.~ S D Z Z V V b m x k z n m c k a k m Y ] } &.:.6.>.-.` ]  .} G i u i i i i t t t t e i , @ ",
"% % 5 i e e i i i i p p p p s Z ~ } X.=.y.a.a.y.0.:.] b k k k k b Z b z k v b b Z Z Z Z Z G +.a.a.a.u.n. .Y T T T E ! ! W ] :.k.}.2XxXZXZXZXZXZXZXZXZXZXAXZXAXAXZXZXZXZXZXZXZXZXZXZXJXmXnXhXhXfXfXfXiXdXfXuXwXz.8.6.>.`.fX4X).Y.Y.Y.I.I.I.m.m.V.c.V.N.k.m.m.k.W.!.W.6.M.n.0.m.W.`.[.[.`.W.C.N.M.m.p.0.:.=.:.w.6.0.y.y.y.y.y.y.y.0.0.0.>.] R ! Y +.0.y.i.y.y.y.y.y.u.p.p.p.p.p.p.p.p.p.p.p.p.p.n.n.m.N.V.C.Z.T.T.V.0.-.-.0.a.m.V.C.W.W.Z.W.W.!.`.[.[.[.[.'.'.[.[.[.[.[.[.'.'.'.'.'.'.'.'.'.'.'.'.'.'.'.'.`.!.!.`.!.`.'.'.[.'.[.;X;X[.'.!.W.S.!.!.!.!.!.!.S.S.S.S.S.S.S.S.W.`.`.`.`.S.S.W.`.`.`.`.`.`.`.W.`.`.].].`.`.`.`.W.T.T.Z.V.n.p.y.:.&.-.p.Z.W.Z.C.C.C.V.B.N.n.a.p.s.s.p.p.p.p.p.p.p.p.p.p.p.p.a.a.p.p.p.w.X.E F W -.0.0.y.y.y.y.y.y.y.y.y.p.>.6.w.y.6.0.p.k.N.V.T.W.].'.[.].T.s.6.p.p.s.3X3XT.z.c.c.c.c.z.m.R.R.I.J.c.V.V.Y.I.}.dXdXk.;.8.j.OXaXtXaXaXdXfXfXfXnXmXZXZXZXZXZXZXZXZXZXZXZXZXZXZXZXZXZXZXZXZXZXZXAXAXZXvXsX'.V.k. .! ! Q Q E E Y I G ..0.p.i.y.0.~ Z D Z Z V V b m x k k b x z k g a x Y ] } &.:.6.:.-.] } ] } G i i r i u i t t p p r i < @ ",
"% % 5 i e e r i i i p p p p s Z ~ } X.=.y.a.a.y.0.6.] b k k z k b Z b k k v b n Z Z Z Z Z G &.a.a.a.u.n.[ K Y Y E E ! ! W ~ :.k.}.2XxXZXZXZXZXZXZXZXZXZXAXAXAXAXZXZXZXZXZXZXZXZXZXZXZXJXJXDXnXhXhXfXfXdXdXdXtXI.8.6.>.`.dX4X).Y.^.^.I.m.m.m.m.V.c.V.N.k.m.V.m.W.Q.W.w.w.m.0.m.W.`.[.[.`.W.C.M.n.m.p.0.:.*.>.p.0.q.y.y.y.y.y.y.y.0.y.0.,.! W W ! ;.y.i.y.y.y.y.y.y.u.p.p.p.p.p.p.p.p.p.p.y.a.m.m.m.V.V.C.Z.T.T.C.0.&.&.0.m.V.T.W.!.<XtXyX7X8XsXsXsXsXsXsXtXyXsXsX8X8X8X8X8X8X8X8X8X8X8X8X8X8X8XqXqXsXsXsXsX8X8XqXxXxXxXxXsXsXsXxXxXsXsX8XsXsXxXxXxXxXxXxXxXxXxXxXsXsXsXsX8XsXsXsXsXsXsXsXsXsXsXsXnXnXnXbXnXnXSXFXSXSXSXnX7X<X[.'.W.V.n.a.0.,.&.-.n.Z.W.Z.C.C.V.V.C.N.a.s.s.s.p.p.p.p.p.p.p.p.p.p.p.p.a.k.p.p.p.p.=.Y F Y ..0.0.0.y.y.y.y.y.y.y.y.p.0.0.w.w.:.6.p.k.N.V.T.W.Q.].'.].T.s.6.i.y.s.oX#X].c.c.c.c.c.z.z.I.E.I.J.c.I.I.Y.I.].dXdXk.;.8.j.OXdXtXaXaXdXfXfXbXmXJXZXZXZXZXZXZXZXZXZXZXZXZXZXZXZXZXZXZXZXZXZXZXAXZXZXMXsX`.V.k. .! ! Q Q E E Y G F $.w.p.0.y.6.E n D Z Z V V b m x a k m x c z k k k Y ] } &.:.6.:.-.} } ` } G i i r r u i t t p p r i < @ ",
"% $ 3 i e e i i t t i p p p s Z ! } o.=.y.a.a.y.0.6.[ Z l k k c b Z b k k v b V Z Z Z Z Z F X.a.a.a.v.n.X.Y Y T E E ! ! E ~ ;.k.}.4XxXJXZXZXZXZXZXZXZXZXZXZXAXZXZXZXZXZXZXZXZXZXAXAXAXAXZXJXDXsXhXfXfXfXfXdXuXI.8.6.6.[.dX4X).E.Y.Y.I.z.z.c.c.c.c.c.m.k.m.V.m.W.[.Q.p.4.n.0.m.W.'.[.[.'.W.Z.M.a.n.p.:.:.;.4.y.0.q.y.y.y.y.y.0.0.0.p.p.-.W W R / 4.y.i.p.i.i.i.i.y.i.p.p.p.p.p.p.p.p.p.p.a.k.n.M.V.V.V.C.W.T.V.y.;.;.0.k.V.C.W.'.0XqXJXKXKXKXKXKXKXKXKXKXKXKXKXKXKXKXKXKXKXKXKXKXKXKXKXKXAXAXKXKXKXKXAXAXAXAXKXAXAXKXAXKXKXKXKXKXKXKXKXKXJXJXJXJXJXJXJXAXJXJXZXNXNXZXZXZXZXZXZXZXKXJXZXvXZXZXZXJXJXJXZXZXZXJXKXKXKXKXKXKXKXVXqX0X'.S.V.n.a.0.-.$.:.n.W.T.T.Z.A.A.V.V.N.k.a.p.p.p.a.a.a.a.p.p.a.a.a.a.a.a.a.p.p.w.-.Q Y ! ..w.w.w.y.p.p.p.u.u.u.u.p.0.w.w.0.:.>.p.k.N.C.W.!.].].'.].W.k.6.p.i.k.[.}.T.c.z.c.Y.c.k.V.I.E.I.Y.Y.I.I.Y.I.].dXdXk.;.8.h.OXfXdXsXfXdXfXsXxXmXJXZXZXZXZXZXZXZXZXZXZXZXZXZXZXZXZXZXZXZXZXZXZXZXZXZXVXnX`.C.N. .^ Q Q E E E Y F W >.w.y.0.0.-.E S D Z Z V n b m x a k n m b b c z z Y ] o.;.>.6.>.-.]  .` ] G s i i i i i p p t t r i 5 @ ",
"% $ 3 i e e i i t t i p p p s Z ! } o.=.y.a.a.y.0.0.[ Z l k k c b Z b k k v b V Z Z Z Z Z F X.a.p.a.v.n.X.Y Y T E E ! ! Q ~ ;.k.{.4XxXJXZXZXZXZXZXZXZXZXZXZXAXZXZXZXZXZXZXZXZXZXAXAXAXAXAXZXDXxXhXfXdXdXfXdXtXC.8.6.6.[.gX3X).E.E.E.I.V.c.c.c.c.c.V.N.k.m.V.m.R.'.!.q.4.p.6.V.W.`.[.[.`.W.Z.n.a.n.p.:.:.:.6.p.0.q.y.y.y.y.y.y.0.0.i.p.=.W W R ] 0.y.i.p.i.i.i.i.y.y.p.p.p.p.p.p.p.p.p.a.n.m.M.V.C.C.C.C.T.V.y.:.;.0.k.V.C.C.`.0XqXvXKXZXZXJXKXKXKXKXKXKXJXJXJXJXJXJXJXJXJXJXJXJXZXZXZXZXZXZXZXZXNXvXvXvXZXZXZXZXZXZXZXZXNXZXZXNXZXZXZXvXJXJXJXJXJXJXJXJXJXJXZXNXNXNXZXJXJXJXJXJXKXJXJXJXZXZXZXJXJXJXZXNXmXNXNXNXNXNXmXvXZXZXVXsX4X[.W.V.M.a.0.:.X.>.n.W.W.T.A.A.C.V.V.N.k.a.p.p.a.a.a.a.p.p.a.a.a.a.a.a.a.p.p.y.-.! Y ! { w.w.w.p.p.p.p.p.p.u.u.p.0.w.w.6.,.>.p.k.N.C.W.!.].].'.[.W.s.5.p.y.N.].[.Y.c.z.z.c.V.z.V.V.I.I.E.Y.I.I.U.Y. XlXdXk.;.8.h.OXfXdXsXfXdXfXsXxXvXZXZXZXZXZXZXZXZXZXZXZXZXZXZXZXZXZXZXZXZXZXZXZXZXZXZXmXnX`.C.N. .^ Q Q E E E Y F W >.w.y.0.0.-.E S D Z Z V n b m x a k n m b b c z z Y ] o.;.>.6.:.&.]  .` ] G p i i i i i p p p p r i 5 $ ",
"% $ 3 i e e r i t t i p p p s Z ! } o.=.y.a.a.y.0.6...Z l k k c b Z b k z v b n Z Z Z Z Z F X.a.p.a.v.n.X.Y Y T E E ! ! Q ~ ;.k.{.4XxXJXZXAXZXZXZXZXZXZXZXZXAXZXZXZXZXZXZXZXZXZXZXAXAXAXAXNXmXnXhXfXfXdXfXdXtXC.8.5.6.[.gX3XR.R.R.R.E.I.I.V.c.c.c.V.V.m.m.V.N.Q.[.`.y.4.i.0.V.W.'.[.[.'.W.Z.M.a.n.p.:.:.>.0.p.0.q.y.y.y.y.y.y.y.y.p.y.X.W W ! { q.y.i.p.i.i.i.i.i.i.i.i.p.p.p.p.p.y.j.k.m.V.V.C.Z.Z.Z.C.V.y.;.;.0.k.V.T.W.!.0XqXZXAXZXqX0X0X2X9X2X2X2X2X0X0X0X0X0X0X0X0X2X9X9X9X9X9X9X9X5X2X2X0X0X2X2X2X9X9X9X9X9X9X0X2X:X:X:X:X:X:X;X;X2X2X2X2X4X9X9X9X9X9X2X2X0X2X2X4X5X4X4X4X9X9X9X9X2X2X2X4X9X9X2X2X9X9X<X<X0X0X0X0X9XxXZXVXnX5X[.W.C.M.a.y.-.+.:.n.T.W.Z.C.A.C.C.V.V.N.a.p.a.a.a.a.a.a.a.a.a.a.a.a.a.p.p.y.-.Q Y ! ] 0.p.p.u.p.p.p.p.p.y.p.p.0.q.0.>.;.:.p.k.N.C.W.!.].].'.[.T.p.4.i.0.V.T._.T.V.c.z.c.E.V.V.m.I.I.Y.I.I.I.^.Y. XlXdXk.;.8.h.OXfXaXsXfXfXfXhXsXvXZXZXZXZXZXZXZXZXZXZXZXZXZXZXZXZXZXZXZXZXZXZXZXZXZXZXmXnX`.C.N. .^ Q Q E E E Y F W <.w.p.y.0.-.E S S Z Z V n b m x k k n m b b c z z Y ] o.;.:.6.>.&.}  .` ] G p i i i r r p t t p i i 5 $ ",
"% $ 3 i e e r i t t i p p p s Z ! } o.=.w.a.a.y.0.0...Z l k k l b Z b k z v b n Z Z Z Z Z F X.p.p.a.v.n.X.Y Y Y E E ! ! Q ~ ;.k.{.4XxXJXZXAXZXZXZXZXZXZXZXZXAXZXZXZXZXZXZXZXZXZXZXZXZXAXZXvXmXnXhXfXfXdXdXaXtXC.8.5.6.[.gX3XR.R.R.R.E.I.I.I.c.c.c.I.C.m.m.V.N.R.].W.y.4.y.0.V.W.'.[.[.'.W.Z.M.a.n.p.:.,.6.0.p.0.q.y.y.y.y.y.y.y.y.p.y.X.W ! ! ..w.y.i.p.i.i.i.i.i.i.i.i.p.p.p.p.p.a.k.m.V.V.C.Z.S.S.A.V.y.:.;.6.k.V.T.W.[.3XhXVXKXKXPX:XS.S.S.S.W.W.W.W.D.S.W.W.W.W.W.W.].!.W.W.W.W.W.].].W.Z.C.T.W.`.`.W.W.W.W.W.S.Z.Z.Z.Z.Z.Z.Z.Z.T.W.W.W.R.W.S.S.S.S.S.S.S.C.B.C.C.Z.Z.Z.Z.Z.Z.U.W.W.W.T.T.Z.S.S.Z.Z.Z.D.Z.S.D.D.Z.D.S.2XxXJXKXnX4X'.W.Z.B.n.y.=.X.:.n.T.T.Z.A.A.C.C.C.V.n.a.a.a.a.a.a.a.a.a.a.a.a.a.a.p.p.y.-.Q K ! ] 0.p.p.p.p.p.p.p.p.p.p.q.0.p.0.:.=.:.p.k.N.C.W.!.].].'.[.T.s.;.i.6.C.Z.T.T.E.Y.c.c.].T.V.V.c.I.I.I.I.I.U.I.].dXdXk.;.6.i.oXfXtXaXsXfXsXhXxXmXZXZXZXZXZXZXZXZXZXZXZXZXZXZXZXZXZXZXZXZXZXZXZXZXZXZXmXnX`.C.c. .^ Q Q E E Y Y G W <.w.y.y.t.-.E S S Z Z V n b b x k k n m b b l z k Y ] o.;.:.6.>.&.`  .` ] G p i i i r r t t t t r i 5 $ ",
"$ % 5 i e e r i u u i i p p p Z ~ } X.=.w.a.a.p.0.6...Z c z k c b Z b k z v m n M Z Z Z Z G X.p.a.a.v.n.=.K Y Y E W ! ! W ~ ,.k.}.4XxXJXZXZXZXZXZXZXZXZXZXZXZXZXZXZXZXZXZXZXZXZXZXZXZXZXZXZXmXmXhXfXfXfXfXaXtXC.8.5.6.}.SX3XR.R.R.R.Y.I.V.V.V.N.V.I.V.k.m.V.m.R.].W.y.:.6.0.N.W.[.[.[.`.!.W.V.p.m.y.:.6.6.6.i.6.0.y.y.y.s.s.y.y.p.p.w.X.W W W ..0.y.p.p.p.p.i.i.p.p.p.p.p.p.p.p.k.k.k.N.V.C.Z.S.S.W.C.i.:.:.y.k.V.C.W.[.3XsXGXKXZXsX:XS.Z.Z.Z.Z.C.C.Z.Z.C.C.C.C.C.C.C.C.C.C.U.U.T.U.T.T.T.T.U.C.T.T.T.T.T.T.T.T.T.T.T.T.T.C.C.C.Z.A.A.A.A.A.A.A.A.Z.Z.Z.Z.Z.Z.Z.Z.Z.Z.Z.T.W.W.Z.Z.C.C.C.C.C.C.V.V.V.V.V.C.C.C.C.C.C.A.C.W.'.9XmXNXAXmX9X'.Z.C.V.n.w.;.=.>.n.Z.Z.W.W.T.Z.Z.C.n.a.a.a.a.a.p.p.p.p.a.a.a.a.p.p.p.p.:.E Y ! ..w.q.p.p.p.p.p.a.a.p.p.q.0.y.6.;.;.>.p.k.V.T.!.!.'.'.[.}.W.j.;.6.0.T.T.R.T.R.I.c.c.].R.V.c.c.I.c.V.V.I.U.E.].dXdXk.;.y.h.oXgXtXsXsXsXsXnXGXZXZXZXZXZXZXZXZXZXZXZXZXZXZXZXZXZXZXZXZXZXZXZXZXZXZXZXVXsX'.C.k. .! E E E E Y Y G W >.w.y.y.t.:.E F G S Z n n m v z k x n b x x z k z Y ] X.;.>.6.>.&.`  .` ] G i i i i r t t t i t r u 5 + ",
"$ % 5 i e e r i u u u i p p p Z ~ } X.=.0.a.a.p.0.6...Z c k k c b Z b k z v m b M Z Z Z Z F X.p.a.a.v.n.=.K Y Y E W ! ! W ~ ,.n.{.4XxXJXZXZXZXZXZXZXZXZXZXZXZXZXZXZXZXZXZXZXZXZXZXZXZXZXZXZXmXmXhXfXfXfXfXaXtXC.8.7.6.].SX3XR.R.R.E.I.I.V.V.V.N.V.V.z.k.m.V.m.Q.[.Q.y.4.6.0.V.W.[.[.[.`.W.W.Z.k.m.y.:.6.6.6.y.6.0.y.y.y.s.s.y.p.p.p.y.X.W W W ..0.y.p.p.p.p.i.i.p.j.p.p.p.p.p.p.a.a.k.N.V.T.W.`.W.C.p.;.;.6.k.C.Z.S.`.<XbXGXKXJXcX0XS.S.C.V.V.V.V.V.V.V.V.V.V.V.m.m.m.V.V.V.V.V.V.V.V.V.V.V.m.m.V.V.V.V.V.V.V.V.C.C.C.C.C.C.C.V.V.V.V.V.V.V.V.V.N.N.N.N.V.V.V.V.V.V.V.V.m.V.V.m.m.V.M.M.m.V.N.N.N.V.V.V.V.V.V.V.N.N.N.V.T.Q.:XyXvXKXKXcX4X[.S.C.V.n.w.-.+.>.N.W.W.W.T.Z.Z.C.n.a.a.a.a.a.p.p.p.p.a.a.a.p.p.p.p.p.>.W Y ! ..0.q.p.u.p.p.p.a.p.p.q.0.6.y.5.;.:.>.a.m.C.W.!.'.'.[.[.[.`.p.:.6.0.T.W.].U.I.z.x.z.].].I.V.c.V.V.V.V.V.U.E.].zXdXk.;.q.h.oXbXyXsXsXsXsXnXGXZXZXZXZXJXZXZXZXZXZXZXZXZXZXZXZXZXZXZXZXZXZXZXZXZXZXZXVXsX'.C.k. .! E E E E K Y G W >.w.y.y.t.:.E F G S Z n n m b z d x n v b x z k k Y ] X.;.>.6.>.+.`  .` ] G i i i i t t r r t t t i 5 + ",
"$ % 5 i e e r i u u u i p p p Z ~ } X.=.0.n.a.p.0.6...Z c z k c n Z b k z v m n N Z Z Z S G X.p.a.a.v.n.=.K Y Y E W ! ! W ~ ,.n.{.4XxXJXZXZXZXZXZXZXZXZXZXZXZXZXZXZXZXZXZXZXZXZXZXZXZXZXZXZXmXmXhXfXdXfXfXaXtXC.8.7.6.].SX3XR.R.R.Y.C.V.V.V.N.N.V.m.k.k.m.V.m.Q.[.Q.y.4.6.0.V.W.[.[.[.`.!.!.S.N.m.i.:.6.6.6.y.0.0.y.y.y.s.s.s.s.p.p.y.X.W W W ..0.i.p.p.p.p.p.p.p.j.p.p.p.p.p.p.a.j.n.V.C.T.W.W.C.p.;.;.6.k.C.T.W.S.;XsXJXKXJXbX2X`.Z.C.N.n.n.v.V.V.V.V.m.m.m.m.m.m.M.M.m.m.m.m.m.m.m.m.m.m.m.m.m.m.m.m.m.m.V.V.V.V.C.V.V.V.V.V.m.M.n.M.M.M.M.N.m.N.N.N.V.V.m.m.m.m.m.m.k.m.m.k.n.n.n.n.N.N.N.N.N.B.B.B.B.B.B.B.N.N.N.N.U.R.].>XsXVXKXZXcX9X[.A.C.V.n.y.-.&.>.B.Z.W.Z.Z.Z.C.n.a.a.a.a.a.p.p.p.p.a.a.a.p.p.p.p.p.>.W Y ! ..0.y.p.p.a.a.p.a.p.p.w.6.6.0.:.:.>.0.k.N.A.W.`.'.'.[.[.[.`.p.4.4.6.T.].].I.z.x.x.j.].].E.I.V.I.Y.Y.I.V.E.E.].zXdXk.;.6.i.oXSXyXsXsXsXxXnXGXJXZXZXZXZXZXZXZXZXZXZXZXZXZXZXZXZXZXZXZXZXZXZXZXZXZXZXVXsX'.A.a. .! E E E E K Y G ! >.y.y.y.t.:.E F G S Z n n m b z k x Z b c x z k k Y ] X.;.>.6.>.@.}  .` ] G i i i i i i r r t t t u 5 + ",
"$ % 5 i e e r i u u u i p p p Z ~ } X.=.0.n.a.p.0.6...Z c z k c n Z b k z v m n M Z Z Z S G X.p.a.a.v.n.=.K Y Y E W ! ! W ~ ,.n.{.2XxXZXZXZXZXZXZXZXZXZXZXZXZXZXZXZXZXZXZXZXZXZXZXZXZXZXZXZXmXmXhXfXdXfXdXaXtXC.8.7.6.].SX3XR.R.Y.I.C.V.V.V.N.N.z.z.k.z.m.V.m.Q.[.Q.y.4.6.0.N.W.[.[.[.`.!.!.Z.N.m.i.:.6.0.>.y.0.0.y.y.y.s.s.s.s.p.p.y...W W W ..0.i.p.i.p.p.p.p.p.j.p.p.p.p.p.p.p.j.m.V.C.T.T.C.i.;.;.6.j.V.U.W.W.'.7XVXKXKXnX2X`.T.C.N.n.v.a.a.V.C.V.V.V.V.V.V.V.m.m.m.V.V.V.m.V.M.M.M.m.M.m.m.m.M.m.m.V.m.V.V.C.C.V.C.V.V.V.V.N.N.N.N.B.B.B.B.V.V.V.V.V.V.V.V.V.m.m.m.m.V.V.m.n.n.N.B.B.B.B.B.B.B.B.B.B.B.B.B.B.B.C.V.V.I.R.Q.>XsXZXKXKXcX2X`.Z.C.N.n.y.-.-.0.N.Z.Z.Z.Z.C.n.a.a.a.a.a.p.p.p.p.a.a.a.p.p.p.p.p.>.W Y ! ..0.y.p.p.a.a.p.p.p.q.q.0.6.y.>.5.6.0.n.N.A.W.!.'.[.[.[.`.].p.6.:.6.T.].].C.z.z.x.j.].}.I.V.I.Y.Y.Y.I.c.E.E.].zXfXk.-.6.8.oXSXsXsXsXsXnXnXVXZXZXZXZXZXZXZXZXZXZXZXZXZXZXZXZXZXZXZXZXZXZXZXZXZXZXZXVXsX'.C.a.} Q E E E E K Y G ! >.y.i.y.t.:.E F G S Z n n m b z k x Z b m x z k k Y ] X.,.>.6.5.@.}  .` ] G i i i i i i r r t t t i 5 + ",
"# % 5 p u e q q e t u i p s p A ~ } X.-.y.n.k.k.0.6.[ Z b z k c n Z b k k v m b n Z Z F Z F X.p.a.v.n.n.*.Y Y Y E W ! ! W ~ ,.n.{.4XxXZXZXZXZXZXZXZXZXZXZXZXZXZXZXZXZXZXZXZXZXZXZXZXZXZXZXZXJXxXsXdXdXdXsXtXwXm.8.7.6.].HXwX).R.Y.I.I.V.V.V.N.N.m.m.z.z.k.k.C.T.[.Q.0.i.y.0.N.!.[.{.[.[.'.W.Z.C.V.p.>.6.0.:.y.0.y.y.i.i.s.p.p.p.y.0.6...~ T R $.w.i.i.i.y.y.y.y.j.p.p.p.p.p.p.p.p.p.n.N.A.C.C.i.3.*.8.j.m.W.!.!.0XsXJXKXJXsX4X[.W.C.V.M.N.M.n.n.V.C.C.C.W.T.Z.C.Z.Z.Z.Z.Z.Z.Z.Z.C.C.Z.Z.D.Z.Z.Z.Z.Z.Z.Z.Z.Z.Z.U.W.W.T.T.W.W.U.T.Z.Z.Z.Z.W.W.!.!.T.T.T.T.Q.Q.W.W.W.W.T.T.T.T.T.T.S.S.D.D.Z.Z.Z.Z.Z.Z.Z.Z.Z.Z.S.S.Z.C.N.C.m.m.V.E.`.:X8XZXKXJXxX;X'.W.C.V.k.y.:.&.0.C.W.T.Z.V.n.a.a.a.a.a.a.a.a.a.a.a.a.p.p.p.p.p.>.T Y ] &.6.p.p.p.p.p.p.p.p.p.w.0.6.6.:.>.:.0.n.N.A.W.'.'.[.[.[.}.W.k.y.6.y.T.].}.V.z.z.x.x.U.T.I.Y.Y.Y.Y.Y.I.V.I.I. XkXkXm.-.4.8.}.SXsXsXxXxX8XmXVXZXZXZXZXZXZXZXZXZXZXZXZXZXZXZXZXZXZXZXZXZXZXZXZXZXZXZXVXhX[.C.a.} Q Q E E E E Y T ] 0.y.p.i.y.;.E S G S Z n n m b z z b Z m m b z k k Y ] X.,.>.6.5.-.}  . .] G p i i i i i t t t t t u 5 + ",
"# % 5 p u e q q e t u i p s p A ~ } X.=.y.n.k.a.0.0.[ Z b z k c n Z b k k v m m n Z Z F Z F X.p.a.v.n.n.*.Y Y Y E W ! ! W ~ ,.n.{.4XxXNXZXZXZXZXZXZXZXZXZXZXZXZXZXZXZXZXZXZXZXZXZXZXZXZXZXZXJXnXsXaXdXdXfXtXeXV.8.7.3.].HX3XR.R.E.Y.I.V.V.V.V.N.V.m.m.z.z.m.U.T..XQ.0.k.N.i.V.`.[.{.[.[.'.W.W.Z.V.p.6.0.6.;.0.6.0.y.p.y.s.p.p.p.y.y.6...~ T T $.y.i.i.i.y.y.y.y.n.p.p.p.p.p.p.p.p.a.n.B.Z.k.8.@.*.4.j.V.W.W.!.;XsXJXKXKXnX5X[.W.T.C.m.k.M.B.C.C.V.V.V.V.C.C.C.C.C.Z.Z.Z.Z.Z.Z.D.Z.Z.W.W.Z.Z.Z.Z.Z.Z.Z.Z.Z.Z.Z.Z.U.U.Z.D.U.U.T.T.Z.U.Z.Z.Z.Z.W.W.W.W.Q.Q.W.W.W.W.W.W.W.W.W.W.W.W.!.W.W.W.Z.Z.Z.Z.Z.Z.C.C.C.C.C.V.N.m.N.C.V.m.m.I.].'.0X8XZXKXJXsX2X'.S.Z.N.n.y.&.&.y.N.n.Z.V.n.a.a.a.a.a.a.a.a.a.a.p.p.p.p.p.p.u.0.Y K ] &.6.p.p.p.p.p.p.p.p.p.w.0.6.6.:.6.:.y.k.N.C.S.W.'.[.[.[.[.W.U.T.i.i.T.[..XI.z.z.h.x.V.N.V.V.V.V.Y.Y.I.Y.I.E. XkXkXm.;.5.r.}.FXfXbXxXxXsXVXZXZXZXZXZXZXZXZXZXZXZXZXZXZXZXZXZXZXZXZXZXZXZXZXZXZXZXZXVXhX[.C.s.} Q Q E E E E Y T ] 0.y.p.i.i.;.E S G S Z n n m b z z n Z m m x z k k H ] o.,.:.>.5.@.}  . .] G p i i i i i t t t t t u 5 + ",
"# % 5 p e e q q e e u i p s p Z ~ } X.=.0.n.a.a.0.0.[ Z b z k c n Z b k k z v m n Z S F Z F X.p.a.v.v.n.=.Y Y Y E W ! ! W ~ ,.n.>X5XxXZXZXZXZXZXZXZXZXZXZXZXZXZXZXZXZXZXZXZXZXZXZXZXZXJXZXZXJXmXsXfXfXfXfXtXeXV.8.7.5.].SX3XR.).).E.I.I.V.V.N.N.V.V.m.z.z.V.E.T..XQ.0.k.N.p.V.'.[.{.}.[.`.W.W.Z.V.p.6.0.6.-.6.>.6.i.p.s.p.p.p.p.s.i.y.o.~ E T $.p.p.p.p.i.i.y.y.j.j.p.p.p.p.p.p.p.a.n.C.V.k.3.@.3.h.m.T.`.S.'.qXJXKXKXGX5X[.T.U.U.m.M.M.C.Z.Z.C.C.C.C.C.C.C.Z.Z.Z.C.C.Z.C.C.C.C.V.C.Z.Z.Z.Z.Z.Z.Z.Z.Z.Z.Z.Z.Z.Z.Z.Z.Z.Z.Z.Z.Z.Z.Z.Z.C.C.C.C.Z.Z.W.W.W.W.W.W.W.W.W.W.W.W.W.W.W.W.W.W.W.W.S.S.Z.Z.Z.Z.Z.Z.W.S.Z.C.C.V.C.Z.C.N.k.N.T.`.'.0XPXKXKXZXhX2X[.!.Z.V.k.6.&.&.0.V.Z.V.n.a.a.a.a.a.a.a.a.a.a.a.p.p.p.p.p.y.0.T Y  .&.6.p.p.p.p.p.p.p.p.p.w.6.6.>.:.0.>.0.k.N.C.Z.W.!.'.[.{.[.].W.T.p.p.W.[.oXU.z.j.z.z.z.k.V.c.V.V.I.Y.Y.Y.I.E. XkXkXm.-.3.i.].lXhXbXxXxXbXJXJXZXZXZXZXZXZXZXZXZXZXZXZXZXZXZXZXZXZXZXZXZXZXZXZXZXZXZXVXhX[.C.s.} E Q E E E E E T ] 0.p.p.i.i.:.E S G S Z n n m v x z n Z m x x z z k H ] X.,.:.:.>.@. ... .] H p i i i i i t t t t u u 5 + ",
"# % 5 p e e e e e e u i p s p S ~ } X.=.0.a.p.p.0.0.[ Z b z k c m Z m k k z x m n Z S F Z F X.p.v.v.v.n.;.Y Y Y E W ! ! W ~ ,.n.>X5XxXZXZXZXZXZXZXZXZXZXZXZXZXZXZXZXZXZXZXZXZXZXZXZXZXZXZXZXJXVXhXhXhXhXsXtX5XN.8.7.6.].kX5X).).|.R.Y.V.V.V.V.V.V.V.V.m.z.V.T.T..X].6.6.i.y.C.'.[.oX}.'.W.U.Z.Z.V.p.6.0.:.&.6.:.6.i.s.s.s.s.p.p.p.i.y.+.~ E T X.p.p.p.p.p.i.y.y.p.p.p.a.p.p.p.p.p.a.n.C.Z.m.3.3.i.z.U.W.'.'.9XJXKXKXGXyX:XQ.U.T.C.n.n.U.T.Z.C.C.S.S.S.Z.Z.S.W.!.W.W.W.!.W.W.W.W.Z.T.T.W.!.W.W.W.W.W.W.W.W.W.W.W.W.W.W.W.W.W.W.W.C.C.C.C.Z.Z.S.W.W.W.W.W.W.W.W.W.W.W.W.W.Z.Z.Z.Z.W.!.W.!.`.`.`.`.`.`.W.W.`.W.Z.C.T.C.V.C.Z.V.N.N.N.T.'.:X9XMXAXKXKXnX5X:XW.T.V.p.-.;.y.Z.Z.V.n.a.a.a.a.a.a.a.a.a.a.a.p.p.p.p.p.y.0.W T ] &.6.p.p.p.p.p.p.p.p.p.w.6.5.:.;.0.:.;.n.C.A.Z.W.!.'.[.;X{.].C.k.0.i.W.[.OXT.z.j.z.j.V.].I.I.V.V.V.Y.Y.Y.I.E. XkXSXm.-.5.h.].gXbXbXxXxXMXJXZXZXZXZXZXZXZXZXZXZXZXZXZXZXZXZXZXZXZXZXZXZXZXZXZXZXZXZXVXsX[.C.p.} E Q E E E Q E T ] 0.p.p.i.i.:.E S G S Z n n m b x z n Z m z x x x z H ] X.;.,.:.>.+. .o. .] G p i i i t t t t i t u u 5 + ",
"$ & 0 p r e e e r r u i i i s Z ~  .o.&.>.a.p.i.0.0.} n b x x m b Z b k k z c m n Z Z F Z F X.u.n.n.n.n.,.Y T Y E W ! ! W ~ ,.n.>X5XxXZXZXZXZXZXZXZXZXZXZXZXZXZXZXZXZXZXZXZXZXZXZXZXZXZXZXZXZXZXVXmXcXsXnXtX4XN.t.8.6.].HX6X).).).E.I.I.V.I.V.V.E.Q.T.V.V.V.R.Q..X}.0.:.:.w.Z.[.'..X.XQ.U.T.W.!.C.p.6.w.0.&.6.>.6.y.p.p.p.p.p.p.p.y.y.&.` Y E &.p.p.y.y.y.u.u.p.i.i.j.n.p.p.p.p.p.n.M.C.U.N.7.@.h.N.C.Z.0XqXmXKXKXJX9X:XQ.Q.T.k.k.m.V.Z.V.Z.W.T.C.C.C.C.N.B.C.Z.Z.Z.Z.Z.Z.Z.Z.Z.C.C.Z.Z.Z.Z.T.T.Z.Z.Z.Z.Z.Z.Z.Z.T.T.T.T.V.V.V.V.B.C.C.B.Z.Z.S.S.W.W.T.T.C.C.C.C.C.C.C.C.N.N.N.V.V.Z.S.Z.W.W.W.W.T.T.C.C.C.T.T.T.].`.W.Z.A.C.V.N.V.C.Q.[.:X2XxXKXJXJXnX9X!.T.C.j.;.>.a.V.W.Z.N.v.v.n.n.n.n.N.a.a.a.a.a.a.p.p.p.y.0...W  .&.6.y.p.p.p.p.p.p.p.i.y.:.:.;.:.y.>.+.m.T.C.m.m.!.[.:X>X[.'.m.:.;.p.T.{.3XT.N.z.z.z..XeXR.I.V.I.I.I.Y.E.I.Y. XkXSXk.;.5.h.].gXnXbXmXmXZXZXZXZXAXAXZXZXZXZXZXZXZXZXZXZXZXZXZXZXZXZXZXZXZXZXZXZXZXZXmXnX{.C.p.} W ! Q Q E Q E E ] 6.p.p.s.p.:.E S F S Z Z M b m x a x m m k x b b z I ] X.;.:.>.6.+. . . .} H p i p p i i t t r i p i 5 + ",
"$ & 0 p t t e e r r u i i i s Z ~  .o.&.>.a.a.y.0.0.} n b b x x c Z b k k z c m n Z Z Z Z F X.u.v.n.n.M.:.Y T T T W ! ! W ~ ,.n.>X5XxXZXZXZXZXZXZXZXZXZXZXZXZXZXZXZXZXZXZXZXZXZXZXZXZXZXZXZXZXZXZXZXZXmXmXaX5XN.i.6.6.[.HX3X). X).E.I.I.V.V.V.V.U.Q.R.E.V.I.R.R.[.}.0.;.:.y.S.[.}.oX>X.XQ.Q.W.T.V.p.6.w.q.=.6.:.>.0.y.y.y.y.y.y.y.y.y.;.] Y Y &.p.p.y.y.y.y.p.p.i.q.j.n.p.p.p.p.a.n.B.Z.U.V.8.;.s.N.B.Z.9XJXKXKXKXyX[.Q.W.U.V.k.C.C.V.V.V.T.W.Z.C.C.C.V.V.V.C.C.W.T.Z.Z.Z.Z.Z.Z.V.V.C.C.C.C.C.Z.Z.Z.Z.Z.Z.Z.Z.Z.T.T.T.T.Z.Z.Z.Z.Z.Z.C.B.Z.Z.S.W.W.W.T.T.C.C.C.C.A.A.A.A.C.C.C.C.Z.W.Z.V.Z.Z.Z.Z.C.C.C.C.C.T.T.T.W.W.W.Z.Z.A.C.V.C.V.C.W.:X:X9XMXJXKXGXsX!.W.U.k.>.0.n.Z.W.Z.N.v.v.v.n.n.n.V.a.a.a.a.a.a.p.p.p.y.6. .E ] &.6.y.p.p.p.p.p.p.p.i.y.6.>.:.6.i.>.o.p.C.T.T.!.!.[.:X>X[.'.m.;.;.p.T.{.3XT.N.z.m.m.OX,XU.I.I.I.I.I.I.Y.I.Y. XzXkXm.:.5.x.R.fXSXmXmXZXZXZXZXZXZXAXAXAXAXZXZXZXZXZXZXZXZXZXZXZXZXZXZXZXZXZXZXZXZXZXmXnX{.C.p.} W ! W E E Q Y Y ] 6.p.p.s.p.:.E S F S Z Z M b m x k x m x g x b b z I ] X.;.:.6.6.+. . . .} H p i p p i i t t r i i i 5 + ",
"% & 9 p t e e e r r u i i i s Z ~  .o.&.>.a.a.y.0.0.} n n n x z c Z b k k z c m m n Z Z Z F X.u.v.N.B.n.*.Y T T T W ! ! W ~ ,.n.>X5XcXJXZXZXZXZXZXZXZXZXZXZXZXZXZXZXZXZXZXZXZXZXZXZXZXZXZXZXZXZXNXZXZXJXGXhXeXN.i.6.6.oXkXwX X X).E.I.I.I.I.V.V.I.U.T.T.V.V.T.R.}.oXy.;.-.y.W.[.oX>X>X>X.X[.Q.T.V.p.>.0.0.*.6.>.>.0.y.y.y.y.y.y.y.y.y.;.] E Y ..p.p.p.u.p.p.p.p.y.i.j.m.p.p.p.p.a.n.V.Z.T.V.i.3.p.N.B.Z.sXKXKXJXnX<X!.W.C.V.m.m.T.U.V.V.Z.W.T.V.C.C.C.C.C.C.V.V.Z.Z.A.A.C.C.C.C.C.C.C.C.C.C.C.C.W.W.W.W.S.Z.S.S.T.T.T.T.T.T.T.T.`.`.W.Z.Z.W.W.W.W.W.Z.Z.Z.Z.Z.Z.Z.Z.T.T.T.T.W.W.`.`.Z.V.C.C.C.C.C.C.C.C.C.U.T.T.Z.T.W.W.T.Z.A.C.U.I.m.m.Q.[.:X9XLXKXKXsXW.T.U.k.0.y.m.T.W.Z.N.v.v.n.n.n.n.V.a.a.a.a.a.a.p.p.p.y.>.} ! o.&.6.y.p.p.p.p.p.p.p.i.y.6.6.:.:.6.;.;.a.T.`.]..XQ.[.:XoX[.'.m.*.;.p.T.{.3XT.N.z.m.m.Q.U.I.I.I.I.I.I.I.Y.Y.E. XzXkXV.6.6.k.].gXDXDXVXZXZXZXZXZXZXZXZXZXZXZXZXZXZXZXZXZXZXZXZXZXZXZXZXZXZXZXZXZXZXZXmXnX{.C.p.} W ! W E E E Y Y ~ 6.p.p.s.p.>.E S F S Z Z Z b m x z x m z g c b b z H ] %.;.:.6.0.&. . . . .H s i p p i i t t r r i i 5 + ",
"% & 9 p t e e e r r u i i i s Z ~  .o.&.>.a.p.y.0.0.} n Z n c z z Z b g k z c m m n Z Z Z F o.u.v.B.B.n.=.Y T T T W ! ! W ~ ,.n.>X5XxXJXZXZXZXZXZXZXZXZXZXZXZXZXZXZXZXZXZXZXZXZXZXZXZXZXZXZXZXZXNXNXNXLXKXbXeXV.s.6.6.1XHXaXOXOX).E.I.I.I.I.V.V.I.I.C.C.m.m.T.R.}.OXp.;.-.p.`.[.>XoX>X>X>X[.!.Q.Z.p.:.>.,.=.6.0.6.y.p.p.p.p.p.p.p.y.y.&... .] &.p.p.y.u.p.p.p.p.y.y.p.m.p.p.p.p.k.m.V.S.T.C.i.6.j.N.B.Z.8XJXKXJX9X[.!.U.n.m.V.C.U.U.C.C.Z.W.Z.V.C.C.C.C.Z.C.V.B.N.N.V.V.V.C.C.V.V.C.C.T.C.C.C.C.Z.Z.Z.Z.S.S.S.Z.T.T.T.T.T.Z.Z.Z.Z.T.T.Z.T.W.W.W.S.S.Z.Z.Z.Z.Z.Z.Z.Z.Z.Z.T.T.T.T.W.W.T.C.C.C.C.C.C.C.C.C.C.U.T.T.A.Z.T.W.W.T.Z.C.T.I.z.j.m.W.[.:X7XKXKXsXV.C.V.k.w.p.M.Z.W.Z.N.v.v.v.n.n.n.V.v.v.a.a.a.a.p.p.p.y.0.X.~ &.&.6.y.p.a.p.a.p.p.p.i.y.y.6.-.&.&.:.0.m.R.[.].[.Q.[.oX>X[.'.m.+.;.p.T.oX3XT.c.z.I.I.I.I.m.V.I.V.V.I.I.I.I.I. XzXkXV.6.4.z.Q.gXGXDXVXZXZXZXZXZXZXZXZXZXZXZXZXZXZXZXZXZXZXZXZXZXZXZXZXZXZXZXZXZXZXZXmXnX{.C.p.} W ! W E E E Y Y ~ 6.p.p.s.p.>.E S F S Z Z Z b b x z x m z k x b b z H ] X.;.:.6.0.&. . . . .H s u p p t i t t r r i i 5 + ",
"# & 0 i t e e e e e e u i i i Z ~ ..X.&.0.a.k.p.0.0.} Z Z Z x x c M c g k z c b m n Z Z Z S o.u.v.v.n.n.:.Y Y E E W ! ! W ~ ,.n.>X9XxXJXZXZXZXZXZXZXZXZXZXZXZXZXZXZXZXZXZXZXZXZXZXZXZXZXZXZXZXZXZXZXJXJXKXbXeXV.h.8.4.3XSXaX@X+XR.U.I.V.I.I.V.V.V.V.m.m.m.V.U.Q.}.OXi.;.:.y.`.[.>X>X>X>X>X[.[.'.W.m.y.0.;.=.4.6.0.y.p.p.p.p.p.p.i.p.0...&.6.0.;.p.u.u.u.p.p.p.p.i.i.p.k.i.p.p.p.k.m.V.Z.W.C.s.6.p.N.B.Z.9XGXKXVX:XW.W.C.C.V.V.B.U.U.Z.Z.Z.C.U.T.C.C.C.C.V.V.V.V.V.N.V.V.V.V.V.V.C.T.T.T.T.T.A.U.Z.Z.Z.Z.W.W.W.W.W.T.T.T.T.T.T.T.W.T.Z.T.W.W.W.W.S.S.S.S.S.S.S.S.Z.Z.T.T.T.T.W.W.W.W.W.W.W.W.Z.Z.T.T.T.T.T.T.T.T.Z.A.Z.T.W.W.T.T.C.U.V.z.z.C.!.;X7XJXKXxXS.m.V.k.y.p.V.T.W.Z.N.n.v.v.n.n.n.V.p.p.p.p.a.a.n.a.p.<.>.-./ o.&.-.q.p.p.p.p.p.a.a.p.p.y.6.;.&.:.6.0.m.W.].[.[.[.[.[.[.[.].m.&.&.p.W.1X3XR.z.z.z.I.I.V.I.I.I.I.I.I.I.Y.I.E.].uXkXV.6.4.z.R.hXGXVXZXZXZXZXZXZXZXZXZXZXZXZXZXZXZXZXZXZXZXZXZXZXZXZXZXZXZXZXZXZXZXZXmXnX:XC.a. .W W W E E E Y K ~ w.a.p.p.y.:.E S F D Z Z Z b b x z x b z k k c b z I ..X.;.:.0.0.&.}  . .] H p p p p t t p p p p i i 5 + ",
"# % 9 i t e e e e e e u i i i Z ~ | X.&.0.a.k.p.y.0.] Z n n z z b Z c k k z c b b n Z Z Z Z o.u.v.v.n.n.:.Y Y E E W ! ! W ~ ,.n.>X9XxXJXZXZXZXZXZXZXZXZXZXZXZXZXZXZXZXZXZXZXZXZXZXZXZXZXZXZXZXZXZXZXJXJXKXhXeXV.h.r.6.3XHXaX@X+XR.U.I.V.I.I.I.I.E.I.V.m.m.V.U.Q.[.OXp.;.:.y.`.[.>X>X>X>XoX[.[.'.W.m.y.0.;.=.4.6.0.y.p.p.p.p.p.p.p.i.>. .;.p.i.;.u.u.u.u.p.p.p.p.i.i.p.k.i.p.p.p.k.m.V.Z.W.C.s.6.p.N.B.C.9XGXKXVX[.Z.C.B.m.V.N.B.U.U.U.Z.C.C.U.T.Z.Z.Z.Z.C.A.C.V.C.C.C.C.C.C.A.A.T.T.W.W.W.W.T.U.Z.Z.W.W.W.W.W.W.`.`.`.`.`.`.`.`.].W.T.W.W.W.W.W.W.W.W.S.S.S.S.S.T.W.W.W.W.W.W.W.!.W.W.!.`.!.W.W.W.W.W.T.T.T.T.T.Z.Z.A.Z.T.W.W.T.C.C.I.V.z.m.T.:X8XJXKXxXS.m.V.k.y.p.V.U.W.Z.N.v.v.v.n.n.n.V.p.p.p.p.p.a.n.a.p.0.<.N.u.>.&.-.w.p.p.p.p.p.a.a.p.p.y.6.;.&.0.0.y.V.W.[.[.[.[.'.[.[.[.].m.*.*.i.R.1X3XT.z.z.z.m.V.V.I.I.I.I.I.I.I.Y.E.E.).uXgXM.6.4.k.W.bXJXZXZXZXZXZXZXZXZXZXZXZXZXZXZXZXZXZXZXZXZXZXZXZXZXZXZXZXZXZXZXZXZXZXvXnX[.C.a. .! W W E E E Y K ~ w.a.i.i.y.:.E S F D Z Z Z b b z k x b z k k z c z I ..X.;.:.0.6.&. . . .] H p p p p t t p p p p i i 5 + ",
"# % 9 i e e e q e e e u i i i Z ~ | X.&.0.a.k.p.y.>.] Z n Z x z M Z b k k z c b b V Z Z Z Z o.u.a.a.k.k.4.Y E E E W ! ! ! ~ ,.n.>X7XxXJXZXZXZXZXZXZXZXZXZXZXZXZXZXZXZXZXZXZXZXZXZXZXZXZXZXZXZXZXZXZXJXJXKXgXeXV.h.8.5.3XHXeX+X XE.Y.I.I.I.I.I.I.R.E.I.V.V.V.T.].[.OXm.:.>.p.'.{.>X>X>X>X{.[.[.'.W.m.y.w.;.=.4.6.0.y.p.p.p.p.p.p.p.p.6.+.0.m.V.0.u.p.y.u.p.p.p.p.i.i.p.k.i.i.s.p.n.M.C.D.W.C.s.6.s.N.B.Z.9XGXKXGX[.C.C.m.M.V.B.C.U.U.T.T.C.Z.W.T.Z.Z.Z.Z.Z.`.`.T.W.W.W.W.W.W.W.W.!.].'.'.[.'.'.'.'.'.`.`.`.`.`.`.].].].].].].].].oX].`.].].].].].'.].!.!.!.!.!.!.W.W.'.[.'.'.'.'.[.'.`.`.].].].!.].[.[.W.W.W.W.T.T.Z.Z.A.Z.Z.W.W.Z.C.C.C.m.n.Z.[.8XJXKXbXS.m.V.k.y.p.V.T.W.Z.B.v.v.v.n.n.n.V.p.p.p.p.p.p.a.a.a.y.u.IXS.B.:.,.0.a.p.s.s.s.a.a.a.p.i.0.:.;.0.0.i.V.W.[.[.[.'.'.[.}.[.].V.*.;.i.T.1X3XR.z.m.z.I.I.I.I.I.I.I.I.I.I.Y.E.E.).eXfXn.:.;.k.W.hXJXZXZXZXBXZXZXZXZXZXZXZXZXZXZXZXZXZXZXZXZXZXZXZXZXZXZXZXZXZXZXZXZXJXmXxX'.C.a.} W W W E E E Y Y ~ 0.p.y.y.y.:.E S F S Z Z Z b b z k x b z z z l l k H ..X.;.:.0.0.-.}  . .] H p p i i t t i i p p i i 5 + ",
"# % 9 i e e q q e e e u i i i Z ~ | X.&.0.a.k.p.p.>.] S S S m m Z D b g k z c b b V Z Z Z Z o.u.v.a.k.k.5.T E Q E W ! ! ! ~ ,.n.>X7XxXJXZXZXZXZXZXZXZXZXZXZXZXZXZXZXZXZXZXZXZXZXZXZXZXZXZXZXZXZXZXZXJXGXKXgX5XV.8.5.;.OXHX3X).R.R.^.I.I.V.I.I.E.R.E.T.E.V.U.T.].[.OXV.:.>.p.'.{.>X>X>X>X{.[.[.].W.M.y.w.,.=.6.6.0.y.p.p.p.p.p.p.s.p.0.:.m.C.T.V.p.p.u.u.p.p.p.y.i.i.s.k.i.s.s.p.k.M.V.Z.W.C.s.6.p.N.B.Z.9XGXKXGX[.C.Z.V.V.C.S.S.T.U.Z.U.C.Z.T.T.W.W.S.S.{.5XaX5X3X1X3X3X3X3X4X4X4X4X5X5X7XtXsXfXhX5X{.'.`.`.`.`.`.!.!.!.!.`.`.`.[.].].].}.}..X[.[.[.[.[.[.[.[.[.;X<X2X3X2X2X2X2X2X>X[.'.[.'.'.`.[.>X>X`.`.!.W.W.W.Z.Z.Z.Z.Z.W.W.Z.Z.C.C.C.n.V.'.7XJXKXxXZ.V.V.k.y.p.m.T.W.Z.B.v.v.v.v.n.m.N.p.p.p.p.p.p.a.p.a.y.N.'.D.C.>.-.0.a.p.s.s.s.a.a.a.p.p.0.:.;.6.6.y.C.W.[.[.[.[.[.[.}.'.].V.;.:.i.T.OX3X].V.I.V.V.V.I.I.I.I.I.I.I.I.Y.R.R.).eXdXk.:.-.k.W.hXJXZXZXVXVXZXZXZXZXZXZXZXZXZXZXZXZXZXZXZXZXZXZXZXZXZXZXZXZXZXZXZXZXZXvXxX'.C.a.} W W E E E E Y Y ~ 0.p.y.y.y.:.T S F S Z Z Z b b z k z b z b b b b k H ..X.;.:.0.6.-.}  . .] H p i i i t t i i p p i i 5 + ",
"# & 9 r q 0 0 0 q q u u p p s N W ] o.X.0.a.k.p.p.>.] S F G n x M Z c g g z c b b n Z Z F Z ] >.u.v.k.m.6.E E E E E Q Q ! ~ ;.a.oX5XxXJXZXZXZXZXZXZXZXZXZXZXZXZXZXZXZXZXZXZXZXZXZXZXZXZXZXZXZXZXZXZXZXVXVXhX5Xc.8.t.4.OXHX@XE.E.E.Y.I.I.C.V.I.I.E.V.I.R.R.I.E.].[.>XN.:.>.a.W.{.>X>X>X>XoX[.[.].W.V.q.w.,.=.0.0.6.i.p.a.p.p.s.s.n.p.p.>.n.V.W.n.y.y.i.p.s.s.s.i.i.i.p.k.i.p.p.j.k.n.V.Z.W.C.i.6.k.Z.Z.S.9XGXJXGX'.C.C.V.V.Z.Z.Z.W.Z.Z.C.C.C.T.W.!.!.[.;X4X{.3X6XtXaXsXfXsXhXhXhXhXhXhXsXnXnXGXKXHXaX2X<X4X4X4X4X2X>X>X;X<X>X>X>X[.[.{.{.tXfXfXtXtXiXiXiXiXiXiXiXyXbXGXKXDXfXsXfXhXfXsXsXsXsXsXfXiXfX5XaXnX2X`.S.Z.T.Z.A.C.C.T.W.W.W.T.T.C.m.C.!.9XZXKXsXZ.V.n.k.p.p.V.!.!.U.V.M.n.b.a.p.n.n.p.p.a.a.a.p.a.p.a.y.n.S.Z.n.-.,.0.p.a.a.a.a.p.p.p.p.i.0.:.:.0.6.y.V.W.`.].[.'.[.}.{.[.].V.5.q.i.T.1X3X].T.T.I.z.V.I.I.I.I.I.I.V.I.I.R.E.).eXdXm.>.-.j.T.nXVXVXVXVXVXZXZXZXZXZXZXZXZXZXZXZXZXZXZXZXZXZXZXZXZXZXZXZXZXZXZXZXZXJXJXbX`.C.k.o.Q E E E E Y Y Y ] 0.0.y.y.y.:.T F D Z Z Z Z b x z a x b x D G Z M b Y [ ..*.>.0.0.&.`  .} ] G p i i i i i i i p p i i 5 + ",
"# & 9 r q 0 0 0 q q u u p p s N W ] o.X.0.a.k.p.p.>.] S S F n m M Z c g k z c b b n Z Z Z S ] -.u.v.n.V.6.E E E E E Q Q ! ` ;.a.oX5XhXJXZXZXZXZXZXZXZXZXZXZXZXZXZXZXZXZXZXZXZXZXZXZXZXZXZXZXZXZXZXZXZXVXVXhX5Xc.t.t.4.OXkX#XE.E.E.Y.I.I.C.C.V.V.I.V.I.).E.V.I.).[.{.V.>.>.a.W.{.>X>X>X>XoXoX[.'.W.V.p.p.:.=.6.0.6.i.p.a.p.p.s.s.n.p.0.&.>.n.y.>.0.y.y.p.s.s.s.s.i.i.p.k.p.p.j.k.k.m.V.Z.W.C.i.6.k.Z.Z.S.9XGXJXGX'.C.C.V.V.Z.Z.Z.T.Z.C.C.C.C.T.W.[.<X5XtX{.N.N.A.W.`.[.{.{.[.[.{.[.{.{.{.2X2X2X2X;X'.'.;X1X1X1X2X>X>X>X;X!.W.W.W.W.W.W.W.>X>X>X[.[..X.X.X.X.X.X[.Q.[.>X5X[.!.Z.!.[.[.;X;X[.[.[.[.[.Q.W.1XhXsX9X`.Z.T.Z.A.C.C.T.W.W.W.W.W.T.V.T.'.8XJXKXxXZ.C.m.k.y.w.M.W.!.U.V.M.n.n.a.a.n.n.a.a.a.a.p.p.a.p.a.0.p.p.p.>.&.:.p.p.a.a.a.a.p.p.p.p.p.0.>.:.0.6.i.V.W.`.'.'.'.'.[.{.[.].C.6.q.i.T.OX3X[.R.oXR.c.V.I.U.I.E.E.I.V.I.I.E.E.).eXdXn.6.;.k.W.nXVXVXVXVXVXZXZXZXZXZXZXZXZXZXZXZXZXZXZXZXZXZXZXZXZXZXZXZXZXZXZXZXZXJXJXbX!.C.k...Q E E E E Y Y Y ] y.y.y.y.y.:.Y F D Z Z Z M b x k d z b x M Z Z b b Y [ ..*.>.0.0.&.`  .] ] G i i i i i i i i p p i i 5 + ",
"# & 9 r q 0 0 0 q q u u i p s M W ] o.X.0.a.a.p.p.>.] S Z F n b M Z c g k z c b b n Z Z Z F } :.w.v.n.C.6.T T E E E Q Q ! ` ;.a.oX5XsXZXZXZXZXZXZXZXZXZXZXZXZXZXZXZXZXZXZXZXZXZXZXZXZXZXZXZXZXZXZXZXZXVXVXhX5Xc.8.8.4.OXzX#X).E.Y.I.I.I.C.C.V.V.C.N.I.).T.V.C.).[.}.C.6.>.a.T.}.>X>X>X>XoX[.[.].W.m.w.p.>.;.6.6.6.i.p.a.p.p.s.s.a.a.0.X.X.0...$.0.w.y.i.y.i.s.s.i.i.p.k.p.p.a.k.k.n.V.Z.W.C.s.6.k.Z.Z.Z.9XGXJXGX'.C.C.V.V.Z.S.Z.T.C.C.C.C.T.T.W.0X9XtX7XZ.n.s.y.i.y.y.0.0.0.0.0.0.0.y.p.k.k.k.k.s.p.p.k.a.a.s.a.k.j.j.j.k.k.k.k.k.k.k.k.k.k.j.i.q.q.q.i.i.i.q.i.i.s.k.k.k.k.p.k.k.k.k.k.k.k.k.k.m.i.y.N.'.5XhX5XW.T.T.T.T.T.T.W.W.W.W.W.T.V.T.'.8XJXKXxXZ.V.m.k.q.q.m.W.W.T.V.M.n.n.n.a.N.n.a.k.a.a.a.a.p.p.p.0.>...} ] o.>.p.p.p.p.a.a.a.a.a.a.p.y.6.:.0.6.p.V.T.W.W.!.!.'.[.}.{.'.C.6.q.i.T.oX1X}.].XX).c.V.I.I.I.I.I.I.c.I.I.E.R.].rXdXk.5.;.j.T.nXVXZXVXZXZXZXZXZXZXZXZXZXZXZXZXZXZXZXZXZXZXZXZXZXZXZXZXZXZXZXZXZXZXJXJXbX!.C.k...Q E E E E Y Y Y ] y.w.0.>.0.:.Y S D Z Z Z M b x z d z b x m M M b C T ..X.;.>.0.0.&.` } ` ] G i i i i i i i i p p i i 5 + ",
"# & 9 r q 0 0 0 q q e u i p s M W ] o.X.0.a.a.p.p.>.] S Z S n n M Z k g k z c b b n Z Z S F o.u.w.v.n.C.4.Y T T E E Q Q ! ` ;.a.oX5XsXZXZXZXZXZXZXZXZXZXZXZXZXZXZXZXZXZXZXZXZXZXZXZXZXZXZXZXZXZXZXZXZXVXVXhX5Xc.8.t.4.OXzX@X).E.Y.I.I.I.C.I.V.V.V.z.V.).E.C.I.].}.[.Z.y.>.a.T.}.>X>X>X>X[.'.'.W.T.k.0.p.6.,.6.6.6.i.p.a.p.p.s.s.a.a.y.X.} ] E -.0.0.y.y.y.i.i.i.i.i.p.k.s.a.k.k.k.n.V.Z.W.C.s.6.k.C.Z.Z.9XGXJXGX'.C.C.V.V.Z.S.Z.T.Z.C.C.C.T.T.W.tXyX5X'.V.s.6.;.;.;.;.;.;.;.;.-.-.;.5.6.6.0.i.i.i.q.i.i.i.i.i.i.i.i.h.h.j.h.h.h.j.j.j.j.j.h.h.i.8.8.8.q.q.q.8.8.i.i.s.s.s.i.i.i.i.i.8.8.i.i.i.i.8.q.k.m.n.'.5XsX[.T.T.T.T.Z.T.W.W.W.W.W.T.V.T.'.8XJXKXxXC.V.k.k.q.q.M.W.W.T.V.M.n.n.n.n.N.n.p.a.a.a.a.s.p.i.p.6.0.E Y ~ ..>.p.p.p.p.a.a.n.n.a.a.p.y.6.5.y.0.p.V.C.A.Z.W.!.'.[.[.oX[.C.6.q.i.C..XoX}.].XXR.V.I.V.V.I.I.I.I.c.I.I.Y._. XrXaXk.6.4.j.W.nXVXZXZXZXZXZXZXZXZXZXZXZXZXZXZXZXZXZXZXZXZXZXZXZXZXZXZXZXZXZXZXZXZXJXJXnX!.C.k...Q E E E E Y Y Y ] 0.0.>.:.0.:.Y S D Z Z Z M b x z d z b x c b b b C T ..X.;.>.0.0.&.` } ` ` G i i i i i i i i i p i i 5 + ",
"# & 9 p u q q q r r u i i p s M W ] ..$.0.a.a.a.u.>.] S Z Z n n Z Z z k k z b v b V Z Z S F X.p.w.u.n.M.4.Y T T E E E E ! ` -.a.oX5XsXZXZXZXZXZXZXZXZXZXZXZXZXZXZXZXZXZXZXZXZXZXZXZXZXZXZXZXZXZXZXZXZXVXVXsX5Xc.8.8.6.3XkX3X).E.Y.I.I.I.I.I.C.c.N.z.I. X].R.].].].C.N.i.0.a.A.}.>X>X>XoX[.[.].W.T.k.6.a.6.:.0.0.6.i.p.p.a.a.a.a.a.a.w.| ~ E Y &.0.y.y.i.y.y.y.i.y.y.y.p.p.p.a.a.k.n.M.Z.W.C.i.8.k.C.C.B.9XGXJXGX'.C.C.V.V.C.W.Z.T.C.C.C.C.T.T.C.sX0X!.`.C.5.;.@.-.*.*.*.;.;.3.3.s.V.5.5.6.6.8.8.8.8.8.8.8.8.8.8.8.q.q.8.h.h.h.h.x.h.h.x.h.x.h.8.8.8.8.8.r.8.8.8.8.h.h.h.i.h.8.r.8.8.8.8.8.7.7.7.r.6.i..XC.W.:X5X`.T.W.W.Z.A.T.W.W.W.W.W.T.C.W.'.8XJXKXsXN.V.V.k.y.q.m.W.!.Z.M.n.n.n.n.n.M.a.p.a.s.s.s.s.p.p.p.y.0.~ Y W | 0.p.p.p.p.a.a.a.n.n.a.y.y.:.6.p.6.i.m.C.A.W.`.'.'.[.{.oX].C.q.i.j.N.oXOX}.}.}.T.V.N.V.V.V.I.I.I.I.I.I.Y.). XrXeXk.6.4.j.W.nXVXvXvXZXZXZXZXZXZXZXZXZXZXZXZXZXZXZXZXZXZXZXZXZXZXZXZXZXZXZXZXZXZXJXVXnX!.S.n.o.! ! E E Y Y Y Y ] 0.0.>.-.>.:.T S D Z Z Z M b x z a k m m b M M b C T ..&.,.6.0.0.-.}  .} ] H p i i i i i i i i e i i 5 # ",
"# & 9 i u q q q r r u u i p s M ! ] ..$.0.a.a.a.y.>.] Z Z Z n n M A z k k z b v b V Z Z Z F o.u.w.u.v.m.4.Y Y Y E E E E Q ~ -.a.oX5XsXZXZXZXZXZXZXZXZXZXZXZXZXZXZXZXZXZXZXZXZXZXZXZXZXZXZXZXZXZXZXZXZXVXVXsX5Xc.h.h.8.3XzX@X).E.Y.I.I.I.C.I.C.c.V.V.I.).R.R.}.].T.N.k.6.6.s.A.}.>X>X>XoX[.[.'.W.T.n.0.k.0.:.0.6.6.i.p.p.a.a.a.a.v.p.w.| ! E Y =.y.y.i.s.y.y.p.p.i.y.i.p.p.p.a.a.k.n.M.Z.W.C.h.8.k.C.A.C.9XGXJXGX'.C.Z.V.V.C.W.Z.C.C.C.C.C.T.T.C.2X<X;X[.k.;.@.;.;.;.;.;.3.3.3.3.s.c.8.6.7.7.8.8.8.8.8.8.8.8.8.8.8.h.j.z.h.d.d.d.x.x.x.x.d.d.d.d.8.8.8.8.r.r.r.r.8.h.h.d.r.h.8.8.8.8.8.8.8.8.8.8.8.r.z.Q.W.W.{.[.{.W.T.W.Z.A.T.W.W.W.W.W.T.C.W.'.8XJXKXsXB.V.V.k.y.q.m.W.!.Z.M.n.n.n.n.n.n.a.p.a.s.p.s.s.p.p.p.y.0.~ Y W } 0.p.p.p.p.a.a.a.n.a.p.y.y.:.6.i.>.y.k.C.Z.W.`.'.[.[.{.{.].C.q.q.j.N.oXoX_.C.C.V.z.V.c.c.c.I.I.I.I.I.I.Y.).).OXeXk.6.5.j.W.nXVXmXvXVXZXZXZXZXZXZXZXZXZXZXZXZXZXZXZXZXZXZXZXZXZXZXZXZXZXZXZXZXZXJXJXnX'.W.n.o.! ! E E Y Y Y Y ] >.0.w.>.6.:.E F D Z Z Z M b x z a k b m b M M b C T ..&.;.4.0.0.-.}  .} ] H p i i i i i i r t e r i 8 # ",
"# & 9 p u q q q r r u i i p s M ! ] ..$.0.a.a.p.y.>.] Z Z Z n n b F c g k z v v b V Z Z Z S o.y.<.u.a.n.4.K Y Y E E E E Q ! -.a.oX5XsXJXZXZXZXZXZXZXZXZXZXZXZXZXZXZXZXZXZXZXZXZXZXZXZXZXZXZXZXZXZXZXZXVXVXsX5Xc.h.x.t.rXkX3X).E.Y.I.I.I.C.I.C.c.V.V.I.E.R.R. X]._.A.n.>.>.k.Z.}.>X>X>XoXoX[.[.W.T.n.0.n.w.>.0.6.6.i.p.p.a.a.a.a.n.a.w.o.E E T =.y.p.p.p.p.p.p.p.p.i.p.a.p.p.a.k.a.n.B.D.W.T.j.8.k.C.A.C.9XGXJXGX[.U.T.C.C.C.W.Z.C.C.C.C.T.T.W.C.tXbXC.k.i.5.3.3.3.3.3.3.3.3.3.3.3.8.5.7.8.8.8.8.8.8.r.r.r.r.r.r.h.z.I.I.d.d.d.d.d.x.x.x.d.d.d.d.d.d.d.d.d.d.d.d.d.d.d.8.e.x.d.8.r.8.8.8.r.r.r.r.d.x.R.z.m.m.>XtX3XW.Z.W.T.A.T.W.W.T.T.W.T.C.W.'.8XJXKXsXV.C.m.k.y.q.m.W.W.C.n.n.n.n.n.n.n.a.p.a.p.p.p.p.p.p.p.p.0.~ Y W } w.p.a.a.a.a.a.a.k.a.y.y.0.;.0.p.6.y.k.C.W.`.'.'.[.{.oX;X].C.q.q.j.V.OX}.A.k.V.V.z.V.c.c.c.I.K.I.I.I.I.Y.)._.OXaXk.8.6.k.W.nXVXvXvXZXZXZXZXZXZXZXZXZXZXZXZXZXZXZXZXZXZXZXZXZXZXZXZXZXZXZXZXZXZXJXJXnX[.W.n.o.! ! Q E Y Y Y Y ] 0.y.u.y.0.>.E F D Z Z Z M b x z k z n n b M M b Z T ..&.;.6.0.0.-.}  .] ] H p i i i i i i i t t r i 5 # ",
"# & 9 p u q q q r r r i i p s M ! ] ..$.0.a.a.p.y.>.] Z Z Z n b b F b a k z v v b V Z Z V S o.y.<.y.p.k.4.P T E E E E E ! ~ -.k.oX5XsXJXZXZXZXZXZXZXZXZXZXZXZXZXZXZXZXZXZXZXZXZXZXZXZXZXZXZXZXZXZXZXZXZXVXsX5Xc.i.h.8.3XkX3X).E.I.I.I.I.C.I.V.c.V.V.I.Y.].]. XR._.A.N.>.>.k.Z.}.>X>X>X>XoX.X[.Q.T.n.w.M.w.>.0.>.6.i.p.p.a.s.a.a.n.a.w.o.Y E E =.s.p.p.p.p.p.p.p.p.p.p.k.a.a.k.k.p.k.N.W.W.T.j.8.k.C.Z.C.9XDXJXGX[.U.W.Z.C.C.W.Z.C.C.C.C.T.T.W.C.yXnXC.6.6.h.8.3.3.3.3.3.3.3.3.3.5.7.3.7.7.7.7.7.8.8.r.r.r.r.r.r.8.x.x.x.r.d.d.d.x.l.l.x.d.r.d.x.x.x.x.x.d.d.d.d.d.d.d.7.8.l.d.8.d.8.d.d.d.d.d.d.f.E.E.d.j.k.2XKX7XW.C.T.T.A.T.W.T.T.T.W.T.C.W.'.8XJXKXsXV.C.V.k.y.q.m.W.W.C.n.n.n.n.n.n.n.a.p.a.p.p.p.p.p.p.p.p.0.~ Y W } w.p.a.a.a.a.a.a.a.p.0.0.6.;.0.k.0.y.k.C.W.'.`.[.[.{.>X;X'.C.q.0.p.V.OXXX].].].T.V.c.V.c.c.K.K.I.I.Y.Y.Y.).).3XdXk.8.8.j.W.nXVXvXvXZXZXZXZXZXZXZXZXZXZXZXZXZXZXZXZXZXZXZXZXZXZXZXZXZXZXZXZXZXZXmXVXnX'.S.n. .! ! Q E Y Y Y Y ] y.p.p.y.6.:.E F D Z Z Z M b x z k z n n m M M b Z T ..&.;.4.0.0.-.}  .] ] H s i i i i i i r r t r i 5 # ",
"# % 6 i i e r r r r r i t p p Z ! ] X.&.0.p.a.p.p.0.[ A Z Z b b Z Y b a z b z b x b V Z Z S ] 6.y.y.p.m.4.P E K E E Q Q Q ~ ;.k.oX5XsXJXZXZXZXZXZXZXZXZXZXZXZXZXZXZXZXZXZXZXZXZXZXZXZXZXZXZXZXZXZXZXZXZXZXcX5XN.h.h.i.@XzX@X). X).R.E.V.Y.Y.Y.Y.I.V.V.E.].].T.Y.T.A.V.>.0.k.Z.}.>X<X>X>XoX[.[.`.Z.m.y.V.i.:.0.6.0.i.p.p.k.k.k.k.a.a.p.o.Y E ! >.p.p.p.p.p.p.p.p.j.j.j.j.j.a.a.n.k.p.n.A.`.W.k.0.k.C.Z.Z.tXDXJXGX>XT.W.W.C.C.W.Z.T.T.Z.Z.Z.T.W.W.yXGXS.>.6.c.V.t.5.5.5.5.3.3.5.5.5.5.7.7.7.5.7.r.r.8.8.8.d.d.d.d.d.d.d.d.d.d.x.x.c.d.x.l.d.d.x.+XE.z.x.x.h.d.d.d.d.d.d.l.e.e.d.e.d.e.e.7.d.f.l.H.J.H.l.x.h.j.sXKX9XW.Z.W.W.Z.Z.W.W.W.W.W.C.C.W.'.8XJXKXsXV.C.V.m.k.p.V.T.T.N.k.m.M.m.m.n.k.k.k.k.n.n.a.a.a.a.a.p.0.~ Y W } y.p.a.b.b.n.n.k.k.s.i.y.0.:.p.V.p.p.m.T.W.`.[.}.{.oXoXoX].C.0.6.a.V.OXOX.X.XOX].I.V.c.V.V.c.c.I.I.I.I.T.).].uXdXk.8.8.z.W.nXVXvXvXZXZXZXZXZXZXZXZXZXZXZXZXZXZXZXZXZXZXZXZXZXZXZXZXZXZXZXZXZXZXZXVXsX>XZ.n...~ ~ ! T Y Y Y Y ] a.n.p.w.0.:.Y Z Z Z Z Z Z b c z k z M b b n n n C Y ..+.;.6.0.6.-. .} ` ] G i i i i i i i t i r r i 5 + ",
"$ & 6 p u e e e r r r r t p p Z ! } &.=.0.p.a.p.p.0.[ A Z Z b b b T b p z b z l z b n n V Z ~ >.y.p.a.m.4.T Q T E E Q Q Q ~ ;.k.oX5XsXJXZXZXZXZXZXZXZXZXZXZXZXZXZXZXZXZXZXZXZXZXZXZXZXZXZXZXZXZXZXZXZXZXZXcX5XN.h.h.i.@XdX@X XXX).R.Y.Y.Y.Y.Y.Y.I.V.V.E.}. XR.T.R.A.V.>.6.a.Z.}.>X<X>X>XoX{.[.`.Z.m.y.V.i.4.0.6.q.i.p.p.k.k.k.k.a.a.p.o.T E ! :.p.p.p.p.p.p.p.p.j.j.j.j.j.j.j.n.k.m.m.V.Z.T.k.0.n.Z.W.S.yXDXJXJX>XW.W.W.C.Z.W.U.T.T.Z.Z.Z.T.W.W.sXGXS.6.5.i.s.t.5.5.5.5.3.5.5.5.5.5.7.7.r.7.7.r.8.8.8.8.d.d.d.d.d.d.d.d.d.d.x.l.l.x.l.x.x.g.l.K.l.l.x.x.x.h.d.d.d.d.l.J.d.d.d.d.d.d.e.e.x.f.H.H.G.l.f.d.h.j.yXKX5XW.W.W.W.C.Z.W.W.W.W.W.C.C.W.'.8XJXKXsXV.C.V.m.q.6.m.R.A.N.m.M.m.m.m.n.m.m.m.m.n.n.n.v.a.a.a.p.0.~ Y W ] y.p.a.n.n.n.n.k.k.s.s.y.0.>.p.V.p.p.m.T.Q.].[.}.oXoXoXoX].V.6.6.p.V.>XOXOXOXOX XE.C.C.V.V.V.V.I.I.I.I.T.R. XdXdXk.8.h.z.!.nXVXvXvXZXZXZXZXZXZXZXZXZXZXZXZXZXZXZXZXZXZXZXZXZXZXZXZXZXZXZXZXZXZXZXVXsX>XC.n.../ ~ ! Y Y Y Y Y ] p.p.p.0.:.,.W H Z V V V Z b b c k z Z Z b n n b C Y ..+.;.6.0.6.-. .} ` ] G i i i i i i i t i r i i 5 + ",
"$ & 6 p u e e e r r r r t p p Z ~ } &.=.0.a.a.p.p.0.[ Z Z V b v b T b t a k a k z b n n V Z ~ >.p.n.k.m.4.T ' ^ E E Q Q Q ~ ;.k.oX5XsXJXZXZXZXZXZXZXZXZXZXZXZXZXZXZXZXZXZXZXZXZXZXZXZXZXZXZXZXZXZXZXZXZXZXcX5XN.h.h.i.@XzX@X). XR.E.Y.Y.E.Y.I.Y.I.V.V.E. XoX).R.R.T.V.:.>.p.Z.}.>X<X>X>XoX{.[.`.Z.n.y.V.i.4.0.6.y.p.j.j.a.a.a.k.a.v.p...W E ! ,.p.p.p.p.a.a.a.a.j.j.j.j.a.a.a.a.k.m.V.V.T.W.p.6.n.Z.W.S.yXDXJXJX2XW.W.Z.Z.T.!.T.T.T.Z.Z.Z.T.W.W.sXmXC.6.3.5.4.4.5.5.5.5.5.5.5.5.7.7.7.7.7.7.7.r.e.e.8.8.d.d.d.l.d.d.d.d.g.x.l.l.x.x.x.x.l.l.l.l.l.l.x.d.x.x.d.d.d.d.l.c.d.d.d.d.d.d.f.f.G.G.G.G.G.f.f.f.x.j.<XbX2XW.W.W.W.Z.Z.W.W.W.W.W.C.C.`.!.8XJXJXsXC.C.V.k.:.4.V.W.A.N.m.V.m.m.n.n.m.m.m.m.M.n.n.v.a.a.a.a.0.~ Y ! } p.a.a.n.n.n.n.k.k.s.s.i.y.>.p.V.p.p.m.T.Q.].[.{.oXoXoX{.`.V.6.6.p.V.>X3X@XOX.X.XY.I.C.I.I.I.I.I.I.I.I.U.T. XdXtXk.8.h.z.W.nXVXvXvXZXZXZXZXZXZXZXZXZXZXZXZXZXZXZXZXZXZXZXZXZXZXZXZXZXZXZXZXZXZXZXVXsX>XV.n.o.] ~ ! Y Y Y Y Y ] y.y.>.-.+.+.Y Z Z V b b M b z c k z b Z b n Z n C Y ..+.;.6.y.0.;. .} ` ] G i i i i i i i t i i i i 5 + ",
"% & 7 p e 0 0 0 r r r r t p p Z ~ | =.-.0.a.a.p.p.0.[ Z V b b v z H b k z b z v x b V Z Z S ] 0.N.V.n.p.;.T ^ ^ E E Q Q Q ~ ;.k.oX5XsXJXZXZXZXZXZXZXZXZXZXZXZXZXZXZXZXZXZXZXZXZXZXZXZXZXZXZXZXZXZXZXZXZXZXcX5XN.h.h.i.@XkXrX).).I.C.Y.Y.E.Y.I.Y.I.V.V.E.]. XR.T.].T.V.:.:.p.Z.}.>X<X>X>XoX[.[.`.Z.m.y.V.i.4.0.>.y.p.k.k.k.a.a.a.a.a.p.o.E T W =.p.p.p.p.p.p.p.p.j.j.j.j.a.a.a.a.j.m.V.N.`.].k.6.n.Z.W.S.sXDXJXGX2XW.W.Z.T.T.Q.W.T.T.Z.Z.Z.T.W.W.yXbXB.5.5.3.;.4.5.5.5.5.5.5.5.5.7.7.7.7.7.7.7.8.8.e.8.e.d.d.d.l.g.g.g.g.g.g.l.l.x.x.z.l.x.l.l.l.l.l.l.x.l.x.x.d.d.d.d.x.d.d.d.d.d.f.f.G.H.G.G.G.G.f.f.x.x.j.;XhX<XW.!.W.W.Z.Z.W.T.W.W.W.C.C.`.!.8XJXJXsXC.C.m.p.;.q.W.W.C.N.V.V.m.m.n.n.k.k.k.k.n.n.v.a.n.a.a.a.0.~ Y ! ] p.a.a.n.n.n.n.k.k.s.s.p.y.>.a.V.p.p.m.T.Q.].[.{.oXoXoX}.`.V.>.>.p.V.1X3X3XOX+X XI.V.I.I.I.T.E.I.I.I.C.C.T. XlXeXk.i.x.z.].DXZXvXvXZXZXZXZXZXZXZXZXZXZXZXZXZXZXZXZXZXZXZXZXZXZXZXZXZXZXZXZXZXZXZXGXsX>XN.n.o.] ~ ! Y Y T Y Y ] =.:.>.>.,.-.T G Z V b v c z k b z z c z b n Z n C Y ..+.;.6.y.6.;. .} ` ] G i i i i i i i t i i r i 5 + ",
"% % 6 p 0 0 0 0 r r r i p a p M ~ } &.=.0.a.a.a.p.0. .Z Z b v k c c c c b M Z Z F H Y Y ! ] :.a.n.v.p.4.O._ ^ ! E Q E Q E ~ >.N.oX4XsXJXZXZXZXZXZXZXZXZXZXZXZXZXZXZXZXZXZXZXZXZXZXZXZXZXZXZXZXZXZXZXZXZXVXnXaXs.8.h.h.OXzX#XE.E.I.Y.Y.Y.E.Y.I.Y.I.V.C.E.].].].R.R.T.V.:.:.p.C.{.2X2X1X>XoX[.[.`.Z.m.i.m.y.;.6.0.y.p.p.p.k.a.a.a.a.n.p.X.Y W E =.p.p.p.p.p.p.p.a.n.n.n.n.n.a.n.a.k.m.V.N.C.].k.5.a.C.W.W.sXDXJXGX[.W.W.W.T.W.W.W.T.T.Z.Z.Z.Z.W.S.7XsXN.>.4.4.;.3.3.3.3.3.5.5.7.8.7.8.8.8.z.d.7.8.e.e.d.d.d.d.l.H.H.l.l.g.g.l.l.l.l.l.l.l.l.l.l.l.H.l.x.x.l.x.l.x.d.d.d.x.d.x.x.d.d.H.L.P.G.G.G.G.G.f.f.f.x.k.[.hX2XW.W.T.W.C.Z.Z.T.T.T.T.T.C.W.S.8XZXJX8XC.C.m.p.;.i.W.T.C.V.V.N.m.k.k.k.k.k.k.k.n.n.v.a.v.a.a.a.w.] E ! ] p.a.a.n.n.n.k.k.k.k.p.p.y.>.i.V.p.p.m.U.Q.].[.{.oXoX>XoX].m.6.6.p.V.1X3X3XOX.X}.z.m.I.I.U.E.E.I.C.C.C.C.R. XlXeXp.8.x.z.].DXVXvXVXZXZXZXZXZXZXZXZXZXZXZXZXZXZXZXZXZXZXZXZXZXZXZXZXZXZXZXZXZXZXVXGXsX>XZ.V.X.~ W W W ! Y Y Y W :.w.p.a.n.p.] Y Y H G S F Z Z b c z z z z b b b Z Y  .&.:.>.0.y.;. . .} ] S p i i i i i i t r r r r 8 * ",
"% % 6 p e 0 0 e r r r i p p p M ~ } &.=.0.a.a.a.p.0...G G F V v l c c c b b Z Z G H Y E ! ] 6.V.C.C.V.n. .E E E Q ~ o. .` ] >.N.oX4XsXJXZXZXZXZXZXZXZXZXZXZXZXZXZXZXZXZXZXZXZXZXZXZXZXZXZXZXZXZXZXZXZXZXVXnXaXs.8.h.i.OXzX@XE.Y.I.Y.Y.Y.E.Y.I.Y.I.V.V.E.].].].R.R.T.V.>.:.p.C.[.<X2X>X>XoX[.[.`.Z.m.i.m.i.:.6.0.y.p.p.p.a.a.a.a.n.n.p.X.T W W =.p.p.p.p.s.s.p.p.n.n.n.n.n.a.n.a.k.m.V.N.N.`.k.6.a.C.W.W.sXDXJXGX'.W.W.W.T.W.W.W.T.T.Z.Z.Z.Z.W.S.7XhXN.6.4.5.;.3.3.3.3.3.5.7.8.8.7.5.8.8.d.8.8.e.e.d.d.d.d.x.l.l.l.l.g.l.l.l.K.K.J.J.c.l.l.l.l.H.H.H.H.H.K.l.l.x.l.l.x.x.x.x.x.l.H.K.L.P.G.G.G.G.f.f.f.d.x.j.[.hX1XW.W.T.W.C.Z.Z.T.T.T.T.C.V.C.C.7XZXJX8XC.C.m.p.:.i.W.T.C.V.V.N.m.k.k.k.k.k.k.k.n.n.n.v.v.a.a.a.w.] E ! ] p.a.a.n.n.k.k.k.k.k.p.p.y.>.p.V.p.p.m.U.Q.'.[.{.oXoX>XoX].m.6.0.a.V.3X3X#XoXoX Xz.z.V.I.E.E.E.I.C.V.C.C.R. XdXeXp.8.x.k.].DXVXvXVXZXZXZXZXZXZXZXZXZXZXZXZXZXZXZXZXZXZXZXZXZXZXZXZXZXZXZXZXZXZXVXGXsX>XZ.V.X.] ] ] W E H G Y o.a.N.V.B.V.a...E Y H H F Z Z M b c z z z v b C Z Z Y ..&.:.6.0.0.;. . .` ] S p i i i i i i t r r r r 8 * ",
"% % 6 p e 0 0 e e r r i t p p b ! ] &.&.0.a.a.a.p.0. .H H H S b l c c c c m b M Z S G H H Q :.N.B.S.W.Z. .E E E E ~ ;.y.} } 6.N.oX4XsXJXZXZXZXZXZXZXZXZXZXZXZXZXZXZXZXZXZXZXZXZXZXZXZXZXZXZXZXZXZXZXZXZXVXnXaXs.t.h.i.OXkX@XE.Y.I.Y.Y.Y.T.Y.I.Y.I.V.V.E.].].].R.R.T.V.>.6.a.V.[.<X2X>X>XoX[.[.`.Z.m.i.m.j.4.6.6.y.p.p.p.a.a.a.a.n.n.p.X.E ! W -.p.p.p.p.s.s.s.p.v.v.n.n.a.a.n.k.k.m.V.V.N.`.k.6.a.C.W.W.sXDXLXDX!.W.T.W.T.W.W.W.T.T.Z.Z.Z.Z.W.W.8XbXB.6.4.5.4.3.5.5.4.4.7.8.8.8.7.5.8.8.d.d.d.d.f.f.d.d.f.f.f.l.H.K.H.H.l.H.K.E.J.J.J.H.H.H.H.H.H.J.K.K.|.H.x.x.H.H.l.l.l.l.l.H.K.L.L.P.G.G.G.f.f.f.f.d.x.j.{.sX1XW.W.T.W.C.Z.Z.T.T.T.T.C.M.C.C.9XJXJXyXZ.C.m.p.;.i.W.T.C.V.V.N.m.m.m.m.k.k.k.k.n.n.n.v.v.a.a.a.w.] T ! ] p.a.a.k.k.k.k.k.k.k.p.p.y.>.p.V.p.p.m.U.Q.].[.}.{.oXoXoX].m.6.y.k.V.1X1XOXoX X].z.z.m.I.E.R.U.I.C.C.C.C.R. XdXeXp.6.h.k.].mXVXvXVXZXZXZXZXZXZXZXZXZXZXZXZXZXZXZXZXZXZXZXZXZXZXZXZXZXZXZXZXZXZXVXGXsX>XZ.V.&.} =.o.W H Y H W :.n.n.n.a.u.:.! I D S S Z b b b b b c z z b Z Z F Z Y ..&.6.6.0.0.;. . .] ] S p i i i i i i t r r r r 8 * ",
"% % 6 p e e e r e r r i r p i b ! ] X.&.0.a.a.a.q.:.] H H Y G b c c c c b m c k z b n n n Z Q o.:.>.>.:. .E E E E ~ +.0.} o.y.A.oX4XsXJXJXZXZXZXZXZXZXZXZXZXZXZXZXZXZXZXZXZXZXZXZXZXZXZXZXZXZXZXZXZXZXZXVXcX7Xs.t.h.i.OXkX#X_.Y.I.Y.Y.Y.T.Y.I.Y.I.V.C.E.].].].R.R.T.V.>.6.a.V.`.<X2X>X>XoX}.[.`.Z.n.y.m.k.>.0.6.y.p.p.p.a.a.a.a.n.n.a.X.W ! ! ,.p.p.p.p.s.s.s.p.a.v.n.n.a.a.n.n.k.m.V.V.C.].k.5.a.C.W.S.sXmXNXGX!.W.U.W.T.W.W.W.T.T.Z.Z.Z.Z.W.W.tXnXC.6.5.5.4.3.5.5.5.5.8.8.8.8.7.8.8.r.x.x.d.d.f.f.d.d.l.l.H.H.H.~.K.H.H.J.K.K.K.K.K.K.J.J.J.J.H.K.J.K.E.K.H.H.J.J.H.l.l.l.H.H.P.P.L.L.G.G.f.f.f.f.f.d.x.j.{.sX1XW.W.Z.S.C.Z.Z.T.T.T.T.C.V.Z.C.9XJXJXyXZ.C.m.p.;.i.W.T.C.V.V.N.k.m.M.V.k.k.k.k.n.n.n.n.v.a.a.a.w.] E ! ] p.p.a.k.k.k.k.k.k.k.p.p.y.>.p.V.p.p.m.U.!.'.[.[.{.oX>XoX].m.6.0.p.V.oX1XOXoX}.].z.z.m.I.R.R.U.I.C.C.C.C.R. XdXeXp.6.h.k.].mXVXVXVXZXZXZXZXZXZXZXZXZXZXZXZXZXZXZXZXZXZXZXZXZXZXZXZXZXJXJXJXJXJXGXGXsX<XC.C.=.X.0.&.! G G G E &.&.&.X.} ! I c k b c m m b b b b b c z z b Z G H F Y ..-.6.0.0.6.;. .} ` ` Z i i i i i i i t r r r r 8 * ",
"% % 9 i e q q q e e r u i p t m W } +.X.>.p.p.a.p.0.o.I I H S b x x x x m x x m b b n n S Z Q -.;.-.&.o.] ! E E ! ! o.0.$.-.s.V.>X5X8X8XxXxXvXvXmXNXNXZXJXZXNXZXZXZXZXZXZXZXZXAXZXZXZXZXZXZXZXZXZXNXZXZXZXcX7Xp.i.r.h.oXkXXX_._.Y.T.Y.Y.C.C.C.C.V.V.V.T.].].R.R.R.C.V.6.y.k.Z.`.1X2X1X>XoX{.[.`.C.n.p.V.k.6.6.0.y.i.p.p.k.k.k.a.n.n.p.X.W ! W =.p.p.p.p.a.a.a.a.p.p.p.a.k.k.k.k.n.n.n.N.V.T.s.6.a.C.W.IX8XmXmXmX'.C.C.T.T.T.W.T.T.T.Z.Z.A.T.T.Z.sXSXU.i.7.5.5.3.5.5.5.5.7.7.7.8.8.8.r.d.d.x.x.x.d.x.l.x.l.H.H.H.H.=XK.J.K.K.K.K.K.K.K.K.K.K.J.J.K.K.J.K.H.J.K.K.J.J.H.H.J.K.L.K.P.P.P.P.G.G.f.f.f.d.d.d.h.k.{.nX4XW.W.W.S.S.W.W.W.W.W.W.C.V.T.S.8XZXKX8XZ.C.M.p.5.j.C.V.Z.V.V.m.n.n.n.n.n.n.n.n.k.k.k.k.k.a.a.a.0.` T ! ] p.a.k.a.a.a.a.k.k.a.a.y.0.>.p.V.p.i.m.Z.!.'.[.{.:X;X;X>X].n.>.0.i.C.oX{.oXoXoX XV.N.m.V.U.U.I.V.V.I.T.].].XXdXeXk.8.z.k.].VXVXZXCXvXvXZXZXZXZXJXJXJXZXZXZXZXZXZXZXNXmXKXJXJXGXDXDXmXnXnXnXnXnXxX9X9X>XC.M.w.:.0.X.E H Y H G H ] -.-.=.$.| U A A A Z A M m b b n m x z n S H H D Y } &.>.6.0.0.;.] }  .` S p i i i i i i r r r r i 0 + ",
"$ $ 8 i e q q q e e e u i i u m E } +.X.>.p.p.a.w.>.} H I H S b x x x x m x x b Z Z S S G H ..p.n.N.N.n.&.! Y ! E ! o.>.0.0.s.B.3X5X9X9X9X9X7X7XyXyXyXsXnXbXnXmXJXJXJXZXZXZXJXJXJXJXJXJXZXZXZXZXZXNXZXZXVXnXtXp.8.8.s.XXkXXXT.E.Y.T.Y.Y.C.C.C.C.V.I.V.T.].).R.E.R.C.V.6.y.a.A.'.1X3X3X>XoX}.[.`.B.v.p.V.k.6.6.0.0.s.p.p.k.k.k.k.n.n.p.X.W ! W =.p.p.p.p.a.a.a.a.p.p.a.a.k.k.k.k.n.n.n.N.V.T.i.4.a.C.W.IX8XmXmXmX[.C.C.T.T.T.W.T.T.T.Z.Z.A.T.T.Z.yXFXU.q.7.5.5.5.5.5.5.5.7.7.7.r.8.8.r.d.d.d.x.x.x.E.E.H.H.H.H.J.H.J.J.K.K.K.K.K.L.L.K.K.L.L.K.K.K.K.K.K.J.K.L.L.L.K.J.J.K.K.L.L.P.P.P.P.G.G.f.l.d.d.d.d.h.k.{.nX4XW.W.W.S.S.W.W.W.W.W.W.C.V.T.S.8XZXKX8XC.C.N.p.6.j.C.V.Z.C.V.m.n.n.n.n.n.n.n.n.k.k.k.k.k.a.a.a.0.` T ! ] p.a.k.a.a.a.a.k.a.a.p.y.0.>.p.N.p.i.n.Z.!.'.[.{.:X;X;X;X'.n.>.y.i.V.oXoXoXoX}.}.N.V.V.I.I.I.C.V.V.I.T.].].XXdXeXk.6.h.j.`.GXKXZXVXZXZXJXJXJXGXJXGXGXGXJXJXVXmXmXmXMXnXnXxXsXyX8X7X7X7XtXtX7X7X<X:X2X>XV.N.n.n.y.$.W H Y H H Y ,.a.v.a.p.>.W H H D A A Z n m b n m x x n S H H D Y } &.>.6.0.0.;.` }  .` S p i i i i i i r r r r i 0 + ",
"# # 5 i e e q q e e e u i p p n Q } &.+.6.a.p.a.y.>.} H I H S b x x x x x x b n Z D G G G H o.y.k.N.N.m.;.E T Q E ! } -.<.0.a.B.1X5X9X9X9X5X5X5X5X9X7X7X5X4X4X7X8X8X8X8XsXxXxXnXmXmXMXMXGXJXJXJXJXJXJXJXGXnXtXj.i.i.p.oXlXXXY.Y.Y.Y.Y.Y.C.C.C.C.V.V.V.E.).R.R.E.T.V.m.5.y.a.C.[.2X5X3X>XoXoX[.`.B.v.p.V.k.6.0.0.0.i.p.p.k.k.k.k.v.n.p.X.W ! W =.p.p.p.p.a.a.a.a.k.k.a.a.k.k.k.k.n.n.n.N.C.C.6.4.k.C.W.`.8XmXmXmX[.U.C.T.T.T.W.T.T.T.Z.Z.Z.T.T.Z.yXSXU.8.7.5.5.5.5.5.5.5.7.7.r.r.8.8.d.d.d.d.d.x.l.XX+XH.H.H.H.K.K.K.L.K.L.L.K.L.L.L.L.L.|.|.L.L.L.K.K.K.K.K.L.L.~.L.L.K.L.L.L.P.P.P.P.P.P.G.G.l.d.d.d.d.h.k.{.nX4XW.W.W.S.S.S.S.W.W.W.W.C.V.T.S.8XZXKX8XZ.C.N.p.q.j.C.U.Z.C.V.V.n.n.n.n.n.n.n.n.k.k.k.k.k.a.a.a.0.` Y ! ] p.a.k.a.a.a.a.a.a.s.p.y.0.>.p.N.p.i.n.Z.W.'.[.{.{.{.;X{.`.n.>.y.p.C.}.oXoXoX[.}.V.I.I.I.Y.I.I.I.I.Y.E.].].oXdXeXk.t.k.k.`.VXZXZXVXGXGXGXGXGXGXnXnXnXnXnXsXsXsXsXsX8XyX7X9X9X2X2X2X4X4X5X5X5X5X<X:X2X>XV.n.p.a.p.=.! Y Y Y Y E ,.y.p.p.y.:.! Y H G S Z S Z b x n m x x b Z F F D Y } -.6.0.w.0.;.] }  .` S p i i i i i i r i i r i 0 + ",
"# # 5 r e e q q e e e u p p s n E } +.X.>.s.p.a.p.0.o.Y I H S b x x x x z z m n Z D S F G G  .y.k.n.n.a.+.Y E E E ! ~ } o.$.y.N.[.2XtXiXiXtXtXeXtXtXiXtXtX9X5X7X5X5X5X5X4X4X5X9X9X9X9X9X9X7XsXxXnXDXGXJXGXSXuXj.h.j.k.,XfX}.Y.Y.T.T.Y.Y.C.C.C.C.V.V.V.E.).R.R.E.T.V.m.5.i.a.C.[.2X4X3X1XoX}.[.`.B.a.y.m.k.6.0.0.0.s.p.p.k.k.k.k.a.n.p.o.W ! W =.s.p.p.p.a.a.a.a.k.k.a.a.k.k.k.k.n.n.n.N.T.T.q.6.a.V.S.IX8XmXvXMX[.U.C.T.T.T.W.T.T.T.Z.Z.Z.T.T.Z.yXSXU.8.5.5.5.5.5.5.5.5.7.7.r.r.8.d.d.d.d.d.d.x.l.K.K.H.H.H.J.K.K.K.K.K.L.L.L.L.L.L.L.L.%X%X~.L.~.~.L.L.L.L.L.L.~.~.L.L.L.L.L.P.P.P.P.P.L.G.f.f.d.d.d.d.h.k.{.nX4XW.W.W.S.S.S.S.W.W.T.W.C.C.T.S.8XZXKX8XZ.C.N.p.6.j.U.W.W.Z.C.V.n.n.n.n.n.n.n.n.k.k.k.k.k.a.a.a.0.` Y ! ] p.a.k.a.a.a.a.a.s.p.p.y.0.>.p.N.p.i.n.Z.W.'.[.{.{.{.;X{.`.M.>.p.a.C.}.oXoXoX[.}.V.I.U.I.I.I.c.I.I.Y.E.].].oXdX4Xm.j.C.m.`.nXcXxXsXsXsX7X7X7X7X2X2X2X2X2X2X2X2X5X5X2X2X0X0X2X4X4X9X7X7XtXtX7X7X9X2X4X<XZ.y.&.X.o.~ E E Y Y Y W ,.y.y.a.y.:.! H G G S Z Z n b x n m x x m Z F F D Y } -.6.0.w.0.;.] }  .` S p i i i i i i i i i r i 0 + ",
"# # 5 r e 0 0 0 e e e i p p s n E } +.X.>.k.a.a.p.0.X.F H H F Z z m x z z x m n Z D D F F G o.p.n.n.n.n.:.K E E T E ! / / ~ ,.a.[.3X4X5X2X4X,X,X4X3X5XtX5X5X4X5XeXtX5X5X5X3X2X3X9X5X2X0X<X;X;X;X;X>X>X>X>X.X.XE.].T.[.>XdX3X].T.I.E.U.I.V.V.V.C.I.C.I.I.].R.R.E.E.V.k.6.0.a.Z.;X2X1X3X3XoXoX}.`.Z.a.p.k.s.y.>.y.y.p.a.k.k.k.k.k.n.n.p.o.Y W W :.s.s.s.s.a.a.a.a.k.k.k.k.k.k.k.k.m.m.N.V.W.W.k.5.0.n.W.IX8XGXJXmX[.U.C.U.T.T.T.T.Z.Z.Z.Z.S.Z.C.S.yXGXW.8.7.5.5.5.7.5.7.7.7.7.r.r.d.x.d.d.d.d.d.d.l.H.H.H.H.H.J.J.K.L.L.L.L.L.L.~.L.L.~.~.%X%X%X|.~.~.~.~.~.L.~.~.L.L.L./././.L.P.P.P.P.P.L.G.f.f.d.d.d.d.h.z.>XSX5XZ.W.W.Z.Z.Z.W.W.W.T.T.C.C.T.S.qXKXKX8XZ.C.N.p.6.i.C.T.!.Z.V.V.M.M.N.N.n.n.n.n.k.k.k.a.k.a.a.a.0._ T !  .p.a.n.a.a.a.a.a.a.p.p.i.y.>.a.N.p.p.N.Z.W.`.{.{.{.{.;XoX].N.y.a.a.C.oXoXoXoX[.].I.I.I.Y.Y.I.z.C.I.I.T.]..XoXeX,XC.I.T.N.W.:X0X2X;X;X{.[.}.oX>X>X>X1X1X4X3X5X5X5X4X4X4X2X4X4X9X7X7X7X5X5X5X2X2X;X'.3X>XC.0.] W W E Y Y Y Y Y ] 0.y.y.p.y.:.E G G F F S Z Z b x n n b x n Z Z D Z Y } +.6.6.0.0.:.} }  .` S p i i i i i i i i i r r 8 + ",
"# $ 8 r e e 0 0 e e e i p p s n E } +.X.>.k.a.a.p.0.X.F Z n b b b n x z x x m n Z D D F F H o.p.n.n.n.n.>.K E E Y E ! ~ ! ! -.s.}.4X2X>X:X:X.X[.[.[.:X>XtXtXtXtXtXeXwX5X>X>X>X>X2X2X2X2X2X2X2X2X>X>X>X>X[.]. XY.].W.[.3XaX3XoXXX X}.].E.C.I.A.C.C.V.V.I.R.R.T.Y.T.N.k.6.0.k.A.{.2X1X3X3XOXOX{.`.W.n.p.a.k.y.>.y.y.p.a.k.k.k.k.k.n.m.p.o.Y W W :.s.s.a.s.a.a.a.a.k.k.k.k.k.k.k.k.m.m.N.C.W.W.k.6.0.n.S.IX8XGXJXmX[.U.C.U.U.T.W.T.T.Z.Z.Z.S.C.Z.S.hXHXW.8.7.5.5.5.5.7.7.5.7.7.7.r.x.d.d.d.f.f.x.l.H.H.J.J.H.J.K.K.L.L.L.~.L.L.~.~.~.~.%X%X%X%X%X%X|.~.~.~.(.~.~.~././././././.L.P.P.P.P.P.K.H.f.f.f.d.d.d.h.z.>XSX5XZ.W.W.Z.Z.Z.W.W.W.T.T.V.C.C.Z.sXKXKX8XZ.C.N.p.6.j.C.T.!.Z.V.V.M.M.N.N.n.n.n.n.k.k.n.a.k.a.a.a.0._ T ! [ p.a.n.a.a.a.a.a.a.p.p.y.y.0.a.V.p.p.n.W.!.[.[.{.{.{.;X{.`.N.0.p.a.C.{.{.}.[.[.].C.I.E.T.R.R.I.T.R.].}.3X3X3XeX3XC.I.T.C.`.:X:X:X;X{.[.[.}.}.{.{.{.oX>X>X>X2X2X5X5XtXiX5X3X2X>X>X>X>X;X<X<X;X;X[.'.3X1XC.0.] W W E T Y Y Y Y ] y.y.p.p.i.:.Q G G F F S Z Z n x b b m v m b M Z Z Y } +.6.6.0.0.:.} }  .` S p i i i i i i i i i r r 8 + ",
"# $ 9 i t e e e e e e i p p s n E } +.X.6.k.k.a.p.0.X.F b z k z n n x k x x m n Z D D F F H o.p.k.k.k.k.5.K Y K E E ! / ! ! -.s.}.3X4XwXtXtX7X7X7X5X9XtXyXyXyXtXtXtXtX9X3X>X[.'.{.{.{.{.{.{.;X;X{.{.oXoX{..X.XE.U.T.Q.,XeX3XoXoXoXoXoX.X.X.X}.R.T.I.V.V.E.E.V.C.C.N.k.6.0.p.C.[.<X1X3X3X3X1X>X}.!.N.p.p.i.6.6.y.y.p.a.k.k.k.k.k.m.m.p.o.Y W ! :.a.a.a.a.a.a.a.a.k.k.k.k.k.k.k.k.m.M.V.Z.W.T.k.0.0.n.W.`.8XGXJXmX[.T.U.U.U.T.W.T.T.T.Z.Z.Z.C.Z.!.nXKX].8.7.7.7.7.7.5.r.r.3.7.7.7.x.f.f.f.f.l.l.H.H.J.J.K.K.K.L.~.~.~.~.~.~.~.|.|.%X%X%X%X(.%X%X%X%X|.|.|.%X(.(.%X&X$X$X/././.L.L.P.G.G.G.H.f.f.d.f.d.d.d.h.k.>XSX5XZ.W.W.Z.Z.Z.W.W.W.T.C.V.V.C.C.sXKXKXsXS.T.N.a.6.j.C.W.!.Z.V.V.M.N.N.N.n.n.n.n.n.n.n.a.k.a.a.a.0.` T ~  .p.a.n.a.a.a.a.a.a.p.p.i.y.>.i.a.p.a.N.S.`.[.}.}.{.{.;X{.`.n.0.p.k.C.`.[.`.].T.C.m.I.R.]. X.XoX,X,X3X3X3X3XOX4X3XV.N.V.T.`.[.'.!.`.'.[.[.[.}.}.}.}.{.{.{.>X>X>X>X3XeXtXtXtX7X5X5X5X4X4XtX5X5X5X5X1X4X>XC.0.] W W E Y Y Y Y Y / p.p.a.a.p.>.! H G F F S Z Z n x m m m b z k l M Z T  .+.6.0.w.0.:.} }  .` S p i i i i i i i i i r r 8 + ",
"$ & 9 i i t e e e e e i p p p n Q } +.X.6.n.k.a.p.0.X.F n x k x n Z x k x x m n Z D D F F G o.p.k.n.n.k.5.K Y K E E ! ~ ~ ~ -.s.OX3X4XfXfXfXsXyXfXyXyXfXtXtXtXtXtXtXtXtXtX9X4X4X5X4X1X>X[.[.[.'.`.`.[.].T.C.I.j.z.C.C.OXeX1X}.].R.Q.].Q.].oXOXoXoXR.E.I.I.C.k.V.C.N.n.0.0.p.V.[.<X1X3X3X3X3X>X{.`.V.a.y.5.-.>.y.y.p.a.k.k.k.k.k.m.m.p.o.Y ! ! :.a.a.a.a.a.a.a.a.k.k.k.k.k.k.k.k.m.M.C.T.W.C.k.q.0.N.`.`.8XGXJXmX[.T.U.U.U.T.W.T.W.T.Z.Z.C.C.Z.!.nXKX].8.7.7.7.7.5.5.c.l.5.7.7.7.x.x.f.f.l.l.H.J.J.J.K.K.K.L.~.~.~.~.~.~.~.|.|.%X%X%X%X%X%X&X&X%X%X%X%X%X%X%X%X&X*X*X$X$X/./.L.L.P.P.G.G.H.f.f.f.l.f.d.d.h.k.>XSX5XZ.W.W.Z.W.Z.W.W.W.T.C.V.V.C.C.sXKXKX8XZ.C.N.p.5.p.T.].!.Z.V.V.N.N.N.N.n.n.n.n.n.n.n.a.k.a.a.a.6.~ T ! [ p.a.n.k.k.k.k.k.a.s.p.i.y.;.>.>.i.n.C.W.[.}.}.{.{.{.;X{.`.n.0.k.n.V.T.T.V.C.C.T.Q.OX3X3XrX3X3X3X1X>X>X.XOXoX,X>Xk.k.k.n.B.B.N.Z.W.`.`.].[.[.[.[.[.{.{.>X>X>X1X5X5X5XeX5XtXtXsXtXtXtX5XtXtX7X5XtX5X4X>XC.0.] W W E Y Y Y Y I / p.p.a.a.a.>.! H G F F S Z Z n x b b n b k p g b D E o.-.6.0.y.w.:.} }  .` S p i i i i i i i i i r r 8 + ",
"# & 0 i u e e e e e e u i p i n Q } &.X.6.k.k.a.p.0.&.W Y Y G b Z Z c k z c b M Z Z S S S G o.i.k.N.N.N.6.K Y Y E E ! ! ~ ! -.k.oX4X3XtXyXtXtXtXtXtXtXtXtXtXtXtXtXtXtXtXtXtX5X5X5XeXeXeX3X3X3X1X1X>X>X;X!.A.V.m.U.].].[.eX3XoXXX]. X.X X[.].W.C.T.I.I.V.V.k.5.s.C.V.k.i.y.y.C.].<X2X3X3X3X3X1XoX[.C.k.i.-.+.>.y.y.p.k.k.k.k.k.k.m.m.p...W ! ! >.p.p.p.a.s.s.a.a.a.a.k.k.n.n.n.n.N.N.V.W.`.T.k.0.i.N.`.`.8XGXJXmX[.W.T.Z.Z.W.W.W.T.T.Z.Z.S.S.Z.S.sXDXT.6.7.7.7.7.8.8.h.8.7.8.d.d.x.f.x.l.H.J.K.|.L.L.K.L.L.L.L.~.~.%X%X%X%X%X%X%X%X%X%X%X%X=X&X&X&X&X%X%X%X%X&X*X*X&X$X$X/.L.L.K.J.P.H.H.H.l.f.x.l.l.x.x.x.k.>XSX5X!.W.!.!.W.T.W.W.W.T.C.V.V.C.Z.sXKXKXsXC.C.N.p.6.i.Z.`.[.Z.V.V.N.N.V.V.m.k.k.m.n.n.n.n.a.a.a.v.<.~ T ! } 0.a.n.n.n.n.m.n.n.j.a.p.>.&.&.-.0.N.C.W.'.[.[.[.oX>X>X>X`.p.0.n.n.n.M.s.k.k.k.V.C.U.T.].].[.[.[.}.oXoXOXOXOX5XeXC.N.V.V.N.B.Z.`.'.{.>X{.{.>X1X>X1X1X6X2X2X3X3X4X5XtXtXdXdXtXtX5X3X5X3X2X2X2X2X1X<X>X>XZ.y.] E E E Y Y Y Y Y  .a.a.a.a.a.0.W H G F F S Z Z n x x b n b b M Z Z F ! ..-.0.y.y.y.:.}  . .} S p i i i i i i i i i i r 8 # ",
"# & q p u e e e e r u i i p i M W } &.X.6.k.k.a.p.w.=.~ E ! Y Z Z Z b k z c b M Z Z S S S G  .p.n.N.B.N.6.K T T E E ! ! ~ ! ;.k.oX5X{.[.4X3X2X>X>X2X5X9X9X9X9X7X5XeXeXeXeXeXwX4X4X4X4X4X4X4X4X4X2X1X>X>XZ.V.N.V.W.>X1X4XeX3XOXOXOX3X3X3X3X3X>XoX].T.I.V.z.k.4.&.p.k.k.V.p.y.V.[.<X2X3X3X3X3X1XoX[.C.m.i.-.+.6.0.y.p.a.k.k.k.k.k.m.m.p.X.W ! ! >.p.p.p.a.s.s.a.a.a.a.k.k.n.n.n.n.N.N.N.S.`.T.k.6.i.V.`.`.tXGXJXmX[.W.T.Z.Z.W.W.W.T.T.Z.Z.W.S.Z.S.9XsXC.6.7.7.7.7.7.8.d.8.d.x.x.l.f.f.l.H.H.H.K.%X%XL.L.L.L.L.~.|.|.%X%X%X%X%X%X%X%X%X&X&X&X&X&X&X&X&X%X%X%X=X-X*X&X$X$X/.L.L.L.K.J.P.H.H.H.l.x.x.l.l.x.x.x.k.1XSX5X].W.W.!.!.W.W.W.W.T.U.V.C.T.S.sXKXKXxXD.C.N.p.6.p.W.[.`.Z.V.N.N.V.V.N.m.k.k.m.n.n.n.n.a.a.a.a.0./ E ~ o.y.a.n.n.n.n.m.n.n.j.a.p.0.=.=.=.w.N.Z.Q.[.[.[.[.oX>X>X{.W.p.y.`.`.Z.n.:.0.y.y.k.m.V.C.W.].[.oX1X1X3X3X3X4X3XaX4X`.T.A.W.Z.C.S.[.{.>X1X>X1X1X1X1X1X1X1X1X2X3X4XeXtXdXfXdXtXtXtX3X>X2X;X;X;X;X;X[.'.'.oXT.p.} W E T Y Y Y Y Y  .a.a.a.a.a.0.W H G F F S Z Z n x z b n b b Z F D G ~ o.-.0.y.y.y.;.] }  .] S i i i i i i i i i i i r 9 # ",
"# & q p e e e e r r i i i p i M ! } &.&.0.n.n.a.p.w.;.] ! ` T Z Z Z b k k c b M Z Z S S S G  .s.N.B.C.V.6.K Y T Y E W ! ~ ! ;.k.oX5X{.;X4X4X3X3X>X>X2X4X5X5X5X5XwX3X3X1X3X1X1X1XOXoX1X>X1X>X>X>X1X>X>XoXT.m.k.V.C.W.[.5XeX3XoXoXoXOX3XwX4X4X3X>X1XoX}.].Q.R.k.;.6.0.m.[.m.i.V.[.<X2X3X3X3X3X1XoX[.T.m.i.-.+.0.0.y.p.a.k.k.k.k.k.n.m.a.X.W W ! >.s.s.a.a.p.p.p.p.a.a.k.k.n.n.n.n.N.N.n.C.!.T.k.6.i.V.`.`.tXGXJXmX[.W.T.Z.C.W.W.W.W.W.W.W.S.W.W.S.7XnXW.i.7.7.7.7.7.7.7.d.d.x.x.l.x.l.H.H.H.H.J.L.(.L.L.L.L.(.|.|.%X%X%X%X%X&X&X&X&X&X=X=X=X&X&X=X=X=X&X&X=X-X-X*X&X$X$X/.L.L.L.K.J.P.H.H.H.l.x.l.l.l.l.x.x.k.1XSX4X].W.W.].].W.W.`.W.T.C.V.C.T.W.sXKXKXPXD.C.N.p.6.p.T.`.S.Z.V.N.V.V.N.N.m.k.k.m.n.n.n.n.a.a.a.a.w.] W ~ X.p.a.n.n.n.m.m.n.n.k.a.a.0.=.=.=.y.V.T.].[.[.[.[.oX>X>X{.W.a.a.[.[.C.p.;.y.V.A.W.W.].].[.[.oX>X>XOX>XoX}.oXOXaX5XW.T.N.k.a.n.M.W.`.}.{.>X>X>X>X>X>X>X>X>X2X1X4X5XeXtXtXdXaXtXtXtX9X9X5X5X5X5X5X>XoXoX>XW.p...W E E Y Y Y Y K  .a.a.a.a.a.0.W H G F F S Z Z n x z b n b M Z F F H ~ X.:.0.y.i.y.:. . . .] S i i i i i i i i i i i r 9 # ",
"+ % 9 i e e e e i i i i i p i M ! } &.&.0.n.n.k.p.w.,.] ! ~ Y Z Z Z c k x c b M Z Z S S S G  .s.N.B.C.V.6.K Y T Y E W ! ~ ! ;.a.].3X4XfXfXfXtXtXtXtXtXtXtXtXtXeXeXwX6X3X3X3X3X3X#X1X3X3X>X>X>X>X>X,X>XoXQ.m.p.k.V.m.T.tXaX3X].T.T.Q.[..X[..X[.].].W.R.T.U.C.s.-.;.6.V.4XV.i.V.[.>X2X3X3X3X3X1XoX'.T.N.0.+.&.0.0.y.p.a.k.k.k.k.k.k.m.a.$.E W W :.s.p.a.a.p.p.p.p.a.a.k.k.n.n.n.n.N.N.n.C.W.T.k.6.y.V.`.`.tXGXJXmX[.W.T.Z.C.W.!.W.W.W.S.W.Z.W.S.S.8XnXW.t.7.7.7.7.5.7.8.r.8.d.d.d.l.H.H.J.J.J.K.K.L.L.(.|.L.|.|.%X%X%X%X%X%X&X&X=X=X=X=X*X*X*X*X*X*X*X*X=X-X-X*X&X&X$X/./.L.L.L.K.J.H.H.H.H.l.x.l.f.f.x.x.x.k.1XSX>X].].].].].T.W.`.W.T.C.C.T.W.W.sXKXKXPXD.C.N.p.6.p.C.C.Z.C.C.N.V.V.N.N.m.k.k.m.n.n.n.n.a.a.a.a.w.] W ] &.p.v.a.n.n.n.m.n.n.k.a.a.0.-.,.:.p.V.Z.]..X[.[.[.oX>X>X>X`.n.N.{.`.V.a.;.k.T.T.].].Q.W.W.W.C.C.T.C.C.V.C.R.oXaXeXV.s.i.>.6.p.n.W.`.}.{.{.{.[.[.oX>X1X4X<X1X4X5XtXtXfXfXfXdXfXdXfXfXhXfXgXgXfXfXfXtX4X,XT.p.} W E E Y Y Y Y H  .a.a.a.a.a.0.W H G F F S Z Z n x z b n b b Z F D H ] +.:.0.y.y.y.;.] }  .] S i i i i i i i i i i i r 9 # ",
"+ $ 0 p u e r r r r i i i p p b ! } X.&.0.n.n.a.p.w.,.] ` ` E F Z Z c g c c m M M Z Z S S F  .i.n.B.C.B.>.K K Y T E W ! W ` &.a.].3XtXhXyXtX7XaXaXfXfXfXfXfXfXfXaXaXaXaXaXaXtXeXaX5X5X5X4X4X4XwXwXwXwX3XoXT.k.C.m.k.C.eXtX3XXX].T.T.U.V.m.V.m.k.m.k.k.s.i.i.>.o...0.C.oXp.y.N.`.>X>X3X3X3X3X>X{.[.T.k.q.;.;.0.0.p.k.k.m.k.k.k.k.p.a.a.$.W W ! >.a.j.a.a.p.p.p.p.p.a.a.k.n.n.n.N.N.N.n.B.W.T.k.q.y.V.`.W.7XJXKXDX;XW.T.T.C.W.!.W.Z.Z.Z.Z.Z.W.Z.B.9XnXW.t.7.7.7.7.7.7.8.r.d.d.d.d.f.l.H.H.H.K.K.K.L.L.|.|.|.%X%X&X=X&X&X=X=X=X*X*X*X*X*X*X-X*X*X-X*X*X-XjXjX*X&X$X$X$X/./.L.L.K.L.K.J.H.H.H.l.f.l.f.f.x.x.x.k.4XnX{.W.W.W.T.T.U.W.W.W.T.C.C.T.W.`.qXKXKX8XD.Z.N.s.0.p.C.V.C.C.B.V.V.V.V.C.V.k.k.n.n.n.n.a.n.n.v.v.w.] W ] X.y.a.a.n.M.V.m.n.k.a.a.a.w.:.:.:.0.V.C.'..X.XoXoXoX>X>X[.`.a.M.>X[.C.p.&.6.p.k.m.k.k.k.V.V.C.C.V.C.T.W.[.oX4XdX5Xm.y.p.p.a.M.T.].}.>X3X1X>X>X>X4X5X5XtXtXtXaXaXgXgXkXFXkXkXSXSXgXhXsXfXfXfXfXfXfX5XuX,XT.p.] Y E Y Y Y Y Y H X.k.a.a.a.a.>.W H G F F D Z Z n x x n Z n Z F F D H / &.:.0.y.s.y.;.` } } ] S p i p p p p p i i i i i 9 # ",
"+ # 0 p u e r r e r u i i p p b ! } X.&.0.n.n.a.p.w.;.] ` ] E F Z Z c g c c m M M Z Z S S F  .i.n.B.C.B.>.K K Y T E W ! W ` &.a.].wX5X2X>X>X;X>X>X9XtXtXtXtXtXtXtXtXtXtXdXdXdXaXaXaXaXdXtXtXuXdXdXdXuXuXwX3XOXOX>X>X>XtXaX5X3X3XOXOX,XoX.X[.W.C.m.k.k.s.k.i.:.} &.p.V.T.p.y.N.`.{.>X1X1X3X3X1XoX[.U.k.6.;.;.0.0.p.a.k.k.k.k.k.a.p.a.p.X.W W W >.a.j.a.a.p.p.p.p.p.a.a.k.N.n.n.n.N.V.N.C.W.T.k.i.y.N.T.S.7XJXKXGX;XW.T.T.C.W.!.W.Z.Z.Z.Z.Z.W.Z.B.9XnXW.t.7.7.7.7.7.7.8.r.d.d.d.d.f.l.H.H.K.K.K.K.L.~.|.|.|.%X%X%X-X*X*X=X=X*X*X*X*X-X*X*X-X*X-X-X*X-XjXjX-X*X&X$X$X$X$X/.L.K.~.~.K.J.H.H.H.l.f.f.f.f.x.x.x.j.4XnX{.W.W.W.T.T.T.W.W.W.T.C.C.T.W.!.qXKXKX8XD.Z.N.s.0.i.m.V.A.C.B.N.N.V.V.C.V.k.k.n.n.n.n.a.n.n.v.v.w.] W ] X.y.a.a.n.M.V.V.n.k.a.a.a.w.:.>.>.y.C.Z.].[.[.oXoXoX>X>X{.`.a.n.'.'.C.p.+.&.:.6.q.0.y.p.C.U.W.].[.[.oX>X4X4XeXaX4X].].oX[.].[.>X3X4XeXeXeX5X4X3X5XeXeXtX5X5XtXtXtXtXwXwXeXeXeXeX5X3X3X4X2X3X3X4X>X[.tXoXW.p.] Y E T Y Y Y Y G X.n.a.a.a.a.>.W H G F F D Z Z n x x n Z n M D D F K / &.:.0.y.s.y.;.` } } ] S p i p p p p p i i i i i 9 $ ",
"+ # 9 i u u r r e r i i i p p b ! } &.&.0.M.n.a.p.w.,.] ` ] E F Z A c g c c m M N Z Z S S F  .i.n.B.C.B.6.K K Y T E W ! ! ` &.k.W.wXtX3X4XtXtXtXtXyXiXiXeXtXtX7X5X5X5X5X5X5X5X3X2X>X>X1X>XOXoXOXOXOX.X.X].}. X].].[.oXeXeX3X3X3X3X3X3X3X4X3X>X[.].].].Q.R.A.s.-.;.k.T.W.p.y.N.`.oX>X1X1X3X3X>XoX[.C.i.6.:.:.y.w.i.p.k.k.k.a.a.a.p.a.p.$.W W W >.a.a.a.a.p.p.p.p.p.a.a.k.N.N.n.k.N.V.N.C.W.T.k.i.i.V.T.Z.7XJXKXGX:XW.T.T.C.W.!.W.T.T.Z.Z.Z.T.Z.B.9XnXW.t.7.7.7.7.7.7.r.d.d.d.d.d.l.l.H.J.K.K.L.L.~.~.|.|.%X%X%X&X-X-X*X*X*X*X*X-XjXjX-X-X-X-X-X-X-XjXjXjX-X=X&X&X$X$X/.L.L.K.L.~.K.J.H.H.H.l.x.f.f.f.x.x.x.j.4XgX{.W.!.W.T.T.T.W.W.W.T.T.C.T.W.!.qXKXKX8XD.Z.N.s.y.y.k.C.T.C.B.N.N.V.V.C.V.k.k.m.n.n.v.n.n.n.n.v.w.] W ] X.y.a.a.n.M.M.M.n.a.a.p.p.0.>.<.>.0.n.C.W.'.[.[.[.oX>X>X>X`.p.a.[.[.Z.p.:.p.C.T.T.T.R.].].].oX>X3X3X3X3XwX4X4XwX4XoX.XQ.U.U.T.Q.Q.].}.}.[.[.[.}.oXoX>X,X3X4X5X5X4X3X,X,X3X3X4XwXtX5X5XtXtXtXtXtXtX3XdXoXW.p.] T E T Y Y Y Y H X.n.k.a.a.a.>.W G G F F D Z Z n x x n Z n b A D D Y / &.:.0.y.s.y.;.` } } ] S p i p p p p i i u e i i 0 $ ",
". + 9 i u u r r e e e i i p p n ! } &.&.0.M.N.a.p.w.,.] ` ] E F Z Z c g c c m M N Z Z S S F  .i.N.B.C.V.6.K K Y T E W ! ! ` &.k.}.eXtX5X7XyXsXsXiXbXbXiXfXiXiXfXyXsXsXyXsXsXyXyX9X4X2X4X>XoX X].}.].].].).E.I.I.T.T.T.1X5X1XoXoX].]..X.X]..XoXoX}.[. X}.}.[.V.y.a.N.C.W.p.y.N.`.oX>X1X1XoXoXoX].T.m.6.6.:.:.u.w.y.p.a.k.a.a.a.a.p.a.p.$.W W W >.a.a.a.a.p.p.p.p.p.a.a.k.N.N.n.k.V.V.N.C.W.T.k.i.p.V.T.Z.7XJXKXVX:XW.W.T.C.W.!.W.T.T.Z.Z.Z.Z.Z.B.9XnXW.t.7.7.7.7.7.7.r.d.d.d.d.d.l.H.H.K.K.K.L.~.~.|.|.|.%X%X%X&X*X*X*X*X-X-X-XjXjXjXjXjXjX-X-XjXjXjX-X*X*X&X&X&X$X$XL.L.L.K.K.L.K.J.H.H.l.l.x.x.f.f.x.x.x.j.4XgX{.W.!.!.T.T.Z.T.W.W.T.T.C.T.W.!.8XJXKX8XS.Z.N.s.0.y.k.].T.C.B.N.N.V.V.C.V.k.k.m.n.n.v.v.n.n.n.a.w.] W ] ..y.a.a.a.n.n.n.n.a.a.p.p.0.>.0.>.>.p.a.T.!.'.[.{.oX>X>X[.!.p.a.!.W.V.a.V.V.C.C.].W.R.`.].}..X.X>X>XOXOX,XOXOX3X3X>X.XC.m.m.U.].W.W.Q.R.[..XoX>XwX5XeXtX7X7XtXtXtXyXfXfXtXaXfXhXfXsXfXbXsXsXaXtX5X3XtXoXT.p.] Y E T Y Y Y K G X.n.a.a.a.a.>.W G G F F D Z Z b x x b Z n b A G G Y / &.:.0.y.s.y.;.` ` } ] S p i p p p i i i u e i i 0 # ",
". $ 9 i e e e e e e e i i i p b ! ] X.&.y.V.N.a.p.y.:.[ ` ] W F Z G c g k c m b M N Z S Z F | i.n.N.V.V.6.Y Y Y Y E Q ! ! ~ +.k.OXeXaXqXqX8XqX8X8X8X8X8X8X8X8X8X8X8X8X8X8X8X8X8X8X7X8XtXeX3X3X3X@X@X3X3X@XOXOX X[.[.oXeXdXOXT.Y.R.R.R.R.T.T.A.C.T.T.T.T.N.k.s.y.a.m.C.T.p.y.N.W.[.[.[.[.}.[.].T.N.p.y.6.>.>.<.0.y.p.j.j.j.j.j.j.p.p.u.$.Y E W =.a.a.a.a.a.a.p.p.a.k.n.n.M.M.v.n.B.Z.N.M.W.W.k.y.k.V.T.S.7XJXKXmX'.T.T.T.U.C.W.T.Z.Z.Z.Z.Z.T.T.Z.9XnXW.8.7.7.7.7.7.7.8.e.d.d.d.l.l.l.H.K.K.K.L.~.L.%X%X%X%X%X%X&X*X*X*X-X-XjXjXjXzXzXzXzXzXzXzXjXjXjX*X*X*X&X&X&X%X(.L.L.K.K.J.J.J.H.H.H.l.x.x.x.f.f.f.h.h.j.4XSX{.W.T.T.T.Z.Z.C.R.T.T.T.C.T.`.'.8XJXKXsXC.C.N.p.i.a.Z.`.T.V.N.n.N.m.N.C.N.k.k.k.n.k.k.a.k.k.k.a.0.] T ] +.0.a.a.v.n.n.n.n.a.p.p.p.w.<.<.0.>.y.a.C.W.`.'.'.'.'.].`.W.k.i.C.C.n.n.C.V.V.C.N.V.C.C.T.T.T.T.T.T.T.T.R.].].1X3X3X].Q.W.[.>X>XoXoXOXoX3X3X4X4X5X7X9X8X7X7X7X7X9X9X7X9X7X7X7X7XsX8X8X8X7X7X7X7X8X9XtX[.W.p.] Q E E Y Y Y H G X.n.a.p.a.p.:.Q G G F F D Z Z b c c b Z b b H Y Y Y ` &.:.0.i.i.i.;.` ` ` ~ Z p p i i i i i t r i i p 0 # ",
". $ 9 i e e e e e e r i i i p b ! ] X.&.w.N.n.a.p.y.:.[ ` ] W F Z G c g k c m M n M Z Z V S } y.M.M.V.C.6.Y Y Y Y E Q ! ! ~ +.k.oXeXhXnXmXvXvXvXvXMXMXMXvXvXvXvXvXvXvXMXMXvXvXvXPXxXsXtX5X3XOXOX.X.X.XOX3XrX@XC.V.C.C.>XtX}.Y.V.I.I.I.I.V.N.m.k.k.k.k.k.k.k.k.k.k.V.k.V.m.y.V.].oXoXoXoX}.[.].W.C.k.y.5.>.>.<.0.y.p.j.j.j.j.j.j.p.p.u.$.E W ! -.a.a.a.a.a.a.p.p.a.k.n.n.M.M.v.n.B.C.B.N.W.W.k.i.a.V.T.W.7XJXKXmX'.T.T.T.U.C.W.T.Z.Z.Z.Z.T.Z.T.Z.5XgXT.t.8.8.7.7.7.7.e.d.f.f.g.l.l.H.H.J.J.K.L.~.~.%X%X%X%X%X&X=X&X*X-XjXjXjXzXzXHXHXkXkXHXkXzXjXjX-X*X*X=X=X&X&X%X(.L.L.K.L.J.J.H.H.H.l.l.x.x.x.f.f.d.d.h.j.4XnX[.W.T.T.T.T.Z.Z.T.T.T.T.C.T.W.'.8XJXKXsXZ.C.N.p.p.k.Z.`.T.V.n.n.N.m.N.C.V.k.k.k.k.k.k.a.k.k.k.a.>.] T ] +.0.a.a.a.n.n.n.a.a.a.p.p.w.<.<.0.<.a.N.Z.!.'.[.'.'.'.`.T.T.j.q.V..XW.Z.C.N.k.k.k.j.k.k.C.T.E.I.I.I.I.I.I.Y.).3X4XW.j.m.m.[.4X3X3X3X3X3X3X3X,X>X4XxXcXcXvXMXvXvXxXxXvXxXmXmXmXmXVXmXmXmXZXZXZXZXJXVXaX.XW.p./ E E E Y Y Y H G X.n.p.p.a.p.:.Q G G F F D Z Z b c c b Z b b H I Y Y ` &.:.0.i.s.y.;.` ` ` ~ Z p p i i i i i t i i i p 0 # ",
". $ 9 i e e e e e e r i i i p b ! ] X.&.0.M.n.p.p.y.:. .] ] W G D G b h k c m n M N Z S S F | i.n.M.M.V.0.Y Y Y Y E Q ! ! ~ +.k.oXeXgXGXZXZXZXZXZXZXZXZXZXZXZXZXZXZXZXZXZXZXAXZXZXZXGXnXfXtXeXeXwXwXwXrXuXdXwXN.i.p.p.[.aXOXT.Y.C.C.I.I.z.k.k.k.k.k.k.k.k.N.T.R.oX`.y.T.W.>.k.`.>X>X>X>XoXoXoX[.T.V.i.:.:.:.<.<.y.p.j.j.j.j.j.j.p.p.p.&.Y E W &.a.a.a.a.a.a.p.p.a.k.n.n.m.m.n.n.M.C.B.V.W.`.m.a.p.V.T.`.7XGXKXmX[.T.T.T.T.C.W.T.T.T.T.T.T.T.T.Z.9XnXT.j.r.8.r.8.r.d.d.d.f.l.g.g.l.H.J.P.K.L.L.|.%X%X%X&X&X&X&X&X*X-XjXjXzXzXHXHXHXHXHXHXHXHXHXzXjX-X*X*X=X=X&X&X%X(.L.L.~.=XK.G.H.H.H.l.x.f.f.f.f.f.d.d.d.j.3XnX[.W.W.T.Z.Z.T.T.T.T.T.Z.V.T.W.`.8XZXKXsXC.C.N.p.y.n.T.`.T.V.n.n.N.m.V.C.V.k.k.k.k.k.k.k.k.k.k.a.>.] E ] X.0.a.a.v.v.n.n.n.n.n.p.p.w.<.<.<.<.n.Z.W.'.[.;X;X>X{.[.`.W.i.:.p.W.k.T.C.k.k.k.j.k.k.k.C.E.E.I.Y.I.I.Y.Y.Y.T.3X4XV.p.C.k.>XfXfXtXtXaXtXdXtX5X3X7XGXZXZXZXZXJXJXZXZXZXZXZXJXZXJXJXZXZXZXZXZXZXZXJXZXyX[.W.p./ E E E Y Y Y H G X.n.a.p.a.p.:.Q G G F F D Z Z b c c b Z b b H Y Y Y ` &.:.0.i.s.y.:.` ` ` ~ Z p p i i i i i t i i i p 0 # ",
". $ 9 i e e e e e e r i i i p b ! } X.&.0.n.k.p.p.y.:. .] ] ! G D G b h k c b M M N Z S S F | i.n.n.m.m.0.Y Y Y Y E Q ! ! ~ +.k.oX5XsXVXVXZXZXZXZXZXZXZXZXZXZXZXZXZXZXZXZXZXZXZXZXZXJXbXsXtXaXdXdXdXdXdXdXdX3XN.s.p.p.>XaXOXT.Y.C.C.C.I.N.N.m.k.k.k.k.k.k.N.T.R.].W.&.a.k.:.C.`.3X3X3X3XoX>X>XoX[.T.s.;.,.,.>.<.y.p.j.j.j.j.j.j.p.p.p.&.! ~ / :.a.a.a.a.p.a.p.p.a.k.n.n.m.M.n.n.M.C.V.V.W.'.V.k.i.N.T.`.9XGXKXmX[.T.T.T.T.C.W.T.T.T.T.T.T.T.T.Z.tXHX`.V.x.d.d.d.r.d.d.d.f.g.g.g.g.P.P.K.L.L.L.(.%X%X%X=X&X&X=X*X-XjXjXjXHXHXHXHXKXKXKXHXHXHXHXzX-X*X*X*X&X=X&X&X%X(.L.L.L.|.K.P.H.H.l.f.l.f.x.d.f.f.d.d.d.j.3XnX[.W.W.T.Z.Z.`.`.T.T.T.Z.V.Z.W.!.8XZXKXsXC.C.N.p.y.n.W.`.T.V.N.N.N.N.V.C.V.k.k.n.k.k.k.k.k.k.k.a.0.o.~ ] X.0.a.a.a.a.a.n.n.n.n.p.p.w.<.<.:.<.n.Z.`.[.[.>X[.>X>X{.[.].k.6.j.y.m.>XT.N.k.j.j.k.k.k.C.R.R.I.E.E.E.E.E.E.).3X4Xm.y.n.j.>XfXfXtXtXtXtXuXtXtX7XsXGXZXZXAXAXAXAXZXZXAXZXZXZXZXZXZXZXZXZXZXZXZXZXZXZXsX:XW.p./ E E E Y Y Y H G X.n.p.p.a.p.:.Q G G F F D Z Z b c c b Z b b H Y Y Y ` &.:.0.i.s.y.;.` ` ` ~ Z p p i i i i i t i i i p 0 # ",
". # 9 i u e e e e e r i i i p b ! ] X.&.0.M.n.p.p.y.:.] ] ] ! G D G b h k c c b M M Z Z S F | u.n.n.M.V.0.Y Y Y E E ! ! ! ~ +.k.OX5XhXGXZXZXZXZXZXZXZXZXZXZXZXZXZXZXZXZXZXZXZXZXZXZXJXbXyXtXtXtXuXuXeXdXdXdX4XN.j.p.p.].dXOXT.Y.Y.I.C.V.V.V.N.m.z.z.z.z.N.N.T.].[.T.;.6.y.y.V.{.>X3X3X1X>X>X>X>X}.T.p.o.-.&.>.w.w.p.j.j.j.j.j.j.p.y.y.>.&.u.p.p.n.a.a.a.p.p.p.a.v.v.v.v.N.n.n.n.V.C.B.V.W.W.V.a.i.m.W.`.7XJXKXmX[.T.T.T.T.C.W.W.T.T.T.T.T.T.T.Z.aXHXW.k. X7.5.r.d.d.r.e.d.d.f.f.G.K.K.P.K.L.(.(.(.|.%X%X%X&X*X*X-XjXjXzXkXHXHXHXKXKXKXKXHXHXzXjXjX-X*X*X=X=X&X%X$X(.L.L.K.P.K.P.H.H.l.l.|.H.d.d.f.f.d.d.h.k.5XnX{.`.T.C.A.T.`.`.T.T.T.W.C.V.W.'.8XKXKXqXZ.C.N.p.p.n.Z.`.W.V.N.N.N.m.N.C.C.m.k.n.n.k.k.k.k.a.a.a.p.p.u.>.<.u.p.a.a.a.a.v.a.v.a.p.p.0.>.<.>.>.V.T.`.[.[.;X>X>X>X{.].[.m.y.m.k.C.{.].N.k.j.k.j.k.m.E.].E.E.E.E.E.E.R.T.).1X1Xk.0.j.k.,XdXaXdXdXdXdXdXiXtXyXsXGXZXZXZXZXZXZXZXZXZXZXZXZXZXZXZXZXZXZXZXZXZXZXZXZXsX[.W.p.~ E E E Y E T Y H X.n.a.p.a.p.:.Q G D F A A Z Z b c z b Z Z b H I I K ] -.6.i.s.s.s.;.' ` ` ~ Z g p i i i i i i p p p p 0 # ",
". # 9 i u e e e e e r i i i p b ! ] X.&.0.M.m.s.a.y.,.] ] ] ! G D G b g k c c b M M Z Z S F | p.n.n.M.V.0.Y Y Y E E ! ! ! ~ +.k.OX5XhXJXZXZXZXZXZXZXZXZXZXZXZXZXZXZXZXZXZXZXZXZXZXZXJXnXyXtXtXtXuXdXuXdXdXdX4XN.j.j.p.].dXOXT.Y.Y.U.U.U.C.V.N.N.z.k.z.z.N.N.T.].OX[.>.6.p.p.V.[.>X3X3X1X>X>X>XoX}.T.s.o.&.$.:.0.w.p.j.j.j.j.j.j.p.w.y.p.n.C.Z.Z.b.a.a.a.p.a.a.k.n.v.v.v.N.n.n.n.V.V.B.V.W.W.V.a.i.m.W.`.7XJXKXmX[.T.U.T.T.U.W.W.T.T.T.T.T.T.T.Z.7XGX].h.h.7.8.d.r.r.r.d.d.d.f.f.G.P.P.L.K.L.L.(.%X%X%X%X&X=X*X*XjXjXjXjXHXHXKXKXKXKXKXKXHXHXzXjXjXjX-X*X&X%X%X%X$X(.L.L.P.P.P.P.H.H.l.l.H.x.d.f.f.f.d.d.h.z.5XnX[.!.T.A.A.Z.`.`.T.T.T.W.T.C.`.'.8XKXKXsXZ.C.N.p.p.n.Z.`.T.V.N.N.N.m.N.C.C.m.k.n.n.k.k.a.a.a.a.a.v.C.W.C.p.p.p.a.n.a.a.a.a.v.a.p.i.0.0.w.-.,.N.Z.`.[.[.;X;X>X{.{.[.}.m.y.k.j.C.}.].N.j.j.k.k.m.N.R.].E.E.R.R.R.R.R.R.].3X4Xm.q.k.k.,XfXdXdXdXdXdXdXiXtXyXsXGXZXZXZXZXZXZXZXZXZXZXZXZXZXZXZXZXZXZXZXZXZXZXZXZXfX[.W.p.~ E E E Y E T Y H X.n.a.p.a.p.>.Q G D F A A Z Z b c z b Z Z b H I I K ] -.6.i.s.s.s.;.' ` ` ~ Z a p i i i i i i i i p i 0 # ",
". % 9 i u e e e e e r i i i p b ! ] X.$.0.N.V.m.k.s.:.] ] ] ! G D G b g k c c b M M Z S S F | p.n.n.V.V.0.Y Y Y E Q ! ! ! ~ &.k.>XeXhXJXZXZXZXZXZXZXZXZXZXZXZXZXZXZXZXZXZXZXZXZXZXZXJXnXtXtXuXuXuXuXdXdXdXdX4XV.j.p.p.].dXOXT.Y.Y.U.U.U.I.C.V.N.N.N.c.c.c.N.T.].OX[.>.:.y.p.A.[.>X3X3X1X>X>X>XoX}.T.s.X.$.X.,.<.w.p.j.j.j.j.j.j.a.w.y.n.Z.Z.S.Z.b.a.a.a.a.a.k.k.v.v.n.n.V.m.n.m.V.V.N.V.W.W.V.a.i.m.W.`.7XJXKXVX[.T.U.T.T.C.W.W.T.T.T.T.T.T.T.Z.9XSX!.i.7.8.8.7.e.d.d.d.d.d.f.f.G.H.K.|.L.L.L.(.%X%X%X%X&X&X*X-X-XjXjXzXHXKXKXKXKXKXKXKXHXHXjXjXjXjX-X*X&X%X%X%X$X(.L.L.P.P.P.P.H.l.l.x.d.d.d.d.f.f.d.d.h.z.5XnX[.W.`.Z.A.T.`.`.R.T.T.W.T.Z.W.'.8XKXKXyXZ.C.N.p.p.n.Z.`.W.C.N.N.N.m.V.C.C.m.k.n.k.k.k.a.a.a.a.a.N.`.[.S.p.u.u.p.a.a.n.a.a.n.a.p.i.0.0.w.-.,.N.T.`.[.[.;X[.;X{.{.}.}.m.0.j.j.C.[.[.C.k.k.k.z.N.V.R.].R.R.R.R.R.R.R.).}.wXeXm.y.j.j.OXdXtXdXdXdXdXiXiXtXyXsXGXZXZXZXZXZXZXZXZXZXZXZXZXZXZXZXZXZXZXZXZXZXZXZXJXfX[.Q.p.~ E E E E Y Y Y H X.n.a.p.a.p.:.E F D F A A Z Z b c c b Z Z b L I I K ] ;.6.y.p.s.s.;.' } ` ~ Z p p i i i i i i i i i i 0 # ",
"+ & 0 s u e e e e e r i i i s b ! ] X.&.0.N.V.N.k.y.:.] ` ] W G D G b g k c c b M Z Z S S F | u.v.n.V.V.0.Y Y Y E Q ! ! ! ~ &.k.>X5XsXJXZXZXZXZXZXZXZXZXZXZXZXZXZXZXZXZXZXZXZXZXZXZXGXbXtXtXuXuXuXuXdXdXdXdX4XV.j.p.p.].dXOXT.Y.Y.U.U.U.U.I.C.V.N.N.V.c.N.N.T.].oX[.:.&.:.p.W.oX>X3X3X1X>X>X>XoX[.T.p.X.X.X.-.<.w.p.j.j.j.j.j.j.p.0.p.M.W.C.S.C.a.a.a.a.a.n.k.n.n.n.n.n.V.M.n.m.m.V.N.V.W.W.V.a.i.m.W.`.7XJXKXVX[.C.T.T.T.C.W.W.T.T.T.T.T.T.T.Z.9XgXT.i.8.7.8.d.d.d.d.d.d.d.f.f.H.H.L.=XL.L.L.L.%X%X%X%X&X&X-X-XjXjXzXHXHXKXKXKXKXKXKXKXHXHXjXjXjX-X-X=X&X%X%X$X$X(.L.L.P.P.P.P.H.f.x.f.d.d.d.f.f.f.d.d.h.z.5XnX'.W.`.W.A.T.`.`.R.T.T.W.T.C.T.S.8XKXKXyXZ.C.N.p.p.m.Z.W.W.C.N.N.N.N.N.C.C.n.a.k.k.k.k.a.a.a.a.a.B.`.'.S.p.y.y.p.a.a.a.a.a.n.a.p.p.0.>.<.-.>.C.W.`.[.[.;X'.[.{.{.[.[.k.6.i.p.C.[.[.C.k.z.z.m.N.V.R.}.R.R.Q.Q.Q.Q.R.).}.eXtXV.y.p.k.OXdXtXdXdXdXdXiXiXtXyXsXJXZXZXZXZXZXZXZXZXZXZXZXZXZXZXZXZXZXZXZXZXZXZXZXJXfX[.Q.p.~ E E E E Y Y Y H X.n.a.p.a.p.>.E F D F A A Z Z b c l b Z Z b L I I K ` -.6.y.p.s.s.;.' } ` ~ Z a p i i i i t i i i i i 9 # ",
"@ = 0 i i e q r r r u i p p s b ! ] X.&.6.V.V.k.k.p.:.] ] ] ! G Z F b k k c m b M Z Z Z S G | u.v.n.N.V.0.Y Y Y E Q ! ~ ~ ~ &.k.>X7XxXJXZXZXZXZXZXZXZXZXZXZXZXZXZXZXZXZXZXZXZXZXZXZXGXbXtXdXdXdXdXdXuXdXdXdXwXV.j.i.0.W.dX1XR.Y.R.E.E.I.Y.Y.I.c.V.V.V.V.V.V.Y.R.}.].:.+.:.p.Z.[.>X>X3X>X>X>X>XoX[.T.a.:.X.&.:.0.q.p.a.k.a.a.a.a.p.w.p.N.W.S.`.C.a.p.a.p.v.a.a.n.v.k.k.k.V.M.m.M.m.m.m.N.!.W.C.j.i.V.W.`.8XJXKXGX[.C.T.T.T.U.T.W.T.W.W.Z.W.S.W.`.7XsXT.q.r.8.8.d.d.d.d.d.f.f.l.H.H.H.J.K.L.L.L.%X%X%X%X%X&X=X*X-XjXjXjXzXHXHXKXKXKXKXKXKXHXzXjXjXjX-X*X&X&X%X%X%X(.L.L.L.L.P.P.P.H.l.f.d.d.d.d.f.f.f.d.8.e.k.eXnX[.!.`.W.Z.T.`.`.T.Z.Z.W.N.N.Z.S.8XKXKX8XZ.C.N.p.j.M.T.`.W.Z.C.V.N.N.V.C.V.m.k.a.v.v.v.v.a.a.a.a.Z.'.'.S.p.y.y.u.y.p.k.k.k.k.k.p.p.p.>.>.-.:.Z.W.`.[.[.[.[.[.:X>XoX[.j.4.0.j.U.>XoXC.k.z.c.V.V.V.T.+XR.R.R.Q.R.R.R.].].uXeXk.i.s.j.OXdXtXaXtXaXdXaXtXtXtXsXZXZXZXZXZXZXZXZXZXZXZXZXZXZXZXZXZXZXZXZXZXZXZXZXJXhX[.`.p.] E E E E E Y T Y X.v.p.p.a.p.:.E F F F D D Z Z b c c b Z Z b G G I H ~ &.>.y.p.a.p.;.` } ` ` Z a p p p i i t t p p i i 0 # ",
"# = e a i e q r r r u i p p s b ! ] X.&.6.V.V.m.n.p.:.] ~ | ] Y Z F b k k c m b M Z Z Z S G | u.n.n.N.N.0.Y Y Y E ^ ! ~ ~ ~ &.k.>X7XxXJXZXZXZXZXZXZXZXZXZXZXZXZXZXZXZXZXZXZXZXZXZXZXVXbXtXdXdXdXdXdXuXdXdXdXwXV.j.i.0.W.aXOXT.Y.Y.I.I.I.Y.Y.I.c.V.V.V.V.V.V.Y.R.}.].>.&.:.p.Z.[.>X>X3X>X3X>X,X>X[.T.a.>.&.:.6.y.q.p.a.k.a.a.a.a.p.p.p.p.p.v.N.v.p.p.a.p.a.a.a.a.b.b.k.n.V.m.M.M.V.V.V.V.`.W.V.p.i.V.W.W.8XJXKXGX[.T.W.T.T.U.T.W.T.W.W.Z.W.S.W.!.7XhXT.8.r.8.8.r.h.d.l.E.f.x.l.H.H.H.J.L.L.L.(.%X%X%X%X%X%X=X-XjXjXjXjXzXHXHXKXKXKXKXKXHXHXzXjXjX-X-X*X&X%X%X%X$X(.(.L.L.L.P.P.H.H.l.f.f.l.g.d.d.f.e.e.8.e.k.eXnX[.W.W.W.Z.T.`.`.T.Z.Z.W.C.N.Z.W.8XKXKX8XZ.C.N.p.n.V.T.!.W.Z.C.V.N.M.V.C.C.k.k.a.v.v.v.v.a.a.a.a.B.C.N.v.0.y.y.p.i.a.k.k.k.k.k.a.a.a.w.>.,.:.C.W.`.].].'.[.:X>X>X[.[.j.4.6.j.U.>XoXC.k.z.c.J.V.I.T..XR.Y.R.R.R.T.R.].].uXeXk.i.s.j.OXdXtXaXtXdXdXaXaXaXaXsXZXZXZXZXZXZXZXZXZXJXJXZXZXZXZXZXZXZXZXZXZXZXZXZXJXsX[.`.p.] E E E E E Y Y Y X.v.p.p.p.p.:.E F F F D A Z Z b c c b Z Z n H U Y Y ~ &.>.i.p.k.a.;.` } ` ` Z a s p p i i i i t p i i 0 # ",
"# = e a s e q r r r u i p p s b ~ } X.X.0.V.V.m.m.p.>.] W ~ ! H Z F b k k c b b M Z Z Z S F | s.n.N.N.C.w.Y Y T E ^ ~ ~ ~ ~ &.k.>X7XxXJXZXZXZXZXZXZXZXZXZXZXZXZXZXZXZXZXZXZXZXZXZXZXVXbXiXdXdXdXdXdXdXdXdXdXwXV.k.i.0.W.tXoXE.I.Y.I.I.V.I.I.V.V.V.V.V.V.N.N.Y.R.}.].>.&.:.p.Z.[.>X>X3X>X>X>X>X[.{.T.y.>.-.:.0.y.q.p.a.k.a.a.a.a.a.a.p.>.X.} X.>.p.p.p.p.p.p.p.p.b.b.n.m.V.M.M.M.V.V.V.V.`.W.V.i.y.m.W.S.8XJXKXGX{.T.Q.T.T.T.T.W.W.W.W.Z.W.S.W.!.7XhXT.8.8.d.8.r.h.d.l.E.f.f.l.l.H.J.K.L.~.~.~.~.%X%X%X%X&X*X-XjX-XjXjXHXHXHXKXGXHXHXHXHXzXjXjX-X-X-X*X&X%X%X%X$X(.%X&X%XL.P.P.H.H.l.f.f.l.l.d.g.f.f.e.e.e.k.9XnX[.!.W.W.Z.T._._.T.Z.W.Z.C.V.W.`.8XKXKX8XD.C.N.p.p.m.Z.W.T.Z.C.V.V.m.V.I.C.k.k.k.v.v.a.a.a.a.a.a.p.&.} } -.u.y.p.p.a.k.k.k.n.k.a.n.n.y.>.:.:.n.C.T.T.!.'.:X>X>X>X{.[.j.4.4.i.U.>X>XT.m.V.c.J.V.I.R.OX|.R.].R.E.R.R.].].uXwXk.i.k.j.OXdXtXaXtXdXdXaXaXaXaXsXZXZXZXZXZXZXZXJXJXJXJXZXZXZXZXZXZXZXZXZXZXZXZXZXJXsX[.`.p.] E E E E Y Y Y Y ..v.p.p.p.p.:.E F F D Z Z Z Z M c b M Z Z n G H Y Y ] -.0.p.k.k.k.:.` } ` ` Z a s p p i i i t p p i i 0 # ",
"o = e p s t e r r r u i p p s b ~ } X.X.0.V.V.m.m.y.:.] Y H Z b Z F b k k c b M M Z Z Z S F | s.n.N.N.C.w.Y Y T E ^ ! ~ ~ ~ &.k.>X7XxXJXZXZXZXZXZXZXZXZXZXZXZXZXZXZXZXZXZXZXZXZXZXZXVXbXtXdXdXdXdXdXdXdXdXdXwXV.k.i.0.W.tXoXY.I.Y.Y.I.I.I.K.c.V.V.V.V.V.N.N.Y.R.[.].>.&.:.p.Z.[.>X>X3X>X[.[.[.].W.C.y.0.-.>.0.y.q.p.a.k.a.a.a.a.a.n.p.,.] ] ] :.p.p.p.p.p.p.p.p.p.b.n.m.V.M.M.M.C.V.V.C.`.W.m.y.q.m.T.S.8XJXKXGX{.W.Q.W.T.T.T.W.W.W.W.Z.W.S.W.!.7XhXT.8.8.d.r.r.r.d.d.d.f.l.l.l.H.J.K.L.~.L.L.L.%X%X%X%X=X-X-X-XjXjXjXHXHXHXHXHXHXHXHXzXzXjXjX-X-X*X&X%X%X%X%X%X%X%XL.%XL.P.P.H.l.l.f.f.l.l.d.d.f.f.e.e.e.k.9XnX[.W.W.W.Z.T._._.T.Z.W.W.C.C.W.`.8XKXKX8XD.C.N.p.0.a.C.W.T.Z.C.V.V.m.V.I.C.z.k.k.k.a.a.a.a.a.a.a.0.] E ~ X.p.u.p.p.a.n.n.n.n.n.k.n.n.y.>.>.-.y.v.V.T.W.'.>X>X>X>XoX.Xb.6.4.q.U.>X>XT.N.V.c.J.V.I.T.@X.X X].E.E.R.T.].].uXwXk.i.k.j.,XdXtXaXtXdXdXaXaXaXaXsXZXZXZXZXZXZXZXJXJXJXJXZXZXZXZXZXZXZXZXZXZXZXZXZXJXsX[.W.p.] E E E E Y Y T Y ..v.p.p.p.p.:.E F D Z Z Z Z M b l b M A Z x Z D D Y ] -.0.p.k.m.k.:.` } ` ` Z a s p p i i i i p i i i 0 $ ",
"$ & 6 p s t e r r r i i p p a n ] } X.X.0.V.m.N.m.y.:.` Y G b b Z F b g k c c b M M Z Z S F | s.n.n.N.V.w.Y Y E E ! ! ` ~ ! -.N.3X7XnXmXZXZXZXZXZXZXZXZXZXZXZXZXZXZXZXZXZXZXZXZXZXZXJXnXtXdXdXdXuXuXuXuXdXdX4Xm.k.q.y.[.fXOXR.Y.Y.I.V.V.V.V.c.V.V.V.V.V.N.N.A.R.[.[.0.&.;.y.Z.{.>X>X3X>X>X[.'.W.C.n.0.0.:.:.y.y.p.a.n.k.a.a.a.a.a.a.y.-.! W ] :.p.p.a.a.p.p.p.p.a.a.n.N.N.N.n.M.V.C.Z.W.[.'.m.0.0.k.T.W.8XJXJXVX[.W.T.W.T.T.].W.W.!.W.W.W.W.W.!.sXnXT.i.r.d.r.r.r.d.f.f.f.l.l.H.H.J.K.L.~.~.~.~.|.%X%X%X&X*X-X-XjXjXzXzXzXzXzXzXzXzXzXjXjX-X-X-X*X*X=X=X%X%X$X/.L.L.L.P.P.P.H.H.l.l.g.d.d.d.d.d.f.e.e.e.e.m.9XSX>X!.W.W.W.T.T.T.T.W.W.W.W.Z.`.`.8XKXKXyXS.T.N.p.0.p.C.`.W.Z.C.V.V.m.V.C.C.N.k.k.k.a.a.a.a.a.a.a.y.] W ] =.p.p.a.k.k.k.k.a.a.a.a.a.p.w.>.>.:.y.V.C.W.'.[.:X:X>X>X>X'.n.6.4.i.I.,X1XW.N.z.J.J.V.I.E.OXR.R.R.E.E.T.T.E.].uXeXk.i.j.m.,XdXtXaXiXdXdXtXtXtXtXnXZXZXZXZXZXZXZXZXZXZXZXZXZXZXZXZXZXZXZXZXZXZXZXZXJXsX[.W.p.] E E E E Y Y Y G ..n.a.p.a.p.:.E F F D Z Z Z M b l c M Z Z m b Z D Y ] -.y.k.m.k.V.;.` ' ` ` Z a p p p i i i i i i i i 0 + ",
"$ % 6 p s t e r r r i i p p a n ] } X.X.y.C.N.N.m.p.>.] T H Z Z Z F b g k c c b M M Z Z V F | s.v.n.N.V.w.Y Y E E ! ! ` ~ ! -.N.3X7XnXmXZXZXZXZXZXZXZXZXZXZXZXZXZXZXZXZXZXZXZXZXZXZXJXnXtXuXuXuXuXiXuXuXdXdX4Xm.j.q.y.[.fXOXR.Y.Y.I.V.V.V.V.c.V.V.V.V.V.N.N.A.R.}.].>.+.:.y.C.{.>X,X3X>X>X>X[.!.C.n.y.0.>.:.i.y.p.a.n.k.a.a.a.a.a.a.y.-.! W ] :.p.p.a.a.p.p.p.p.a.a.n.N.N.N.M.M.V.C.C.W.[.!.k.0.0.k.T.W.8XJXJXVX[.W.T.T.T.T.].W.W.!.W.W.W.W.W.!.sXnXT.8.r.d.r.r.d.d.f.f.f.l.l.H.H.J.K.L.~.~.~.~.|.%X%X%X=X*X*X-XjXjXzXzXzXjXzXzXzXjXjXjX-X-X-X-X*X&X&X&X%X%X$XL.L.L.K.P.P.H.H.H.l.f.f.d.d.d.d.d.f.f.e.e.e.m.9XSX>X!.W.W.W.W.T.T.T.W.W.W.W.Z.`.`.8XKXKXyXS.T.N.p.0.n.W.!.W.Z.C.V.V.M.V.C.V.N.k.k.a.a.a.a.a.a.a.a.y.] W ] =.p.p.a.k.k.k.k.a.a.a.a.a.p.0.>.>.:.y.V.T.].[.[.:X:X>X>X>X'.n.0.4.i.V.OX1XW.N.z.J.J.V.I.T.).R.R.R.E.E.E.E.T.].rXeXk.s.k.m.,XdXtXaXaXdXdXtXtXtXtXnXZXZXZXZXZXZXZXZXZXZXZXZXZXZXZXZXZXZXZXZXZXZXZXZXJXsX[.W.p.] E E E E Y Y Y G ..n.a.p.a.p.:.E F F D Z Z Z M b l c M Z Z m n Z D Y } &.0.m.V.k.m.;.` ' ` ` Z a p p p i i i i i r i i 0 + ",
"$ % 6 p s t e r r r i i p p a n ] | X.X.0.V.m.N.m.p.:.` E Y Z Z Z F b k k c c b M Z Z Z S F  .s.v.n.N.C.w.Y Y E E ! ! ` ~ ~ -.N.3X7XnXmXZXZXZXZXZXZXZXZXZXZXZXZXZXZXZXZXZXZXZXZXZXZXJXnXtXtXtXtXuXuXdXuXdXdX4Xm.j.q.y.[.fXOXR.Y.Y.V.V.V.V.V.V.V.V.V.V.V.V.V.A.R.}.`.6.;.>.p.Z.{.>X>X3X>X>X>X>X].C.N.y.y.>.:.y.y.p.a.n.k.a.a.a.a.a.a.p.-.! W ] :.p.p.a.a.p.p.p.p.p.p.n.N.N.N.n.M.B.V.V.U.'.!.k.6.0.k.T.W.sXJXJXVX[.W.T.T.T.T.`.W.W.!.W.W.W.W.W.S.sXnXT.8.r.d.r.r.d.d.f.g.f.l.l.H.J.J.K.L.~.~.~.~.|.%X%X%X=X*X*X-XjXjXjXjXjXjXjXjXjX-X-X-X-X-X*X*X=X&X&X&X%X%X(.L.L.L.J.H.J.H.H.l.l.f.f.d.d.d.d.d.f.f.e.e.e.m.9XnX>X`.W.W.W.W.T.T.T.W.W.W.S.Z.`.`.8XKXKXyXW.T.N.p.6.m.W.`.W.Z.C.V.N.m.V.C.V.c.k.k.v.a.v.v.v.v.a.a.y.] W ] =.p.p.a.a.a.a.a.a.a.a.a.a.a.0.:.0.>.p.C.T.].oX[.:X:X>X>X>X'.m.q.8.h.I.@XoXW.N.V.J.J.V.I.Y.Y.R.R.E.E.E.E.T.).].wXeXp.s.k.m.,XdXaXaXaXaXdXtXtXtXtXnXZXZXZXZXZXZXZXZXZXZXZXZXZXZXZXZXZXZXZXZXZXZXZXZXJXsX[.W.p.] Q E E E Y Y Y H X.n.a.p.a.p.:.E F F D Z Z Z M b l c M Z Z m Z F G Y ..&.:.k.V.V.V.;.` ' ` ` Z a p p p i i i i i i i p 0 + ",
"$ % 6 p s t e r r r i i i p a n ] } X.X.;.k.k.N.k.w.;.~ E Y Z Z Z F b k z c c b M Z Z Z S F  .s.v.n.N.C.w.Y Y E E Q ! ! ~ ~ -.N.1X5XnXmXZXZXZXZXZXZXZXZXZXZXZXZXZXZXZXZXZXZXZXZXZXZXJXnXtXtXtXtXtXuXdXuXdXdX4Xm.k.i.y.[.gXOXR.Y.Y.V.V.V.V.V.V.V.V.V.V.V.V.V.Y.R.[.`.y.w.0.a.Z.{.>X>X3X>X>X>X[.!.V.n.y.y.:.:.y.y.p.a.n.k.a.a.a.a.a.a.p.-.! W ] :.p.p.a.a.p.p.p.p.p.a.n.N.N.N.n.M.M.V.V.Z.'.!.n.6.0.k.T.W.8XJXJXVX[.W.T.T.T.T.`.W.W.!.W.W.W.W.W.S.9XhXT.i.r.d.r.r.d.d.g.g.g.l.l.H.J.J.K.K.~.~.~.~.|.|.%X%X=X*X*X-X-XjXjXjXjXjX-X-X-X-X-X*X-X*X&X&X%X%X%X&X%X%X(.L.L.L.P.H.H.H.l.f.f.f.d.d.d.d.d.d.d.d.e.e.e.z.eXnX>X`.W.W.W.W.T.T.T.W.W.W.S.Z.`.`.8XKXJX8XW.T.N.s.6.n.C.!.W.Z.C.V.N.N.V.C.C.N.k.k.v.v.v.v.v.v.a.a.y.] W ] =.p.p.a.k.k.k.k.a.a.a.a.n.p.<.-.0.>.p.C.T.].[.oX:X:X>X>X;X[.V.y.h.z.Y.3X>XT.V.V.V.J.V.I.I.E.Y.R.E.E.E.T.T.].].3XwXp.s.k.m.,XdXaXaXaXdXdXtXtXtXtXbXJXZXZXZXZXZXZXZXZXZXZXZXZXZXZXZXZXZXZXZXZXZXZXZXJXsX[.W.p.] Q E E Y Y Y I G X.n.a.p.a.p.:.E F D Z Z Z Z b b z c Z Z Z m S G G Y o.X.&.0.p.k.V.;.` ' ` ` Z a p p p i i i i i i i p 0 + ",
"$ % 6 i i e e r r u i i i i p M ] ..X.X.-.:.a.A.n.p.-.~ W Y Z Z Z Z b z z c c c n M Z Z A G | s.v.n.N.V.0.Y Y Y E W ! _ ! ~ -.N.1X5XxXJXZXZXZXZXZXZXZXZXZXZXZXZXZXZXZXZXZXZXZXZXZXZXGXbXtXrXeXeXtXuXdXdXdXiX4Xm.j.q.y.[.aXoXR.Y.Y.Y.C.V.V.V.V.V.V.V.m.m.N.V.I.R.}.Q.k.V.k.k.W.[.>X>X>X>X>X{.{.`.Z.V.p.p.6.&.w.w.y.a.n.a.a.a.a.a.a.a.p.&.E ~ ] >.u.p.a.a.a.p.p.p.a.a.n.N.V.m.n.n.M.B.V.S.!.S.a.6.i.m.T.!.8XJXJXmX[.T.T.T.T.T.].W.W.W.W.W.S.S.S.S.8X8XZ.q.e.d.r.r.r.d.d.g.g.l.l.H.J.J.K.K.L.~.~.|.|.%X%X=XpX*X*X*X*X-X*X*X*X*X*X-X-X-X*X*X&X&X&X&X%X%X%X%X%X%X~.~.L.K.P.H.H.H.l.f.l.H.d.d.d.d.8.8.d.d.e.e.e.j.5XnX;XW.W.W.W.W.W.W.W.W.W.W.W.W.W.S.7XJXJX8XS.N.k.p.0.a.Z.W.`.A.V.V.N.m.V.V.V.n.n.N.N.n.k.a.a.a.k.k.y.] W } =.p.p.p.a.k.k.n.k.k.k.k.k.p.:.>.y.>.u.C.!.[.{.{.[.{.{.{.{.!.N.p.j.m.V.4X2X'.T.V.V.I.I.c.V.I.E.E.E.E.E.E.T.R.].rX3Xk.i.k.m.oXfXaXtXtXtXtXuXuXuXtXxXJXZXZXZXZXZXZXZXZXZXZXZXZXZXZXZXZXZXZXZXZXZXZXZXZXsX[.W.s.] ! E E Y Y Y Y G  .n.n.k.a.p.>.E Z D A Z A Z b b z z Z F Z b A A F Y o.&.&.y.i.s.k.-.' ' ` ~ Z a p i i i i i t i i i p 0 + ",
"$ % 6 i i e q r r u u i i i p M ] ..X.X.-.6.v.N.n.p.-.~ Y I V b Z Z b z z c c c n M Z Z A G | s.v.n.M.V.0.Y Y Y E W ! ! ! ~ -.N.1X5XxXJXZXZXZXZXZXZXZXZXZXZXZXZXZXZXZXZXZXZXZXZXZXZXJXbXtXeXuXuXtXdXdXdXdXiX4Xm.j.q.y.[.aXoXR.E.Y.Y.C.V.V.V.V.C.V.V.m.V.N.V.I.R.].W.j.m.k.k.T.[.>X>X>X>X>X{.{.`.Z.V.p.p.:.O.0.0.w.a.n.a.a.a.a.a.a.p.p.&.E ~ / :.u.p.a.a.p.p.p.p.a.a.n.N.V.m.n.n.M.B.V.S.!.S.a.6.s.m.T.!.8XJXJXmX[.T.T.T.T.T.].W.W.W.W.W.S.S.S.S.8XtXT.q.e.d.d.r.d.h.d.g.g.l.l.H.J.J.K.K.L.~.~.|.|.|.%X=XpXpX*X=X*X*X*X*X*X*X*X*X*X*X&X&X&X%X%X%X%X%X$X(.%X~.~.L.L.K.P.H.H.H.f.f.l.H.d.7.d.e.8.8.r.d.e.8.r.j.5XnX;XW.W.W.W.W.W.W.W.W.W.W.W.W.W.W.7XJXJX8XS.V.c.p.0.n.S.!.W.C.B.N.V.m.N.V.N.n.n.N.N.n.k.a.a.a.k.k.y.] W | =.p.p.a.k.k.n.n.k.k.k.k.k.p.:.>.y.>.u.C.!.[.{.{.[.{.{.{.{.W.N.a.V.U.C.4X5X{.T.V.I.I.V.z.V.Y.E.E.E.E.E.E.T.R.].rX3Xk.y.k.m.>XfXaXtXtXtXtXuXuXuXtXxXJXZXZXZXZXZXZXZXZXZXZXZXZXZXZXZXZXZXZXZXZXZXZXZXZXsX[.).s.] ! Q E Y Y Y K G  .n.n.k.a.p.>.E Z A Z A N M b c k z Z F Z b Z Z D G ..;.:.i.s.N.V.;.` ' ` ~ Z p p i i i i i t i i i p 0 + ",
"$ % 6 i u e q r r u u u i i p M ] ..$.$.>.k.N.N.a.w.=./ E Y V v Z A b z z c c c n M Z Z F G | s.v.v.n.V.0.Y Y Y E W ! ! ! ~ -.B.1X5XxXJXZXZXZXZXZXZXZXZXZXZXZXZXZXZXZXZXZXZXZXZXZXZXJXbXtXeXuXuXuXdXdXdXdXiX5XV.k.q.i.[.aXoXR.E.Y.Y.C.V.V.V.V.C.V.V.V.V.N.V.I.R.}.Q.k.V.V.k.C.'.>X>X>X>X>X{.{.`.Z.V.p.p.;.X.0.0.y.a.n.a.a.a.a.a.a.p.p.&.W ! ~ -.p.a.a.a.a.a.a.a.a.a.n.N.V.m.n.n.N.B.V.Z.`.S.a.6.s.m.T.!.8XJXJXmX[.T.T.T.T.T.].W.W.W.W.W.S.W.S.S.8XyXT.i.e.d.d.r.z.c.d.g.g.l.l.H.K.K.K.L.L.~.~.|.|.|.+X=X*X=X=X=X&X=X=X=X=X=X=X=X&X&X&X%X%X%X%X%X(.(.(.(.L.L.L.L.L.P.H.H.H.l.f.f.d.d.e.d.r.8.8.7.d.d.e.8.r.j.5XnX;XW.W.W.W.W.W.W.W.W.W.W.W.W.W.W.7XJXJX8XS.A.V.p.0.a.Z.W.W.C.N.N.V.m.V.V.N.n.n.N.N.n.k.k.a.k.k.k.w.] ! o.-.p.a.a.k.k.k.k.k.k.k.k.k.p.:.>.y.>.p.Z.!.[.{.{.[.{.{.{.[.W.N.k.C.T.T.4X5X'.U.I.I.c.z.z.V.I.E.E.T.T.E.E.T.R.].rX4XN.0.j.m.>XhXaXtXaXtXtXuXuXuXtXxXJXZXZXZXZXZXZXZXZXZXZXZXZXZXZXZXZXZXZXZXZXZXZXZXZXsX[.).s.] ! Q T Y Y Y K G  .n.n.k.a.p.>.! Z A Z A N M b c k z Z Z b c b Z Z G o.:.>.i.k.V.T.5.` ` ' ~ Z p i i i i i i t i i i p 0 + ",
"$ % 6 p u e q r r u u u i i p M ] ..$.X.>.N.N.n.p.w.=./ ! Y V v Z A b z z c c c n M Z Z F F | u.v.n.n.V.0.Y Y Y E W ! ! ! ~ -.B.1X5XxXJXZXZXZXZXZXZXZXZXZXZXZXZXZXZXZXZXZXZXZXZXZXZXJXbXiXuXuXuXuXaXdXdXdXiX5XV.k.q.i.[.aXoXR.E.Y.Y.C.V.V.V.V.C.V.V.V.V.N.V.I.R.oX[.M.Z.V.a.V.'.>X>X>X>X>X{.{.`.Z.V.p.p.;.O.0.w.y.a.n.a.a.a.a.a.p.p.p.&.W ! ! &.p.a.a.a.a.a.a.a.a.a.n.N.V.m.n.n.N.B.V.Z.`.S.a.6.i.m.T.W.8XJXJXmX[.T.T.T.T.T.].W.W.W.W.W.W.W.S.S.8XsXT.i.e.d.d.r.).R.g.d.g.l.l.H.K.K.K.L.L.~.~.~.%X+X=X=X%X%X%X=X&X&X&X&X&X&X&X&X&X&X%X%X%X%X%X%X(.(.(.L.L.L.L.K.P.P.H.H.l.l.f.f.d.d.d.d.8.8.7.7.d.d.e.7.r.k.5XnX;XW.W.W.W.W.W.W.W.W.W.W.W.W.W.W.7XJXJX8XS.Z.V.p.6.p.C.W.T.V.N.N.V.m.N.V.N.n.n.N.N.n.k.k.a.k.k.k.0.] ~ X.=.p.p.a.a.a.a.a.k.k.k.k.k.p.:.>.p.0.s.Z.!.[.{.{.[.{.{.{.[.W.N.n.V.T.T.4X<XZ.V.I.I.c.z.z.V.I.E.T.T.T.E.E.T.R.].rX5XN.6.p.m.oXfXaXtXaXtXtXuXuXuXtXxXJXZXZXZXZXZXZXZXZXZXZXZXZXZXZXZXZXZXZXZXZXZXZXZXVXsX[.).s.] ! Q T Y Y Y K G  .n.k.a.a.p.>.! Z A Z A N M b c k c M Z b c b Z Z Y o.:.:.i.s.V.T.6.} ` ' ~ Z p i i i i i i t i i i i 0 + ",
"# % 6 i u q 0 q r u u u i i i b ! ] &.&.0.n.M.n.p.p.,.] W H Z b Z F b z c c k c b b Z Z V F o.s.v.v.n.m.6.Y Y Y E W ! ! ! ~ >.B.1X5XbXJXZXZXZXZXZXZXZXZXZXZXZXZXZXZXZXZXZXZXZXZXZXZXJXbXdXdXdXdXuXaXdXdXdXiX4XV.k.i.s.oXaXOX).E.E.Y.I.C.V.V.V.I.V.V.N.N.V.N.C.`.oX`.k.m.T.a.W.{.>X>X1X>X>X>X{.[.T.V.p.y.,.+.p.w.p.a.n.v.a.a.a.v.a.p.u.o.Y Y Y -.p.a.a.a.a.a.a.a.a.a.v.N.m.m.n.n.B.V.V.C.S.S.a.0.i.N.R.W.8XJXJXmX[.T.T.T.T.T.`.W.W.W.W.W.W.W.W.S.sXsXW.i.d.d.d.r.z.x.d.d.f.l.l.H.H.J.L.L.~.~.~.|.+XjXzXjX=X%X%X%X%X%X%X%X%X%X%X%X%X%X%X%X%X&X%X(.L.L.L.L.K.K.P.P.K.L.K.f.f.f.f.d.d.e.d.8.8.8.8.7.7.7.7.7.r.k.2XnX;XW.W.W.W.W.W.W.T.T.W.W.W.W.W.W.8XJXKX8XS.C.V.y.0.a.Z.W.W.C.B.N.m.m.N.C.N.n.n.N.N.n.k.k.a.a.a.a.0.~ ! } &.a.p.a.k.k.k.n.k.k.k.k.k.p.:.>.y.>.s.Z.!.[.[.{.{.{.>X;X[.W.n.a.m.V.`.5X5X`.C.Y.c.c.c.I.V.U.T.E.E.T.T.T.E.R. XrX5Xn.0.k.z.,XgXfXtXaXaXaXdXuXtXtXsXJXZXZXZXZXZXZXZXZXZXZXZXZXZXZXZXZXZXZXZXZXZXZXZXVXsX[.].k.} E Q E Y Y Y Y G ..m.n.a.p.y.5.^ Z Z Z A N Z b b c c b M b c Z F F H o.:.>.i.s.N.V.:.} ` ` Q Z p p i i i i i i p p i i q # ",
"# % 6 i u q 0 q r e u u i i i b ! ] $.&.0.n.M.n.p.p.,.` W H Z b Z F b z b c x c b b Z Z V F o.s.v.v.n.m.6.Y Y Y E W ! ! ! ! >.B.1X5XbXJXZXZXZXZXZXZXZXZXZXZXZXZXZXZXZXZXZXZXZXZXZXZXJXbXtXeXuXuXuXtXeXtXuXiX5XV.k.i.s.oXaXoX].E.T.Y.C.C.V.V.V.I.C.V.N.N.N.N.A.].oXV.y.n.a.0.C.{.>X1X1X>X>X>X{.[.T.V.p.q.;.&.p.p.p.a.n.v.a.a.a.a.a.p.y.o.G Y Y &.a.a.a.a.a.a.a.a.a.a.v.N.M.m.n.n.B.V.V.C.S.Z.a.0.i.N.R.W.8XJXKXmX[.T.T.T.T.T.`.W.W.W.W.W.W.W.W.S.sXsXW.i.d.d.d.r.x.8.d.d.f.l.l.H.P.K.K.L.~.~.%X=XpXzXjXjX=X=X%X%X%X%X%X%X%X%X%X%X%X%X(.(.(.%X|.L.L.L.L.K.K.P.P.P.H.~.L.l.f.d.d.d.d.e.8.8.8.7.7.7.7.7.7.7.r.k.2XnX;XW.W.W.W.W.W.W.T.T.W.W.W.W.W.W.8XJXKXqXS.Z.C.y.0.a.Z.W.W.C.B.N.m.m.N.C.V.n.N.N.N.n.k.k.a.a.a.a.y.~ T W o.p.a.n.k.k.n.n.n.k.k.k.k.p.-.;.y.>.s.Z.!.[.[.{.{.{.;X;X{.W.n.w.6.s.`.1X>X`.U.I.c.z.c.I.V.U.E.E.T.T.T.T.E.R. XeXeXN.6.k.m.3XgXfXaXaXaXaXdXuXtXtXsXJXZXZXZXZXZXZXZXZXZXZXZXZXZXZXZXZXZXZXZXZXZXZXZXVXsX}.].k.} E Q E Y Y Y Y G ..M.n.p.p.y.5.Q Z Z Z A N Z n b c c b M b c Z F F H o.:.>.y.s.N.N.:.} ` ` ~ Z p p i i i i i i i i i i q # ",
"# % 6 i u q 0 q q e u t p p i b ! } $.&.0.n.M.n.p.p.:.` W H Z b Z F b z b b c m Z Z Z Z V F  .s.v.n.n.m.6.Y Y Y E W ! ! ! ! >.C.1X5XbXJXZXZXZXZXZXZXZXZXZXZXZXZXZXZXZXZXZXZXZXZXZXZXJXbXtXeXeXuXeXeXeXeXtXuX5XV.k.s.k.1XdXOX].R.E.T.T.A.V.V.I.I.C.V.N.N.V.V.Z.[.oXC.a.n.y.:.B.{.<X1X1X1X>X;X{.[.T.V.p.q.:.&.p.p.p.a.n.v.a.a.a.a.a.a.y.o.F Y Y -.a.a.a.a.a.a.a.a.a.a.v.N.m.m.n.n.B.V.V.C.Z.Z.a.6.i.N.R.W.8XJXKXmX[.T.T.T.T.T.].`.W.W.W.W.W.W.T.Z.sXsXW.i.d.d.d.r.d.d.d.d.f.l.l.H.H.J.K.L.~.~.+XpXHXzXpX=X=X%X%X%X(.(.(.(.(.(.(.(.(.(.(.L.L.L.L.K.L.K.P.K.P.K.P.P.G.H.H.f.f.d.f.e.8.e.8.7.7.7.5.7.7.7.7.7.r.k.<XbX;XW.W.W.W.S.W.W.T.W.W.W.W.T.T.W.8XJXKXqX`.T.A.y.0.a.Z.W.W.C.B.N.m.m.N.C.V.n.n.N.N.n.k.k.a.a.a.a.p.] Y Y ] p.a.n.k.m.m.m.n.n.k.k.p.p.;.:.y.>.s.Z.!.[.[.{.{.{.>X>X{.W.a.>.6.s.`.{.`.T.V.z.J.c.c.I.I.I.E.E.T.T.T.T.E.R. XeXtXN.6.p.V.,XgXtXtXaXaXaXdXuXtXtXsXJXZXZXZXZXZXZXZXZXZXZXZXZXZXZXZXZXZXZXZXVXVXVXVXVXsX}.].k. .W ! Q Y Y Y Y G ..M.n.a.p.y.5.! Z Z Z A N Z b b b c b M b c Z D F H o.:.>.y.s.k.k.;.} ` ` ] S p p i i i i i i p p i i 0 + ",
"# % 6 i i q 0 q q e e t p p i b ! } $.&.0.n.M.n.p.p.:.~ W H Z b Z F b z b b m b Z Z Z Z V F  .s.v.v.n.m.6.Y Y Y E W ! ! _ ! >.C.1X5XbXJXZXZXZXZXZXZXZXZXZXZXZXZXZXZXZXZXZXZXZXZXZXZXGXnXeXwXrXeXeXeXwXwXeXeX4XC.k.s.k.1XdX,X].R.T.T.A.A.V.V.V.V.C.V.N.N.N.V.T.}.oXA.n.a.y.:.B.{.>X1X1X1X>X;X{.[.T.V.p.q.0.=.p.w.p.a.n.n.a.a.a.a.a.a.y.o.G Y E >.a.a.a.a.a.a.a.a.a.a.v.N.m.m.n.n.N.V.V.C.Z.Z.s.6.i.N.R.W.8XJXKXmX[.T.T.T.T.T.].`.W.W.W.W.W.W.T.Z.sXsXW.i.8.d.r.d.d.d.d.d.f.l.l.H.H.J.L.L.~.~.=XjXjXpX*X=X|.~.L.L.(.(.(.(.(.(.(.(.(.|.L.L.L.L.L.L.K.K.P.P.K.J.P.G.g.l.f.d.f.d.d.e.8.8.8.7.7.7.7.7.7.7.7.7.8.s.<XbX;XW.W.W.W.W.W.W.T.W.W.W.T.T.T.S.7XJXKXqX`.T.T.i.0.a.T.W.W.A.V.V.N.m.V.C.V.N.N.N.N.n.n.k.a.a.a.a.p.] E Y ] p.a.p.m.m.m.m.n.n.k.k.p.p.>.6.y.>.s.Z.!.[.[.{.{.{.>X>X[.W.a.:.i.s.[.>X3XT.z.z.J.c.J.I.I.I.E.E.T.T.T.T.E.R. XeXtXN.6.p.m.>XdX5XaXaXaXaXaXuXtXtXsXJXZXZXZXZXZXZXZXZXZXZXZXZXZXZXZXZXZXZXZXVXVXVXVXVXsX}.].k. .W W Q Y Y Y Y G ..M.n.a.p.y.5.! Z Z Z N N Z b b c c b M b z Z D Z H o.:.>.i.s.k.k.;.} ` ` ] F p p i i i i i i i p i i 0 + ",
"# $ 9 i t e 0 0 e e e u i i i b ! } X.=.w.n.n.v.p.i.:.` W Y Z C Z G C z b b m n F S Z Z F G ..a.N.N.n.n.6.Y Y Y T E W ! ~ ! :.C.1X5XxXJXZXZXZXZXZXZXZXZXZXZXZXZXZXZXZXZXZXAXAXZXZXJXGXgXeXwXeXeXeXeXeXeXeXeX4XT.m.m.s.>XdX5X].].T.T.T.T.A.T.T.R.R.R.R.R.R.[.}.}.[.C.n.n.N.i.V.[.>X1X1X1X>XoX{.[.!.V.p.p.0.:.p.w.u.p.n.n.a.a.a.a.a.a.w...Y W Q >.a.a.a.v.n.n.v.v.v.v.n.V.N.n.n.N.V.V.N.N.C.W.k.6.y.C.R.S.8XJXKXxX!.T.W.W.T.T.].`.W.W.W.W.S.S.S.S.sXsXW.i.d.d.d.d.d.d.d.d.x.l.H.G.G.P.L.~.~.=XjXjXpX=X%X|.L.L.L.L.(.(.(.L.L.L.L.L.L.L.L.L.L.K.K.K.J.J.J.H.H.K.H.g.l.d.d.d.d.d.d.r.8.d.d.7.5.7.7.7.8.8.7.7.8.s.<XhX;XW.W.W.W.S.W.W.W.W.W.W.T.C.C.S.7XZXKXqX`.W.T.p.0.k.V.W.W.Z.C.V.N.N.N.V.V.N.n.N.N.n.n.n.n.n.n.n.w.] T E X.p.a.n.n.n.n.n.n.n.n.a.a.y.0.y.k.i.n.`.!.'.[.oX{.{.{.{.].W.k.;.:.s.`.{.4X}.R. XR.R.).].T.T.R.T.R.R.R.R.R.].oXrXaXV.0.i.N..XeXeX3XwXtXaXdXdXtXtXbXNXZXZXZXZXZXZXZXZXZXZXZXZXBXBXZXZXZXZXZXVXVXVXVXVXsX}.].k. .E W E E Y Y Y G o.n.n.p.0.0.6.Q Z F D Z Z Z M b c b n M b z Z D Z H o.:.:.i.p.k.i.;.` ` ` ~ S p p i i i i i i i i i p 0 + ",
"# $ 0 i t e 0 0 e e e u i i i b ! } +.=.w.n.n.v.p.i.:.~ W H Z b Z F b z v b b n Z Z V Z F G o.p.N.n.m.m.0.Y Y Y T E W ! ~ W :.C.1X5XxXZXZXZXZXZXZXZXZXZXZXZXZXZXZXZXZXZXAXAXAXAXZXJXGXgX5X6XrXwXwXeXeXeXeXeX4XT.C.C.k.[.5X3X[.}.oXoXoXOXoXOX3XwXwXwXrXwX4X3X}.V.W.[.V.p.N.i.V.{.>X1X1X1X>XoX{.[.!.V.p.y.0.:.p.w.u.p.v.n.a.a.a.a.b.a.w...Y W E >.a.a.a.v.n.n.v.v.a.a.n.N.V.n.n.M.N.V.V.N.C.T.a.>.y.V.T.S.sXJXKXxX!.T.W.W.T.T.].`.W.W.W.W.S.S.S.S.sXsXW.i.d.d.d.d.d.h.d.d.l.l.H.H.P.L.L.~.%XjXjXpX=X%X|.L.L.L.L.L.L.L.L.L.L.L.L.L.K.K.K.K.K.J.J.J.J.H.H.l.l.+XK.l.g.d.r.r.d.d.r.r.7.z.).r.5.7.7.7.8.8.7.7.8.p.0XhX;XW.W.W.W.W.W.W.W.W.W.W.T.C.C.S.7XZXKXsX`.T.T.k.8.k.n.W.W.Z.C.V.N.N.V.C.V.N.n.N.N.n.n.n.n.n.v.v.y.` E W X.p.a.n.n.n.n.n.n.n.n.a.a.y.0.y.n.i.n.`.!.'.[.oX{.[.{.[.}.W.j.i.k.k.A.`.C.T.].@X@XOXOX3XwX3X3X@X3XoX.X].].}.,XuXdXC.p.k.V..X3XwXwXeXuXdXdXdXdXfXnXJXJXZXZXZXZXZXZXZXZXZXZXZXZXZXZXZXZXZXZXZXVXVXVXVXsX}.`.k. .E W E E Y Y Y G o.N.B.n.p.y.6.! A A A Z Z M M b c b n M b c Z F Z H o.:.>.i.s.k.s.;.` ` ` ~ S p p i i i i i i i i i p 0 + ",
"# $ 0 i t e 0 0 e e e u i i i b W | +.;.w.n.m.k.p.i.:.~ T H Z b Z G V v v m b n Z Z Z Z G H o.i.N.B.V.V.0.Y Y Y T E W ! ! W :.C.3X5XnXJXZXZXZXZXZXZXZXZXJXJXJXJXZXZXZXZXZXZXZXZXNXLXGXnX5X5X5XeXtXtXtXtXtXtXeXW.Q.[.m.W.OXOXOX4XdXdXeXwXwXwX3XOXOX.X].R.U.C.p. .0.W.[.W.N.i.V.{.>X1X4X1X>XoX{.[.!.C.p.y.0.:.p.w.u.p.a.a.a.a.a.a.b.a.u...Y W Q >.a.a.a.a.n.n.n.v.n.a.n.n.N.n.n.n.N.C.C.V.Z.Z.p.>.y.V.Z.Z.sXJXKXxX!.W.`.W.W.W.].].W.W.W.W.S.S.W.S.sXsXW.i.r.d.d.d.d.x.x.f.f.l.H.H.J.L.L.%X*XjX*X%X%X~.L.K.L.L.L.K.K.K.K.K.K.K.K.L.K.K.H.H.H.H.H.J.H.H.l.x.l.K.l.d.d.d.r.r.r.r.r.r.7.8.c.r.7.7.7.7.8.8.7.7.8.p.<XsX;XW.W.W.W.Z.Z.W.W.W.W.W.W.T.T.W.7XZXKXsX`.T.T.k.6.j.j.W.S.Z.C.V.N.N.V.C.V.N.n.N.N.n.n.n.v.v.v.v.y.] W W ..p.a.n.n.n.n.n.n.n.n.a.a.y.0.y.n.i.a.W.].'.[.oX;X;X;X{.`.T.k.C.3XQ.T.A.0.k.C.T.R.T.R.].].}.oXOX3XwXeXdXwXwX3XeXuX`.].[.].oXwXwXrXrXeXuXeXdXdXfXbXLXJXZXZXZXZXZXZXZXZXZXZXZXZXZXZXZXBXZXZXZXZXZXZXVXsX'.].k. .^ W E Y Y Y Y G o.N.V.M.a.s.6.] F D F Z Z M n b c b b M b c Z F Z H o.:.:.s.s.k.s.;.` } } ~ S p p i i i i i i i i i i 0 @ ",
"# $ 0 i t e 0 0 e e e u i i i b ! | +.;.w.k.n.k.p.i.:.! T H Z b A G V v v b b n Z Z F G Y Y X.a.Z.Z.W.W.0.T Y Y E W ! ! ! W :.C.4X5XnXJXZXZXZXZXZXZXZXZXZXJXJXJXJXZXZXZXZXZXZXZXZXJXGXnXaXtXaXaXdXdXdXdXdXdXtX'.[.wX>XeXdXeX,X3XrX3X}.W.U.U.V.m.m.m.V.V.V.U.k.+.:.N.`.[.N.i.V.{.>X1X1X1X>XoX{.[.Q.C.p.y.0.;.p.w.u.p.a.p.a.a.a.a.b.a.u...Y E Q >.a.a.a.a.n.n.n.n.n.a.a.n.M.n.n.n.N.C.A.V.Z.A.i.:.0.N.A.C.sXJXKXxX'.W.].].W.W.].`.W.W.W.W.S.S.W.S.sXsXW.i.r.d.d.d.f.x.x.f.l.l.H.H.K.L.L.=X*X=X%X~.L.L.K.K.L.L.K.K.K.K.K.J.P.K.K.L.J.H.H.H.H.H.H.H.l.l.l.l.l.d.d.d.d.r.r.7.7.7.r.d.8.8.r.7.7.7.7.7.8.8.7.7.8.p.<XsX;XW.W.W.W.Z.Z.W.W.W.W.T.W.T.T.W.7XZXKXsX`.Z.T.k.4.q.n.W.D.Z.C.Z.N.N.N.V.V.N.n.N.N.n.n.n.v.v.v.v.p.] W ! ..p.a.n.n.n.n.n.n.n.n.a.a.y.0.y.N.p.a.T.].'.[.oX>X>X<X<X[.`.k.C.oX].W.N.:.k.C.V.V.V.V.C.m.V.C.U.T.Q..X,X3X,X,XwXtX`.>X1XOXwXrXeXrXwX3X3X3XwXaXdXfXmXmXmXmXNXZXZXZXZXJXJXZXZXZXZXZXZXZXZXZXZXZXZXZXZXsX'.].k. .^ W E Y Y Y Y G o.n.M.n.a.p.a.+.F H H G D M n b c b b M b c Z F Z H o.:.>.i.s.k.s.;.` ] } ~ Z p p i i i i i i i i p p 0 @ ",
"+ $ 9 i t t e e e e e u u i i M W ..+.-.w.n.n.n.p.p.6.W Y Y A C Z A V v b m n Z ~ W T Y T E +.n.B.S.W.W.q.T Y Y T E W ! ! W :.N.1X5XsXJXZXZXJXZXZXZXZXZXZXZXJXZXZXJXJXLXMXMXxXxX8XxXmXDXnXgXSXHXgXgXSXgXgXkXeXW.k.[.3XkXkXdXoXW.T.U.U.C.C.U.U.m.U.U.U.U.W.T.>.~ ,.C.`.!.n.w.n.[.>X1X1X>X>XoX{.[.].C.p.p.w.,.w.w.y.p.a.a.a.a.a.a.a.a.p.$.T E E -.a.a.a.a.a.a.a.a.a.a.v.v.n.n.n.n.k.C.V.V.W.T.i.:.0.N.T.Z.sXJXKXMX[.W.`.].W.W.].`.T.!.W.Z.Z.W.W.!.nXnX].s.d.d.r.d.d.d.d.f.l.l.H.H.K.L.%X&X&X%X(.L.L.K.K.K.K.K.K.H.H.H.J.J.J.J.J.J.H.H.l.l.g.l.l.l.f.f.x.x.r.d.r.r.7.7.r.r.7.7.r.r.7.7.7.7.7.5.5.5.5.8.7.5.8.p.<XfX;XW.`.[.W.Z.Z.W.W.W.T.T.T.W.W.`.8XJXZXcX`.Z.C.j.4.6.C.!.D.C.V.V.V.N.N.N.N.n.n.n.n.n.n.n.n.n.n.n.w.] W ! X.p.a.a.n.n.n.n.n.a.a.a.p.y.0.y.V.p.a.T.].[.[.[.>X>X<X<X{.W.j.m.[.[.].N.&.>.p.V.V.V.C.C.T.T.W.W.W.W.U.C.Q. XoXwXtXW.A.T.T.oXwXwXuXdXdXuXwXwXtXdXtXsXxXxXxXxXnXnXmXMXmXJXJXZXZXZXZXZXZXZXZXZXZXJXZXJX8X{.`.m. .Q E E Y Y Y Y F ] N.V.N.v.p.p.=.! Y Y H G F Z b c b n Z n c Z F Z H } >.>.i.s.s.y.;.] } } ! Z p i i i i i p p p s i p 0 + ",
"+ $ 9 i t t e e e e u u u i i M W ..+.;.w.k.n.n.p.p.:.T Y Y Z C Z A V v x b n S Y Y Y T Y ! &.n.B.B.B.n.0.T Y Y T E W ! ! W :.N.1X5XxXJXJXZXJXJXZXZXZXZXJXJXGXmXnXbXsXsXyXyXsXsXaXhXnXnXnXhXfXfXtXtX5X5X>XoXW.p.0.k.U.eXeXeXoX].}.].Q.Q.Q.Q.U.C.U.C.m.m.p.>.] ! :.W.[.`.Z.n.N.'.>X1X1X>X>XoX{.[.].C.p.p.w.;.w.0.y.p.a.a.a.a.a.a.a.a.p.$.E E Q ;.a.a.a.a.a.a.a.a.a.a.v.v.v.v.n.n.n.V.N.N.W.T.i.:.y.V.T.Z.sXJXKXMX[.W.W.`.W.W.].W.W.'.W.W.Z.W.W.!.SXHXoXz.d.d.r.d.d.d.d.g.f.l.H.P.L.%X&X%X%XL.K.P.K.K.K.J.K.J.H.H.H.H.H.H.J.J.P.H.H.l.g.g.d.g.g.d.d.d.x.x.r.r.r.r.7.7.7.5.7.5.8.8.7.7.7.7.7.5.5.7.7.8.7.7.8.j.>XfX;XW.`.`.W.Z.Z.W.W.W.T.T.T.T.W.W.8XJXJXxX`.C.C.k.;.4.C.].D.Z.V.V.N.N.N.N.n.n.n.n.n.n.n.n.n.n.n.n.w./ W ! X.p.p.a.n.n.n.n.n.a.a.a.p.y.0.y.N.i.a.W.].[.[.[.{.{.{.{.[.T.j.V..XoX`.y.]  .=.6.n.N.Z.W.].'.[.[.oXoXoX.XoX3X3XwXdX`.N.p.k.T.oXOXOX3X3X3X5XeXfXgXaXhXnXnXhXsXsXsXsXyXyXyXyXsXxXcXvXvXVXvXZXJXKXKXKXJXtX'.`.k.} E E E Y Y Y Y F ] V.Z.W.S.M.y.X.T T Y H G F Z b c c b M b z M D Z Y o.:.:.y.s.s.y.;.` } } ! Z p i i i i i p p s s i i 0 * ",
"+ $ 9 i t t e e e u e u u i i M W  .+.;.w.n.n.v.p.p.;.Y H G b v Z Z b z z x n F Y T E ! E ` &.s.a.a.p.0.:.T T Y T E W ! ! W :.N.>X7XsXGXJXZXZXZXZXVXmXmXxXsXsXsXfXyXtXtXyXyXaXaX5XtXsXtXtX5X4X4X>X[.T.A.k.p.p.y.V.C.W.tXtXdX3X>XoX.X.X[.].Q.C.n.0.>.-.=.$.| ! ! >.`.`.V.p.p.N.`.>X1X1X>X>XoX{.[.].C.p.p.w.;.w.0.y.p.a.a.a.a.a.a.a.v.p.$.W W ! :.a.a.v.v.a.v.a.a.v.v.n.v.n.n.v.n.n.N.n.N.`.W.p.>.y.V.T.W.sXJXKXnX'.W.W.W.W.W.].W.W.].W.W.W.W.W.W.SXHXoXz.d.d.r.d.d.d.d.g.l.H.P.L.(.%X%X/.L.P.P.H.J.J.J.H.H.H.H.l.l.l.l.H.H.H.H.H.l.l.g.x.g.d.x.l.d.d.x.r.r.r.8.7.7.5.5.r.8.3.5.5.5.5.7.7.7.5.5.8.r.r.7.7.r.k.2XgX;XW.W.W.W.Z.Z.W.W.W.T.T.C.Z.T.W.7XKXJXsXW.C.C.k.3.4.C.'.W.Z.V.V.N.N.N.N.n.n.n.n.n.n.n.n.n.n.n.n.w.] W ! X.p.p.v.n.n.n.n.n.a.a.a.p.y.0.y.N.i.a.W.].[.[.}.[.[.[.[.].T.p.m.>XoXZ.-.! ~ o.&.>.0.u.p.M.V.S.W.[.[.[..X,XuXtXeXaX[.A.n.k.V.C.T.`.[.}.}.[.oX>X3X1X5X7X7XtXtXaXdXtXtXtXeX3X5X7X7XsXsXcXcXmXVXGXJXJXGXtX[.].m. .! E E Y Y Y Y F ] N.Z.`.`.C.p.&.] ! W Y Y G Z b b c b n b c b Z Z H } ;.-.y.s.s.y.;.] ] } ! Z p i i i i i p p s s i s 7 * ",
"+ # 9 i t t e e e e e u u i i n E } X.;.w.n.n.v.a.p.;.K Z Z z k Z Z b k z x n G Y Y K Y Y E } -.<.w.0.:.;.T T Y T E W ! ! W :.N.>X5XsXxXxXxXxXxXxXsXsXyX7XtXtXtXtXtXiXtXeX5X3X3XoX>X>X>X;X[.].[.[.[.[.[.[.W.W.`.`.[.`.5XtXtX>X[.'.'.].W.W.C.n.0.=.=.=.&.$.&.| | y.`.W.p.0.p.V.W.>X1X1X1X>XoX{.[.].C.p.p.y.;.w.w.y.p.a.a.a.a.a.a.a.v.p.$.W ! ~ :.a.a.v.v.v.v.a.a.v.v.n.n.n.n.n.n.n.N.k.N.`.W.p.>.i.V.R.W.sXJXKXnX'.T.T.W.W.W.].W.T.`.W.Z.W.W.W.W.hXSX.Xh.d.d.d.d.d.f.f.l.G.P.K.L.$X$XL.L.P.P.H.H.G.l.H.H.l.l.l.l.l.l.l.g.l.g.l.l.g.g.g.x.d.d.c. Xd.d.r.8.r.8.7.7.7.7.7.Y.h.@.3.3.5.5.5.9.5.3.5.r.h.r.7.8.t.k.2XbX;XW.W.Z.W.Z.Z.W.W.W.T.T.C.Z.T.S.9XKXJX8XW.C.C.m.6.6.Z.'.W.Z.C.V.N.N.N.N.n.n.n.k.n.n.n.n.n.n.n.n.w.] E ! X.p.p.v.n.n.n.n.n.a.a.a.p.y.0.y.n.y.a.W.].[.[.}.{.{.{.{.[.T.i.j.T.C.n.-.} ..&.:.0.0.w.y.y.p.n.M.N.V.C.T.]..X3X3X4XoX>X>X[.`.C.V.A.`.[.[.{.oXoX.X`.[.;X{.[.oX3X4XtXdXfXdXtXtXtXtXsXsXqXqXsXsXsXxXsXsX1XW.W.a.] Y E E Y Y Y Y F ] 0.p.p.p.y.>.$.] E Y K G H Z M b z b b b b c c c Z ~ -.&.i.s.s.i.;.] ] ] ! Z p i i i i i i i i i u u 7 O ",
"+ # 9 i e q 0 0 e r i i i i i n E } X.-.0.n.n.v.a.p.=.K F Z b b C b z k d k z c b b n Z Z F ! >.a.a.a.a.6.W Y Y E E Q ! ! ~ >.N.1XtX7X7X9X9X7X7X7XtXtXtXtXtXtXtXeX4X>X:X>X>X>X<X{.;X;X<X1X1X4X1X4X3X>XoX`.C.C.C.!.W.C.>X5X1X[.T.m.m.m.m.k.N.V.n.a.w.w.p.a.p.p.p.N.W.N.0.0.p.W.[.>X3X3X3X3X3X1XoX[.U.p.k.y.;.0.0.y.p.a.a.a.a.v.v.n.k.p.X.! ! _ :.p.p.a.a.a.a.a.a.n.n.n.n.k.k.k.k.m.m.m.C.[.W.p.6.p.V.].`.sXJXKXmX'.U.T.W.W.W.].R.W.W.W.W.S.W.W.W.fXhXW.8.e.e.8.d.f.f.H.G.P.L.$X/.L.L.P.P.H.H.l.l.l.l.l.l.H.H.l.g.g.g.g.d.d.d.d.d.d.d.d.d.d.r.x.l.8.8.8.8.8.8.5.7.5.5.5.r.3.3.3.3.5.3.5.5.3.3.3.8.8.8.7.5.t.k.5XbX;XW.T.Z.T.Z.Z.T.T.W.Z.Z.Z.Z.T.S.9XKXJX8XW.U.T.m.i.i.C.].S.Z.C.V.V.N.N.V.n.n.n.n.n.n.n.n.n.n.n.n.w.~ E E X.p.a.v.v.n.n.n.n.n.a.a.a.y.>.w.n.u.a.W.[.{.oXoX>X>X;X>XoXT.y.5.6.y.k.A.p.6.k.V.V.N.m.m.k.n.m.V.m.m.m.k.V.T.[.,X3X`.Z.T.W.A.C.Z.].{.>XoX1X1X3X3X>X>X;X{.[.[.>X>X3X4XeXtX5XtXsXfXsXsXsXsXsXsXsXhXtXtX>X[.`.k.} ! E E Y Y Y Y F ] >.>.-.&.o.} E F Z Z n m b z k k k c b b b z z b F Y +.:.i.s.k.i.;.` ] ] ` Z i i i i i i i i i i i p 9 . ",
"+ # 9 i e e 0 0 e r t i i r i M E } X.-.0.n.n.v.p.p.=.K F F Z Z C b z k k z c b M Z S F F K | n.S.Z.C.N.>.E Y Y Y E Q ! ~ ~ >.N.>XtXtXyXiXiXtXtXtXtX5X5X3X3X3X,X>X>X>X>X3X3X4X2X<X>X1X1X1X>X>X>XoX{.[.].N.p.i.u.n.n.W.3XtX5X>X[.`.W.W.W.W.W.Z.V.V.V.C.Z.W.W.'.>X>X].a.0.0.y.Z.[.>X3X3X3X3X3X1XoX[.U.p.k.y.-.0.0.y.p.a.a.a.a.v.v.n.k.p.X.! ! _ :.p.p.a.a.a.a.a.a.n.n.n.n.a.a.a.a.m.m.m.C.].W.p.6.i.V.].`.sXJXKXmX'.U.T.W.W.W.].R.W.W.W.W.S.W.W.W.fXtXC.8.e.e.e.8.d.f.G.G.L.%X$XL.P.P.G.g.l.l.x.x.l.l.g.g.l.l.g.g.d.d.g.d.d.d.d.d.d.d.d.d.d.d.d.r.8.8.8.8.8.7.7.7.5.5.3.3.3.3.3.3.3.3.5.5.3.3.3.7.7.5.5.5.8.k.5XnX;XW.T.Z.T.Z.Z.T.T.W.Z.Z.Z.Z.T.S.9XKXJX8XW.U.T.m.i.i.C.].Z.C.V.V.V.N.m.M.n.n.n.n.n.n.n.n.n.n.n.n.w.~ E E o.p.a.v.v.n.n.n.n.n.a.a.a.w.:.w.n.u.a.W.[.{.oXoX{.{.{.{..XT.y.:.4.6.n.[.3XC.V.V.k.N.V.C.C.C.A.T.T.T.T.T.Q..X>X3X5XZ.p.p.a.k.V.W.'.{.>X>X>X>X>X>X>X1X3X3X1X1X1X>X1X1X1X1X3X4X5XtXtXtXfXfXhXgXSXSXgXfX>X`.T.s.} Q E E Y K K Y F ] p.a.p.p.:.+.` K H G S Z Z b b b c b b b b b A F G Y X.>.y.s.k.i.;.` ] ] ` Z i i i i i i i t i i i p 9 . ",
"* + 6 i e e 0 0 e r t i i i p Z E } X.-.0.n.M.v.a.p.=.K F F G G Z b z k z b b M Z Z D G K Y } u.a.u.u.w.,.T Y Y Y E Q ! ~ ~ >.N.{.5X5XtXtXyXtX5X2X2X<X<X>X>X>X>X4X4X5X5X5X4X3X1X>X>X>X>X>XoXoX;X}.[.[.[.Z.k.p.p.a.M.4XHXgXdXtX4XoXoX}.].].R.R.W.W.W.W.T.T.T.'.4XeX[.p.y.0.0.V.[.>X3X3X3X3X3X1XoX}.T.j.k.y.&.6.0.p.p.a.n.a.v.a.v.n.n.p.X.! ! ~ :.p.p.a.a.a.a.a.a.k.k.n.n.a.a.a.a.m.m.m.C.].W.p.6.i.N._.`.sXJXKXmX'.U.T.W.W.W.].T.T.W.W.W.W.W.W.W.fX9Xm.8.e.e.e.8.h.f.G.P.L./.L.P.G.G.g.g.f.d.d.d.d.d.d.d.g.d.d.d.d.d.d.d.d.d.d.d.d.d.d.d.d.d.d.8.8.8.8.8.7.5.7.7.5.5.3.3.3.3.3.3.3.3.5.5.3.3.3.3.3.5.5.5.5.k.9XnX;XW.Z.Z.T.Z.T.T.T.W.Z.Z.Z.Z.T.S.9XKXJX8XW.U.Z.m.i.i.C.].Z.C.V.V.V.M.m.m.n.n.n.v.n.n.n.n.n.n.n.n.w.~ E E o.p.a.n.v.n.n.n.n.v.a.a.p.0.:.0.v.y.a.Z.}.oXoXoX{.{.{.[.[.Q.i.:.:.6.N.oXdXT.C.R.A.A.T.T.T.T.R.R.R.].}..X4XtXaX5X5XW.n.p.a.a.m.C.T.W.].`.}.}.}.}.>X1X3X3X3X2X>X<X4X4X4X4X4X4X4X4X4X4X4X4XtXtXtXtXaXtX>X`.`.n.o.~ E E Y K K Y G  .>.y.u.p.p.:.] E Y I G D Z n b m b b b c c M F H H Y o.>.y.s.k.i.;.` ] ] ` S i i i i i i t t i i i p 9 . ",
"* + 6 r e e 0 0 e r t i p i p Z E } X.-.0.n.n.v.a.p.=.H G F F F Z b z k v b M Z Z Z S G Y E ] y.u.u.u.p.;.Y Y Y Y E Q ! ~ ~ >.N.[.4X>X2X3X7X4X;X<X<X<X2X4X4X5X5X5X4X5X4X3X1X>X>XoXoX[.[.[.[.oX>XoXoX>X>X`.V.n.k.j.M.:XfXfXdXeX4XOXoX].Q.].Q.}.OX>X>X[.T.U.V.T.>X3X[.p.5.0.>.N.[.>X3X3X3X3X3X1XoX}.T.j.k.0.&.>.0.p.a.a.n.a.a.v.v.n.n.p.X.! ! ~ :.p.a.a.a.a.a.a.a.k.k.n.n.p.p.p.p.m.m.m.C.].T.i.>.y.N.T.W.sXJXKXmX'.U.T.W.W.T.].R.T.W.W.W.W.W.W.W.fXtXC.8.e.e.8.8.h.x.J.L.L.P.G.G.G.g.g.g.d.d.d.d.d.d.d.d.d.d.d.d.d.d.d.d.d.r.r.r.d.d.d.f.l.d.7.7.7.7.7.7.5.5.7.7.5.3.3.3.3.3.3.3.3.3.5.5.3.3.3.3.3.3.5.5.5.j.9XSX;XW.Z.Z.T.Z.T.T.T.W.Z.Z.Z.Z.T.S.9XKXJX8XW.U.C.m.i.q.C.].C.V.V.V.V.m.n.m.n.n.n.v.n.n.n.n.n.n.n.n.0.~ Y E o.p.a.n.v.n.n.n.n.v.a.a.p.0.,.0.n.y.a.Z.}.oXoXoX{.[.[.[.[.Q.p.;.,.0.C.{.dXV.k.T.T.T.].}..XoXoXoX]. XoX,XwXdXtX3X1X[.'.W.a.a.m.T.W.[.}.[.[.[.[.[.oXoX}.[.>X;X;X{.,X3X5XeXtXtXtXeXtX5X3X3X3X>X;X[.[.{.`.W.`.k. .! E E Y K Y E Y +.,.y.a.N.n.>.} E Y Y H G Z n b m b M b l z M D F H Y o.6.y.s.k.i.;.` ` ` ` S i i i i i i i i i i i j 9 . ",
"* + 5 i e e 0 0 r r r t i i p Z E } &.-.0.n.M.v.a.p.+.L G G G A Z b b c b b C Z Z Z D G H Y } 0.p.u.w.0.&.Y H H Y E Q ! ! ` >.C.>X4X>X'.[.tXtX9XtXyXtXtX9X5X5X5X5X4X1X>X>XoXoXoXoX[.[.>X>X>X>X>X3X1X{.[.A.N.a.p.W.].W.4XeXeX3X3XOXXX].R.E.]..XOX X].E.U.T.N.T.OX>XW.p.5.0.0.V.[.>X3X3X3X3X3X1XoX].C.i.k.6...:.0.p.a.a.n.n.n.n.n.k.k.q...T W W &.p.a.a.a.a.a.a.a.k.k.n.n.a.a.a.k.n.k.n.C.[.T.0.6.i.N.W.W.sXJXKXmX'.T.T.W.T.T.`.W.T.W.W.S.W.W.W.W.nXbXU.h.e.e.8.h.h.x.K.L.L.P.G.f.f.f.f.d.d.d.d.d.d.d.d.d.d.d.d.d.d.d.7.d.d.r.r.r.d.e.7.e.e.8.7.7.7.7.7.7.5.5.5.5.r.).3.3.3.3.3.3.3.3.3.3.3.3.3.5.5.5.5.5.5.i.9XbX;XW.W.T.T.A.Z.T.`.W.W.Z.Z.Z.T.S.8XKXJX8XW.U.T.k.h.i.m.W.C.C.V.k.m.m.n.n.n.n.n.v.n.n.n.n.n.n.n.n.0.~ Y E } u.a.n.n.n.a.a.a.a.p.p.p.0.,.y.n.p.k.C.].}.oXoX}.}.{.[.[.Q.i.;.;.0.Z.oXaXC.N.N.T.T.R.].].R.R.]..X.X.X XOX3XOX4X4X[.[.S.p.0.k.].[.[.oX>XoXoX>X>X>XoX}.[.[.[.[.[.{.>X1X5X5X5X5X5X5X5X5X5XtX7X5X2X>X>X[.T.W.k.} ! E E Y Y Y Y T X.:.w.N.Z.n.:.] E Y H G S Z Z M b b b b c z Z F F G Y } >.0.p.p.y.-. .` ` } S i i i i i i i i i i i i 9 X ",
"+ # 5 i e e 0 0 e r r r i i p Z E } &.-.0.n.M.n.a.p.+.H G G F A Z b b c v b b Z Z Z D G H Y | p.p.p.y.0.+.Y K Y E Q Q E ! ] >.C.{.1X>X{.1XtXsXtX7X7X7X9X9X5X5X5X5X4X3X1X>X>X1X1X>X>X>X3X3X>X>X>XoX[.W.A.n.a.M.].fXlX>X3XaXeX3X@X].].T.E.R.R.R.].T.E.I.I.T.N.T.oX>XW.p.>.0.0.V.[.>X3X3X>X3X3X1XoX].C.i.k.0.+.:.0.p.p.a.n.n.n.n.n.k.p.>.~ H Y W ;.p.p.s.a.a.a.a.a.k.n.n.n.a.a.a.k.k.k.m.Z.W.T.y.0.i.N.W.W.yXJXKXmX'.Z.T.W.T.T.`.W.T.W.W.S.W.W.W.W.nXbXU.h.d.e.d.h.j.l.K.K.G.G.f.f.f.f.d.d.d.d.d.d.d.e.e.r.r.r.r.r.d.d.d.l.r.r.r.r.8.7.7.5.5.7.7.7.7.7.5.7.5.5.5.5.h.z.3.@.3.3.3.3.3.3.3.3.3.3.3.5.5.5.7.7.8.i.9XbX;XW.W.Z.T.A.Z.T.`.W.W.Z.Z.Z.T.S.8XKXJXsX!.T.T.k.i.i.C.].Z.C.V.m.n.m.n.n.n.n.n.n.n.n.n.n.n.n.n.n.0.~ Y T } u.a.n.n.n.a.a.a.a.p.p.p.0.;.w.n.p.n.C.].}.oXoX{.}.{.[..XQ.i.;.;.0.Z.oXaXC.N.N.V.T.T.R.R.E.T.Q.].]. X X}. XOXaXtX!.C.B.n.p.p.C.W.].[.oX[.oX>X>X>X>X1X>X>X>X>X>X>X>X>X1X3X3X3X3X4X5X5X5X7X5X9X9X>X>X[.T.T.s. .! E E E Y Y Y Y  .&.>.a.B.a.-.` W Y H G S Z Z b c b b b c c Z F F G Y } >.0.p.p.y.;. .} } } S i i i i i i i i i i i p 9 . ",
"# # 5 i u e 0 0 e e r r i i p Z E } &.-.0.n.M.n.k.p.+.H G G A Z Z b b c z b b M Z Z D G G Y | p.v.a.p.y.*.W Y T E ! ! ~ ] } 0.Z.;X2X1X1X4X4X5X9X9X5X5X9XwXwXwXwX4X4X4X4X4X3X3X3X3XoX[.[.].].!.!.W.].[.[.1X5X3X}.tXwXT.1XfXuX@XoX).R.T.T.T.R.E.E.E.I.I.V.U.m.C.oX>XW.s.>.0.0.B.[.3X3X3X>X3X3X1XoX].C.i.k.y.&.>.0.u.p.a.a.v.v.n.n.k.p.,.E G Y ! :.p.p.p.p.s.s.s.p.a.k.n.n.a.a.a.k.p.k.m.W.W.T.i.0.i.N.W.W.sXJXKXmX'.T.W.W.T.T.].R.T.W.W.W.W.W.W.W.SXSXT.h.d.d.d.x.I.I.H.f.f.f.f.f.d.d.d.d.d.d.d.d.r.8.8.r.8.8.8.8.7.d.c.E.7.7.7.7.7.7.7.7.d.7.7.5.7.5.5.5.5.5.4.5.5.3.3.@.3.3.3.3.3.3.3.3.3.3.3.5.5.5.7.8.8.i.9XbX;XW.W.T.T.A.Z.T.`.W.W.Z.Z.Z.T.S.sXKXJXsXW.T.T.k.i.i.U.[.Z.V.V.m.n.n.n.n.n.n.n.n.n.n.n.n.n.n.n.v.0.~ Y T } u.a.v.n.n.a.a.a.a.p.p.p.0.,.y.m.a.m.Z.].}.oXoX{.}.{.[..XQ.i.;.;.0.Z.oXaXC.N.N.N.V.A.T.T.U.E.Q.Q.Q.Q.].T.T.].aXfX!.C.W.'.eX4X}.W.W.W.W.W.!.].`.[.[.{.>X1X3X4X5X5X5X4X4X4X4X4X4X3X4X4X4X5X5X7X5X2X>X[.C.W.k.-.} ~ Q Y K Y Y Y ] X.-.p.n.Z.>.] T Y U G Z Z M b c b b b b c Z F F G Y  .6.0.p.p.y.;.o. . .} S i i i i i i i i i i p g 0 . ",
"# % 5 i r e 0 0 e e r r i i p Z E } &.-.0.n.M.n.k.p.+.H G F A V Z b b c z v b b Z Z D G H Y } 0.u.y.0.>.w.] W E Q ` ! &.y.>.p.C.;X>X3X5X4X3X4X5X5X5X5X5X5X5X5XwX4X4X5X5X3X>X[.`.Z.A.Z.W.`.'.[.>X3XeXfXSXSXSX3XC.m.q.+.1XkXdXOX X).).).).E.R.R.R.E.I.V.V.I.z.C.oX>XW.s.>.6.0.V.[.3X3X>X>X3X3X1XoX].C.i.k.p.&.>.0.y.p.a.a.v.v.n.n.a.p.:.! H T W ;.p.p.p.p.p.p.p.p.p.a.k.n.a.a.a.k.i.a.N.W.].`.p.0.i.N.R.!.sXJXKXmX'.T.W.W.T.T.].W.T.W.W.W.W.W.W.W.SXSXT.h.h.d.d.x.R.^.l.e.d.d.d.d.d.d.d.d.d.8.8.8.r.8.8.r.8.8.8.8.5.r.x.7.7.7.7.7.7.7.7.7.K.8.7.7.5.5.5.5.5.5.4.4.5.3.5.3.3.3.3.3.3.3.3.3.3.3.3.5.3.5.7.r.8.i.5XbX>XW.W.W.`.Z.Z.`.`.W.W.Z.Z.Z.T.S.sXKXKXsX!.T.T.k.q.i.W..XW.V.V.m.n.n.n.n.n.n.n.n.n.n.n.n.n.n.n.v.0.~ Y T } u.a.v.n.n.a.a.a.a.p.p.a.y.>.p.M.a.m.T.].}.oXoX{.[.[.[..XQ.i.;.;.0.T.oXaXC.N.N.N.N.C.T.E.U.E.Q. X].].]. X).].dXgX!.M.n.V.tXfXfXdXtX4X>X;X[.'.].W.W.W.W.[.oX>X>X5X5XtXtXtXtXtXtX5X4X3X4X3X3X4X3X4X1X'.C.C.k.a.s.-.} E K Y Y Y ] $.,.p.n.V.>.] E Y H G Z Z M b z b b b c c Z F F G Y  .6.0.p.p.y.;.o. . .} S i p i i i i i i i i p g 0 * ",
"# & < i r q 0 0 e e r r i i p Z E } &.-.w.n.n.n.k.p.+.Y Y Y H Z b b b c z c b b Z Z S G H H ..B.B.B.n.v.y.] Y Y ! ! ] :.N.i.a.Z.[.;X;X>X3X4X4X4X4X4X5X5X5X5X4X2X4X1X{.[.Z.Z.T.`.`.[.;X1X9XtXsXhXgXgXbXnXgXgX>Xk.m.0.+.3XHXdXOX X X].).R.R.Q.R.E.V.C.C.C.C.V.V. XoXW.k.6.6.6.C.[.>X>X>X>X>X1X1X}.Q.C.k.j.p.>.y.0.p.p.a.k.k.k.k.k.j.p.4.! Y Y E ;.p.p.p.p.s.s.s.s.a.a.a.a.p.p.k.a.p.a.V.W.].W.a.s.s.V.R.`.sXJXKXmX:XW.W.W.T.A.].R.W.W.W.S.S.S.W.W.nXgXR.h.8.x.m.m.I.l.x.f.d.d.d.d.d.r.r.r.8.8.8.8.r.8.8.r.8.8.8.8.8.8.8.8.8.8.8.8.8.7.7.r.r.r.5.5.7.5.7.7.5.5.5.5.5.5.3.3.3.3.3.3.3.3.3.3.3.3.3.5.5.5.5.7.8.i.4XgX>XW.W.W.W.T.T.W.W.W.W.T.Z.Z.T.S.sXKXKXxX!.T.T.k.i.0.W.`.W.V.N.k.n.m.n.n.n.N.N.v.v.v.n.n.n.n.n.k.0.! Y W } 0.v.v.n.k.k.k.k.a.p.p.p.y.:.y.m.k.m.C.].[.oX>X{.[.[..X.XQ.p.;.:.q.T..XeXY.c.c.c.V.I.T.E.Y.Y. X3X3XOX.X X XXXuXkXC.*.q.8..XaXdXdXdXdXdXaXaXtX4XOXoX[.].W.W.W.Q.Q.[.>X2X3X4XeXtXdXfXfXfXtXtX5X>X[.[.W.C.C.m.a.v.>.] E Y Y K Y X.a.V.Z.C.V.0.` E E Y G Z Z M b z z b M b b F F H Y Y ] >.0.p.p.q.;... . .} S i p i i i i i i i i p p 0 + ",
"$ % < i r 0 0 0 e e r t i i p M E } &.-.w.n.n.n.k.p.&.E ! ! T Z b b m k c b b M Z S D G K E &.C.[.`.B.v.-.W Y T ! ! ] -.p.y.n.Z.;X>X>X{.1X4X4X3X4X4X3X1X>X>X;X{.`.[.{.{.;X2X6X7XaXaXsXsXsXsXsXsXhXhXfXfXgXkX,Xk.k.t.+.4XHXdXOX X.X X].).R.R.R.E.C.V.V.N.V.N.V.[.oXW.k.5.6.6.B.[.>X>X>X>XoX>X>X[.Q.C.k.p.p.>.y.0.p.s.a.k.a.a.k.k.j.p.6. .! T Y -.p.p.p.p.s.s.s.s.a.a.a.a.p.p.k.a.p.k.V.W.!.W.k.i.s.C.W.W.sXGXKXvX:XW.W.W.T.A.].W.W.W.S.S.Z.S.W.W.sX4XV.h.x.Y.T.V.x.h.d.f.d.d.d.d.r.r.r.8.8.8.8.8.d.7.7.r.8.8.7.8.8.8.8.8.8.8.8.8.5.5.8.h.r.r.7.5.7.5.7.7.5.5.5.5.5.5.3.3.3.3.3.3.3.3.3.3.3.4.3.3.x.x.5.r.6.q.3XfXoXW.W.T.W.T.T.R.W.W.W.W.Z.Z.T.S.sXKXKXxX!.T.C.k.i.s.].`.S.B.N.n.n.m.n.m.n.M.n.v.v.v.n.n.n.n.n.k.>.W Y W ] >.p.n.k.k.k.k.k.a.p.p.a.i.>.p.V.m.m.T.Q.[.;X;X;X[.[..X.XQ.p.;.:.q.T..XrXY.c.c.c.V.I.E.Y.E.E. XOX.X].]. X X+XdXkXC.;.q.x.R.aXdXdXdXaXaXdXdXaXeXaXtXeX5X>X[.'.W.'.'.'.'..XoX>X3X4X4X4X5XtXtXtX5X<X>XoX].U.M.y.p.:./ W Y Y Y Y ..6.i.N.C.C.y.} Q Y Y G D D M b c c b Z M C F F Y Y Y ] >.0.i.i.q.*. . . .} S i i i i i i i i i i p p 0 + ",
"# % , q r q 0 0 e e r r i i p n Q } &.-.w.n.n.n.n.p.=.! ` ` T Z c b c k c c b M Z S G H Y ! &.a.a.u.<.:.X.E Y E ! ` ] X.;.:.p.C.oX4X>XW.}.OX>XOX>X<X;X;X[.[.;X;X5X5X8XsXsXsXsXsXsXsXsXsXsXfXhXhXhXfXsXsXgXgX>Xk.k.i.&.4XHXdXOX X.X X].).Q.R.R.R.C.V.N.N.V.N.N.].[.W.a.>.>.>.N.[.>X>X>X>XoX>X>X[.Q.C.a.p.p.>.y.0.p.s.a.k.a.a.a.a.j.j.0.&.] _ W =.a.p.p.p.s.s.s.s.a.a.a.a.p.p.k.a.k.n.V.W.!.T.p.6.i.A.`.W.sXJXKXmX:XW.W.W.T.Z.].W.W.W.S.S.Z.Z.S.W.9X2Xm.h.e.J.I.x.e.e.d.e.e.d.d.r.r.d.d.d.d.d.d.d.r.7.7.r.7.7.7.8.8.8.8.8.8.8.8.8.7.5.8.h.r.8.7.7.5.5.5.5.5.5.5.5.5.5.3.3.3.3.3.4.3.3.3.3.3.3.3.3.8.c.d.r.5.6.3XfXoXW.T.T.W.T.T.R.W.W.W.W.A.Z.W.W.sXKXKXxX!.W.C.m.i.i.W.'.!.C.N.n.m.m.m.m.n.n.n.v.n.n.n.n.n.n.n.a.+.! ~ ~ } >.p.n.k.k.k.a.k.a.p.p.a.u.0.a.C.N.N.T.W.'.[.;X;X[.[.[..XQ.p.;.:.q.T..X3XY.c.V.V.V.I.R.R.R.E.). XR.Y.R. X X+XlXkXC.-.i.z.R.aXaXaXdXtXtXtXdXaXeXtXaXfXhXhXsXtX9X5X2X0X<X;X[.'.!.!.`.[.;X2X2X2X<X1X>X4X.XC.p.0.Z.&.! W T Y T Y [ ..+.:.0.a.>.} Q Y H G D D Z M b b Z Z M b Z Z H H I ] :.0.i.i.q.*. . . .] Z i i i i i i i i i i p p 0 + ",
"# $ , q r q 0 0 e e r r r r i n Q  .&.-.w.n.n.n.n.p.;.~ ! ! K v c b c g k k c b x m n M Z H ! o.-.-.,.:.X.! E E ! ` ] o...o.6.C.[.3X}.N.T.].].].[.<X2X5XtXtXsXsXnXhXsXsXsXsXsXsX7XyXyXyXfXfXgXgXhXhXhXhXfXfXoXk.h.i.-.4XHXdXOX X X].).R.].R.E.R.I.V.N.k.N.z.N.].[.W.p.>.>.>.N.'.<X>X>X>XoX1X>X[.Q.C.a.p.p.>.y.0.p.s.a.k.a.a.a.a.j.j.q.;.4.6.;.p.p.p.p.p.p.s.s.s.a.a.a.a.p.p.k.a.n.m.V.T.!.T.0.+.y.A.`.W.sXJXKXmX:XW.W.T.T.Z.].W.W.W.S.S.Z.Z.S.W.9X9XW.m.e.h.x.h.e.h.h.e.d.d.r.r.d.d.d.d.d.d.d.d.r.7.7.8.8.8.8.8.8.8.8.8.8.8.8.8.r.7.7.r.r.8.7.5.5.5.5.5.5.5.5.5.5.5.3.3.3.3.3.3.3.3.3.3.3.3.3.3.3.8.h.t.4.6.3XfXoXW.T.T.W.T.T.R.W.W.W.W.C.Z.W.`.sXKXKXxX!.T.C.m.i.6.V.'.!.C.N.n.m.m.m.m.n.n.v.v.v.n.n.n.n.n.n.a.>.>.p.0.&.0.p.a.k.k.k.p.k.a.p.p.p.i.>.a.C.N.n.C.W.'.[.[.;X[.[.[..XQ.p.;.:.q.T..XOXI.V.V.V.V.I.].R.R.E.).R.I.Y.R.). X+XlXkXC.-.i.z.Q.tXaXuXuXtXuXuXiXdXtXtXtX7X9XsXsXsXsXxXsXsXsX7X5X2X<X;X[.'.;X'.[.;X[.{.>X3X].C.n.&.>.| W T E Y E Y ] &.o.o.X.o.} Y G Z Z Z M b c z k z c c k z b b Z H H / :.0.i.i.q.*. . . .] Z u i i i i i i i i i i p 0 + ",
"# # > i q 0 0 0 0 e r r r r i n W ] &.-.0.a.n.n.n.p.&.T K G Z v z b b c b b b b n n Z S G Y | >.u.a.v.a.:.` W E ! ` ] }  .} ;.N.OX3X}.[.[.[.oX>X7XyXbXsXnXbXbXhXhXsXtX8X7X8XaXsXnXnXnXnXbXfXfXgXfXfXsXsXfXfX3Xz.h.4.;.3XHXeX+X X].].R.R.].R.R.E.U.N.m.N.N.V.V.].[.T.k.>.>.>.N.'.>X<X>XoX>X1X>X[.W.V.p.y.p.0.i.y.s.p.p.a.a.a.a.a.p.p.>.p.V.C.V.V.p.p.p.p.p.a.s.s.s.a.p.k.a.a.a.a.m.M.C.W.Q.C.6.:.s.C.`.S.sXJXJXVX{.W.T.T.T.Z.!.W.W.S.W.Z.Z.Z.S.W.0XSXlXQ.h.e.e.d.e.d.d.d.h.e.8.8.8.8.8.8.d.d.d.d.r.r.8.8.r.r.r.i.i.i.8.8.h.8.5.7.3.7.5.7.r.r.8.5.8.7.8.8.8.8.5.3.5.5.5.5.5.5.5.5.5.5.6.6.5.5.5.5.3.3.7.t.c.3XfXtX].W.W.W.W.T.T.W.W.W.W.W.W.A.Z.`.sXKXKXnX!.T.C.k.i.0.m.W.!.S.C.N.m.m.m.m.n.n.n.v.n.n.n.n.n.v.p.y.n.W.[.!.M.>.w.p.s.p.p.p.p.p.p.p.i.y.:.p.N.a.p.C.`.[.[.;X;X[.oX[..XQ.p.;.4.i.T.oXOXY.I.I.I.I.T. X].T.Y.R.R.T.E.R.].R.|.eXlXV.;.8.I.OXaXdXdXdXaXdXuXiXiXtXsXnXsXsXsX8X7X7XsXsXsXsXsXfXfXfXaXtX5X5X2X2X<X>X1X1XeXQ.C.j. ./ ~ ! ! W T T T  .0.y.i.0.>.-.E Z S Z M b b c c z c z z k z Z Z Z F H ] :.0.q.p.q.*. . . .` Z p i i i i i t i t i i i q + ",
"# # 1 i q 0 0 0 0 e r r r r i n W ] &.-.0.a.n.n.k.p.&.Y F Z V b b M M M Z Z Z Z Z Z S G G ! -.a.B.Z.Z.B.:.` W W ! ` ] }  .} ;.k.{.5XtXdXtXaXfXhXbXxXsXsXyXtX8XtXtX8X8XtXsXxXnXmXDXDXDXDXbXfXfXfXfXfXsXsXfXfX3Xz.r.6.;.3XHX5X X).].R.R.R.].R.R.E.I.N.N.N.V.V.V.].[.T.k.>.>.6.B.'.<X>X>X{.>X>X>X[.T.V.y.y.y.>.y.0.s.p.p.a.a.a.a.a.y.w.:.w.Z.T.C.N.p.p.p.p.p.i.p.i.p.s.p.k.a.a.a.a.m.M.C.W.!.C.0.>.s.Z.`.!.sXJXJXVX{.R.T.T.T.T.Q.W.W.S.W.Z.S.Z.S.W.;XyXHXfXQ.z.8.h.d.h.x.x.z.h.i.8.r.r.r.t.r.h.h.h.i.i.h.h.h.h.h.h.h.i.y.i.q.6.5.5.;.4.6.4.i.i.i.t.i.q.q.i.8.8.8.8.i.8.6.6.6.6.6.6.i.i.i.i.k.s.t.8.6.5.;.z.dXHXfX2XW.W.W.T.W.T.T.W.W.W.W.W.W.A.Z.`.sXJXKXnX!.T.C.k.i.q.V.!.!.S.C.N.n.n.n.n.n.n.n.v.n.n.n.n.n.n.a.u.N.`.[.'.a.,.0.p.s.p.p.p.p.p.p.p.y.0.:.y.N.a.p.V.].[.[.;X[.[.{.[..XW.p.:.4.i.T.oXOXY.I.I.I.C.I.].].R.Y.E.R.T.E.R.].R.|.rXdXm.*.6.R.,XaXdXdXdXaXdXuXiXiXtXnXGXGXVXJXmXcXxXcXsXqX7X7XtXaXaXsXfXfXfXhXhXhXsXsXtXdXT.U.j. .] ~ ! ! W T T T  .p.k.A.Z.T.n.+.! Y Y G G F D Z Z A M b z z A Z Z F H ] :.0.q.p.q.*. . . .` Z p i i i i i i i t i i i q + ",
"+ # 1 i q 0 0 0 0 e r r r r i n ! } &.-.0.a.N.n.a.y.+.Y Z A Z b M Z Z Z Z Z Z Z S S G H K ` -.v.IX`.Z.V.:.` E E ! ` ] } } ] -.a.}.6XgXHXgXnXnXnXsXsX8X8XyXyXsXsXnXmXDXGXmXmXVXZXZXZXJXGXhXfXtXfXfXfXsXsXfXfX3Xc.t.8.>.1XHX3XR.).R.R.R.E.R.R.E.E.C.N.N.N.I.C.C.].[.T.k.>.>.6.B.'.;X;X{.{.{.>X;X'.Z.n.y.0.0.:.0.0.s.p.p.a.a.a.a.a.y.w.:.y.Z.W.S.C.p.p.p.p.p.p.i.i.p.p.s.n.a.a.a.a.n.M.C.W.!.C.0.>.s.Z.`.!.sXJXKXmX{.T.T.T.Z.T.Q.W.W.S.W.Z.S.Z.S.W.[.>XtXSXSX1XA.Y.Y.R..X,X[.].`.W.W.`.W.W.W.[.>X{.Z.W.].[.[.[.[.[.[.[.[..X.XoXoX[._.[.}.[.oX[.[.[.[.[.[.[.!.W.W.Z.`.>X>X!.S.S.Z.Z.W.`.'.[.;X{.`.W.Q.m.V.tXSXfX2X[.W.W.T.T.W.W.W.W.W.W.W.W.W.A.Z.`.sXJXKXnX!.T.C.k.i.i.V.`.!.S.C.n.n.n.n.n.m.m.n.n.n.n.n.n.n.n.v.p.a.Z.`.W.p.;.0.p.s.a.p.p.p.p.p.p.y.>.:.>.p.i.i.m.`.[.'.;X[.'.[.[..XW.p.:.4.i.T.oXOXY.I.I.V.I.I.]..X].).R.).R.R.).].R.|.rXdXm.*.6.R.,XaXdXdXdXaXdXuXuXiXaXsXJXJXZXVXZXJXZXZXVXcXcXsXsXqX8XtXtXsXsXsXsXfXsXfXfXdXT.U.j. .] ~ ! ! W T T T  .0.0.y.p.a.y.+.` W E Y I Y H G F Z Z b c b Z Z Z F H ] :.0.w.p.q.*. . . .` Z p i i i i i i t i i i p q # ",
"# # 1 r q 0 0 0 0 e r r r u i n ! } &.-.0.a.N.n.a.w.X.Y G H F Z b M Z Z Z Z Z Z Z Z S G G K ` &.:.y.a.n.:.` E E ! ` ] } } / -.s.{.1XhXgXsXsXsX8X8X8X8X8XbXbXmXmXVXVXGXVXVXZXZXZXZXZXZXGXsXsXtXfXdXfXfXsXfXfX3Xz.8.8.>.1XHXOXT.R.R.R.E.R.R.E.E.E.V.N.N.V.R.E.T. X[.W.m.5.6.6.V.[.;X;X{.{.{.>X;X'.Z.m.0.0.6.;.6.6.p.p.p.a.a.a.a.a.p.p.>.p.C.W.!.!.p.p.p.p.a.a.s.s.i.p.p.n.a.a.a.a.n.M.C.W.W.V.0.5.k.Z.`.`.8XKXKXmX{.T.T.T.T.T.Q.W.W.W.W.Z.Z.Z.S.W.Z.W.'.<X8XaX5XeX5XtXaXfXtXsXfXsXgXgXsXhXnXHXgX7X4X5XsXgXhXhXhXhXsXfXgXbXgXSXSXgXaXdXgXfXgXhXfXfXfXfXfXfXfXyX9X2X7XnXSXsX8XtXtXtXaXsXhXnXsXsXaXtXfXtXtXgX7X4X<X!.W.T.T.W.W.W.W.W.W.W.W.W.W.A.Z.`.sXJXKXbX!.T.C.k.s.i.V.`.!.Z.C.n.v.v.n.n.m.m.n.n.n.n.n.n.n.n.v.v.p.C.W.Z.p.;.0.j.a.a.p.s.p.p.p.p.y.>.:.:.>.6.i.k.W.].'.;X[.'.[.[.'.W.s.4.4.i.T.oXOXY.I.I.V.R.R.].OXOX.X].).R.R.).].R.|.rXdXV.-.6.I.OXtXdXaXdXaXaXuXuXtXtXhXJXZXZXZXJXJXVXZXZXZXVXJXGXVXVXnXnXsXsXsXsXfXhXsXtX3XU.U.j. .] ~ ! ! W T T T  .>.;.>.y.>.:.] Y Y Y G G F Z Z Z M M b b b F Z Z F H ] ,.6.w.p.q.*. . . .` Z p i i i i i i i i i i p q # ",
"# # , r e 0 0 e 0 e e r r t p n Q } X.-.>.a.N.N.p.w.X.Y I Y H S m Z b b c z k k c b M Z Z Z K &.y.k.n.N.:.~ E E Q ~ ~ ~ ~ ] :.N.@X3X1X5X4X8XsXxXnXmXNXLXJXJXGXmXZXZXVXVXvXvXvXvXNXNXVXVXsXsXtXdXdXdXdXfXfXfXwXV.h.8.0.{.kXoX).R.].Q.R.T.T.U.U.C.V.V.V.V.T.R.T. X[.T.m.;.;.6.V.[.>X>X>X>X{.{.[.!.C.n.i.0.0.:.6.>.y.a.a.a.a.a.a.a.p.p.y.w.a.M.n.B.a.a.a.a.p.p.p.p.a.a.a.n.p.p.a.a.n.M.C.D.W.Z.y.0.k.T.`.'.sXKXKXJX:XU.W.W.Z.Z.W.W.T.T.Z.Z.Z.Z.Z.Z.Z.Z.S.'.{.{.{.{.{.{.:X:X2X2X4X9X9X9X7X8X7X2X;X;X<X<X<X<X2X2X4X2X2X4X4X4X2X2X2X2X<X<X<X<X<X<X<X:X:X:X:X:X:X:X[.'.'.[.;X<X4X9X9X4X2X<X<X2X0X0X0X0X9X5X5X5X[.!.S.Z.W.W.T.C.W.W.W.W.W.W.W.W.W.V.C.`.xXKXKXxXZ.T.A.c.s.i.V.`.W.Z.V.n.k.k.k.k.V.k.a.a.k.k.k.k.a.k.k.k.v.v.v.M.w.6.p.p.j.a.a.a.p.p.p.p.0.:.6.:.5.y.s.k.T.`.[.<X'.].`.].[.W.i.;.4.i.T.}.3XY.V.c.V.I.I.T.+XOXOX X).R.R.).].R.].rXdXV.;.5.k.,XfXaXdXdXdXdXtXtXiXtXbXVXZXZXZXZXZXZXZXZXZXZXVXVXVXVXZXZXZXZXmXmXnXsX9X;X:XU.V.i...] ~ ! ! Q ! T T ] w.w.y.y.0.=.Y F S Z Z M m x z k k z m n b F Z Z F H ] ,.6.q.p.p.-. . . .~ Z u i i i i i i i i i i i 0 % ",
"* # > r e 0 0 e e e e r t t s n Q } X.-.>.a.N.N.p.w.%.Y I Y H S n Z c g z z c c M Z Z F F H ] p.W.C.a.a.-.! E E Q ~ ~ ~ ~ ] :.N.OX3XtXgXnXnXDXmXmXmXZXNXZXZXVXVXZXZXVXVXvXvXvXvXBXBXvXCXsXaXtXdXdXdXdXfXfXfXwXV.h.8.0.}.kXXX).|.].Q.R.T.E.U.I.V.V.V.V.V.U.T.E. X[.W.m.:.4.6.C.[.;X>X>X{.[.[.[.!.C.n.i.0.6.:.0.5.w.p.a.a.a.a.a.a.p.p.w.<.1.X.I &.a.a.a.a.p.p.p.p.p.a.a.n.p.p.a.a.n.M.C.T.W.C.i.q.k.T.`.'.8XKXKXJX:XD.W.S.Z.Z.T.W.T.T.Z.Z.W.Z.A.A.Z.Z.Z.S.`.`.`.`.'.'.'.`.`.!.`.'.`.'.'.'.`.`.!.`.`.'.'.'.'.'.'.'.'.'.'.'.'.'.'.'.!.'.'.'.'.'.'.'.!.!.!.!.!.!.S.S.S.W.!.'.!.[.[.!.!.W.W.!.!.'.'.'.'.[.[.[.W.S.Z.Z.T.Z.C.C.W.W.W.W.W.T.W.T.V.N.`.{.xXKXKXxXZ.T.A.N.p.i.V.`.W.Z.V.n.k.k.k.k.V.k.a.a.k.k.k.k.a.k.k.k.>.] | X.,.w.k.j.k.a.a.a.p.p.p.p.0.:.6.:.5.y.s.N.A.W.[.{.`.].`.`.[.W.i.:.5.y.W.oX@XY.V.c.V.C.I.T.]..X+X).R.Y.Y.R.].).].eXdXV.;.6.k.3XhXsXdXdXaXaXtXtXaXtXbXmXZXZXZXZXZXZXZXZXZXZXZXZXZXZXZXZXZXZXZXJXJXVXxXsX5XW.V.i...] ~ ~ ! Q ! T E ] p.p.v.v.y.,.E G G F S S n m k a p a z m b F Z Z F H ] -.6.w.p.p.-. . . .~ Z r i i i i i i i i i i i 0 % ",
". # , i e 0 0 e e e e r t t s n Q } X.-.>.a.N.N.p.w.%.Y Y Y H S Z Z c k c c b b Z Z F G G H ` y.V.n.y.a.+.E E Q Q ~ ~ ~ ~ ] :.N.OX3XfXHXGXGXVXVXZXmXmXNXZXZXZXVXZXZXZXZXZXNXvXNXNXBXNXvXsXaXaXdXfXfXdXfXfXbXtXV.8.8.6.}.lXXX).).].Q.R.E.U.I.C.V.V.V.V.V.V.U.T.].[.T.m.:.:.6.C.[.;X;X{.{.[.[.'.!.C.n.i.0.>.:.y.>.w.a.a.a.a.a.a.a.a.a.0.-.$.| H ;.a.a.a.p.p.p.p.p.p.p.p.n.p.a.a.a.n.M.V.U.W.C.i.i.k.Z.`.`.7XJXKXJX0XD.Z.S.T.U.U.T.T.T.T.T.W.Z.Z.C.C.Z.Z.Z.W.W.!.!.!.!.!.S.!.S.S.S.W.!.!.!.!.!.!.!.!.!.!.!.!.!.!.!.W.W.!.!.!.!.W.W.!.!.!.!.!.!.!.!.W.W.W.W.!.W.W.W.W.!.!.!.!.[.[.!.W.W.W.Q.W.!.!.!.W.W.!.W.W.W.S.S.C.C.C.T.W.W.W.T.T.Z.T.T.n.N.{.0XxXKXKXxXZ.T.A.N.p.i.V.`.W.Z.V.n.k.k.n.n.V.n.a.a.k.k.k.k.k.k.k.k.w.E ! ] &.p.n.j.a.a.a.a.p.p.p.p.0.:.6.:.>.y.s.N.C.W.[.`.].].`.`.[.W.p.:.6.i.W.oX@XY.c.c.V.C.V.T.R.).].).Y.Y.Y.E.].). XeXfXV.;.5.z.3XhXfXdXdXaXaXdXdXaXsXbXmXZXZXZXZXZXZXZXZXZXZXZXZXZXZXZXZXVXVXNXZXJXZXVXGXyXQ.V.i...] ~ ~ ! Q ! T E ] y.y.u.u.p.:.Q K Y H G G F Z n b x x b b b F F A G H ] -.>.y.p.p.-. . . .~ Z r i i i i i i i i i i i 0 % ",
". # , i e 9 0 e e e e r t t s n Q } X.-.>.a.N.N.p.w.%.Y Y I H Z m Z c g c b b Z Z Z F F F H ` y.T.m.i.n.o.E E Q Q ~ ~ ~ ~ ] :.N.OX4XsXGXVXVXVXVXmXmXmXNXZXZXZXZXZXZXZXZXZXNXmXNXNXBXNXmXsXtXaXdXfXfXfXfXhXSXiXI.8.8.6.[.lXXX).).].Q.R.U.U.I.C.V.V.V.V.V.V.I.T. XoXW.V.6.:.6.C.[.;X;X{.{.[.[.[.!.C.n.i.0.:.:.i.6.w.a.a.a.a.a.a.a.a.a.0.$.] ~ Y -.a.a.a.p.p.p.p.p.p.p.p.n.p.a.a.a.n.M.V.U.T.C.i.i.k.Z.`.'.9XJXKXJX2XD.C.D.U.U.U.T.T.T.T.T.T.Z.Z.C.C.C.C.Z.S.S.W.S.!.W.!.!.'.!.!.W.W.!.!.Q.Q.].!.!.!.!.!.!.!.!.Q.!.!.!.!.!.!.!.W.W.W.W.W.W.].].`.`.`.`.`.`.`.`.`.`.!.!.W.W.W.].].W.W.T.W.W.W.W.W.W.W.W.W.W.W.W.W.W.C.T.W.W.W.W.T.T.T.T.T.T.n.N.1X0XxXKXKXxXZ.T.A.N.p.i.V.`.W.Z.V.n.k.k.n.n.V.n.a.a.a.a.a.a.a.a.a.a.<.W W } =.p.j.p.a.a.a.a.a.a.p.p.0.:.6.:.:.y.s.N.Z.Z.W.W.[.[.`.].[.W.p.:.6.i.W.oX@XY.c.c.V.C.V.T.Y.R.R.R.R.Y.Y.R.].).].rXfXV.;.5.z.3XhXfXdXaXaXaXdXdXaXsXbXmXZXZXZXZXZXZXZXZXZXZXZXZXZXZXVXVXVXVXZXZXZXZXZXGXtX'.V.i...] ~ ~ ! Q ! T T ] a.p.y.<.y.,.E G H H G G S Z Z n x b b b v F F F G H ] -.>.y.p.p.-. . . .~ Z r i i i i i i i i i i i 0 % ",
". # , i e 0 0 e e e e r p i s n W } $.-.>.s.N.k.y.>...Y I I F Z n S m k c b b M Z Z F F G K ] p.T.V.p.k.-.Y Y E Q ! ~ ~ ~ } >.N.OX5XhXGXZXZXZXZXmXmXmXmXmXmXmXmXZXZXZXVXZXZXZXZXNXZXNXnXsXdXdXdXdXdXdXfXhXFXdXI.8.8.6.[.kX#X).).E.T.U.U.I.I.I.U.V.V.V.V.U.U.T.}.[.W.V.5.:.6.T.[.;X;X{.{.].`.!.W.V.M.p.0.;.:.y.0.y.a.a.k.k.k.k.k.a.a.w.| ] ~ T ;.i.a.a.p.p.p.p.a.p.p.p.a.a.a.n.n.n.M.C.Z.W.U.p.q.s.C.W.`.9XKXKXKXxX!.C.C.C.T.T.C.T.T.T.T.W.W.W.W.B.V.Z.!.W.W.W.W.W.W.W.W.[.>X>XW.W.Q.Q.Q.Q.Q.Q.Q.Q.Q.Q.Q.W.W.W.W.W.W.W.W.`.T.T.W.].].`.W.W.`.`.`.`.`.`.`.'.`.`.'.`.!.!.!.!.!.!.!.[.{.[.W.].!.W.W.S.S.W.S.W.W.W.W.T.W.W.W.T.C.T.W.T.T.C.C.k.C.'.'.xXKXKXxXW.T.T.N.k.s.V.W.W.Z.V.M.k.k.k.k.V.k.a.a.k.k.k.k.a.a.a.a.>.! ~ o.X.y.k.n.a.a.a.a.p.p.p.u.0.:.0.:.;.6.s.N.Z.T.W.`.`.].[.[.[.W.y.;.6.p.].OX3XY.c.V.V.C.I.E.Y.R.R.R.).).).].].).].uXaXk.t.4.z.wXfXfXfXtXaXaXdXdXsXsXbXmXZXZXZXZXZXZXZXZXZXZXZXZXZXZXZXVXVXZXZXZXZXZXZXVXsX`.U.j.O.] ~ ~ ! ! W T T ] p.v.y.y.y.:.Y G H H G G F Z n b x x b b z A F Z S H ] =.>.y.p.p.;. . . ./ Z i i p p p p i i i i i i 0 % ",
". # , i e 0 0 e e e e r u t p b W } $.-.>.a.n.s.0.>...Y I H F Z n S m k c b n M Z Z F F G K ] p.C.V.p.m.-.Y E E Q ! ~ ~ ~ ] >.n.OX5XsXGXNXZXNXmXNXmXmXmXmXmXmXmXZXZXZXVXZXZXZXZXNXZXNXMXiXdXdXdXiXdXdXdXgXSXiXI.8.8.0.[.HX#X).).E.U.I.U.I.I.I.U.V.V.V.V.R.R.R.}.[.W.V.5.:.6.T.[.;X;X[.{.].`.!.W.V.M.p.0.;.:.s.0.q.a.a.k.n.k.k.k.a.p.w.| ] ~ E :.i.a.a.p.p.p.p.p.a.a.a.v.a.a.n.n.n.N.C.Z.T.C.i.0.s.V.W.`.4XKXKXKXnX4X'.M.m.C.U.C.T.T.T.T.W.W.W.W.Z.C.Z.W.S.W.S.S.W.W.W.W.].[.{.W.W.W.W.W.W.W.W.W.W.W.W.W.W.W.W.W.W.W.W.W.W.Z.Z.W.`.`.W.W.W.W.`.`.`.!.`.`.`.W.W.`.W.!.!.!.!.!.!.W.`.[.'.W.W.W.W.W.S.S.W.S.W.W.Z.Z.W.W.W.W.C.C.W.W.T.C.V.m.V.Z.'.:XMXKXJXxX`.T.T.N.k.s.V.W.W.Z.B.n.k.k.k.k.V.k.a.a.a.a.a.a.a.a.a.a.>.W ! o. .0.p.p.a.a.a.a.a.p.p.p.y.>.0.:.;.6.s.N.Z.T.`.`.`.].[.[.[.W.y.;.6.p.].OX3XY.c.V.V.C.I.E.Y.R.R.R.).). X X).).].eXaXk.t.4.z.wXfXhXfXtXtXdXdXdXsXsXbXmXZXZXZXZXZXZXZXZXZXZXZXZXZXZXZXZXZXZXZXZXZXZXZXVXfX`.U.j.O.] ` ~ ! ! E Y Y ` p.v.y.y.y.:.Y G H H G G F Z n b x v b m z A F Z S H ] =.>.y.p.p.;. . .] / Z i i p p p p i i i r i i 0 % ",
". # , p e 0 0 e e e e r t t u m ! | -.:.>.a.k.i.>.-.] Y Y H F Z n Z m k c b M M Z A F F G L ] p.V.m.p.m.-.Y E E E Q ! ~ ~ ] >.n.>X5XsXDXZXNXZXZXNXNXmXmXVXVXZXZXZXZXVXVXVXVXZXZXNXJXLXMXiXdXdXdXiXiXiXiXfXSXuXV.8.8.6.[.HX#X).).E.U.I.I.I.I.I.I.V.V.V.V.R.R.R.}.[.W.V.5.:.6.T.[.;X;X[.{.].`.!.W.V.M.p.0.:.4.s.0.q.a.a.k.k.k.k.k.a.p.w.| / ! E >.i.a.a.p.a.a.a.a.a.n.v.v.a.a.n.n.n.N.C.Z.U.C.i.6.s.V.S.S.2XKXKXKXxX4X>XC.m.C.T.C.T.T.T.T.W.W.W.W.W.W.Z.Z.C.C.C.C.C.C.C.A.T.W.`.T.Z.T.T.T.T.T.T.T.T.T.T.T.T.T.T.T.S.S.S.S.S.C.Z.S.W.W.W.W.S.S.W.W.W.W.W.W.W.Z.Z.W.Z.Z.Z.Z.T.T.Z.Z.W.'.`.Z.W.W.W.W.W.W.W.W.W.T.T.W.W.W.W.W.C.T.W.W.T.C.C.V.T.W.:XsXJXJXZXcX'.T.A.k.s.i.V.T.Z.C.B.n.k.k.k.k.V.k.a.a.a.a.a.a.a.a.a.a.0.E ! X...0.p.a.a.a.a.a.a.a.p.p.y.6.0.:.;.6.k.C.Z.T.`.`.].].[.[.[.W.i.;.6.p.].OX3XY.c.V.V.C.I.E.E.R.R.R.).). X X).R.].eXaXN.5.4.z.wXfXfXfXtXaXdXdXdXsXsXbXmXZXZXZXZXZXZXZXZXZXZXZXZXZXZXZXZXZXZXZXZXZXVXVXVXhX].U.j.O.] ~ ~ ! ! W T T ] p.a.y.y.y.:.Y G H H G G F Z n b x v m m z Z F A S H / &.>.y.p.p.;. . .] ~ Z i i p p i i i i i r i i 0 % ",
". # > i e 0 0 e e e e t t e u m ! | -.:.:.a.k.y.:.&.] Y Y H F Z n Z m k c b M M Z A F F G L ] p.V.m.s.V.-.Y E E E E ! ~ ~ ] :.k.oX5XsXmXZXNXZXZXNXNXmXmXZXZXZXZXZXZXVXVXVXVXZXZXNXZXLXnXiXdXdXdXiXiXiXiXfXnXtXV.8.8.0.}.HX@X).).I.U.I.I.I.I.I.I.V.V.V.V.U.U.T.}.[.W.V.5.:.6.T.[.;X;X{.{.].`.`.W.V.M.p.0.:.5.p.y.q.a.a.k.k.k.k.k.a.p.w.| / ! E >.i.a.a.p.a.a.a.a.a.a.a.a.a.a.v.n.n.V.C.Z.U.C.y.6.i.V.Z.S.2XJXKXKXxX:X>X[.W.U.T.T.T.T.T.T.W.W.W.W.W.W.W.Z.V.V.V.V.V.V.C.C.A.A.W.T.C.C.Z.Z.T.T.T.T.T.T.T.T.T.T.T.Z.Z.Z.Z.Z.Z.B.B.Z.W.W.S.Z.Z.S.W.W.W.W.W.W.Z.C.C.Z.A.A.C.C.Z.C.A.A.Z.`.`.W.W.W.W.W.W.W.W.W.T.T.W.W.W.W.W.T.T.T.T.T.A.T.R.W.`.[.tXJXKXJXZXnX'.T.A.k.s.i.V.Z.Z.C.B.n.k.k.k.k.V.k.a.a.a.a.a.a.a.a.a.a.0.E W X.X.q.k.n.a.a.a.a.a.a.a.p.y.6.y.>.;.0.k.C.Z.T.W.`.`.].[.[.[.W.y.;.6.p.].OX3XY.V.V.V.C.I.E.E.R.R.R.R.R.).).).R.].eXaXk.5.4.z.3XfXfXfXtXaXdXdXdXsXsXbXmXZXZXZXZXZXZXZXZXZXZXZXZXZXZXZXZXZXZXZXZXZXVXVXVXsX].V.j.O.] ~ ~ ! ! W T T ] p.a.y.y.y.>.Y H H G G G F Z n b x x m m z Z F A S H / &.>.y.p.p.;. . .` ~ Z i i p p p i i i i r i r 0 % ",
"o + 5 p u e e e e e r r r i u b ] o.=.:.>.a.k.y.:.&.] Y Y Y G S M Z b z c b b M Z Z F G F H ] s.N.n.k.Z.>.K Y E E E ! ~ ~ } :.n.oX5XxXmXZXNXZXNXZXZXVXVXVXZXZXZXZXZXZXZXZXZXZXZXZXZXZXbXtXdXaXtXiXiXiXtXfXgXeXm.8.q.6.{.kX@XR.E.E.T.T.T.I.I.I.I.C.V.V.V.U.T.T.}.[.T.V.5.5.5.Z.'.[.[.[.[.[.`.W.T.B.N.y.>.;.>.p.0.p.k.k.k.k.k.k.k.k.a.p.../ W ~ <.p.a.a.a.a.a.a.a.p.p.p.p.p.p.a.k.k.m.C.Z.Z.V.p.6.i.N.C.D.:XxXKXKXDX9X2X>X>X[.T.V.T.T.W.W.W.W.W.W.W.W.W.W.W.W.W.W.W.W.W.W.W.W.W.W.`.`.`.`.'.'.'.'.].].].].].].].`.`.`.`.`.`.S.S.`.!.!.`.`.`.`.!.!.W.W.W.W.W.W.W.W.[.[.W.T.W.W.W.W.].].`.`.].].].].!.!.W.W.!.!.W.W.T.T.W.W.!.!.W.T.V.C.W.oX'.9XDXKXKXJXcX8X'.T.C.k.k.i.m.T.Z.C.N.k.a.v.n.n.n.a.a.a.a.a.a.k.k.k.k.k.0.W Y ] =.p.n.k.a.a.a.a.a.p.p.p.y.6.0.:.:.0.m.C.W.T.W.[.].[.[.[.}.W.y.;.0.k.Q.OX3XT.I.I.I.I.T.E.R.R.R.).).R.R.R.].R.].wXaXs.t.4.z.3XfXsXaXaXaXdXdXdXdXyXxXJXZXZXZXZXZXZXZXZXZXZXZXZXZXZXZXZXZXZXZXZXZXZXVXVXsX!.V.j.O.` ~ ! ! ! W T Y ` p.k.y.y.y.>.Y H H G G F F Z n b z x b b z Z Z F F G ! &.:.y.p.y.;. .} ` ~ Z p i i i i i i t t t i r 0 % ",
". @ 6 a u e e e e e r r r i u b ] o.=.:.>.v.n.i.:.&.] Y H Y H G M Z b z c b b M Z Z F G F H } s.N.n.k.W.6.Y Y E E E ! ~ ~ } :.m.oX5XxXNXZXZXZXNXZXZXZXVXVXZXZXZXZXZXZXZXZXZXZXZXZXZXJXnXtXaXtXtXiXiXiXtXsXfXeXV.r.q.6.}.kX3X).R.E.T.T.T.I.I.I.I.I.C.V.V.I.T.T.}.[.W.N.6.6.6.Z.'.[.[.[.[.[.].W.Z.B.N.y.:.;.>.p.0.p.a.a.a.k.k.k.k.k.a.u.../ T ~ <.i.a.a.a.a.a.a.a.p.p.p.p.p.p.a.k.j.M.C.Z.Z.V.y.:.p.N.A.Z.!.:X8XKXKXmXyX5X4X>X.X].Z.T.Z.Z.Z.W.W.W.W.W.W.W.W.W.W.W.W.W.W.W.W.W.W.W.W.W.W.W.Q.Q.Q.Q.W.W.W.W.W.W.W.W.W.W.W.W.W.Z.Z.W.!.!.!.!.!.!.!.W.W.W.W.W.W.W.W.`.].].W.W.].].].].].].`.`.`.`.`.`.!.!.W.W.W.W.W.W.R.W.W.W.'.W.T.U.V.W.'.>X9XDXKXKXKXxX:X'.!.Z.N.k.s.y.m.T.Z.C.N.n.n.n.n.n.a.p.p.p.k.k.k.k.k.k.k.k.0.! Y ] =.p.n.k.a.a.a.a.a.p.p.p.y.6.0.>.;.6.k.C.W.W.`.].].[.[.[.`.W.y.;.6.p.Q.oX3XE.I.I.I.I.E.E.R.R.R.).|.). X X].).].eXfXa.t.5.m.4XfXfXaXaXaXdXdXdXdXyXxXJXZXZXZXZXZXZXZXZXZXZXZXZXZXZXZXZXZXZXZXZXZXZXVXVXsX`.V.j.O.` ~ ! ! W W T Y ` p.k.y.y.w.>.Y H H G G F F Z n b z x b b z b Z F S G ! X.:.y.p.i.;.} } ` ~ Z s i i i i i i t t t i r 0 % ",
"o $ 6 p u e e u e e r r r i u b ] o.-.:.>.n.N.i.6.;.` Y Y T Y S M Z b z c b b M Z Z F G S H } s.n.n.n.W.y.Y Y E E E ! ~ ~ } :.m.oX5XxXJXZXZXZXZXZXZXZXZXZXZXZXZXZXZXZXZXZXZXZXZXZXZXJXnXtXaXtXtXiXiXiXtXtXfXeXI.h.i.>.[.kX#XR.E.U.T.T.T.I.I.I.I.U.C.V.V.I.E.T.[.].W.k.k.i.6.C.[.[.[.[.[.[.`.W.C.n.n.y.>.:.:.p.y.p.k.k.k.k.k.k.k.k.a.p.../ T ~ >.p.a.a.a.a.a.a.a.a.a.a.a.a.a.n.n.k.m.C.Z.Z.B.w.,.0.k.Z.S.S.S.:X8XKXKXGXbXtX4X<X[.!.Z.V.C.C.Z.T.W.W.W.W.W.W.W.W.W.W.W.W.W.W.W.W.W.W.W.W.W.W.W.W.W.W.W.W.W.W.W.W.W.W.W.W.W.W.Z.Z.W.W.W.W.W.W.W.W.W.W.W.W.W.`.`.`.W.W.W.W.W.W.W.W.W.W.T.T.T.T.T.T.T.W.W.W.W.W.W.T.W.W.W.T.T.W.U.V.U.T.'.<XtXmXKXKXGXMX<X!.S.Z.C.m.s.y.0.k.T.Z.C.V.m.n.n.n.n.a.a.a.a.k.k.k.k.k.k.k.k.0.! Y / =.p.n.k.a.a.a.a.k.p.p.p.0.>.y.6.:.:.p.m.N.C.W.`.].[.[.[.{.`.y.:.j.i.W.oX3XY.I.I.I.E.E.T.R.R.).).].).).).).).}.tXdXa.t.4.m.4XfXsXaXaXdXdXdXdXaXsXxXJXZXZXZXZXZXZXZXZXZXZXZXZXZXZXZXZXZXZXZXZXZXZXVXVXsX`.V.j...` ~ ! ! W ! E E ] i.a.w.w.0.:.Y G H G G F F Z n b z x m m b C M F G Y ~ o.;.0.a.p.;. .} ` ~ Z s p i i i i i t t t i r 0 $ ",
"# & 6 i u e e u e e r r r i u b ] X.-.:.0.n.N.p.6.;.` H T W I Z M Z b z c b b M Z Z F G S H } s.n.k.n.`.y.E K Y E E ! ~ ~ } :.n.{.5XnXZXZXZXZXZXZXZXZXZXZXZXZXZXZXZXZXZXZXZXZXZXZXZXJXnXtXaXtXtXiXiXiXtXtXfXeXU.x.i.>.[.gXOXY.Y.U.T.T.T.I.I.I.I.U.I.C.V.V.U.T.].].C.k.T.s.6.C.[.[.[.[.[.`.W.C.N.s.a.y.0.>.:.p.y.p.a.a.a.k.k.k.k.k.a.p.../ T ~ >.p.a.a.a.a.a.a.a.n.n.n.k.k.k.n.n.k.m.C.Z.Z.B.w.-.&.i.C.W.'.'.!.'.sXKXKXGXsX7X2X:X:XW.N.n.N.V.C.Z.W.W.W.W.W.W.W.W.W.W.W.W.W.W.W.W.W.W.W.W.Q.Q.Q.Q.W.W.W.W.W.W.W.W.W.W.W.W.W.Z.Z.W.W.W.W.W.W.W.W.W.W.W.W.W.`.`.W.W.W.W.W.W.`.!.!.!.].].].].Q.Q.Q.Q.W.W.W.W.T.T.T.T.T.T.C.C.C.z.N.T.'.[.7XDXKXKXKXnX0X'.!.W.C.N.k.p.0.6.k.C.Z.C.V.m.n.n.n.n.n.n.n.n.k.k.k.k.k.k.k.k.w.! I ~ =.p.n.n.a.a.k.k.k.p.p.p.0.>.y.6.6.:.y.a.i.n.Z.W.].[.[.[.}.W.p.p.T.i.U.>X3XI.I.I.I.E.E.T.R.].).].].).).).).R. XdXfXk.t.5.m.4XfXfXaXaXdXdXdXdXaXsXxXJXZXZXZXZXZXZXZXZXZXZXZXZXZXZXZXZXZXZXZXZXZXZXVXVXsX`.V.j...` ~ ! ! W ! E E ] i.a.w.w.0.:.H G H G G F F Z n b z x m m b Z M A I E ] X.-.0.a.p.;.} ` ` ~ Z p p i i i i i t t t i r 0 $ ",
"+ @ 5 i u e e e e e r i i i i n ] X.-.-.<.n.V.k.y.;.! Z I Y I Z M Z m c c b n Z Z D G G G H  .s.n.s.n.[.y.E P Q E Q ! ! ~ o.&.n.oX5XcXZXZXZXZXZXZXZXZXZXZXZXZXZXZXZXZXZXZXZXZXZXZXZXJXnXaXtXtXtXiXdXiXdXaXfXeXE.h.6.>.{.gXOXR.E.E.I.I.I.T.T.Y.I.U.U.U.I.T.R.T.].W.U.k.p.s.i.Z.'.[.;X{.[.`.Z.Z.N.p.a.6.y.0.6.p.y.p.a.a.a.n.n.k.a.k.n.p.] R T ! >.p.a.k.a.a.a.a.a.k.k.k.k.k.k.n.n.a.M.C.C.Z.Z.a.:.+.-.i.C.S.S.S.!.:XsXJXKXLXMX8X:X[.'.Z.N.k.a.a.N.V.V.C.C.C.C.C.Z.C.C.C.C.U.U.T.T.T.T.T.T.T.T.Z.Z.C.C.C.C.Z.C.Z.Z.A.A.Z.Z.A.C.C.Z.U.U.U.U.T.T.T.T.Z.T.Z.T.Z.Z.Z.Z.Z.Z.Z.Z.Z.Z.Z.Z.C.C.C.T.A.T.C.C.T.Z.Z.Z.C.C.C.C.C.V.V.V.k.k.T.W.:XyXmXKXKXKXxX2X!.!.Q.U.m.a.y.>.0.p.m.T.W.C.m.k.n.n.n.n.n.n.n.n.m.m.k.k.k.k.k.a.0.! G ! &.y.n.n.a.a.a.a.k.k.s.s.0.6.y.i.0.;.0.k.a.N.T.`.[.[.}.{.{.W.a.m.W.q.U..XoXI.V.Y.E.E.E. XOX.X].]. X X).R.R.). XdXkXk.6.t.k.,XfXiXaXaXdXdXdXdXaXsXxXJXZXZXZXZXZXZXZXZXZXZXZXZXZXZXZXZXZXZXZXZXZXZXVXVXsX`.V.j. .` ~ ~ ! ! W E E ] i.a.w.w.<.-.Y G H G F F S S Z b z x m v b D l l Z G ! ..;.0.p.i.;.} ` ' ! Z i i i i i i i t t t i r 9 $ ",
"+ @ 5 i u e e e e e r i i i i n ] X.-.-.<.a.m.a.0.;.! Z F Y Y H M M b z c b b M Z D G G G G  .k.n.s.n.[.0.E E E E Q ! ! ~ ..&.n.oX5XcXZXZXZXZXZXZXZXZXZXZXZXZXZXZXZXZXZXZXZXZXZXZXZXJXMXtXtXtXtXiXiXiXaXaXdXeXE.h.6.6.>XgXOXR.E.E.I.I.I.T.T.T.T.T.T.E.U.T.R.T.].].U.N.5.i.i.Z.'.[.;X{.[.[.[.[.W.B.p.0.i.0.6.p.y.p.k.k.k.n.k.a.p.p.p.0.] Y T W :.p.a.k.a.a.a.a.a.k.k.k.k.k.k.k.n.a.M.C.Z.S.S.Z.v.:.-.-.i.N.S.!.S.'.;XyXGXKXGXxX7X>X{.[.W.n.p.a.N.V.V.V.V.V.C.C.C.C.C.C.C.C.C.C.C.C.Z.C.C.C.V.V.C.V.V.V.V.C.C.C.C.C.C.A.A.A.V.V.A.Z.Z.Z.Z.C.Z.Z.Z.T.T.T.U.C.C.C.C.C.C.C.C.C.C.C.C.Z.Z.T.T.T.T.C.C.A.A.A.A.V.V.V.V.V.V.V.V.k.V.[.[.7XmXKXKXKXxX0X'.!.Q.Q.C.j.0.>.>.p.V.W.].W.C.m.k.n.n.n.n.n.n.n.n.m.m.k.k.k.k.k.a.0.! H ~ &.y.a.n.a.a.a.a.k.k.s.p.0.6.y.y.>.-.y.m.n.C.W.`.[.[.}.{.}.W.a.0.p.0.U.oXoXC.V.Y.E.E.E.]..XOX.X X X].).R.).]. XlXgXk.6.i.m.,XfXfXaXaXdXdXdXdXaXsXxXJXZXZXZXZXZXZXZXZXZXZXZXZXZXZXZXZXZXZXZXZXZXZXVXVXsX`.V.j. .` ~ ~ ! ! W E E ] i.a.w.w.y.>.T G H G F F S S Z m z x m v Z I b l M F ! o.;.0.p.i.-.] ` ' ! Z i i i i i i i t t t i r 9 $ ",
"+ @ 6 i u e e e e e r i i i i n ] X.-.-.>.a.m.p.0.:.] F Z H Y I b b c z c b b M Z D G G F G  .k.N.a.N.[.:.Y E E E Q ! ! ~ ] -.N.{.5XcXZXZXZXZXZXZXZXNXNXNXNXZXZXZXZXZXZXZXZXZXZXZXZXJXnXtXtXtXtXdXiXiXaXaXfXeXE.h.8.0.>XgX#XR.R.E.I.I.I.T.T.T.T.T.T.E.U.T.R.T.].[.U.N.;.6.i.U.`.[.;X{.[.{.{.`.Z.B.s.p.y.0.6.p.y.p.a.a.a.k.a.p.p.p.p.0._ U Y W -.p.a.k.a.a.a.a.a.k.k.k.k.k.k.n.n.p.n.C.D.S.`.!.W.k.>.-.-.y.N.Z.W.`.`.;XaXGXJXVXnX7X1XoX}.C.n.n.V.C.C.Z.Z.T.T.T.T.T.T.T.T.T.T.T.T.T.U.U.U.U.U.U.U.U.U.U.U.U.U.U.U.T.T.Z.Z.Z.C.C.Z.T.W.T.T.T.T.T.T.T.T.T.T.T.T.T.T.T.T.T.T.U.C.C.C.T.T.T.W.W.W.Z.Z.T.T.T.T.C.C.C.C.C.C.T.T.W.].;X2XmXKXKXGXxX0X'.W.Q.Q.U.n.0.,.>.a.W.'.[.].W.C.m.k.n.n.n.n.n.n.n.n.m.m.k.k.k.k.k.a.0.! Y ] &.0.a.a.a.a.a.a.k.p.p.s.y.6.0.y.:.&.y.m.N.Z.W.`.[.[.}.{.}.`.k.:.6.0.C.oXoXC.V.I.R.R.U.T.].OXOX.X].R.R.R.).]. XlXfXn.6.i.I.,XiXfXaXaXdXdXdXdXdXsXxXJXZXZXZXZXZXZXZXZXZXZXZXZXZXZXZXZXZXZXZXZXZXZXVXVXsX`.V.j. .` ~ ~ ! ! W E E ` i.s.w.w.y.>.E F H G F F Z Z n b z b m x Z Y M l M H ` +.;.y.s.p.-.] ` ' ! Z i i i i i i i t i i i r 9 $ ",
"+ + 5 i u e e e e r r i i i i n ] X.-.-.:.p.k.p.y.0...Y Z D D A b b c z c b b M Z D G G S G o.N.N.a.N.[.;.E E E E Q ! ! ~ ] :.N.{.5XxXZXZXZXZXZXZXZXNXNXNXNXNXNXZXZXZXZXZXZXZXZXZXZXJXnXaXtXtXaXdXdXdXdXaXdXeXE.q.6.0.1XgXOXR.T.E.I.I.I.T.T.T.T.U.U.U.I.T.R.T.].].C.m.;.5.y.T.`.[.{.{.[.'.`.T.Z.B.s.i.y.0.6.p.y.p.k.k.k.a.a.p.p.p.a.w.] G Y E &.p.a.k.a.a.a.a.a.k.k.k.k.k.k.n.n.p.n.C.S.`.`.'.[.T.k.:.+.-.y.N.Z.`.`.`.[.yXnXJXJXnXtX1X>X[.T.Z.W.W.W.!.W.W.W.W.W.T.T.T.T.T.T.T.T.W.W.W.W.W.W.W.W.W.W.W.W.W.W.W.W.W.W.W.W.W.Z.Z.W.W.W.W.W.W.W.W.W.W.W.W.W.W.W.W.W.W.W.W.W.W.W.W.T.W.W.W.W.W.W.W.S.W.W.W.W.W.W.W.W.W.W.W.W.`.[.2XmXKXKXKXxX0X'.W.T.U.U.n.q.:.,.p.`.].'.'.].W.C.m.k.n.n.n.n.n.n.n.n.m.m.k.k.k.k.k.a.0.! Y } X.0.p.a.a.a.a.a.p.p.p.i.y.6.0.0.>.-.0.m.C.Z.`.].[.[.}.{.{.`.k.>.0.i.C.OXoXC.V.I.R.R.C.V.). X.X].R.)._.Y.R.). XdXdXn.>.s.C.,XiXfXdXaXdXdXdXdXdXyXxXJXZXZXZXZXZXZXZXZXZXZXZXZXZXZXZXZXZXZXZXZXZXZXZXVXsX`.V.j. .` ` ! ! W E E E ` i.s.w.0.:.:.E S H F F F Z Z n b z b m x m I M c Z Y ] ;.;.y.s.p.-.] ` ` ! Z i i i i i i i i i i i r 9 $ ",
"+ # 5 i e e e e r r r t i p i n ] X.-.-.,.p.m.p.p.p.X.H Z A Z M b A b z z b n Z Z S F F F H o.N.n.v.N.`.&.T E E E E ! ! ! ] :.C.3X7XnXZXZXZXZXZXZXZXZXZXZXZXZXZXZXZXZXZXZXZXZXZXZXNXVXxXtXtXtXaXdXdXiXtXaXdXeXE.q.6.0.1XgXOXT.E.E.T.U.E.R.E.I.Y.C.C.I.I.E.R.E.].}.T.k.6.4.p.U.!.[.{.{.[.`.`.Z.Z.N.a.p.i.0.>.p.y.p.p.a.a.p.p.p.p.a.a.p.X.T Y E &.p.a.a.a.a.a.a.a.a.a.a.a.a.a.v.v.v.n.B.Z.W.`.'.[.[.W.n.,.&.-.w.n.Z.!.!.'.[.8XGXGXGXGXbX3X{.}.[.[.`.`.`.`.W.W.W.`.W.W.W.W.!.!.W.`.`.W.`.`.`.`.].].].].].].`.`.`.`.`.`.`.`.!.!.!.W.W.W.W.W.].].].].].Q.Q.Q.Q.Q.!.'.Q.!.!.!.W.!.!.!.!.!.!.!.!.!.!.!.!.!.!.!.!.!.!.!.!.`.`.`.:X9XxXJXKXJXxX2X[.`.W.T.U.n.0.=.&.a.W.[.'.[.'.!.W.C.n.n.m.m.m.m.n.n.n.n.n.n.n.n.n.n.k.p.>.! ~ ] X.p.a.a.a.j.a.p.p.p.y.y.y.y.y.y.>.:.w.n.N.Z.`.[.}.}.{.[.[.W.k.:.6.p.V.1XOXC.m.E.R.Y.I.I.R.R.R.R.R.R.R.T.R.).].dXdXN.;.s.k.oXfXiXfXfXaXaXdXdXdXaXsXJXZXZXZXZXZXZXZXZXZXZXZXZXZXZXZXZXZXZXZXZXZXZXZXVXsX`.C.j.[ _ ` ! ! Q W E E ] w.a.y.0.<.-.E G F F F F Z A b b b n b k k l b b b I ] ;.6.y.i.p.:.` ] ` ~ Z p p i i i i i t i i i p 9 # ",
"+ # 5 u r q e e r r t t i p i n ~ X.-.-.:.p.m.a.p.p.X.H Z b c l b F M z x b n Z Z S F F F G } p.v.n.n.M...T E E E W ! ! ! ] >.C.3X7XnXZXZXZXZXZXZXZXZXZXZXZXZXZXZXZXZXZXZXZXZXZXZXvXVXxXtXtXtXdXiXiXiXtXaXdXeXE.0.6.0.2XgXOXT.E.T.U.T.T.R.E.I.I.V.V.V.V.Y.E.T.].[.T.k.0.y.p.Z.'.[.{.{.[.`.`.Z.Z.N.a.p.i.0.>.p.y.p.p.p.a.p.p.p.p.a.a.p.&.E T E &.p.a.k.a.a.a.a.a.a.a.a.a.a.a.v.v.p.v.n.B.C.Z.W.`.[.[.W.a.>.-.,.u.n.Z.!.!.!.:XyXmXGXKXKXDX7X2X2X5X2X0X0X0X;X;X0X<X;X;X;X;X:X:X:X:X:X:X{.{.;X;X;X;X;X;X;X;X;X;X;X;X;X;X;X;X:X:X:X:X[.[.;X;X;X;X;X;X;X:X:X:X:X:X:X;X:X:X:X:X:X0X0X:X:X:X:X:X0X0X0X0X0X0X0X0X:X:X:X:X;X2X;X'.9XMXKXKXJXxX2X'.`.W.T.U.m.w.:.;.p.T.[.[.`.`.W.Z.V.N.n.n.n.n.n.n.n.n.n.n.n.n.n.n.n.n.k.p.>.Q ~ ] X.p.a.a.a.j.a.p.p.p.y.y.0.w.0.0.>.:.w.n.V.Z.`.'.}.}.{.[.[.W.k.>.0.k.V.1XOXC.m.U.E.E.I.I.R.R.R.R.R.).)._.).). XdXdXV.;.i.k.oXfXiXfXfXaXaXdXdXdXaXsXGXZXZXZXZXZXZXZXZXZXZXZXZXZXZXZXZXZXZXZXZXZXZXZXVXsX`.C.j.[ _ ~ ! Q E E E E ` 0.a.p.w.0.-.E G F F F F A A M b b n b k a k z c b I ] ;.6.y.i.p.;.` ] ` ~ Z p p i i i i t t r r r i 9 + ",
"+ # 5 u r q e e r r r t i p i n ~ o.-.-.:.a.V.k.p.p.X.H Z b k k b D Z z l b n Z Z S F F F G ] i.v.N.n.a.] T E Q E W ! ! ! ] >.V.3X7XnXZXZXZXZXZXZXZXZXZXZXZXZXZXZXZXZXZXZXZXZXZXZXvXZXxXtXaXaXdXdXiXiXtXaXdXeXE.q.6.0.1XgXOXT.E.T.R.].I.E.E.I.V.V.V.V.V.T.E.T.].[.Z.j.y.k.p.C.'.[.{.{.[.`.`.Z.Z.V.k.p.i.0.>.p.y.p.p.p.p.p.p.p.p.p.a.a.,.W E E X.i.p.a.p.a.a.a.a.a.a.a.a.a.a.a.a.p.a.n.n.M.C.Z.W.`.[.'.W.n.>.-.>.p.n.Z.!.!.`.;XsXmXJXKXJXJXmXnXcXVXVXVXVXVXVXVXVXVXZXZXZXNXNXNXNXmXVXmXmXmXmXmXmXmXmXvXmXmXmXmXvXVXVXVXVXJXJXJXJXJXJXJXJXJXJXJXJXVXVXVXVXVXVXVXVXJXJXZXZXvXZXZXmXJXJXJXJXKXKXKXKXJXJXJXJXJXJXJXJXJXKXJXmXJXKXKXJXxX0X'.S.!.Z.C.m.0.:.>.p.W.'.'.!.!.W.Z.V.k.k.n.N.n.n.n.n.n.n.n.n.n.n.n.n.n.n.k.p.:.E ! ] X.p.a.k.a.a.a.p.p.p.p.p.0.0.0.0.>.:.w.n.C.T.`.[.}.}.{.].].W.m.6.p.V.C.3XoXT.V.U.E.Y.I.Y.R.R.R.R.R.).).).R.).].dXdXV.;.t.k..XiXtXfXfXaXaXdXdXdXaXsXGXZXZXZXZXZXZXZXZXZXZXZXZXZXZXZXZXZXZXZXZXZXZXZXVXsX`.C.j.[ _ ~ ! ! Q ! Q E ` 0.p.p.y.y.,.E S F F F F A A M b b n b z a g k l b I ] -.6.y.i.p.:.` ] ` ~ Z p p i i i i r r r r r i 9 + ",
"+ # 5 u r q e e r r r t i p i n ~ o.-.-.>.a.V.k.p.p.X.H M b l b b F Z k l b n Z Z S F F S G  .k.B.N.n.p.] T E ! E W ! ! ! ] >.V.3X7XnXZXZXZXZXZXZXZXZXZXZXZXZXZXZXZXZXZXZXZXZXZXZXvXZXxXtXaXdXdXdXdXtXtXaXdXeXE.q.6.0.2XgXOXT.E.E.R.].I.T.E.I.V.C.C.I.I.E.R.T.].[.U.j.i.m.p.U.'.[.{.{.[.`.`.Z.Z.V.k.p.y.0.>.p.y.q.p.p.p.p.p.p.p.p.a.a.=.! E E X.i.p.a.p.a.a.a.a.a.a.a.a.a.a.a.a.a.a.n.n.n.N.Z.S.W.W.[.{.`.n.0.,.>.p.n.Z.!.W.'.2XsXCXVXVXJXZXKXKXKXKXKXKXKXKXKXKXKXKXKXKXKXKXKXKXKXKXKXKXKXKXKXKXKXKXKXKXKXKXKXKXKXKXKXKXKXKXKXKXKXKXKXKXKXKXKXKXKXKXKXKXKXKXKXKXKXKXKXKXJXKXKXKXKXKXKXKXKXKXKXKXKXKXKXKXKXKXKXKXKXKXKXKXKXKXGXqX2X'.S.S.Z.C.m.p.:.:.p.U..X'.W.W.W.Z.B.n.a.a.n.N.n.n.n.n.n.n.n.n.n.n.n.n.n.n.k.p.:.E W / X.p.k.k.p.a.a.p.p.p.p.p.0.0.0.0.>.:.w.n.C.T.W.[.}.}.{.].].W.m.0.p.V.C.1XoXT.V.I.Y.Y.I.E.R.R.R.R.).R._.).R.).].dXdXV.;.6.k..XfXiXfXfXyXaXdXdXdXaXsXGXZXZXZXZXZXZXZXZXZXZXZXZXZXZXZXZXZXZXZXZXZXZXZXVXsX`.C.j. ._ ~ ! ! Q W Q Q ` 0.p.p.u.y.:.E S F F F F Z A M b b b b z a k l c M Y ] -.6.y.i.p.:.] ] ` ! Z i i i i i i t r r r r i 9 + ",
". # 5 u r q 0 e r r t i p i i c ! ..-.:.>.a.V.k.p.p.X.H M b l c M A M k c b n Z Z S F F S G ..p.n.N.N.a.] Y E E E W ! ~ ~ ] -.N.3X5XnXZXZXZXZXZXZXZXZXZXZXZXZXZXZXZXZXZXZXZXZXZXZXZXZXxXtXtXaXaXdXdXdXdXaXdXwXN.i.6.>.2XfXOXT.E.T.T.T.T.I.I.I.I.Y.C.I.T.T.T.T.R.[.T.p.q.0.p.T.'.[.}.[.].W.W.Z.C.N.a.p.i.0.6.y.0.p.p.p.p.p.p.p.q.q.a.p.X.W W Y ..y.i.a.a.a.a.a.a.a.a.a.a.a.a.a.a.a.a.n.m.M.m.V.Z.T.W.W.'.[.!.M.w.>.0.p.V.C.T.W.!.<X8XnXnXsXnXnXmXMXMXMXmXVXnXxXnXcXMXMXmXmXMXMXMXmXmXmXmXmXmXmXmXmXMXMXnXnXnXnXMXnXnXnXnXxXxXxXxXxXxXxXxXxXxXxXxXxXxXsXsXsXsXcXhXsXcXcXcXcXnXnXnXmXnXnXnXnXnXcXcXxXxXxXxXxXxXnXxXxXxXxXxXnXsX7X;X[.S.C.B.V.N.p.*.0.b.W.[.].W.W.T.Z.V.M.n.k.n.n.k.n.n.n.n.n.n.n.n.n.n.n.n.n.n.k.p.>.E Y ! &.p.k.p.i.i.p.y.p.p.q.w.0.0.w.w.0.:.w.n.N.C.T.[.[.[.[.[.].W.m.p.p.V.V.3XoXT.m.C.Y.E.I.E.R.R.R.E.).).).).R.).].dXfXV.@.5.k.:XfXfXfXfXfXfXfXdXdXaXhXVXZXZXZXZXZXZXZXZXZXZXZXZXZXZXZXZXZXZXZXZXZXZXZXVXsX].U.j.[ _ ! ! ! ! W ! ! ] 0.p.p.u.w.:.E G G F F Z Z Z M b m n b b z l l b b Y ..-.0.y.i.p.:.] ] ` ! Z i i i i i i t r r r q i 9 # ",
". # 5 i r q 0 e r r t i p i i c ! ..-.:.>.a.V.k.p.p.X.H M b l c M A M z c b n Z Z S F F S G ..p.n.N.N.a.} Y E E E W ! ~ ~ ] -.N.3X5XbXZXZXZXZXZXZXZXZXZXZXZXZXZXZXZXZXZXZXZXZXZXZXZXZXxXtXeXaXaXdXdXdXdXaXdXwXN.i.6.:.2XgXOXE.E.T.T.Y.Y.I.I.I.I.T.Y.E.E.T.E.T.].[.T.p.q.0.n.W.'.[.}.[.].`.W.Z.V.N.p.i.i.>.6.y.0.q.p.p.p.p.p.q.w.p.a.p.O.! E E ] p.a.a.y.a.a.a.a.a.a.a.a.a.a.a.a.p.a.k.n.V.M.n.N.C.T.W.W.[.oX].V.i.>.0.p.m.V.C.C.Z.[.{.[.:X:X<X2X0X0X0X0X:X'.'.:X<X0X0X2X0X0X<X:X:X;X:X;X:X:X;X;X:X:X0X0X0X0X0X<X0X:X:X:X:X:X:X:X:X:X:X:X:X:X:X;X2X2X2X2X2X2X2X2X<X;X;X;X;X;X<X2X2X2X2X2X2X2X2X2X<X<X0X0X0X0X2X2X2X2X2X2X2X<X{.[.`.T.A.N.p.0.;.*.b.W.[.[.Q.W.U.Z.V.M.n.n.k.k.k.k.k.n.n.n.n.n.n.n.n.n.n.n.n.n.n.p.&.E ! ~ =.p.a.p.p.y.p.p.p.p.p.w.0.0.w.w.>.:.w.a.V.Z.W.[.[.].].[.[.`.V.p.p.m.V.eXOXT.m.V.I.E.I.Y.R.R.R.R.).).).).R.).].dXfXV.;.6.n.:XfXfXfXfXfXfXfXfXdXaXhXVXZXZXZXZXZXZXZXZXZXZXZXZXZXZXZXZXZXZXZXZXZXZXZXVXsX].C.j.[ ! ! ! ! ! W ! ! [ 0.p.p.y.y.:.E G G F D Z Z Z b b m n n m z l l b b Y o.-.0.y.i.p.:.] ] ` ! Z i i i i i i t r r r q i 9 $ ",
"* # 5 i r q 0 e i r i i p i i c ! ..-.:.>.a.V.k.p.p.X.G M b l b M A M z c b n Z Z S F F S G ..p.n.N.N.v.X.Y E E W W ! ~ ~ ] -.N.,X5XbXZXZXZXZXZXZXZXZXZXZXZXZXZXZXZXZXZXZXZXZXZXZXZXZXxXtXtXtXtXdXdXdXdXaXdXwXN.i.:.-.2XkXOXE.E.T.T.E.E.T.T.T.T.}.oX].I.I.T.Y.].[.U.p.0.0.m.T.!.[.}.[.].`.W.A.N.n.p.i.i.>.6.y.>.q.p.p.y.p.y.w.w.p.k.a.&.} ] Y Y 0.p.p.p.a.a.a.a.a.a.a.a.a.a.a.a.p.p.a.k.m.M.m.n.M.C.T.W.!.[.}.`.B.p.>.0.p.k.m.m.T.R.R.Q.].[.[.oXoXoX{.{.!.!.!.'.;X;X>X<X<X:X;X;X{.{.{.{.[.[.[.[.[.[.'.'.[.[.[.[.;X;X{.;X[.[.[.[.[.[.[.[.{.{.>X>X>X;X;X;X;X;X;X;X;X{.[.'.'.[.{.{.;X;X;X;X;X{.{.[.[.'.[.[.[.[.[.[.{.{.[.[.[.'.].].).T.V.k.6.-.;.p.W.[.[.!.W.W.U.C.n.n.n.M.k.k.k.k.k.k.n.n.n.n.n.n.n.n.n.n.n.n.a.0.o.] =.X.:.p.p.p.p.p.p.p.a.p.p.w.0.0.w.0.>.:.w.p.N.Z.W.`.[.].].[.[.`.V.p.w.p.m.3XOXR.V.V.I.E.I.Y. XR.R.R.).).].].).). XdXgXV.;.6.n.>XfXfXfXfXfXfXfXfXdXsXhXVXZXZXZXZXZXZXZXZXZXZXZXZXZXZXZXZXZXZXZXBXZXZXZXVXsX].U.j.[ ! ! ! ! ! ! ! ! [ 0.p.p.y.y.:.E F F F D D Z Z b b m n n m z l b b b Y ..,.6.0.y.i.:.]  .] ! Z i i i i i i t r r r q i 0 $ ",
"* # 5 i r q 0 e r i i i p i i v ! ..-.:.>.a.V.k.p.p.X.G M b l b M A M z c m n Z Z S F F S G ..p.n.N.N.v.&.Y Y E W W ! ~ ~ ] -.N.1X5XbXNXZXZXZXZXZXZXZXZXZXZXZXZXZXZXZXZXZXZXZXZXZXZXJXxXtXtXtXtXdXdXaXaXaXdXwXN.y.;.-.2XkXOXT.E.E.T.E.T.T.T.T.T.R.OX.XI.V.I.T.].[.C.i.0.q.m.Z.!.[.}.[.].`.W.C.n.k.i.i.i.:.6.y.>.w.p.p.y.y.w.w.w.p.n.k.&.&.:.! Z } y.p.i.a.a.a.a.a.a.a.a.a.a.a.a.p.p.a.k.k.n.m.m.n.M.C.T.C.T.`.`.!.B.p.6.y.i.h.j.C.V.C.C.C.T.T.Q.W.W.W.W.W.T.W.].`.'.[.[.>X;X[.[.[.[.[.[.[.[.'.'.'.[.].].].].].].}.}.}.}.].].].].].].].].].].].].{.{.{.{.{.{.{.{.>X{.[.`.].[.[.}.}.[.[.[.[.[.[.`.`.`.`.`.`.`.`.`.`.`.Q.Q.Q.U.I.I.E.V.s.i.:.;.p.T.[.[.!.!.W.W.U.C.n.n.M.N.k.k.k.k.k.k.n.n.n.n.n.n.n.n.n.n.n.n.y.&.E ~ w.-.>.y.i.i.p.p.p.p.p.p.y.w.0.0.w.0.:.:.w.p.k.C.Z.W.[.`.`.[.].W.m.p.w.a.m.oX}.R.U.E.E.E.Y.R..X X].R.).).].].). X XdXgXC.;.5.k.>XfXfXfXfXfXfXfXfXdXsXgXVXZXZXZXZXZXZXZXZXZXZXZXZXZXZXZXZXZXZXZXBXZXZXZXVXsX].C.j.[ ! ! ! ! ! ! W ! [ 0.p.p.y.w.:.E F F F S D Z Z b b m n n m z l b b b Y ..,.6.0.y.i.:.]  .] ! Z i i i i i i t r r r r i 0 % ",
"o @ 6 i r q q r r r u i p p s m ! o.-.:.>.a.N.k.i.y.X.G M b c b b A M k c b n Z Z S F F S G X.a.n.N.N.k.-.K T Q ! W ! ~ ~ ] ;.N.1X5XbXZXZXZXZXZXZXZXZXZXZXZXZXZXZXZXZXZXZXZXZXZXZXZXJXnXaXtXdXdXdXdXtXtXtXfXwXV.y.:.-.>XkXOXT.T.E.E.E.E.E.E.E.E.Q.].Q.U.U.I.I.Q.].C.y.5.0.k.Z.!.[.oX[.!.W.T.V.n.n.i.y.>.-.6.y.:.0.y.y.y.y.y.y.y.p.p.p.p.0.y.~ S H &.a.p.p.a.a.a.a.a.a.a.a.p.a.a.p.a.a.a.a.v.n.n.m.m.V.C.C.Z.W.`.`.!.V.p.*.*.3.q.i.y.p.k.m.m.m.m.V.N.N.n.n.N.V.C.Z.C.C.Z.T.T.T.Z.W.W.W.W.W.W.W.W.T.T.T.U.C.C.C.C.T.T.T.T.V.N.N.V.C.C.V.m.V.Z.Z.Z.W.!.!.!.S.S.S.S.Z.Z.W.W.!.W.Z.C.Z.Z.Z.W.C.Z.Z.C.V.N.m.k.k.k.k.k.k.k.k.k.j.j.j.j.x.h.8.;.:.i.C.[.[.'.].W.W.T.C.M.n.N.N.n.n.n.n.k.k.k.k.n.k.k.k.k.n.n.n.v.n.p.-.E H W &.0.y.y.y.i.p.p.p.p.p.p.y.0.;.6.6.0.:.>.a.i.p.n.B.B.S.W.`.`.[.T.m.0.0.y.m.}.}.R.T.T.E.E.E. X3X X].].].].].]. X X XdXkXV.>.t.m.>XfXfXfXfXfXfXbXgXfXtXbXJXJXZXZXZXZXZXZXZXZXZXZXZXZXZXZXZXZXZXZXZXZXZXZXVXsX`.U.j.[ ! ! ! ~ ~ ! ^ Q [ 0.i.y.y.w.:.W F F F F S Z Z V b b n n m z l l b b Y ..&.0.0.y.i.5.]  .] ! Z i i i i i j i t i i r r 9 % ",
"o # 5 i r q q r r r u i p p s b ! o.-.:.>.a.V.k.i.y.X.F M b c b b A M k c b n Z Z S F F S H X.a.n.N.N.k.-.K T E ! W ! ~ ~ ] -.N.1X5XbXZXZXZXZXZXZXZXZXZXZXZXZXZXZXZXZXZXZXZXZXZXJXJXJXnXaXtXdXdXdXiXtXtXtXfXeXV.y.:.-.>XkXOXT.E.E.E.E.E.E.E.E.E.Q.].Q.U.I.I.I.R.}.T.0.>.6.a.C.!.Q.[.'.W.W.T.V.m.V.i.>.:.-.0.0.;.0.y.y.y.y.y.y.y.p.p.p.p.p.0.-.W ! Y ..y.p.a.a.a.a.a.a.a.p.p.a.a.p.a.p.a.a.a.v.n.m.m.m.V.V.Z.Z.W.`.'.W.V.6.*.*.i.p.p.p.a.a.a.a.a.p.p.p.p.p.p.a.k.n.v.a.p.a.a.p.p.w.w.w.w.a.a.a.p.a.j.j.j.p.p.p.p.k.k.k.k.i.0.6.0.0.0.0.0.w.p.p.p.p.p.p.p.u.p.p.p.a.a.v.n.n.n.a.p.a.a.p.p.a.a.a.a.k.k.p.p.a.a.a.s.s.s.s.h.i.q.q.q.q.7.3.;.j.Z.[.{.'.].W.W.W.C.M.m.N.N.n.n.k.k.n.n.k.k.k.k.k.k.k.k.n.n.n.v.p.>.~ G W Y ] w.y.y.y.y.p.p.p.p.p.i.y.6.;.>.>.6.-.;.>.i.p.k.n.N.Z.Z.W.`.[.W.m.w.0.y.m.oX}.R.T.T.E.R.R. X@X+X X].].].).). X X XdXSXC.4.t.k.oXfXfXfXfXsXsXgXgXfXtXbXJXJXZXZXZXZXZXZXZXZXZXZXZXZXZXZXZXZXZXZXZXZXZXZXVXsX`.T.k. ._ ! ! ~ ~ ! ^ Q [ 0.i.i.y.w.:.W F F F F S Z Z V b b n n b l l l b b Y ..&.6.0.y.i.5.]  .] ! Z i i i i j j i t i i r r 8 % ",
"o # 5 i r q q r r r i i p p s b ! o.-.>.>.a.m.a.y.w...F M b c b b A M k c b n Z Z S F F S H X.a.a.N.N.k.-.K T Q ! ! ! ! ~ ` -.N.1X5XbXZXZXZXZXZXZXZXZXZXZXZXZXZXZXZXZXZXZXZXZXZXJXJXJXnXaXtXaXaXdXiXtXtXiXfXeXV.y.:.-.>XkXoXT.E.E.E.E.E.E.E.E.E.R.Q.R.U.I.I.I.R.XXT.t.>.6.p.C.W.!.'.'.W.W.T.C.m.y.-.:.:.;.0.0.-.6.0.0.0.y.y.y.y.u.u.p.p.n.y.a...o.H G X.0.p.p.a.a.a.a.a.p.a.a.a.p.p.p.p.a.a.v.n.n.m.m.m.V.C.Z.W.W.`.`.W.Z.p.6.k.C.C.C.B.C.C.V.C.V.V.C.C.C.C.C.A.V.C.B.n.n.n.n.n.n.n.n.n.C.C.C.V.V.m.k.m.V.V.V.V.C.C.C.C.C.V.M.M.m.M.V.V.Z.W.W.W.W.W.T.T.M.m.m.n.N.B.V.C.C.V.V.N.N.B.N.V.N.N.N.N.C.C.V.V.C.C.C.C.C.C.C.C.V.V.V.V.k.i.q.i.T.[.}.[.].W.W.T.Z.N.m.M.N.n.n.n.k.k.k.k.k.k.k.k.k.k.k.k.n.v.n.a.>.] F Y W X.0.p.y.u.y.y.p.p.i.i.i.i.y.6.;.:.:.:.;.;.-.y.a.a.n.C.C.Z.W.`.[.W.V.y.w.p.N.}.}.R.E.E.E.R.T.).+X@XwXOXR.R.).).|. X.XlXHXC.4.s.k.oXfXsXfXfXsXsXfXhXfXyXbXJXJXZXZXZXZXZXZXZXZXZXZXZXZXZXZXZXZXZXZXZXZXZXZXVXsX].T.k. .` ! ! ~ ~ ! ^ Q [ 0.y.y.y.w.>.W F F F F F A Z V b m n Z b l c b b b Y ..&.6.0.y.i.5.}  .` ! Z i i i i j j i t i i q q 8 # ",
"o # 5 i r q q r r r i i p p s b ! o.-.>.>.a.m.a.y.y...F M b c b b A M k c b n Z Z S F S S G X.a.a.N.N.k.-.K T Q ! ! ! ! ! ` ;.N.1X5XbXZXZXZXZXZXZXZXZXZXZXZXZXZXZXZXZXZXZXZXZXZXJXJXJXnXaXtXaXaXdXiXtXtXdXfXeXV.y.:.-.>XkXOXT.Y.E.E.E.E.E.E.E.E.T.Q.R.I.I.I.V.T.oXT.6.;.>.p.V.S.Q.'.'.].T.Z.C.V.>.-.>.:.:.0.6.-.>.0.0.0.y.y.y.y.u.y.p.p.a.a.p.&.o.! H H X.0.p.p.a.a.p.p.p.p.a.a.p.p.p.p.a.a.a.v.k.m.m.m.m.V.Z.S.W.W.`.`.`.W.S.!.!.!.'.!.'.'.].].`.].[.[.{.[.[.[.[.:X;X[.[.[.[.[.'.'.'.'.'.'.'.'.`.A.V.V.W.W.W.W.].].].].W.W.W.W.W.W.W.W.W.`.'.`.'.'.`.!.C.C.C.C.!.`.'.'.`.`.'.`.[.>X>X1X{.[.[.{.[.[.{.{.[.[.[.[.[.[.[.[.[.].].].].T.T.W.[.[.`.W.W.W.Z.Z.V.M.V.M.n.n.n.n.k.k.k.k.k.k.k.k.k.k.k.k.n.n.n.0.~ F Y ! ~ p.n.p.u.u.y.y.p.p.y.y.i.y.0.>.-.:.;.:.:.>.:.0.k.a.N.Z.Z.S.`.[.].W.V.p.p.a.m.[.}.R.E.E.I.E.Y.Y.).3XdXwXR.R.).).R. X+XlXHXV.5.z.k.oXfXsXfXfXsXsXfXhXfXfXbXJXJXZXZXZXZXZXZXZXZXZXZXZXZXZXZXZXZXZXZXZXZXZXZXVXsX].T.k. .` ! ! ~ ~ ! ^ ^ [ 0.y.y.y.w.>.W F F F F F A Z V b m M Z b l c b b b Y ..&.6.0.i.i.5.}  .` ! Z i i i i j j i t i i 0 0 5 # ",
"O # 8 q r q q r r r i i p p a b E } &.:.>.a.V.k.y.6.[ Z A b c c b A M l b M Z S Z S F F G Y &.n.n.N.N.n.:.K Q Q ! ! _ ` ~ ` -.c.oX7XxXJXZXZXZXZXZXZXZXZXZXZXZXZXvXNXZXZXZXZXZXZXJXJXJXDXaXaXaXaXdXdXfXfXiXfXeXV.p.6.:.>XkXOXT.Y.E.E.E.E.T.Q.].E.U.U.U.I.V.V.I.R.XXT.0.>.:.p.C.D.!.'.'.].T.C.V.m.y.0.>.:.:.:.:.-.>.0.y.0.y.0.0.y.w.y.y.p.a.a.a.a.0./ G G G ] y.p.p.p.p.p.a.p.p.p.a.p.a.p.p.p.a.a.p.a.k.k.m.m.V.C.T.`.!.W.W.W.W.!.'.'.'.[.[.[.[.[.}.}.}.}.}.}.}.[.:X>X>X>X>X;X[.[.S.C.C.B.C.C.B.B.C.C.C.V.Z.Z.Z.Z.W.W.W.W.W.T.U.Z.Z.C.C.C.C.C.C.C.C.C.C.C.V.V.V.V.C.C.C.C.Z.Z.W.W.!.[.1X5X2X1X>X>X;X{.{.{.{.{.{.{.{.{.{.{.{.[.[.[.].].].`.[.`.W.T.W.T.C.V.V.N.m.m.n.n.k.k.k.k.k.k.k.k.k.k.k.k.k.k.n.a.0.~ I Y E ~ >.a.p.p.p.p.p.p.y.w.y.0.i.y.y.>.-.:.:.:.:.6.6.6.a.a.N.`.Z.`.[.[.[.`.V.y.a.a.V.[.oXT.I.T.E.Y.I.I.R.OXeX3XT.T.).].R.)..XkXkXN.5.z.k.oXfXsXfXfXfXfXfXfXaXtXbXDXZXZXZXZXZXZXZXZXZXZXZXZXZXZXZXZXZXZXZXZXZXZXZXZXsX`.T.k...] _ _ ~ ~ ! E T  .0.i.y.i.w.>.T F F F F F F Z V C m n Z b l b b b b Y o.-.6.0.y.s.>. .} ` ! Z s i i i j j i t i i q 0 , % ",
"O # 9 r r q q r r r i i p p a C E } &.:.>.n.V.m.y.0. .A A b c c b A M l b M Z S Z S F F G H X.a.n.N.N.n.:.K Q Q ! ! ' ' ~ ` -.c.oX7XxXJXZXZXZXZXZXZXZXZXZXZXZXZXvXNXZXZXZXZXZXZXZXJXJXDXaXaXaXaXdXdXdXfXiXdXeXV.p.6.:.>XkX.XR.Y.E.E.E.E.Q..X,X XE.U.U.I.V.I.V.R.}.A.t.:.:.w.B.C.!.'.].T.V.M.m.n.y.0.>.:.:.-.-.;.:.>.0.0.:.;.:.0.w.w.y.p.p.p.p.p.p.X.! Y H Y X.p.p.p.p.p.a.p.p.p.a.p.a.a.p.p.a.a.p.a.k.k.k.m.m.V.C.W.W.T.Z.Z.Z.Z.W.W.W.W.W.W.W.W.`.`.`.`.`.`.`.`.`.'.!.'.'.!.!.!.C.V.B.V.V.V.V.V.C.V.V.V.C.C.C.C.T.T.T.T.U.C.C.C.C.C.C.C.C.B.B.B.C.C.C.C.C.C.C.C.V.V.V.V.V.V.C.C.S.W.`.'.'.'.[.[.`.`.`.`.`.`.`.`.`.`.!.!.`.W.W.W.W.W.W.W.T.W.W.W.T.C.V.m.V.M.M.m.n.n.n.n.k.k.k.k.k.k.k.k.p.a.a.p.a.0.~ G W E ! &.a.a.p.p.p.p.p.p.0.0.6.>.6.y.6.;.;.:.:.:.:.6.0.6.a.a.N.`.W.W.`.`.[.W.N.y.p.p.m.[.].T.E.R.R.R.E.Y.R.+XwX@XT.T.).].R.|.OXFXkXN.5.s.k.oXfXsXfXfXfXfXfXfXaXyXbXDXJXZXZXZXZXZXZXZXZXZXZXZXZXZXZXZXZXZXZXZXZXZXZXZXsX`.U.k. .` _ _ ~ ~ ! E Y  .0.i.y.i.w.>.T F F F F F F Z V b m n Z b l c b b b Y ..-.6.y.y.s.>. .} ` ! Z s i i i j j i t i i q q < & ",
"o $ 9 r r q q r r r i i p p a b E } &.:.0.n.C.m.s.q...A A b c c M D M l b M Z S Z S F F F H X.a.v.N.B.n.:.Y Q Q ^ ^ ' ' ~ ` ;.c.oX7XxXJXZXZXZXZXZXZXZXZXZXZXZXZXvXBXZXZXZXZXZXZXZXJXDXbXaXaXaXaXdXdXdXdXdXdXeXV.p.6.:.>XgX.XR.E.E.E.E.E.T. XOX].U.U.U.I.I.I.V.E.].A.y.:.:.w.B.C.U.W.U.V.M.n.k.p.y.0.>.:.;.&.=.:.0.>.,.,.-.-.:.6.w.y.u.p.p.p.y.y.w.>.X.! T H Y &.0.p.p.p.p.a.p.p.a.a.a.a.p.p.a.a.p.a.k.k.k.k.m.m.m.U.T.C.V.V.V.V.C.C.A.A.A.A.Z.Z.Z.Z.Z.Z.A.A.A.A.V.N.n.N.V.V.V.N.V.V.V.V.V.V.V.V.V.V.V.V.C.C.V.V.C.C.C.C.C.C.V.V.V.V.V.V.B.B.B.B.C.C.C.C.C.C.C.C.B.V.V.V.N.N.V.V.N.M.M.n.n.M.N.V.C.C.C.C.C.C.C.C.C.C.C.C.A.V.V.N.V.V.V.V.V.C.C.Z.V.V.V.V.V.m.M.m.N.N.N.N.k.k.k.k.k.k.k.k.p.a.p.0.,.! F ! ! ] :.p.v.p.p.p.p.p.p.p.p.y.6.;.-.-.;.>.>.:.:.:.:.6.0.0.p.i.a.S.`.S.W.`.].T.N.y.w.w.m.[.].R.T.R.R.R.E.Y.R.].OX.XT.R.R.].E.R.OXkXkXk.5.s.k.oXfXsXfXfXsXsXfXfXyXyXbXDXJXZXZXZXZXZXZXZXZXZXZXZXZXZXZXZXZXZXZXZXZXZXZXGXsX`.U.j. .` _ _ ~ ~ ~ E Y  .0.i.y.y.0.:.Y F F G F F F Z Z C m Z Z M l l l l b Y X.-.0.y.i.s.>. . .} ! Z i i i i j j i t i i r r < & ",
"o $ 9 i r q q r r r i i p p a b E } +.:.0.n.C.V.s.q...A A b c c M D M l b M Z S Z S F F S G X.p.v.N.B.n.:.Y E Q ! ! ! ` ~ ` -.c.oX7XxXJXZXZXZXZXZXZXZXZXZXZXZXZXvXNXZXZXZXZXZXZXJXmXbXyXaXaXaXaXaXaXdXdXdXdXwXV.p.6.:.>XdX.XR.R.E.E.E.E.T.Q.].T.E.U.U.I.I.I.m.E.].Z.y.,.>.p.C.Z.Z.V.V.Z.V.n.p.y.y.0.>.:.-.+.&.>.>.-.-.:.0.>.>.0.w.w.u.p.p.p.y.w.:.0.>...W E F Y X.0.p.p.p.p.p.p.a.a.a.a.p.p.a.a.p.k.k.k.k.k.k.m.k.V.V.V.M.M.M.M.N.N.N.N.N.N.N.N.V.V.V.V.N.N.N.N.N.k.p.a.m.m.m.m.V.V.V.V.V.V.V.V.V.V.V.V.V.V.V.V.V.V.V.V.V.V.V.C.V.V.V.V.B.B.B.B.C.C.C.C.B.B.B.B.N.N.N.N.n.M.N.N.N.N.M.n.n.n.n.n.N.N.N.N.N.N.N.N.N.V.V.N.V.N.N.n.N.N.N.N.N.N.N.N.m.V.V.C.V.m.M.m.N.N.N.N.k.k.k.k.k.k.k.k.a.n.y.=.W G T Y X.p.v.y.a.p.p.p.p.p.p.p.p.p.y.y.>.+.o.>.6.:.:.:.:.6.y.y.y.0.p.C.`.W.W.W.`.T.m.y.w.0.k.}.}.].T.U.E.U.I.I.Y.R.XX}.T.T.R.).E.E. XdXfXk.4.h.k.oXfXfXfXfXiXiXfXfXyXyXyXmXGXVXZXZXZXZXZXZXZXZXZXZXZXZXZXZXZXZXZXZXZXZXZXGXsX`.C.j. .` ! ! ! ! ~ E Y  .0.i.y.i.0.:.Y F F G F F F Z Z C m Z Z n z l l l b Y X.-.0.y.i.s.>. . .} ! Z i i i i i j t t i i i i < & ",
". # 6 r r e e r r r p p p p p b E | -.:.y.N.N.k.s.q...A A b k c M D M c b M Z Z Z S F F S G X.p.n.N.V.n.:.Y E W ! ! ~ ~ ~ ` @.c.oX5XxXJXZXZXZXZXZXNXZXZXZXZXZXZXNXZXZXZXJXVXmXnXxXyXtXtXaXaXaXaXaXaXfXfXdXfX5Xk.p.6.:.>XuX.XR.].R.T.E.E.R.R.R.R.E.^.U.I.I.I.V.U.].A.i.6.>.a.C.Z.Z.W.W.T.A.k.i.y.y.0.0.>.,.X.o.X.$.,.<.0.y.y.y.y.y.y.i.i.p.i.p.p.v.a.y.0.} Y I Y T $.w.p.p.p.p.p.p.p.a.a.a.a.a.a.n.a.n.n.n.n.n.n.k.k.k.k.n.n.n.n.k.k.n.n.n.n.n.n.m.m.m.m.n.n.m.k.n.n.n.n.m.m.m.m.N.N.N.N.N.N.N.N.N.V.V.V.V.V.V.V.V.B.B.B.B.B.B.B.V.V.C.C.C.V.V.C.V.V.V.V.N.N.V.V.B.N.M.n.N.N.N.N.n.n.n.n.n.a.n.n.n.n.n.n.n.n.n.n.n.n.n.v.v.v.v.v.k.k.n.n.n.n.n.n.M.M.M.M.M.M.m.m.n.n.n.n.n.k.k.k.k.k.n.k.a.w.&.! W I I ~ 0.p.a.a.a.p.p.p.p.p.p.u.i.y.y.y.y.6.6.:.>.=.;.,.:.6.y.y.y.0.p.V.S.W.W.W.W.W.k.y.w.>.k.[.].Q.T.U.U.I.I.V.Y.Y.T.R.Y.T.R.].E.R.].uXfXN.4.h.z.oXfXfXfXfXfXfXfXfXaXfXsXfXsXsXnXmXJXJXZXZXZXZXZXZXZXZXZXZXZXZXZXJXZXZXZXGXsXW.C.h.] Q ! ! ! ! W E T ..w.y.u.u.w.:.Y F G G G F S Z Z n m Z Z b b b c c b Y ..=.0.y.i.s.5.o.} ` ~ Z p p i i i i i t i i i p 5 1 ",
"O $ 9 i i r e e r r p p p p p b E | -.>.y.N.N.m.i.q...Z M b c c m D b c b M Z Z Z S F F S G X.p.n.N.V.n.:.Y E W ! ! ~ / ~ ~ @.k.oX5XxXJXZXZXZXZXZXNXZXZXZXZXZXZXZXJXJXGXDXnXbXsXsXtXtXtXaXaXaXaXaXaXfXfXdXfX5Xn.p.6.:.>XeX].E.R.T.T.T.E.R.R.R.T.U.U.I.I.V.I.C.U.].T.i.0.6.p.C.W.W.W.W.Z.V.a.y.y.p.y.0.>.&.] ] X.-.-.:.0.w.0.y.y.i.i.i.i.p.p.p.p.a.p.p.y.>.] Y W T T ..y.p.p.p.p.p.p.a.a.a.a.a.a.a.a.n.n.a.a.a.a.k.k.k.a.a.a.p.p.p.a.a.a.a.a.a.a.k.k.k.k.n.n.m.n.k.k.k.k.m.m.m.m.M.M.N.N.V.V.V.V.N.N.B.N.V.V.V.V.B.B.B.B.B.B.B.B.C.C.C.C.C.V.V.V.V.V.V.V.V.V.V.N.B.B.N.M.N.N.N.N.n.n.n.n.n.n.a.n.n.n.n.n.n.n.n.n.n.n.n.n.n.n.n.n.k.k.k.k.n.n.n.n.n.n.n.n.m.m.m.m.n.n.n.n.k.k.k.k.k.k.n.a.p.=.W G G I / &.p.p.p.a.a.p.p.a.p.p.p.y.y.y.y.y.6.:.;.;.=.X.....;.6.6.6.0.0.p.N.Z.W.!.W.W.T.k.y.p.0.m.].Q.T.T.C.U.I.C.V.Y.Y.E.T.Y.T.).].R.R.].tXfXN.4.s.z.oXfXfXiXiXiXdXfXsXaXdXdXaXsXhXsXxXnXmXVXLXZXZXZXZXZXZXZXZXZXZXZXJXJXJXZXGXsXW.C.h.] Q ! ! ! ! W E Y ..w.y.u.u.w.:.Y F G G G F S Z Z n m Z Z b b b b b b I ..=.0.y.i.s.5.o.} ` ~ Z p s i i i i i t i i i p 5 1 ",
"+ % 9 i p i e e u u p p p p a b E | -.>.y.N.V.m.i.0...Z M b c b n S n x b n Z Z Z S F F S G X.p.n.N.V.n.:.T E W ! ! ~ ~ ~ ` @.k.oX5XxXJXZXZXZXZXZXZXZXZXZXZXZXZXVXDXmXbXbXfXyXyXyXyXsXfXdXdXdXdXdXdXdXdXdXfX4Xk.p.6.:.,XeX].E.R.T.T.E.R.R.R.R.T.U.Y.I.I.C.U.E.E.R.A.p.y.0.a.V.W.W.W.W.A.N.p.y.y.p.p.0.-.o./ o.>.y.>.=.&.>.0.w.y.i.i.i.i.p.p.p.p.p.p.p.u.y.-.] W T Y ! X.0.p.p.p.a.a.a.a.a.a.a.a.a.a.a.a.a.a.a.a.k.k.k.a.a.p.p.p.p.a.a.a.a.a.a.a.k.k.k.k.n.n.n.n.n.n.n.n.m.m.m.m.N.N.M.M.N.N.N.N.N.N.N.N.B.B.N.N.N.N.N.N.N.N.N.N.B.B.B.B.B.B.B.B.N.N.N.N.V.N.N.N.B.B.N.M.M.M.M.M.n.n.n.n.n.a.a.n.n.n.n.n.n.n.n.n.n.n.n.n.n.n.n.n.k.k.k.k.n.n.n.n.n.n.n.n.n.n.n.n.n.n.n.n.k.k.k.k.k.n.a.w.$.( G D I / :.0.y.y.p.a.p.p.a.a.p.p.u.y.y.y.0.6.;.&.&.:.=.X...] o.:.5.5.6.6.y.m.Z.Z.W.W.W.C.s.i.a.p.V.].T.C.C.C.C.C.C.V.V.C.T.T.Y.T.).). X X].eXfXN.:.s.z..XfXfXfXfXdXdXfXsXaXaXtXtXsXsXsXfXsXbXbXmXDXGXVXVXVXVXZXZXZXZXZXZXZXZXZXVXsXW.C.h.] Q ! ! ! ! ! E Y ..0.0.y.y.w.:.E F H G G G S Z Z n m Z S b b b b b B Y X.=.0.y.i.s.5.o. .` ~ Z s s i i i i i t i i i p 5 ; ",
"+ % 9 i h i u e u u p p p p a b E | -.>.y.N.V.m.i.0...Z b b c M n D n c b n Z Z Z S F F S G X.p.n.N.V.n.:.T E E ! ! ~ ~ ~ ` @.k.oX5XnXJXZXZXZXZXZXZXZXZXZXVXVXVXnXbXsXtXyXyXiXiXiXfXfXfXdXdXdXdXdXdXdXdXdXfX4Xk.p.6.:.,XdXoXR.).T.T.E.R.R.R.R.T.Y.I.I.I.R.].R.T.T.C.p.i.p.a.V.W.W.W.T.C.n.p.y.y.0.w.>.X...o.=.0.y.0.-.X.&.>.w.y.i.i.i.i.i.i.p.p.p.p.p.p.y.y.:.] W E E ! X.0.p.p.a.a.a.a.a.a.a.a.a.a.a.a.a.a.a.a.a.a.k.k.k.k.k.k.k.k.n.n.n.n.n.n.m.m.m.m.n.m.n.n.M.M.M.M.m.m.m.m.n.n.M.M.n.n.n.n.M.M.M.M.n.M.M.M.N.N.N.N.N.N.N.N.N.N.N.N.N.M.M.M.M.M.N.N.N.N.n.n.M.n.n.n.n.n.n.n.n.v.v.v.a.a.a.n.n.n.n.n.n.n.n.n.n.m.m.m.n.n.n.m.k.k.k.k.n.n.n.n.n.n.n.n.n.n.n.n.n.n.n.n.k.k.k.k.k.a.w.:.R U U I ] :.p.p.w.y.p.p.p.p.a.a.a.p.p.y.0.0.:.&.+.+.;.6.0.,.&... .+.;.>.6.6.y.m.V.C.Z.W.T.V.s.p.k.n.T.].C.V.V.C.T.C.V.V.V.C.T.T.Y.T._.)..X XQ.5XfXN.4.s.z.oXfXfXfXfXfXdXfXsXaXaXtXtXaXfXsXsXfXfXfXbXbXnXmXCXVXVXZXZXZXZXZXZXZXZXZXVXaXW.C.h.] Q ! ! ! ! ! E Y ..0.0.y.y.w.:.T F H G G G S Z Z n m Z S n b b b b B Y X.=.0.y.i.s.6.o. .` ~ Z s i i i i i i t i i i i 6 ; ",
"# % 9 p p i i i p p p a a a a n E } -.>.y.n.N.n.i.0...Z M b b b Z S Z m b n M Z Z Z S S G G &.a.n.N.V.n.;.E Y E ! ! ~ ~ ~ ~ -.N.}.4XnXZXZXZXZXZXZXZXZXVXmXcXxXsXsXfXtXtXtXtXtXiXyXyXfXfXfXdXaXdXdXdXdXdXfXfX4Xk.i.6.:.,XuXoXR.T.C.U.T.Q.T.R.R.T.Y.Y.T.T. XXXT.C.W.V.p.a.n.p.C.Z.W.W.W.Z.N.p.y.y.6.>.:.-.>.6.0.0.y.0.>.,.&.&.:.w.u.p.p.p.i.i.p.p.p.p.p.p.p.y.w.0.} W T T W X.p.a.a.a.a.a.a.a.a.a.a.a.a.a.a.a.a.a.k.k.k.k.k.k.k.k.a.a.a.a.n.n.n.n.k.k.k.n.m.m.m.k.n.n.n.n.n.m.m.m.n.n.n.n.N.N.N.N.M.M.M.M.M.M.M.M.N.N.N.N.N.N.N.N.N.N.N.N.N.N.N.N.M.M.N.N.N.N.N.N.n.n.n.n.n.n.n.n.n.n.n.n.n.n.n.n.n.n.n.n.n.n.n.n.n.n.n.n.n.n.n.n.k.k.k.k.k.k.k.k.n.n.n.n.n.n.n.n.v.v.v.n.k.n.k.p.k.p.,.R U A U ( :.u.p.p.y.y.p.p.p.p.p.a.p.p.y.0.:.;.+.+.&.:.0.y.p.w.0.6.;.;.;.;.6.6.y.k.V.T.W.W.W.C.p.y.k.M.C.W.k.k.N.C.R.C.V.N.V.A.T.R.T.T._.]..X X].3XtXm.6.h.m.>XfXfXfXfXfXdXfXaXaXaXtXtXaXfXfXfXfXfXfXfXfXsXsXsXcXcXvXVXZXZXZXZXZXZXJXVXsX`.C.q.] Q ! ! ! ! ! W W ..0.0.y.y.y.>.E G G G G G S Z Z n m Z S Z M z c l b U ..&.6.y.s.i.6.+. .` ~ Z i i p p p p i i i i i i 0 < ",
"# % 9 p p i i i p p p a a a a n Y } -.>.y.n.N.n.i.0...Z b b b b n V n x b n M Z Z Z S S G H &.a.n.N.V.n.=.Y Y W ! ! ~ ~ ! ~ -.N.[.1XnXZXZXZXZXZXZXmXnXcXxXsXsXsXfXdXtXtXtXtXiXiXyXyXsXfXtXtXdXdXdXdXdXdXfXfX4Xk.i.6.:.,XuX XR.Y.C.U.R.R.T.T.E.U.Y.].OXT.E.E.V.C.W.C.n.C.N.a.C.W.W.W.W.C.k.p.y.0.:.>.0.y.y.i.p.p.y.0.>.>.,.=.=.,.0.y.p.p.y.y.i.i.p.p.p.p.p.p.p.y.>.} E Y W ~ ] 0.p.a.a.a.a.a.a.a.a.a.a.a.a.a.a.a.k.k.k.k.k.k.k.k.k.a.a.a.n.n.n.n.k.k.k.k.m.m.m.k.n.n.n.n.n.n.n.n.n.n.n.n.N.N.N.N.N.M.M.M.B.B.N.N.N.N.N.N.B.B.B.B.N.N.N.N.N.N.N.N.N.N.N.N.V.N.N.N.n.n.n.n.n.n.n.n.n.n.n.n.n.n.n.v.n.n.n.n.n.n.n.n.n.n.n.n.k.k.n.v.a.a.k.k.k.k.k.k.n.n.n.n.n.n.n.n.v.v.v.a.a.a.a.a.y.&.Y U U U ( -.p.p.p.p.p.p.p.p.p.p.p.p.p.y.0.>.&.+.&.:.5.6.0.y.p.p.p.p.y.y.y.6.:.6.0.p.m.C.T.W.W.C.p.y.m.T.V.V.m.k.k.m.C.T.T.V.V.I.E.T._.T.T.).].].].3XtXm.6.h.m.>XfXsXfXfXfXdXfXfXaXtXaXaXfXfXfXfXfXfXfXfXfXfXaXsXsXsXsXxXnXmXVXVXZXVXJXVXaX`.C.q.` Q ! ! ! ! ! W W  .0.w.y.u.y.>.E G G G G G S Z Z n m Z Z n c z b b b U ..&.6.y.i.i.6.+. .` ~ D i p p p p p i i i i i i 0 < ",
"# % 9 p p i i i p p s a a a a n Y } -.>.p.n.n.n.y.0...Z b b v b b V m x n n N Z Z Z S S G H &.a.n.M.V.n.+.G Y Q ! ! ~ ~ ! ~ -.N.[.1XsXVXZXVXvXMXnXnXxXsXsXsXfXfXdXaXaXaXaXaXaXtXyXsXsXsXfXfXfXdXdXdXdXdXfXfX4Xk.s.6.:.@XeX XT.Y.I.E.R.Q.W.R.R.].XXOX3XV.k.N.k.A.`.T.n.n.p.y.C.W.W.W.Z.V.n.p.0.:.>.6.i.s.s.i.i.y.y.0.0.>.<.:.=.=.-.>.6.y.y.y.y.y.p.p.p.p.p.p.i.i.p.:.] Y Y ! ~ | :.u.p.p.a.a.a.a.a.a.a.a.v.a.a.a.k.k.k.k.k.k.k.k.k.k.a.a.n.n.n.n.k.k.n.n.m.m.k.k.n.n.n.n.n.n.n.n.n.n.n.n.N.N.c.N.N.M.M.N.N.N.N.N.N.N.N.N.N.N.N.N.N.N.N.N.N.N.N.N.N.N.N.N.N.N.N.N.n.n.n.n.n.n.n.n.n.n.n.n.n.v.n.n.n.n.n.n.n.n.n.n.n.n.n.n.n.n.n.n.n.n.k.k.k.k.k.k.n.n.n.n.n.n.n.n.n.n.n.n.p.a.p.0...K G Y U / :.u.p.u.p.p.a.p.p.p.p.p.p.p.p.0.:.=.+.&.>.0.0.0.6.6.0.0.w.q.w.y.p.y.6.6.0.y.a.V.T.T.T.V.y.0.n.V.n.M.m.k.k.m.k.XX6XOX).R.R.).).T.T.R.R.R.R.3XeXm.5.h.z.>XfXsXfXfXfXdXfXfXsXsXsXsXfXfXfXfXfXfXfXfXfXfXfXsXsXsXqXsXsXsXcXnXVXVXJXVXsX`.C.q.] Q ! ! ! ! ! W W  .0.w.y.u.y.>.E G G G G G F Z Z n b n Z m z b b b b U ..&.>.0.i.y.>.+. .} ] F p p p p p p i i i i i p 0 , ",
"# % 9 p p i i i p s s a a a a n Y } -.>.p.n.M.k.y.0...Z b v v b b V n x n n N Z Z Z S S F H &.a.n.B.V.n...S E ! ! ! ~ ~ ! ~ -.N.[.2XsXVXmXvXxXxXsXsXsXsXfXfXfXfXfXaXaXaXaXaXyXsXsXsXsXsXnXnXhXaXdXdXdXdXfXfX4Xk.s.6.4.@XeX].Y.Y.I.E.R.W.Q.].oX3XOX X].k.k.z.k.T.[.`.p.:.$.>.C.S.`.W.Z.N.p.0.>.0.i.i.i.i.i.6.;.+.-.:.0.0.<.>.:.:.:.:.-.>.y.y.y.y.p.p.p.p.p.p.i.i.k.y.&.~ Y W ] W ..:.y.p.a.a.a.a.a.a.a.a.v.a.a.a.k.k.k.k.k.k.k.k.k.k.a.a.n.n.n.n.k.n.n.m.m.m.k.k.n.n.n.n.n.n.n.n.m.n.n.n.N.N.N.N.N.N.M.M.n.n.n.n.n.k.k.k.a.a.a.k.n.n.n.n.n.n.n.n.n.n.n.n.n.n.n.n.n.n.n.n.n.n.n.n.n.n.n.n.v.v.n.n.n.n.n.n.n.n.n.n.v.v.v.v.n.n.v.v.n.n.k.k.k.k.k.k.n.n.n.n.n.n.n.n.n.v.v.v.p.k.y.&.K K I U ! -.u.u.u.p.a.a.a.a.a.p.p.p.p.p.p.0.-.X.&.>.0.y.0.6.6.>.>.4.0.0.0.0.0.0.y.y.0.0.y.m.C.T.W.T.a.y.M.p.w.m.m.n.V.C.c.R.3XeXrX+X X X].R.T.T.E.E.R.3XeXk.4.h.m.>XfXsXsXsXsXsXhXhXnXnXsXfXfXfXsXsXsXsXfXfXfXfXhXhXhXsXsXsXsXsXsXsXnXnXnXnXsX'.C.y.] ! ! ! ! ! ! W W  .0.w.y.u.y.>.W G G G G G F Z Z b b n n v b C v z b U ..&.:.0.y.y.:.+. . .] F p p p p p p i i i i i p 0 , ",
"& & 0 p p i i p p p p p p p h Z Y ] X.>.p.n.N.a.i.6...F A A Z M Z H F n b n Z Z Z S F F G H &.a.b.n.B.n.X.H ] ~ ~ W W ~ ! ! -.N.}.<XsXsXxXxXsXsXsXsXsXsXfXfXfXfXfXiXfXfXsXsXsXxXxXnXmXmXGXVXnXsXaXdXdXdXfXfX5Xk.i.6.5.3XaXXXT.Y.C.T.].oXoXOX3X3X X).R.I.N.k.k.N.V.i.:.-.p.C.W.S.W.C.v.y.>.y.n.a.i.p.p.p.6.:.;.&.&.-.w.y.y.0.0.y.p.>.&.;.p.p.w.p.p.p.p.p.p.p.p.p.p.p.p.:.] E W ~ ! ] -.a.p.p.a.a.a.a.a.a.a.a.a.a.a.a.a.a.a.a.n.n.n.v.n.v.n.n.n.n.n.n.n.n.n.n.k.k.n.n.n.n.n.n.n.n.n.n.k.k.m.m.N.N.m.m.m.m.m.m.k.k.k.k.n.n.n.k.k.a.k.k.n.n.k.k.k.m.n.n.n.n.k.k.k.k.n.n.n.n.n.n.n.n.n.n.n.M.n.n.n.n.n.n.n.n.n.n.n.n.a.a.a.a.v.a.v.v.n.n.n.n.n.n.n.n.n.n.n.n.n.n.n.n.n.n.a.a.a.y.X.E H G Y | =.y.p.p.p.a.a.a.p.p.p.p.p.p.p.p.6.X...*.0.u.p.p.0.w.-.=.6.0.>.=.&.,.0.p.p.k.k.p.>.p.C.C.Z.T.C.V.m.n.b.p.n.n.V.].T.k.c.oXuXpXrXOXXXR.Y.V.Y.E.].,XtXV.4.q.n.>XhXhXsXsXsXsXsXmXGXVXVXmXbXsXsXfXsXsXsXfXhXhXfXfXfXhXhXhXhXhXfXfXbXbXxXxXqX[.U.q.] ` _ _ _ _ _ ! !  .0.w.0.y.p.>.W G G G G G F S Z b m n Z Z b A b b C Y ] &.:.>.0.>.;.X.o.} ] G a a a a p i i i i i t i q > ",
"& & 0 p p i i p p p p p p p a V E ] o.:.p.n.N.k.i.6.o.A A A M b H T H b b n M Z Z S F F G I =.a.n.B.V.n.&.K ~ ' ] ~ ~ ] ~ ` y.`.1X4XsXsXsXxXsXfXsXsXsXsXfXfXfXfXiXiXiXyXsXxXbXnXmXvXVXZXVXVXmXnXaXdXdXdXfXgXeXm.p.6.6.3XeX].R.T.T.].oX,XeX3XOX.XR.E.T.T.m.i.6.6.0.y.s.N.T.].!.W.n.p.0.>.y.u.v.y.y.i.p.k.0.:.:.6.0.0.0.y.p.y.0.0.0.,.&.&.0.w.w.q.p.p.p.p.p.p.p.p.p.p.a.p.:.] E Y ! W ] ,.u.p.a.a.a.a.a.a.a.a.a.p.a.a.a.a.a.a.n.n.n.n.v.v.n.n.n.n.n.n.n.n.n.n.k.k.n.n.n.n.n.n.n.n.n.m.m.n.m.m.N.N.m.m.m.k.n.m.k.k.k.k.n.n.n.k.a.a.k.k.k.k.k.k.k.k.n.n.n.n.k.k.k.k.n.n.n.n.n.n.n.n.n.n.n.n.n.n.n.n.n.n.n.n.n.n.n.n.a.a.a.a.v.v.a.a.n.n.n.n.n.n.n.n.n.n.n.n.n.n.n.n.n.a.a.a.y.X.E H G K ] 0.y.p.p.p.a.k.a.a.p.p.p.i.y.p.p.w.&...&.0.p.p.p.y.0.>.:.>.p.w.:.&.+.:.y.k.i.i.k.V.y.;.p.Z.Z.C.T.T.C.Z.V.a.n.n.n.k.m.m.V.Y.].OXrXrXeX@X X).Y.Y.R..XtXV.4.q.j.oXhXhXsXsXhXsXnXVXZXZXZXZXVXnXnXnXhXsXsXsXsXsXfXfXfXfXhXhXfXhXfXfXbXbXbXxX8X[.U.y. .` [ ` _ ! _ ! ! ] 0.y.u.p.p.>.W G G G G G F S Z b n n Z A G b b b b H ] X.:.>.0.>.;.&.o.o.] G a a a a p i i i i i t i q > ",
"% & 0 p p i i p p p p p p p a V Q } o.-.p.n.n.k.i.6.} A M M M b F F M z m n n Z Z S F F G H =.a.B.B.M.a...E Q ` ] ~ ] o.o.&.A.3X3X4XtXsXyXxXbXfXfXfXfXfXfXfXfXfXfXfXfXfXbXnXmXVXVXZXZXZXVXVXmXnXaXdXdXfXgXkXeXV.s.6.5.3XeXOXoX.X3X3X3X3X3X.XR.T.V.k.s.i.i.6.y.s.N.A.`.[.[.`.W.C.y.0.0.p.p.p.p.0.y.;.;.5.6.:.;.6.a.p.w.0.u.p.y.0.:.,.;.=.,.6.0.w.y.p.p.p.p.p.p.p.a.p.p.a.p.>.] Y E T E ] -.p.p.a.p.p.a.a.p.p.a.a.a.a.a.a.v.v.n.n.n.v.n.v.n.n.n.n.k.k.n.n.m.n.m.m.n.n.n.n.n.n.n.n.n.n.n.n.m.n.k.m.m.k.k.k.n.n.n.n.n.n.n.n.n.k.k.k.k.k.k.k.k.k.n.n.n.n.n.n.k.k.k.k.n.n.n.n.n.n.n.n.n.n.n.n.n.n.v.v.n.n.n.n.n.n.n.n.k.k.k.k.k.k.k.k.n.n.n.n.n.n.n.n.k.k.n.n.n.n.n.n.a.a.a.w.X.W H H Y ] >.a.p.p.p.a.k.a.a.a.p.p.i.y.w.y.w.>.&.;.w.a.p.p.p.y.0.>.w.p.p.0.:.;.:.6.:.:.:.>.y.k.n.:.:.p.V.V.V.T.W.'.].C.k.w.6.;.:.i.m.C.V.R.].@XrXeXwX3X XR.].oXdXC.8.i.j.oXnXnXbXbXnXnXmXJXZXVXZXZXZXVXVXmXmXnXbXxXsXsXsXsXsXsXsXsXsXhXfXfXbXbXbXxX7X`.W.m.:.&.+.] Q Q _ ! ! ] -.w.p.p.p.:.W G G G G G F S Z b b n Z F W F k z v F ~ o.:.6.0.>.:.&.X.o.] H a a a a p i i i i i t p q > ",
"% & 0 p p i i p p p p p p p a V ! } o.-.y.n.n.a.i.>.] M k l b b D b k c m b n Z Z S F G G Y =.a.n.n.v.w.! ` ` ] ~ ! ] ..X.>._.1X3X3XfXfXxXbXfXfXfXfXfXfXsXsXsXsXyXbXnXmXmXGXVXZXZXZXZXZXZXVXmXnXaXdXfXfXgXSXtXV.i.6.5.3XuX3X3XwXeX3XoX].C.V.N.k.k.p.s.i.s.s.s.N.T.].}.[.`.W.V.n.y.0.p.C.v.p.p.0.;.+...O.;.5.4.6.w.p.p.y.0.p.p.u.0.6.>.>.=.:.6.0.y.y.p.p.p.p.p.p.n.a.p.p.p.v.>.] Y Y Y E ] ,.p.p.p.p.a.p.p.p.p.p.a.a.a.a.a.v.n.n.n.n.n.n.n.n.n.n.k.k.k.k.m.m.m.m.n.n.n.n.n.n.n.n.n.n.n.n.k.k.k.k.k.k.k.k.n.n.n.n.n.n.n.n.n.k.k.k.k.k.k.k.n.n.n.n.n.n.n.n.k.k.k.k.k.k.k.k.n.n.n.n.n.n.a.a.a.a.v.n.v.v.n.n.n.n.n.n.k.k.k.k.k.k.n.n.n.n.n.n.n.n.n.n.k.k.k.n.n.n.n.n.a.a.w.,.W H H H } 0.a.p.p.p.a.a.a.a.a.a.p.i.y.y.w.0.>.=.:.y.k.a.a.p.u.y.>.0.n.p.0.4.6.w.>.6.:.&.:.0.s.s.N.N.-.&.p.m.m.V.W.`.[.[.T.a.6.&.&.:.0.s.c.V.Y.R.R.@XdXuXeXOX.X3XdXC.8.q.h..XgXnXnXnXnXnXnXVXZXZXvXvXvXvXvXmXNXmXmXnXxXxXsXsXsXsXsXsXsXsXfXfXbXbXsXbX9XB.V.m.0.6.;.[ Q Q ! ! ! ] X.>.u.u.p.:.! G G G G G F S Z b z b b Z A C h g z S ! } :.6.0.>.>.-.X.o.] H a a a a p i i i i i t p q > ",
"# & 0 p i i i i p p p p p a f S Q } o.;.p.n.n.a.i.>.} k h k b b Z b z z b b n n Z Z F G G Y $.0.0.0.p.n.W W ^ Q G H T ~ X.-.y.C.OXwXfXbXbXbXfXiXbXbXbXfXsXxXxXnXmXmXVXVXVXVXVXVXZXJXJXVXGXmXxXbXgXgXnXnXnXnX6Xs.i.t.t.3XdX4X3X3X>XR.m.V.T.C.m.i.0.y.k.m.V.m.V.W.[.[.].].Z.k.n.k.a.n.N.C.p.y.p.p.6.;.&.&.;.0.y.6.:.0.p.y.y.0.w.p.q.6.>.6.:.&.=.6.0.y.y.u.p.p.p.p.p.p.p.p.p.a.p.>.] H G Y Y ] -.p.p.p.p.p.p.p.p.p.a.p.a.a.a.a.v.v.v.n.v.v.n.n.n.n.k.k.k.k.k.k.m.m.v.v.n.n.n.M.n.n.k.k.k.k.k.k.k.k.k.k.k.k.n.m.m.m.n.n.n.n.a.a.k.k.k.k.k.k.k.k.m.m.n.n.k.a.a.a.a.a.n.n.n.n.n.n.n.n.n.n.n.n.a.a.a.a.v.v.n.n.n.n.n.n.n.n.n.n.a.a.a.a.n.n.n.n.n.n.n.n.k.k.n.n.n.n.n.n.n.p.&.~ Y F G ] 0.a.a.a.a.a.a.a.a.a.a.p.p.y.y.y.0.:.=.=.6.y.a.k.p.u.u.0.0.M.n.>.>.6.0.0.0.:.,.4.y.y.i.y.k.V.N.i.M.n.p.a.C.].oX>XoX[.V.6.:.:.:.:.i.k.N.C.T.T.].wXrXuXrX3XdXU.h.q.j..XSXnXVXvXmXnXcXnXMXVXGXZXZXZXNXNXNXNXZXNXvXMXnXxXsX8XsXsXsXsXbXbXbXbXnXbX7XB.C.m.:. .] ] ` ` ! E W ] -.>.<.0.0.&.W F F G G G F Z n b x z b b A ! l p k Z Y ] :.6.0.6.>.,.&.X.] H a a a a p p i i p i t t r > ",
"# & 0 p i i i i p p p p p a f S ! } X.:.p.n.n.a.y.>.} k k z c b D Z b c b b n n n Z S F G H } :.a.C.W.T.W W Q Q K K E ~ ..+.>.k.>XwXfXbXbXxXsXsXsXfXxXxXxXcXmXmXVXVXVXVXVXVXZXZXJXVXmXnXxXcXxXbXnXnXmXnXnXnX5Xa.i.t.4.3XdX3X].C.C.N.V.C.m.p.6.;.y.p.m.C.C.T.].oXoX[.W.C.p.i.n.n.n.n.n.v.p.y.y.y.k.p.6.>.>.0.p.i.:.:.0.y.y.w.y.p.p.0.>.:.6.:.&.=.>.0.y.y.u.u.p.p.p.p.p.p.p.p.a.p.>.] Y G Y Y ~ =.y.p.p.p.p.p.p.p.a.a.a.a.a.a.a.a.a.a.a.a.a.a.a.a.k.k.k.k.k.k.k.k.v.v.n.n.n.n.n.a.k.k.k.k.k.k.k.k.k.k.k.k.n.n.m.m.n.n.n.k.a.a.a.a.k.k.k.k.k.m.m.m.N.M.n.k.a.a.k.a.k.k.k.k.k.n.n.n.v.v.n.v.n.n.v.v.v.v.n.n.n.n.v.v.k.n.n.k.a.a.a.a.a.a.a.a.v.n.n.n.k.k.k.a.a.k.k.a.p.=.! E H Y ] :.a.a.a.a.j.a.a.a.a.a.a.p.p.i.y.0.:.,.;.:.0.w.p.p.y.w.y.w.M.C.n.>.0.w.0.0.>.:.0.q.p.p.y.0.y.n.A.Z.T.C.k.p.m.T.[.>X1X>X{.W.a.0.0.0.y.p.s.N.A.R.R.E.E..XrXdXdXm.;.4.q..XFXGXJXZXVXmXnXbXxXxXmXmXJXJXZXNXNXNXNXNXNXNXJXDXnXnXxXsXsXsXnXnXbXbXnXbX7XC.C.V.;. .] ] ` ` ! W W ] a.a.p.u.0.&.! G S F F F S Z b x x v b z D { c j k A Y ] :.6.0.6.>.,.&.X.] H a a a a p p i i i i t i e ; ",
"# & 0 i i i i i p p p p p a f S ~  .&.:.p.n.n.a.y.>.} k z l c c D Z b c b b M n V S F F H ! >.N.T.W.V.i.W W ! W E E E ~ ]  .>.n.>X5XsXxXsXsXsXxXxXxXcXvXvXCXVXVXZXZXZXZXvXZXZXZXmXxXsXqXsXcXnXnXGXGXGXmXnXnX5Xa.i.6.;.oX.XV.k.m.U.T.U.V.0.>.:.:.k.m.C.T.Q.[.oX>XoX].C.a.-.0.M.M.n.a.p.p.p.p.0.0.p.N.k.a.i.y.p.p.0.>.>.w.p.a.a.a.p.6.>.>.6.6.:.&.-.>.0.w.y.y.p.p.p.p.p.p.p.p.p.a.a.>.] Y Y I Y ] -.u.p.p.p.p.a.p.a.p.a.a.a.a.p.a.p.a.a.a.a.a.a.a.k.k.k.k.k.k.k.k.a.a.a.k.k.n.k.a.a.a.k.k.k.k.k.k.a.a.a.a.k.n.k.m.k.k.k.k.a.a.a.a.k.k.k.k.k.m.m.m.n.n.k.k.a.a.a.a.k.k.k.k.k.k.k.k.v.v.v.n.n.n.n.v.v.v.v.n.a.a.a.a.a.a.a.a.p.p.s.s.a.a.a.a.a.a.k.a.k.a.a.a.k.k.a.w.-.E W Y Y } >.p.a.a.a.a.k.a.a.a.a.a.a.p.p.y.0.;.=.;.,.0.0.0.0.w.a.p.u.p.p.p.p.y.p.y.0.4.>.w.p.p.p.p.y.0.y.y.i.k.M.B.a.w.0.k.T.}.oX3X4X>X`.N.a.p.p.p.p.k.V.T.T.I.I.E.].XXtXz.O.*.8.}.FXKXJXZXZXVXmXmXnXsXsXnXnXmXNXNXZXNXZXNXNXNXJXJXGXDXDXnXxXsXnXnXSXSXbXbX7XC.T.V.;.] ] ] ` ` _ ! ! } p.a.n.N.M.0...E F S S F Z n b b b m n c N R l j h N Y ] :.0.0.6.>.,.&.X.] H a a a a p p i i p i i i e ; ",
"# & 0 s i i i i p p p p p a k S ~ o.&.>.p.n.n.a.i.6.| z c l c c Z b z z b b M M S F G K Q o.>.y.y.p.p.y.W W ! ! Q E E ~ ~ ] -.N.oX5XsXxX8XsXxXxXbXMXVXZXVXCXCXCXVXZXZXZXZXmXMXnXsXqXsXnXnXmXGXGXGXVXmXmXnXnX5Xk.s.>.5.N.k.k.V.U.C.C.k.6.:.6.y.p.n.V.T.].oX,X,XoX].W.n.0.X.0.M.a.p.p.p.p.p.a.p.w.y.i.N.B.n.i.y.p.p.y.0.w.p.a.p.y.0.>.6.0.>.6.0.:.&.-.>.0.w.y.p.p.p.p.p.p.p.p.p.p.p.a.>.] Y E W W } -.y.p.p.p.a.p.a.p.a.a.a.p.p.p.p.p.p.p.a.a.a.p.k.k.k.k.k.a.a.a.a.a.a.k.k.k.a.p.a.a.a.a.p.j.j.p.p.p.p.p.a.k.n.n.n.n.k.k.a.a.a.a.k.k.k.k.k.k.m.m.a.a.s.p.p.p.s.s.k.k.k.k.k.k.k.k.v.v.v.n.a.a.a.a.a.a.v.a.a.a.a.a.a.a.a.a.p.p.p.s.p.a.a.a.a.a.k.k.p.p.p.p.p.p.6.+.T ! Y Y ] 0.n.a.a.a.a.a.k.a.a.k.a.a.a.a.p.p.>.&.&.:.6.0.w.6.6.0.p.y.>.w.y.w.y.p.a.p.0.:.0.p.p.p.y.y.y.y.p.>.>.p.b.n.0.=.&.>.k.`.{.1X4X1X<X{.Z.n.s.a.a.a.a.C.T.C.E.I.N.V..Xk.*.8.q.[.SXGXJXZXZXNXZXVXmXnXxXsXsXbXMXvXmXZXZXZXZXZXJXGXGXGXJXGXVXnXnXnXnXnXbXbXtXZ.W.V.;.] ] ` ` ` ` _ ~  .&.:.0.y.w.,.} ! H S Z Z Z n x n m m n m k c j p h N Y ] :.0.0.6.>.,.&.X.] H a a a a p p i i p p i i e ; ",
"% = 0 i p p p p p p g p p p h S !  .&.0.p.n.N.n.y.>.] k b b M M z k z b b b C Z Z Z S F H Y ` +.0.n.V.y.! ! ! T E E E W E ~ ;.k.oXeXfXnXnXnXnXmXmXvXvXvXvXvXCXZXVXJXVXmXnXxXxXxXxXnXmXVXmXmXVXNXNXNXLXLXmXGXtXV.k.0.k.C.C.C.C.m.a.y.0.y.p.m.C.Z.Z.`.{.>X>X[.].'.T.k.>.+...&.6.p.a.p.p.y.p.p.p.p.y.y.p.n.N.n.p.y.m.k.k.a.p.6.;.;.>.0.0.0.0.0.0.0.-.X.X.:.w.y.0.0.y.p.p.p.p.p.p.p.a.a.p.>.} ~ X.&.] ] X.0.y.p.a.p.p.p.p.p.y.y.i.y.y.p.0.0.0.>.a.y.y.p.p.k.p.p.p.p.s.s.s.s.s.a.s.s.s.p.u.a.p.p.p.a.a.a.a.a.p.p.p.p.u.a.n.a.p.p.a.a.a.a.a.s.s.a.a.p.a.p.y.0.0.y.p.s.p.p.p.i.p.s.s.p.i.p.p.p.p.a.a.a.a.a.a.a.a.a.y.0.>.w.0.w.0.y.p.p.p.p.p.p.p.p.p.p.a.p.y.0.y.:.} ! ..! T ] 0.m.V.m.a.a.k.k.k.a.a.p.a.a.a.p.p.0.&.O.;.>.0.w.w.>.>.0.-.+.;.p.i.p.p.p.p.0.0.w.p.y.y.p.y.y.p.p.k.s.k.V.p.:.X.[ ] ..;.a.W.[.{.{.1X1X>X`.B.n.i.y.p.p.k.N.C.C.T.C.V.m.j.j.b.[.DXJXZXZXZXZXZXZXZXJXVXmXnXxXsXxXbXnXDXGXZXZXZXZXZXZXVXVXZXVXVXmXmXnXbXnXtXZ.W.n.&.] ` ` ` ` ] ] ] ] X.:.w.0.:.o.W H F S Z n Z M b b M b b b g a a g a b H / ;.0.w.6.>.-.&.o.} H a a a p p p p p p p i i e : ",
"% = 0 i p p p p p p g g p p h S ~ ..-.0.a.N.n.p.>.-.| G A A b l d d k k z b b b b b b n S E o.y.k.C.A.y.! ! ! T E Y T W E ~ ;.k.oXeXhXnXmXmXmXmXmXvXvXvXvXvXZXZXVXmXnXxXxXxXxXnXmXmXmXvXvXvXvXNXNXNXLXLXDXGX2XC.m.p.V.W.C.m.k.a.p.p.k.m.C.W.[.[.>X>X>X{.[.[.W.C.n.w.&.+.;.:.4.0.p.p.p.p.p.p.p.p.p.u.y.p.n.n.a.y.k.m.m.a.6.-.+.&.,.0.w.w.>.>.>.>.:.-.&.&.>.0.w.0.y.p.p.p.p.p.p.p.p.p.a.p.0.&.X.p.w.~ Y X.>.0.w.0.0.0.0.0.0.0.0.0.0.0.:.:.0.V.[.0.-.p.p.p.p.p.p.i.i.u.u.u.p.s.p.y.p.y.y.u.y.y.y.i.i.i.p.p.w.w.w.w.w.w.w.p.a.a.n.n.n.n.n.k.s.s.p.p.y.0.0.>.w.0.y.p.p.p.y.y.y.y.y.y.y.p.p.p.u.p.p.p.p.p.p.p.y.w.0.0.p.p.N.M.>.>.p.w.y.y.y.y.0.0.0.0.0.>.:.:.&.~ T X.X.~ ] >.n.m.k.k.k.a.a.a.k.a.p.p.p.p.p.0.w.0.&.&.>.0.w.w.0.>.>.0.6.:.>.y.a.a.p.y.y.w.p.p.y.0.0.0.y.p.p.y.k.k.k.n.p.>.&.%.O.&.*.0.n.T.`.[.[.].[.>X;X`.C.a.p.p.i.s.k.k.N.C.V.m.m.n.M.!.MXJXJXAXZXZXZXZXZXZXJXJXVXmXmXbXxXsXbXnXVXVXZXZXZXZXVXVXVXVXVXVXmXmXnXSXtXZ.W.N.&.] ` ` ` ` ] ] ] ] &.n.Z.M.y.=.] Y G S Z Z M M b b b c z k g k x c m S Y ] =.>.0.0.>.:.=.X.] H a a h p p i i i i i i i e : ",
"% = 0 i p p p p p i p g p p h S ` o.&.>.a.i.:.X.+.>.-.] Y F b h z b b b b C Z Z M M Z Z G ` >.n.N.A.N.>.! ! ! Y E Y E W E ~ ;.k..XeXhXmXDXmXmXmXmXmXmXmXVXVXmXmXmXcXxXxXxXMXmXvXZXZXNXNXvXBXVXvXvXmXLXLXDXbX[.W.m.j.V.V.p.p.p.k.k.m.C.W.{.oX>X>X1X>X}.].W.T.V.k.p.0.:.>.w.0.6.>.0.u.p.p.p.p.p.p.p.p.y.y.0.p.a.p.p.a.a.y.>.>.>.>.>.w.y.0.0.0.>.:.>.>.:.&.=.:.>.0.y.u.p.p.p.p.p.p.a.a.a.a.p.u.&...$.! Y W / ] | ] ] ] ] ] ] ] ] ] X.&.=.>.C.W.[.Z.&.$...$.$.$.&.+.X.X.$.$.X.X.X.o.X...| ..| ..o.o.o.o.| ..o.......| { o.i.k.m.m.m.M.M.N.N.i.-.X.| | | | | $.X.$.$.$.$.X.X.X.X.X.X.&.&.&.=.$.$.=.=.&.&.&.&.X.....&.`.Z.>X1XB.$.o.o.........] ] ] ] ] ] ] ] W I ! } ~ } >.n.n.j.p.p.p.a.s.s.s.s.p.p.p.q.0.:.w.0.;.:.0.w.w.0.>.>.>.0.y.6.6.>.p.p.y.6.w.p.p.p.0.6.0.w.p.p.y.p.n.n.k.p.p.6.,.,.0.p.w.p.p.a.C.W.[.W.W.[.1X>X>X].V.n.p.p.i.p.a.n.a.n.n.n.w.B.yXJXJXJXJXZXZXZXZXZXZXJXJXNXJXmXMXxXxXcXcXmXVXVXJXVXZXZXZXZXZXVXmXmXmXDXtXW.W.N.&.] ~ ~ ` ` ] ] ] ] -.n.Z.C.a.>...W H G S Z M b b b c z k k k x b n S Y ~ X.;.,.>.>.,.-.=.X.] H a a h p p i i i i i i s u : ",
"& = 0 i p p p p p p g g p p h S ~ } ..-.+.X.-.0.s.p.&.] T F b g b b C b C Z Z A A Z Z F H ` :.p.n.N.p.o.! ! ! Y E Y E W E ~ ;.k.}.5XhXmXDXmXmXmXmXmXmXmXmXmXnXbXxXxXxXxXMXZXJXNXvXvXNXNXvXvXvXVXVXVXGXGXtX:XW.V.m.i.i.0.6.y.k.m.C.T.].[.1X1X1X1X[.[.`.W.C.k.i.y.a.m.w.y.p.w.0.4.:.0.p.a.p.p.p.p.p.p.p.y.y.y.p.p.p.y.>.:.>.>.6.0.w.p.p.w.u.w.0.>.:.0.0.-.X.X.-.>.y.u.p.p.p.p.p.p.a.a.a.a.p.v.u.| Y Y E W W / / ~ W W W W ! ! ! ! ! ] ..>.Z.Z.Z.`.$.! / ~ / / / ] ] ] ] ] / ] ] ~ ] ~ W ! ! ! ~ ~ ~ ! ! ~ ~ ~ / / / W ! y.m.N.N.V.V.V.V.V.i.o.E I W W W W ! ~ ! ! ( ! ! W ! ! ! ! / / / / / / / ] / / / / ~ W ~ ..C.`.1X1Xa.] ] ~ ! ! ! ! ! ! ! ! ~ ~ ~ / ~ ~ D F ] 0.a.y.k.p.y.0.p.a.s.s.s.s.s.s.w.0.,.&.0.0.>.0.0.0.0.>.<.>.0.y.0.0.>.:.6.6.>.:.w.p.w.6.0.6.0.p.p.s.p.k.a.p.q.0.p.0.>.6.y.a.a.p.p.w.p.N.A.W.`.[.[.>X4X4X}.W.A.N.s.s.y.p.w.u.v.v.b.b.<XyXJXJXJXJXJXZXZXZXZXZXZXZXZXZXNXmXvXnXcXcXMXmXVXVXZXZXZXZXZXVXmXmXDXDXtXT.W.n.&.] ~ ~ ` ` ] ] ] ] -.>.w.a.p.>.X.] H G F Z b b b c c c z k a z b Z F W o.:.>.-.=.&.&.X.X.X.] H a a g p p i i r r r i i u : ",
"= = e p t t r r r r i i p a m F Y / &.:.0.y.k.V.V.a.,.} Y F b a z l b b M M Z A Z Z D G K Q  .;.;.:.-.X. .] ! Y Y Y T E W Q :.k.].3XhXmXDXmXmXmXmXGXmXcXsXsXsXsXxXnXmXmXNXNXNXNXNXNXNXNXmXmXmXDXKXDXsX2XW.`.T.p.y.0.6.0.0.p.n.C.W.oX3X3X1X>X[.`.W.`.W.C.k.>.:.i.a.m.k.p.y.y.0.6.6.6.0.p.k.a.p.p.p.p.p.y.p.y.y.i.y.y.>.-.-.&.-.:.y.p.u.0.0.w.w.0.<.0.0.w.-.$...&.-.w.u.y.p.p.p.p.a.a.a.a.n.n.a.>.] ! ~ | ..{ ! R ! ! ! ! ! ! ! ! ~ ] ] ..>.V.[.`.$./ W / / / / / ] ] ] ] ] ] ] ] ] ] ] ] ~ ~ ~ ~ ] ] ] ] / / / / ] ] ..:.i.s.p.j.a.a.a.s.6.] Y E ! ! ! ! / / ~ ~ ( ( ( ( ( ( ( ( ( ] ] ] ] ] { / / / / / ~ ! ! ! a.'.>X'.>.| ] ~ ! ! ! ! ! ~ / ] ..| | ] X.X.....>.p.n.n.a.p.y.y.p.a.s.k.k.p.i.q.:.&.&.,.6.0.0.6.0.0.>.0.0.0.0.0.>.6.6.:.&.&.:.0.0.4.:.>.0.w.p.p.y.p.k.k.s.y.y.y.y.y.0.>.a.p.0.:.0.0.i.p.V.C.W.[.`.[.oX1X4X4X>X[.C.k.p.0.-.w.M.v.b.M.!.:X9XnXGXGXGXJXmXZXNXZXZXZXZXZXZXZXZXVXmXMXnXnXnXmXZXZXZXZXZXZXZXJXGXHX5XT.C.p.o.] ` ` ` ` _ ! E ..0.=.-.-.:.&.} E Y H F Z Z Z M b b b c x k z m Z G T ] :.>.,.p.w.:.+. .` ] H z a g p i t i i i i u p e : ",
"- = e i i i i i i i p p a a v S W o.-.>.0.>.6.i.N.p.=.] Y F b k l l b b b M M M M M Z Z Z K } -.0.y.0.&. .] Q Y Y Y E W ! ] 6.k.].3XnXDXDXmXmXMXVXmXnXxXsXxXnXmXmXmXZXmXNXNXNXNXNXNXNXmXmXDXDXSXsX>X`.W.[.W.m.0.0.y.i.p.0.a.A.`.3XeXeX4X>X[.`.S.W.Z.N.a.>.:.;.5.:.0.k.V.m.k.y.y.0.6.6.0.p.k.a.p.p.p.p.y.p.y.0.6.>.y.0.>.:.;.:.>.0.w.0.:.>.0.0.>.>.0.0.w.p.0.-.| &.>.p.p.p.p.p.p.a.a.a.a.a.a.p.p.:.&.&.,.X...] ] ] ] ] { ] ] { ] $.$.X.X.X.p.'.p.X.] / ] | .... . . . . .] ] ] ] ] ] ] ] ] } } } ] ] ] ] / / / ] ] ] ..-.5.5.6.6.y.w.6.>.-.] ! ! ! ! ~ ~ ] ] ] ] ] { { { { { { ( ] ] ] { ] ] ] ] ] ] ] ] / ~ ~ ~ 0.W.!.p.&.$.X.o.} | | | ..X.$.$.&.-.,.,.1.>.>.:.>.p.a.a.a.p.y.y.p.a.s.s.k.s.0.5.&.&.,.>.6.0.0.0.0.0.0.w.0.>.:.:.:.>.6.5.0.0.y.y.4.,.;.>.y.p.a.a.k.k.k.p.y.y.y.y.y.a.k.p.m.0.;.:.y.y.y.y.y.a.V.T.W.`.[.{.1X4X5X5X>XW.k.>.-.<.a.b.B.D.S.'.[.2XtXhXmXJXLXNXZXZXZXZXZXZXZXZXZXZXZXmXMXMXnXcXvXvXZXZXZXZXJXJXGXGXtXW.Z.p.o.] ~ ~ ` ` ! T Y } &.-.v.u.:.] K G S S Z Z Z M b b b b c x k z m Z G E ] =.=.X.6.y.i.0.;...] G k p p p i t i i i i i p e - ",
"= = e i p p p p g g g h a a m S ! X.:.:.:.&.+.:.n.y.&.] Y F M z c c c b m b b M M A Z S S E +.i.T.T.n.;...` E K Y E ! ~ ] } 0.s.].4XnXDXDXmXmXMXDXnXcXcXnXnXVXVXZXNXNXNXvXmXmXmXmXmXDXGXDXnXtX2X[.].`.[.W.m.w.0.p.a.k.k.i.N.[.1XtXtX5X>X[.].T.V.V.n.y.w.:.6.6.6.>.>.i.V.T.C.N.k.y.6.>.:.w.p.k.a.p.p.p.y.y.y.0.>.>.y.i.y.y.y.y.p.p.p.w.>.>.0.0.>.>.0.0.w.0.0.>.-.&.:.w.p.p.p.p.p.a.a.a.a.a.p.p.y.y.0.6.0.6.6.5.4.6.6.0.0.<.<.<.0.0.>.>.:.&.,.a.>.-.-.:.0.0.0.0.0.0.0.0.0.:.:.:.:.6.6.6.6.0.0.0.0.6.6.6.6.:.:.:.:.4.4.6.i.i.s.s.j.m.k.i.0.i.0.:.:.-.,.:.:.>.>.:.:.>.1.1.1.:.1.1.1.:.:.>.1.>.>.>.>.>.>.>.>.>.:.:.:.>.n.a.-.=.>.>.>.>.>.>.>.>.0.0.w.p.a.a.n.a.p.p.p.w.p.a.p.a.p.y.y.p.a.k.s.k.i.5.-.-.:.0.6.0.0.0.0.0.0.y.y.0.:.-.:.>.>.0.6.p.a.p.y.>.,.:.6.a.a.k.k.m.m.p.y.0.y.y.y.y.N.V.k.k.+.+.y.a.i.0.6.>.6.i.k.C.`.`.[.{.>X3X5XeX3XT.w.6.0.p.p.B.V.n.C.[.[.}.>X9XbXDXJXNXZXZXZXZXZXBXZXZXZXZXZXZXmXmXvXmXmXmXvXvXZXJXJXGXHX7X`.W.a...~ ~ ~ ! ! ! Y Y } =.X.p.N.N.&.E S V Z Z Z Z Z b b b c c z k z m Z G E ] X.X.X.:.0.6.0.0.:.] F a p p p i t i i i i i i e - ",
"& & 0 i p p p p i i p p p a m D W X.-.:.-...X.>.a.0.X.~ Y F Z b c c m m m b b b Z Z D F E o.i.T.}.].k.o...` E K Y E ~ ] } X.i.s.].4XnXGXmXmXMXMXnXsXcXmXVXVXVXVXNXNXNXZXvXmXmXmXDXGXGXHXgX4XoX.X[.[.R.V.p.6.6.a.k.k.k.k.s.A.>XeX3X4X>X[.].W.V.m.p.0.>.0.0.0.y.p.s.:.:.s.C.A.T.C.a.0.>.:.6.y.p.k.p.p.p.y.w.y.y.0.>.y.p.i.y.p.p.p.p.p.0.:.>.0.0.>.>.0.0.w.0.>.>.0.>.:.>.0.p.p.p.p.a.a.a.a.p.p.y.y.y.0.0.y.p.p.k.k.s.s.s.s.a.p.p.p.p.p.p.p.y.y.a.y.p.p.p.p.k.k.k.k.n.m.m.m.m.m.m.m.m.m.M.M.m.m.m.m.m.m.m.n.M.n.n.n.n.k.k.z.k.z.k.k.V.m.k.s.V.N.n.n.a.a.k.k.m.m.n.n.n.n.n.n.n.n.n.n.v.n.n.n.n.n.n.n.m.n.n.n.n.k.k.k.a.a.p.y.0.p.p.a.a.a.a.a.p.a.a.a.a.a.p.p.a.a.p.p.y.p.a.p.a.p.y.y.p.a.k.s.p.0.;.+.0.y.0.0.0.6.:.:.6.w.p.p.>.-.-.>.0.y.s.y.y.p.p.y.4.>.6.p.n.n.n.n.V.k.i.0.y.y.y.i.i.N.N.s.;...;.s.k.p.0.:.;.:.5.6.a.C.`.`.[.{.>X1X5XaX3XV.k.i.p.q.a.a.p.p.C.].].].>X4X7XbXmXVXVXVXZXZXZXZXZXZXZXZXZXZXZXZXVXmXMXvXvXvXvXZXGXHXaX`.W.k...~ ! ! ! Q _ ! E ..-.X.-.y.i.6.&.] Y Y Y Y F Z Z M b b z z k z m Z F W ] ..X.,.>.;.-.:.:.+.] S a a g p i t i i i i i i e - ",
"& = r i i i i i i i p p p a b D ! X.:.>.:.:.y.p.k.y.] ~ Y H M c c b b b b b b b Z Z Z F Y ] :.V.`.A.>.] ] ] T E E E E ~ X.:.0.s.].3XnXmXMXMXxXbXnXnXmXVXZXZXZXZXNXNXZXZXNXmXvXVXHXHXgX5X>X>X>X[.].C.n.y.y.p.k.n.C.Z.Z.A.A.T.}.OXoX>XoXQ.W.V.j.0.>.0.0.0.i.s.s.6.p.p.6.;.i.A.T.A.V.a.0.:.6.0.i.a.n.a.i.y.y.y.p.p.p.y.y.w.y.y.y.w.w.0.>.:.-.0.w.>.:.>.0.0.>.>.>.0.0.>.>.0.0.w.0.0.k.n.k.p.p.0.0.y.y.p.i.i.p.p.s.s.a.a.a.a.s.s.k.k.k.p.p.k.k.k.k.k.k.k.k.k.k.k.k.k.m.V.V.V.V.V.M.N.V.V.V.V.N.M.m.V.V.V.M.M.M.M.M.m.m.m.m.m.z.k.j.j.p.k.V.C.V.V.V.V.V.V.V.V.V.V.N.N.M.M.M.M.M.m.n.n.n.k.k.k.k.k.k.k.k.k.m.k.k.k.k.n.k.k.k.k.k.k.k.k.a.a.a.a.a.a.a.a.p.p.p.p.s.s.a.a.p.p.p.p.p.p.y.i.p.a.p.y.0.:.:.6.0.0.y.y.6.:.-.;.4.q.q.4.;.;.>.0.y.y.0.0.i.y.y.0.w.0.y.p.a.k.m.V.m.p.y.y.y.y.i.p.s.k.y.+.&.;.6.0.s.y.6.:.6.6.6.6.i.s.V.W.'.[.[.>X3X3X3X>X>XQ.m.j.a.p.a.a.p.k.T.[.>X;X;X<X9XxXGXJXZXZXZXZXZXZXZXZXZXZXZXZXVXVXVXmXcXcXvXMXmXnXaX{.].N.&.] ] ! E E T T W O.=.-.>.0.y.6.-.} E K H F Z Z b b b b b b z m Z G H ~ } X.-.p.k.y.6.:.-.&.] Z a a h g p i i i i i i i e : ",
"& - r i p p p p p p p g p g b G ~ X.>.<.0.i.p.>.6.y.o.~ E G c k b b M M M M M M Z Z F G T ] -.i.n.a.>.X.>.} Y Y E E Q ! ..:.y.k.[.4XbXnXMXvXMXMXmXVXVXVXZXNXNXNXNXNXZXZXZXZXVXGXSXeXoX[.oX}.}.].V.n.a.a.a.m.V.C.}.3X5X5X1X[.].OX,XoXQ.C.j.y.0.6.0.0.0.y.i.p.j.i.0.m.V.0.-.i.C.T.T.V.p.6.6.6.0.i.a.a.p.p.y.y.i.p.p.y.y.0.0.0.0.0.6.6.>.>.>.a.a.y.:.:.>.0.w.y.y.y.q.0.6.:.6.w.0.0.a.a.p.p.s.0.y.y.p.p.p.p.p.p.p.p.a.a.a.a.j.a.a.s.k.k.k.k.k.k.k.k.m.m.m.m.m.m.m.m.V.N.V.V.V.V.M.M.V.V.V.V.N.N.m.m.V.V.M.N.M.M.V.V.V.V.V.V.V.V.V.m.M.V.V.V.V.V.V.V.V.V.V.V.V.V.V.V.V.V.V.V.V.V.M.m.m.m.m.m.m.m.m.m.k.k.k.m.k.k.k.k.k.k.k.k.k.k.k.k.a.a.a.a.a.a.a.a.p.p.s.p.s.s.a.a.p.p.p.p.p.p.y.y.a.p.y.>.>.>.0.0.y.y.i.i.0.>.:.>.w.n.a.>.;.=.;.>.0.>.6.0.y.y.y.0.w.w.p.p.a.n.m.m.p.y.y.y.i.p.p.p.k.y.-.+.>.6.y.p.V.V.k.6.;.5.6.i.p.i.y.p.V.W.'.[.oX>X].>XtX4X>XQ.W.V.k.a.a.a.k.m.'.[.[.[.'.;X9XnXmXZXZXZXZXZXZXZXZXZXZXZXZXZXVXVXvXvXvXvXnXnXtX[.[.C.6.+.] ~ E E T T W O.=.6.p.a.i.0.&.] Y L G Z Z Z M b b b b b m n F Y Y ] &.=.-.>.N.k.p.6.:.:. .Z g h g g i i i i i i i i e : ",
"& , i i p p p p p p g h p g b G ~ &.>.0.y.y.:.X.y.N.>.} W F z k b b b M Z Z Z Z Z F H Y W o.>.a.N.N.p.y.a...Y Y E Q ! E E ] N.N.[.4XbXbXmXmXmXmXVXVXVXZXNXZXZXZXZXZXZXZXnXGXnXtX1XoX[.OX>X`.V.m.a.k.m.V.M.C.!.[.5XdXgXdX5X}.}.3X>XW.m.p.0.0.0.y.w.w.y.y.y.s.j.j.y.k.C.V.:.-.0.V.T.C.N.s.0.6.6.0.p.a.k.p.k.p.y.s.p.q.w.0.0.0.0.0.0.0.0.0.0.p.a.u.<.>.<.0.p.p.p.p.q.q.0.>.&.>.>.>.w.0.0.p.s.y.y.y.p.p.p.p.a.a.a.a.a.a.a.a.a.a.a.a.k.k.k.k.k.k.k.m.m.m.m.m.m.m.m.m.N.N.N.V.m.m.M.M.V.V.N.N.N.N.N.N.V.V.V.V.V.V.V.V.V.V.V.V.C.C.C.V.C.V.V.V.V.V.V.V.V.V.V.V.V.V.V.V.V.V.V.V.V.V.V.M.m.m.m.m.V.m.m.V.V.N.n.n.n.n.n.n.k.k.k.k.k.k.k.k.a.a.a.a.a.a.a.a.p.p.p.p.s.a.a.a.p.p.p.p.p.p.y.6.p.y.>.:.>.y.y.y.i.i.i.i.0.>.>.0.p.n.a.0.>.;.=.;.:.>.0.0.6.0.0.0.y.p.p.a.m.m.m.p.y.y.y.p.p.p.p.p.i.>.;.6.p.p.k.T.].T.k.y.>.6.y.i.p.p.y.y.w.p.n.V.'.[.W.>X5XeXtX4X>X'.T.V.a.a.k.n.M.C.W.!.;X'.'.:X7XxXmXZXZXZXZXZXZXZXZXZXZXZXZXZXCXvXvXMXnXnXtX[.].W.V.p.] ~ E E E T W X.6.a.a.a.p.0.+.` Y L F Z Z Z Z M b b b b n Z G Y W o.,.>.X.~ &.y.i.0.>.:...G k h h h g p p p p p i i u > ",
"- 9 g p g g p p g g h g a h M G ] &.>.w.:.X.} } y.T.y.] W F b M b b b M M M M M Z F Y T ] &.>.y.a.p.w.w.>.~ Y I E ~ ! E K } V.N.`.1XbXmXJXNXVXZXZXZXZXZXNXNXZXZXZXZXVXGXnXtX>XOXoX1X1X}.T.m.k.m.m.m.M.M.C.!.>X5XaXdXaXeX>X}.}.>X].m.y.6.i.i.i.i.w.q.y.p.y.s.k.j.m.s.p.V.p.;.&.0.N.A.V.m.p.0.6.6.0.p.a.k.k.p.y.y.p.q.w.w.w.y.w.w.w.w.y.y.u.p.p.v.u.w.w.p.p.p.s.s.j.q.0.6.0.:.-.y.y.0.q.n.p.y.y.s.p.p.p.p.a.a.a.a.a.b.b.a.a.a.a.a.k.m.m.k.k.k.k.m.m.m.m.m.m.m.m.m.N.N.N.V.m.m.M.M.M.V.V.V.N.N.N.V.V.V.V.V.V.V.V.V.V.V.V.V.V.V.V.V.V.V.V.V.V.V.V.V.V.V.V.V.V.V.V.V.V.V.V.V.C.V.V.N.N.N.N.N.m.m.V.V.V.N.N.n.n.n.n.n.k.k.k.k.k.k.k.k.a.a.a.a.a.a.a.a.p.p.p.p.a.a.a.a.p.p.p.p.p.p.y.>.0.:.-.>.0.y.y.i.i.i.i.i.6.:.>.0.p.q.y.p.0.>.;.;.:.6.0.y.>.>.0.0.p.p.p.m.V.V.a.y.y.y.p.p.p.p.p.p.+.5.p.s.k.k.T.OXN.k.k.C.0.0.w.w.p.p.p.i.a.q.6.0.p.a.W.3X3X4X5XwX3X>X}.W.V.m.k.n.p.a.a.M.S.'.[.[.:X2X7XxXvXVXVXVXVXZXZXZXZXZXZXZXZXZXNXmXxXhX5X].`.T.n.p.] ~ E E E T W X.X.>.0.p.a.0.+.` E K H F Z Z Z Z b b b b m n F Y E ..,.0.,.] E ~ o.>.>.-.+.G k h h h g p p p p p i i u 2 ",
"- 0 g i p p p p g h h h g g b Y ] -.<.-.o.o.X.&.&.-.] ! W F Z Z n n b b Z Z Z Z H I Y W ] }  .o.o.| $.$.$.W Y T E E E E E } a.N.W.>XsXDXJXNXZXZXZXZXZXZXmXmXZXJXmXmXDXgX>XoXoX3X3XoX[.A.n.M.N.M.C.V.V.W.>X4XtXhXfXtX4X>X{.'.C.p.0.y.i.p.p.i.y.y.0.0.y.s.k.k.N.C.T.m.y.y.k.y.;.+.s.V.T.T.V.k.q.4.0.6.0.p.k.k.y.0.p.p.y.q.0.0.w.p.p.p.p.p.y.p.u.w.0.u.a.p.p.p.s.s.k.k.y.0.0.0.:.0.y.w.n.n.y.y.p.p.p.p.p.p.a.a.a.a.a.a.a.a.a.a.a.a.k.k.k.k.a.k.n.n.k.k.k.k.m.m.m.m.V.V.N.V.V.V.V.V.M.M.N.N.N.N.V.V.V.V.V.V.V.V.V.V.N.N.N.N.V.N.N.n.n.M.M.M.V.V.V.V.N.N.N.N.N.N.N.N.N.M.n.n.n.n.n.n.N.N.N.m.V.m.m.m.M.N.N.M.n.n.n.n.k.k.k.k.k.k.k.k.k.k.a.a.k.a.a.a.a.k.a.k.k.a.k.k.p.p.p.p.i.0.y.>.-.-.>.y.0.y.i.p.p.p.y.0.;.:.0.y.0.;.=.>.0.6.:.=.;.>.0.6.-.>.0.y.p.p.k.m.k.p.y.s.y.s.p.a.p.k.i.-.:.k.C.k.i.R.XXT.V.T.C.m.m.i.y.j.i.y.s.p.y.y.y.y.0.p.C.4X3X2X>X>X4XtXtX4X].V.k.n.n.n.a.p.n.C.'..X>X:X>X2X7XcXGXJXGXVXVXVXZXZXZXZXZXZXZXZXGXSX4XT.`.W.y.&.~ ~ ^ E E T W ..,.&.X.=.;.+.o.` E K G F F D Z Z b b b b m n G G G ] :.0.:...~ ! E  .;.;...F k h j g g g p p p p h g i 7 ",
"- 0 p g g g p p p g g h g k b Z ] >.=.$.o.] ~ ] -.&.! Y G Z b m x c z z c c b b b M Z F H T ! } X.>.p.<.$.W Y T E E E Q E ` y.a.W.>XyXDXJXNXZXZXZXZXZXZXmXJXJXGXDXsX2X[.oXOXOX@XoXR.V.m.M.m.m.m.V.W.[.3XtXfXtXtX>X{.[.'.Z.N.p.>.:.0.p.p.p.i.y.0.>.0.p.V.Q.T.U.T.T.k.y.y.p.j.q.*.;.i.V.T.U.V.j.q.6.>.6.y.k.k.s.y.p.p.q.q.0.6.6.0.p.p.p.y.y.u.<.-.:.u.v.p.p.p.a.k.k.k.p.w.0.y.>.0.w.p.k.q.0.p.s.s.s.s.s.p.p.a.p.a.a.a.k.n.a.a.a.a.k.k.k.k.a.k.n.n.k.k.k.k.m.m.n.n.m.m.N.N.V.V.V.V.m.m.m.m.N.N.V.V.V.V.V.V.V.V.V.V.N.N.N.N.N.N.n.n.n.M.M.M.V.V.V.V.N.N.N.N.N.N.N.N.M.M.n.n.n.n.n.N.N.N.N.N.m.m.m.m.m.n.M.N.n.n.n.n.k.k.k.k.k.k.k.k.k.k.a.a.a.a.a.p.p.p.p.p.p.p.p.p.p.p.p.p.0.:.y.y.;.:.>.y.y.y.p.p.p.i.0.>.>.0.i.p.4.;.=.;.>.0.0.:.:.>.0.>.:.>.y.y.p.j.k.p.s.y.y.i.s.p.a.k.m.i.;.&.i.V.N.s.k.].N.N.Y.]..X].C.k.y.q.i.i.i.y.y.y.y.y.0.0.n.W.:X>X>X>X>X5XtXeX3X[.W.V.N.n.n.n.0.y.n.W.oX>X>X>X[.;X7XnXGXGXJXZXZXZXBXBXZXZXZXZXGXSX4XA.`.A.:.] ~ ! ^ E E T E ] w.p.0.-...~ E Y K G F Z Z Z b b z k k z k k b m n W o.o.o.o.~ ] ' `  .o.! Z p r 0 0 0 0 0 0 0 0 e e 7 > ",
", < 9 0 0 0 0 0 9 0 0 e 0 e a c G X.| ! T ] -.y.a.:.~ Z Z b b c z z k k z z c b c M Z F Y ! o.>.M.`.M.&.$.W Y T ! ! ! ! E ~ >.p.W.{.7XDXJXNXZXZXZXZXZXZXJXJXGXbX2X>X[.[.OXoX}.].C.N.k.m.N.n.V.W.'.>XeXtXdXtX5X>X`.W.Z.Z.a.a.y.>.:.y.p.p.i.y.0.0.>.y.V.].uXeX3X XT.k.i.i.y.i.s.q.;.;.s.T.T.C.V.k.0.6.6.0.i.a.p.p.p.p.p.q.0.0.6.0.0.0.>.>.0.0.0.w.w.p.p.p.p.p.p.a.k.k.s.s.0.y.6.6.p.p.w.,.6.y.s.s.s.s.s.p.i.p.p.p.p.a.k.n.a.a.a.a.s.a.a.a.p.a.a.k.k.k.k.k.n.n.n.n.m.m.k.k.N.N.N.N.m.m.m.m.m.m.m.m.V.V.V.V.N.N.M.M.V.V.N.N.m.m.m.m.n.M.M.M.B.B.N.N.N.N.N.N.N.N.N.N.n.n.n.v.n.n.n.n.N.N.N.N.n.n.m.k.n.n.m.m.m.n.n.n.k.k.k.k.k.k.k.k.k.k.a.a.a.a.s.p.i.s.y.i.i.i.s.s.p.p.p.y.>.+.6.p.>.:.:.>.0.y.i.p.p.y.0.0.y.i.y.y.>.>.6.0.6.w.w.6.>.6.0.>.>.0.y.y.p.k.k.y.s.i.y.y.s.k.k.m.k.-.&.6.N.V.k.i.N.s.k.T.].3XeX3X.XV.k.t.y.i.s.y.p.y.y.y.w.0.p.M.Z.W.'.[.>X3X5X5X5X4X>X!.Z.C.M.n.n.p.p.j.U.Q.oX>X>X{.{.1XsXnXJXJXZXZXBXBXZXZXZXZXKXDX4XC.`.N.+.~ ~ ! Q E ! T Y E -.w.n.n.y.+.~ Y G S Z Z b b c z k a a k k a z a a n ! $.-.>.o.~ ` ' ^ ' T b p e 9 9 0 0 6 6 6 6 6 6 2 : ",
"- % 5 0 p p p p p p p p i p k b Z Z G W X.0.v.a.y.&.~ Z Z b b b b b c l x b m m Z S Y E ~ o.>.C.`.C.<.-.$.W I T ! ! ! ! ~ ~ >.a.W.[.9XmXZXZXZXZXZXZXZXJXmXnXtX{.oXoXoXoXoX].V.k.k.k.N.V.N.m.W.3X5XtXfXtX5X4X>X`.!.Z.N.n.p.a.a.y.>.y.p.i.y.y.0.0.0.n.].3XwXkXkXwX].N.s.i.y.0.i.i.5.;.5.k.V.T.U.V.y.w.0.6.0.p.k.p.p.p.p.q.p.w.0.0.6.0.0.w.p.>.<.p.n.p.w.0.w.w.y.u.p.s.p.s.6.6.>.6.0.6.:.;.6.:.6.s.s.s.s.p.y.y.y.y.w.p.p.a.a.a.s.s.p.p.p.p.p.p.a.a.k.k.k.k.n.n.n.n.m.m.k.k.k.N.N.N.m.m.m.m.m.m.m.m.M.M.M.M.M.M.M.M.m.m.m.m.k.k.k.n.n.M.M.M.M.M.M.n.M.N.N.N.N.N.N.N.n.v.v.v.v.v.v.v.n.n.v.v.a.a.k.a.n.n.n.n.n.n.n.n.k.k.k.k.k.k.k.k.k.k.a.a.a.p.p.p.0.0.0.0.0.0.0.0.p.p.y.6.;. .&.y.6.:.-.&.6.0.y.y.y.0.0.y.y.y.0.0.p.p.p.0.>.0.w.0.6.y.0.0.0.y.i.i.k.s.p.y.y.0.i.p.k.k.m.m.6.+.;.p.V.V.k.k.q.i.R.].>XeXdXuXuX}.c.k.s.i.0.y.y.y.y.y.w.0.q.a.n.M.V.W.].>X4X1X4X5X5X1X{.`.Z.C.N.V.m.p.p.m.C.].>X1XoX].<X7XsXmXVXZXZXZXZXZXZXZXJXDX4XV.`.n.+.] ~ ! Q E ! Y Y Y :.>.0.n.m.y.-.` ! Y Y K G F Z Z b b b b Z n Z b k G | >.0.a.y.&.Q ^ ! ~ E Z k i i i i i p p p p r r 0 2 ",
"& & 9 p g g p a k k g a a a c n Z Z ! ,.p.v.n.n.p.;.~ Z V V Z G F Z n m x m n Z S G K E W } ,.n.a.0.w.0.&.W Y E E ! ! ~ ~ ~ 0.n.'.:XsXJXZXNXZXZXZXVXGXGX5X#X}.oXOXOXoXW.N.k.k.N.V.n.n.k.C.}.5XdXeXtXeX4XoXoX[.W.V.p.w.a.n.a.y.:.:.>.w.p.p.p.0.a.V.V.[.,X3XkXHXdXR.N.k.s.h.i.6.5.j.0.4.6.k.C.T.T.V.p.w.0.0.0.y.p.a.p.p.p.q.q.p.p.y.w.i.a.y.6.0.p.k.j.0.<.<.<.<.y.y.y.y.>.6.0.0.0.0.:.:.6.6.6.0.p.p.u.u.y.y.w.0.0.y.y.p.p.p.p.a.a.a.a.p.p.p.p.p.n.a.a.a.a.a.a.a.p.a.a.k.k.k.k.n.n.k.k.k.k.a.a.a.a.k.n.n.n.n.n.n.n.n.n.n.a.a.a.a.a.a.a.a.a.n.n.n.M.M.M.M.M.N.n.n.n.n.n.n.n.n.n.n.n.n.n.n.v.a.a.a.k.p.p.k.k.k.k.k.k.a.a.a.a.n.a.a.n.a.a.a.p.p.p.p.p.y.y.y.y.0.0.0.6.0.y.y.>.:.&.-.0.0.0.6.;.>.:.0.y.y.0.6.0.>.:.0.a.N.a.0.:.:.0.u.y.6.y.y.q.y.p.p.p.k.j.y.6.0.y.i.p.k.m.k.y.;.6.p.a.k.V.k.6.q.z.R.OXeXtXdXkXdXdX).k.N.N.i.y.0.w.y.p.y.w.w.p.m.n.a.a.C.S.[.>X>X>X<X;X4X2X0X[.Z.V.M.m.k.p.p.a.V.].{.[.oXoX,X7XsXnXJXAXZXZXZXZXJXGX3XV.T.a...~ ~ ! Q E E E Y W p.n.>.X.-.X.o.] ! R Y G F F A Z M Z Z Z Z F G G n G | -.0.y.0.>.+...] K K n a p i i i i r r r r r i q 3 ",
", < ) i g g g g k d a a a a n S H ] >.y.p.v.n.n.0.=.] H H F G Y H F n z x v b n S F K E E ] X.>.6.0.n.V.&.W Y E E ! ~ ~ ~ ] y.n.!.:XsXJXZXZXZXVXVXnX7X;XoXoXOX#XoX.XT.k.k.m.m.V.k.V.W.`.1X5XtXtX5X4X1XoX[.].T.M.p.y.p.N.C.V.n.w.:.:.6.0.0.w.a.[.T.U.[.oX4XfXHXdX XI.k.k.k.k.k.s.j.k.i.0.y.k.C.U.U.V.p.w.6.6.0.w.p.p.p.y.q.q.w.w.p.p.a.k.y.0.0.y.j.n.w.>.:.,.<.w.y.y.6.&.:.p.i.0.0.6.6.0.0.0.y.y.y.u.p.p.p.p.u.u.w.y.y.u.p.p.p.p.p.p.p.p.a.p.p.v.a.a.a.a.p.p.y.y.y.i.p.p.p.p.p.p.a.a.a.a.k.k.k.n.n.n.n.n.N.N.N.N.M.M.n.n.a.a.a.a.a.a.a.a.n.n.n.n.M.M.n.M.N.N.n.n.n.n.n.n.n.n.n.n.v.a.a.p.p.p.p.p.p.a.a.k.a.a.a.a.a.a.a.a.a.p.p.a.a.a.a.p.p.p.p.p.y.y.i.i.s.y.y.y.0.y.p.w.>.-.:.0.6.p.y.:.+.6.0.0.0.y.6.:.-.-.y.k.N.n.y.>.p.p.u.w.0.y.y.y.i.y.y.p.i.q.q.y.y.i.p.p.m.k.y.>.0.k.m.s.a.m.q.0.k.I..XwXdXfXkXkXkXOXE.I.N.V.s.0.w.w.0.0.0.w.p.k.k.a.p.p.w.v.C.!.[.>X;X<X2X2X9X8X;X`.C.m.V.m.k.a.y.i.n.`.,XOXoX>X3X7XxXMXJXAXAXZXJXGX4XV.T.a...~ ~ ! Q E E E Y W p.n.p.>.} ] } ~ E Y G F Z Z Z M M M Z Z F F G L G I } $.6.0.0.6.6.-.+.` Y Z k p i i i i r r r r r r 9 3 ",
"0 q i j g g a a a d a a p k Z H Q ..-.-.p.v.n.n.>.=. .E T Y Y T T H n a d x m n V F H Y E ] =.y.p.a.C.V.&.W Y E Q ! ~ ~ ~ } i.n.S.;XxXJXZXZXmXsXtX,XoX>XoXoX}.].A.k.y.k.V.C.C.C.W.>X5XeXtXeX4X4X3X>X}.`.W.V.k.p.i.a.V.W.`.W.C.k.>.6.>.0.6.6.a.>X].T.Q.].3XdXkXkXeXoXT.k.k.k.k.j.i.k.m.j.0.0.j.V.C.U.V.p.6.>.>.>.0.p.p.p.p.w.0.0.y.p.a.k.y.0.0.y.6.p.p.y.>.-.:.0.p.y.>.-.p.k.0.0.0.6.6.0.y.y.0.0.0.0.w.w.0.w.w.w.0.w.w.y.q.w.w.w.y.y.y.y.p.y.w.y.p.p.p.p.y.y.w.y.y.y.i.p.i.p.p.p.p.p.p.p.p.p.a.k.a.a.a.a.a.a.v.v.a.a.a.a.a.a.a.a.a.a.a.a.a.a.p.p.p.p.p.p.p.i.i.y.i.i.p.p.p.p.a.p.p.p.u.u.y.y.y.y.p.p.u.u.u.w.u.y.p.p.u.u.u.w.w.p.p.p.p.p.p.p.p.p.y.y.y.y.y.y.y.y.0.y.p.p.0.:.:.6.6.j.a.0.+.6.0.0.0.0.>.-.-.:.0.y.n.a.a.p.n.p.y.w.0.y.i.y.p.y.i.i.q.8.q.j.i.p.a.k.k.y.6.y.k.m.m.k.m.0.:.j.m.R.,XuXeXkXHXHXrXU.T.E.T.p.y.i.:.:.>.>.y.p.k.m.k.a.p.p.0.u.p.M.W.[.;X;X;X2X5X7X5X1X{.W.C.B.N.M.n.p.0.p.T.].>X>X>X0X2X9XxXNXJXJXJXJX5XC.T.a.o.~ ~ ! ! E E E Y W q.a.p.y.0.;.] Y Y G D A b b b b b M Z F G G H Y Y Y / o.:.6.0.6.>.o.} ` ! G b h i i i i t r r r r e 5 3 ",
"0 0 9 0 p p s p s p a a a x G E Q ~ o.-.p.v.n.n.0.;...E W Y Y W ! Y n p s k m b V S H K ~ } &.>.0.y.n.p.&.W Y E Q ! ~ ~ ~ o.p.k.C.;XbXJXGXGXsX4X,X,XoX.X}.}.T.k.k.k.N.T.C.C.T.T.1XtXdXeX4X4X4X4X1XoX].T.m.p.y.p.m.C.W.].}.[.W.N.p.w.0.0.w.0.0.C.].C.U.C..XtXkXkXHXuX XN.k.k.k.k.q.k.V.k.i.0.0.j.m.U.U.V.0.>.:.-.>.0.y.p.p.w.0.>.0.i.p.p.y.y.0.0.;.6.0.p.w.:.:.<.y.>.-.-.k.p.y.0.0.:.:.0.0.0.6.:.:.:.>.:.:.>.6.6.0.0.w.w.w.0.0.0.>.>.0.0.>.>.:.>.0.0.0.0.>.>.>.0.>.6.0.0.0.0.0.0.0.0.0.0.6.0.y.y.y.y.y.y.y.y.y.y.y.y.y.i.p.p.p.p.p.p.p.p.p.u.u.w.y.y.y.y.0.6.>.>.y.y.w.w.w.w.u.p.w.w.w.0.0.0.0.0.0.<.<.1.<.<.<.<.0.0.0.0.0.>.>.0.y.p.p.p.p.p.p.p.0.0.0.0.0.6.6.6.>.>.0.0.0.>.:.:.5.y.p.p.>.:.0.y.y.>.-.-.:.:.:.:.u.a.N.C.n.p.w.w.q.i.i.y.y.p.j.q.8.q.i.p.y.p.m.V.y.>.y.m.m.n.m.V.p.:.y.k.V.R.3XuXlXkXkXuXT.V.T.T.N.y.y.6.:.6.w.p.p.k.k.m.m.n.k.a.p.p.p.p.n.Z.'.[.;X:X;X;X5X5X4X>XW.Z.V.V.C.V.a.0.p.m.Z.].;X;X:X:X:XsXVXJXKXKX5XC.T.a.o.~ ~ ! ! E E E Y W p.p.y.y.0.;.~ H G F A M b c z z b b Z F G H Y Y K Y / ..;.>.6.6.>.} ~ ` ~ Y n a i i i i t t r r 0 0 5 3 ",
"i 6 3 6 e i i p s s s p a a F E ! ] o.:.i.k.k.p.6.;. .E W Y W ~ ! E n k x b b n Z Z S S F Y ] >.y.y.v.p...U Y E Q ! ~ ~ ] o.p.k.Z.!.7XGXsX4X{.oX.X,X3XoX].m.j.m.V.A.A.V.V.W.oX4XtX5X4X1X1X3X1X>X[.W.V.k.p.p.p.k.V.T.}.>X>XoX].T.n.a.p.y.p.w.>.0.k.V.C.V.R.T.oXdXFXkXuX Xz.j.j.h.i.p.m.k.p.q.5.4.i.N.C.V.k.0.:.:.>.>.4.w.w.w.0.6.:.y.k.p.0.y.q.0.,.=.;.0.a.p.y.-.>.0.;.>.i.i.p.p.0.6.0.0.6.6.6.0.0.6.>.:.:.>.6.6.0.0.y.p.p.p.p.p.w.a.k.a.y.0.0.p.a.a.a.a.v.p.p.a.a.k.k.k.j.j.j.p.p.p.p.p.p.p.p.p.p.p.y.y.y.i.p.p.p.p.a.a.a.y.6.0.i.p.i.p.a.p.u.p.a.a.a.k.y.y.y.s.k.k.k.k.n.n.n.n.n.n.n.n.a.a.a.a.b.p.p.p.p.p.p.p.a.a.a.n.a.p.p.y.w.u.p.p.p.y.w.0.6.6.6.6.6.0.0.y.w.0.>.:.:.:.:.6.0.q.p.a.i.>.0.y.y.>.>.0.>.-.&.-.u.C.Z.a.y.y.y.w.q.y.y.p.y.y.q.6.i.i.i.i.j.m.V.0.;.6.k.V.C.C.V.n.0.n.y.j.V.].3XrXkXlX3XC.k.V.C.k.6.>.6.6.y.i.a.m.V.T.C.p.m.m.m.n.k.j.p.q.q.a.V.W.W.'.{.>X>X<X2X4X4X<X[.W.W.V.V.V.a.a.a.n.T.!.[.;X<X:X:XtXHXKXtXm.V.a.+.` ~ ! ! ! ! E Y ~ w.p.y.y.0.&.Q F Z Z Z A b b b b b M Z G H H Y W Y W | o.-.>.6.6.0.X.] ] ~ H z p e p a a p a p e e 6 5 2 ",
"0 6 5 6 i p g k k a a a a a S E ! } &.>.p.k.k.i.6.;. .E ! Y ~ _ ~ W Z z b b M M Z Z S S F Y ` >.y.y.v.a...H Y E Q ! ~ ~ ] o.a.k.C.C.>XtX[.].].OXOXOX.XT.k.k.V.C.C.N.N.V.].>XeXtXtX5X3X1X4X1X>X[.C.m.p.y.p.k.V.V.T.W.[.oX>X[.W.T.M.n.p.y.p.w.6.>.y.k.N.V.N.k.C.3XdXkXlXwXT.k.i.h.m.m.m.k.k.j.q.6.-.i.N.C.C.m.y.6.6.>.:.:.0.w.y.w.6.y.k.p.0.6.6.0.>.:.;.:.0.p.a.0.-.>.p.y.i.i.y.y.6.0.0.0.0.0.y.y.y.0.6.:.:.:.:.:.6.0.0.w.w.w.w.w.p.a.k.k.a.n.n.M.V.V.V.V.N.n.n.M.m.m.m.m.m.m.m.m.m.m.m.m.m.V.m.V.m.k.i.y.s.s.k.k.a.k.k.n.n.p.6.>.y.i.p.y.y.w.w.p.a.a.k.k.i.>.y.i.p.p.p.p.a.a.a.p.v.v.v.v.n.a.p.y.y.u.p.v.n.n.n.n.n.a.a.n.a.a.a.p.>.0.y.0.0.0.>.>.:.:.:.:.:.0.i.p.a.p.0.6.>.:.:.6.y.0.y.p.a.y.>.>.0.0.0.>.-.-.-.>.y.n.a.>.w.w.w.w.y.i.p.p.y.0.6.0.i.i.i.k.V.V.y.&.:.0.k.C.V.m.a.y.p.n.C.U.I.Q.OXeXdX@XC.k.p.m.a.0.>.>.6.y.a.k.V.C.[.].C.p.k.m.m.m.m.m.n.j.q.q.j.C.C.W.`.{.>X<X2X2X4X2X1X>X!.Z.V.C.C.V.n.b.a.V.Q.>X{.>X>X[.3XeXoXa.k.p.&.} ~ ! ! ! ! E Y ~ w.p.y.p.0.&.Q F Z Z A A Z M b b b Z F H K H Y W Y W | o.;.:.6.6.>.&.} } ` H a e e p k a a p i e 0 5 3 2 ",
"2 > > 2 7 i a p k a p s s s Z E Q | ;.y.s.k.s.y.6.;. .E ! E _ ] ~ ! Z c b b M M Z Z S S F K ` :.y.u.v.a...H T E ! ~ ` ] ] ..a.k.T.M.n.!.`.}.XXXXoXU.z.m.C.T.T.C.N.C.].>X4X4XeXeX5X4X1X>X>X[.W.C.i.y.i.p.V.V.C.C.W.W.].[.[.T.C.Z.!.W.m.k.p.w.0.>.0.0.p.k.N.k.k.].OXlXHXFX,Xj.q.j.V.T.C.m.k.j.y.6.-.;.i.N.T.T.N.s.q.0.>.:.6.w.p.p.0.0.p.p.0.:.>.0.0.0.>.=.-.6.i.y.-.y.n.p.p.y.y.0.6.0.y.0.6.y.p.y.0.6.>.>.>.>.>.>.y.y.y.p.p.p.p.p.p.p.p.a.n.M.V.V.Z.Z.Z.Z.V.N.M.V.m.m.m.m.V.V.V.m.m.m.m.m.m.m.m.m.k.p.y.6.i.i.p.s.i.s.s.s.s.s.y.6.y.p.p.y.w.w.p.a.a.k.n.n.i.6.s.k.k.k.k.n.n.n.n.n.n.n.M.M.N.k.y.>.>.0.p.m.V.V.V.N.N.n.n.n.a.a.n.p.0.y.y.y.p.y.y.y.y.y.y.y.0.y.i.i.a.p.p.y.w.>.:.:.0.6.6.i.k.k.0.>.>.y.0.&.-.:.0.y.p.p.0.:.0.0.0.0.y.p.p.y.0.6.0.y.i.i.k.m.V.i.;.&.;.6.k.V.m.k.w.y.6.p.].wXR.R. XwXOXC.k.k.y.y.0.>.6.6.s.m.V.A.R.].[.[.`.W.m.k.m.V.V.V.m.m.k.i.i.k.n.V.Z.`.{.;X2X2X2X2X2X1X1X;XW.m.B.V.Z.C.C.V.V.T.[.>X3X,X.X].V.p.p.p.;. .` ~ ! ! ! E Y ~ w.p.y.p.0.X.Q F Z Z D D D Z b b M Z F H Y Y T ! Y W | o.;.:.6.6.>.-.o.} ` H d e u p a a p t 0 6 6 3 2 2 ",
"> > < < e a k k z k h a s u n E Q  .:.y.k.k.s.0.6.;. .E ` W ] ] ] ! Z b b b M M Z Z S S F K ` :.y.u.v.b...H T E ! ~ ` ] ] o.k.n.W.V.0.'.1X@X].Y.m.V.C.W.R.C.N.N.W.oX4X4XeXeX5X5X5X4X1X>X`.Z.n.p.0.p.m.V.C.C.C.C.W.W.Q.].Z.Z.[.tXSXtXT.k.p.p.y.0.0.6.6.y.N.T.T.T.}.rXdXeXR.C.U.m.V.Q.Q.C.p.y.0.6.:.-.;.i.k.T.Y.k.p.q.0.6.6.6.w.p.y.6.0.y.i.0.4.4.0.y.6.=.&.&.-.-.:.p.k.s.p.y.0.0.6.0.y.6.6.0.0.0.0.y.p.p.a.a.v.v.v.a.a.a.a.a.a.a.n.p.k.V.V.N.V.W.Z.Z.Z.Z.V.M.n.V.m.m.m.m.V.V.V.m.m.m.m.m.m.V.m.V.k.a.p.p.p.a.a.k.k.k.n.n.n.N.n.k.N.N.N.k.a.a.v.n.k.k.n.N.V.B.N.n.n.n.n.n.M.M.M.n.B.V.V.V.C.V.N.m.V.M.V.C.C.C.V.V.M.B.n.a.a.a.n.a.u.p.p.p.p.p.p.p.a.k.k.k.p.p.y.y.y.p.p.p.w.w.>.=.;.6.6.y.k.k.k.y.y.N.a.-.>.0.i.y.p.y.0.0.0.0.0.0.p.p.y.>.6.0.y.y.i.k.m.m.i.;.;.;.&.:.i.k.m.p.p.n.y.m.W.tX3XU.U.}.N.z.k.0.6.6.>.>.6.y.m.T.W.].[.oX{.}.}.}.W.m.k.m.C.C.U.V.V.k.p.j.p.n.N.Z.`.[.;X>X<X<X<X>X3X5X>X!.B.n.M.T.W.Z.C.B.V.C.].oX.XT.k.p.p.k.;.] ` ~ ! ! ! E Y ~ w.p.y.y.0.X.Q F A Z D U F Z b b Z Z G Y Y Y E ~ Y ! | o.-.:.6.>.:.-.+.o.` Y x p a a a p z p e 0 5 2 2 2 ",
"2 6 e e k b b c m m c x k u x E Q ` :.y.s.k.p.0.6.;. .E ` W ] ] ] W H F b b n M Z Z F G H H ~ -.y.p.a.a...H T E ! ~ ` ] ] o.a.n.Z.!.T.'.].T.C.Y.R.W.T.V.y.p.C.oX4X4X3X4X5XeXtXeX4X3X>X].V.k.p.p.j.m.C.T.T.T.T.T.U.R.W.V.W.4XgXSXFXgX1XN.p.p.a.a.p.0.5.5.i.N.T.Q.].U.j.6.j.eX3Xj.I..XQ.s.5.6.0.0.p.q.:.&.6.N.E.V.k.p.q.0.6.4.0.q.y.w.6.0.q.p.w.6.0.0.0.>.&.;.-.:.p.N.m.k.p.i.0.6.0.0.w.y.p.p.p.p.a.n.n.M.M.M.B.M.N.V.V.V.M.m.a.V.V.V.C.T.C.C.T.W.W.W.W.W.U.W.W.W.T.T.T.T.T.T.T.T.T.C.V.T.W.`.W.`.!.!.!.!.W.W.].].!.!.!.!.].'.'.!.`.'.'.`.W.S.S.Z.A.A.A.A.Z.Z.Z.A.Z.T.W.W.W.W.T.Z.Z.Z.Z.U.T.T.T.T.T.T.T.U.U.C.C.C.V.Z.Z.k.a.n.n.n.n.k.k.n.m.n.n.n.n.n.n.n.m.n.n.k.n.a.p.p.a.p.w.0.*.*.0.w.p.a.n.u.i.a.i.>.y.i.p.i.a.p.0.0.w.w.p.a.a.i.0.0.0.y.y.i.k.V.m.0.;.;.:.0.5.5.q.i.p.p.a.a.m.V.C.].tX[.h.s.k.V.m.6.0.0.6.:.y.k.m.C.].oX3X5XtXaX1XZ.oX].k.j.V.V.U.U.m.m.N.N.n.a.a.n.Z.!.'.[.>X>X>X>X>X>X>X>X;XW.n.n.M.V.Z.Z.N.m.k.m.V.U.U.k.k.a.>. .] ~ ~ ! ! E Y ` 0.i.y.y.6.X.Q S Z A H ! Y A b M Z Z F I T T W ~ Y ~ ..X.=.:.>.>.:.;.+...] K b k k k x x z k a t 7 6 5 2 ",
"0 i p p z b b b M M M n n k m K E ` ;.y.s.k.p.0.0.,...Q ` W ] ] ` E Y H n m n M Z D F G H H ~ :.y.p.a.v...H T E ! ~ ` ] ] X.n.n.W.[.[.W.C.C.A.T.T.N.p.y.m.[.4X3X>X3X5XeXtXeX4X3XOX}.T.V.k.s.a.a.M.C.U.T.U.E.E.E.R.U.V.V.7XnXHXnXSXnXtX].k.k.k.j.j.i.6.5.q.k.T.R.].V.i.3.I.dX].z.].V.6.+.;.4.6.0.a.k.y.>.+.6.V.E.N.k.p.q.0.6.6.0.y.p.p.w.w.y.p.w.p.w.w.0.0.0.0.y.n.N.m.k.p.0.>.:.0.w.w.y.p.p.p.a.n.M.M.B.B.B.B.B.V.C.C.C.C.M.m.T.C.C.C.T.T.T.W.`.W.W.W.W.W.W.W.!.`.`.`.`.`.`.`.`.`.T.W.`.}.{.}.{.oXoXoX.XoXoX>X>XoXoXoXoXoX>XoX[.[.{.{.{.[.[.'.'.[.[.[.[.[.[.].`.].].'.'.[.[.].].!.!.!.!.Q.Q.!.Q.].Q.Q.W.W.W.T.T.W.].].V.N.C.Z.Z.W.V.M.C.V.V.M.V.N.N.N.N.V.V.M.m.m.n.p.p.p.p.p.p.*.O.:.0.w.p.n.n.a.y.0.>.y.y.y.a.a.p.y.0.y.p.a.a.i.0.0.0.i.i.i.p.k.k.0.&.6.0.y.k.k.5.;.q.0.y.y.p.p.m.V.m.[.T.6.q.k.N.k.i.0.y.0.5.k.V.C.T.].eXkXSXhXnXhX5XC.C.T.m.V.V.m.m.m.m.M.M.N.n.n.a.n.C.W.`.;X>X2X1X>X>X;X{.2X>X`.n.n.n.n.B.C.C.V.N.C.C.V.j.a.a.6...] ` ~ ! ! E Y ` 0.i.i.y.6.+.W D A A G T U Z b b Z D H Y E T W ~ Y ~ X.X.=.:.>.>.:.;.X.] ! H Z v x z k z z z k a u 0 9 7 ",
"i g z z b b m n M Z G H E G G K K ' ;.i.a.k.p.0.0.,...Q ` W ] ] ` W Y Y Z b n n Z F G H H Y ` :.y.p.a.v...H E Q ~ ~ ] ] ] X.k.n.V.W.T.C.C.V.m.p.i.0.a.W.oXoXoXoX4XtXtXtX5X3XoX[.W.C.k.k.m.m.m.m.C.U.T.T.U.U.U.U.I.V.].dXSXSXDXSXnXgXeXoXI.z.z.x.z.x.h.i.6.y.k.m.T.C.z.j..X Xk.T.k.4.@.;.;.4.0.i.p.k.k.s.-.*.q.V.V.m.b.p.q.0.6.6.6.w.p.p.p.y.p.p.a.w.w.0.p.a.k.k.C.V.m.k.y.6.:.:.p.y.y.w.p.p.a.n.B.B.V.C.V.C.C.C.U.T.T.T.Z.V.C.W.W.W.T.T.W.].].].].].].].Q.].'.'.[.[.[.[.[.[.}.}.[.`.`.{.>X>X>X>X>X>X>X>X>X>X>X>X>X>X>X>X>X>X>X[.[.>X>X>X<X>X>X;X>X>X>X>X>X>XoXoX[.}.oXoX>XoX[.[.[.[.[.[.'.'.'.'.[.].].].`.`.].].[.[.[.W.Z.W.!.W.!.Z.m.V.W.U.C.Z.Z.C.Z.Z.C.C.V.V.V.M.n.a.0.w.p.p.6.=.,.0.0.p.n.V.V.a.y.0.0.0.i.k.a.p.p.p.p.a.a.y.0.0.0.y.p.p.a.k.p.6.;.;.i.m.C.T.T.k.6.6.q.0.>.>.;.k.T.0.k.y.;.0.k.a.y.y.y.y.i.s.I.E.E.R.,XdXSXnXnXDXGXnX7XB.N.A.W.C.m.m.m.m.N.M.N.N.N.n.v.v.C.W.'.{.>X>X1X1X<X>X[.{.{.'.Z.M.p.p.n.n.N.V.M.M.k.p.p.a.6...] ` ~ ! ! E Y ` 0.i.i.y.6.+.W D A D F G Z M c c Z D H Y E T W ~ Y ! X.X.=.:.:.>.:.&...` T E Y F n m b x b z z k a i u u ",
"p g c c b b m Z F T ] o.o.` Q E K ~ ;.p.a.k.p.0.0.,...Q ` W ] ] ] ! Y K Z n n M D F G H Y Y ] :.y.p.v.n...H E Q ~ ~ ] ] ] X.k.k.m.C.V.V.m.m.p.6.0.V.`.`.'.[.>X4XtXtX5X>XoX[.].W.V.k.a.k.C.C.C.C.C.C.C.U.U.U.U.U.T.4XfXfXHXHXnXSXnXfX4XOXR.E.K.H.z.z.z.j.0.y.6.>.q.k.N.E.R.E.T.k.5.+.@.4.4.6.s.k.i.j.k.k.i.-.@.q.m.V.m.j.p.q.0.0.;.>.y.a.n.a.p.a.a.p.0.>.p.p.n.N.C.V.m.p.y.>.>.y.p.p.y.w.a.n.m.N.V.C.C.C.Z.Z.W.W.T.W.T.T.V.V.W.T.].].].W.].[.[.].].].].].'.'.[.[.}.}.}.}.oXoXoXoX[.].[.>X>X1X>X1X3X3X3X3X3X1X>X>X>X>X>X>X>X>X>X>X[.>X>X>X1X>X>X>X>X>X>X>X1X1X>X>XoX>X>X>X>X>XoXoX[.[.[.[.[.[.[.[.[.[.].].].].].[.[.'.[.W.Z.W.!.W.!.W.m.V.'.W.W.W.S.S.W.W.T.Z.C.C.C.V.M.n.p.p.a.a.p.6.0.0.p.y.a.N.N.a.0.>.>.y.a.a.a.p.p.p.n.n.u.>.0.0.y.i.a.k.k.k.4.*.:.i.k.T.].'.}.T.z.8.j.0.;.X.&.;.m.a.0.y.0.k.y.6.6.6.y.i.i.V.R.R.R.].>X4XsXnXDXGXJXGXGXtXS.B.].W.W.C.m.m.N.N.N.N.N.N.n.a.n.V.C.W.'.[.2X2X4X1X{.[.[.>X[.W.n.p.y.p.p.p.k.n.k.p.p.p.6.X.] ~ ! ! ! E Y ` 0.i.i.i.6.+.! D D D F A M b c z M Z F H E T W ~ H ~ X.&.&.,.:.:.:.&.] ! E ] } ~ Y F Z b b b z z k p p i ",
"a k b b n n Z I ~ | -.>.;.-.-.o.^ ` *.p.k.k.p.0.0.:...! ` ~ ] ] ` E H Z m m n M A F G U H Y ` :.p.a.b.v...I E ! ~ ~ ] ] ] X.k.k.V.C.p.k.p.p.p.n.W.T.W.[.1X3X5X4X>X>X>X>X[.W.C.n.M.N.V.V.C.C.C.C.T.C.T.U.k.m.U..XeXhXnXSXSXSXSXnXfXtX1XoX.XXX).E.I.m.m.m.i.>.;.;.;.0.k.V.C.C.k.;.&.*.4.i.6.p.V.R.N.j.k.j.V.j.6.:.q.n.C.m.k.p.q.0.0.>.0.p.a.m.n.p.p.0.>.0.0.y.k.N.C.A.k.y.6.6.y.n.m.m.a.k.k.m.V.V.Z.Z.Z.Z.Z.Z.Z.Z.W.W.!.Z.m.T.].[.oXoX[.].[.[.[.[.[.[.[.[.oXoXoXoXoXoXoXoX>X>X,X1X}.[.>X>X>X>X1X1X1X1X1X1X1X1X1X1X>X>X>X>X>X>X>X>X>X>X>X>X>X>X>X>X,X,X,X,X,X,X,X>X>X>X1X>X>X>XoXoX>X>X>XoX>XoXoXoX}.[.[.].[.[.[.[.[.'.'.!.Z.Z.W.].!.!.C.n.W.'.].W.W.W.!.W.W.W.T.Z.T.U.C.m.m.m.n.n.n.a.w.>.0.a.k.a.C.m.a.y.p.p.y.y.u.p.n.n.p.p.y.y.y.y.i.p.k.k.j.6.;.5.i.m.V.Q..X.X].Q.I.j.j.5.&...-.:.6.N.N.C.n.`.V.y.6.0.0.y.k.E..X.X X.X3X9XyXsXmXGXJXJXJXGXnX2XW.[.[.].V.n.k.n.N.N.N.N.N.N.n.n.a.n.Z.!.`.{.4X5X3X>X{.[.W.!.!.`.N.p.0.p.y.0.a.a.p.a.6.O.] ~ ! ! ~ W T ` 0.i.i.i.6.o.E Z F F F Z Z Z b k b b Z I T T W ~ H ~ X.&.;.:.:.;.:.&.] ] ] ..X.X.X.o.` E Y G F b k a i u ",
"p a z z Z G E / o.&.>.0.t.6.8.i.-.+.:.i.p.k.p.0.w.:...! ` _ ] ] ` T F b x b n M A F G U H Y ` :.p.p.a.b...H E Q ~ ~ ] ] ] X.k.k.m.n.:.:.:.w.V.W.W.'.>X3X5X4X3X>X>X[.[.'.V.M.n.b.V.V.C.C.C.C.C.C.C.C.U.m.k.Q.eXeXhXnXSXSXSXnXgXhXtX5X3X,XwXwX+XY.I.m.k.k.y.6.:.>.y.k.V.C.].m.0.:.*.*.:.q.q.p.N.C.z.s.s.k.V.U.m.6.4.q.j.m.m.n.p.q.w.0.>.0.q.k.M.b.p.0.0.0.y.y.y.s.N.N.p.0.0.i.n.N.C.T.m.m.k.m.V.V.Z.D.Z.Z.W.W.W.W.W.!.!.Z.C.W.'.oX>X>XoX[.oXoXoXoXoXoXoXoX>X>X>X>X>X>X>X>X,X,X,X,XoX}.>X>X>X>X1X1X>X>X>X>X1X1X1X1X3X>X>X>X>X>X>X>X>X>X>X>X>X>X>X>X,X,X,X,X,X,X,X>X>X>X>X>X>X>X>XoXoX>X>X>X>X>X>X>XoXoX}.[.[.[.[.[.[.'.[.].W.W.W.].`.].W.V.V.'.].].!.`.!.!.`.!.W.W.W.U.U.C.V.V.V.V.C.N.k.0.>.p.a.a.m.k.p.p.p.y.0.0.a.v.n.a.y.0.y.y.y.s.p.p.n.j.6.;.5.i.k.C.W.W.T.C.V.C.I.m.j.4.X.o.-.>.i.A.V.M.p.A.k.y.0.y.p.k.C.].oX4XeXeXtXsXsXsXbXmXGXJXGXJXJXVX7X>XoX[.].U.m.m.n.N.N.N.N.N.N.N.v.n.n.N.W.`.[.>X5X5X1X>X[.[.[.'.[.`.N.0.-.,.u.a.p.k.0.O.] ~ ! ! ~ W T ` 0.y.i.s.0.+.E Z F F F Z Z Z b k z b Z U T T W ~ H ~ X.&.;.:.:.;.:.&.....o.X.&.-.>.:.=.&...] E Z g a i i ",
"p a z z m S Y ~ | &.6.i.j.z.z.I.k.5.5.p.k.n.p.w.0.:...! ] ` ] ] ] Y Z x z b M Z A F G U Y Y ] >.p.p.a.n.o.H E ! ~ ` ] } ] X.k.k.N.s.-.:.n.C.Q.[.>X4XeX5X3X>XoXoX[.].T.V.b.b.n.B.V.C.C.C.C.C.C.C.R.R.I.U.3XgXfXsXnXSXSXSXSXgXaXaXtXtXtXtXfXlXeX XU.m.k.j.y.6.>.0.p.n.N.N.`.V.y.>.;.-.;.6.k.k.s.i.z.s.i.p.k.C.T.k.6.:.0.j.m.m.j.p.p.w.0.>.>.p.M.M.a.0.0.p.a.p.s.s.k.k.y.>.i.m.V.C.T.].T.C.V.V.C.C.W.W.W.W.!.!.!.!.!.].'.W.!.'.[.>X1X>XoX}.>X>X>X>X1X1X1X1X1X1X1X1X,X,X,X,X,X,X,X,XoX{.1X1X>X>X>X>X3X3X3X3X3X3X3X3X4X4X4X3X3X3X3X>X>X>X3X3X3X3X3X3X3X3X,X,X,X,X,X>X>X>X>X>X>X>X>X>XoX>X>X>X>X>X>X>XoX{.{.{.{.{.{.{.[.[.[.[.'.W.!.'.[.[.'.C.M.!.'.'.`.`.`.`.].].].!.W.W.W.T.T.W.W.W.Z.Z.M.w.&.6.p.j.k.k.n.n.u.w.y.i.n.n.a.w.0.y.p.p.p.p.a.a.k.6.;.6.i.n.C.U.T.V.k.k.i.j.j.j.q.;.X.X.,.<.p.N.V.p.>.w.p.i.i.p.a.V.`.}.3XdXkXSXsXsXsXsXhXbXmXGXJXKXKXJXGXSX5X.X.XQ.C.V.n.n.N.N.N.N.B.B.N.n.n.n.N.C.W.`.>X5X5X5X1X>XoX[.W.{.{.Z.>.>.u.v.a.k.0.O.} ~ ! ! ~ W T ] 6.y.y.p.0.+.W Z F F F Z Z Z b z k c Z Y W T W / H ! X.&.;.:.:.;.:.-...+.X.o.&.>.w.0.0.>.[ Y G x p p p i ",
"a z b b a k m H ~ X.6.s.C.R.E.E.j.;.;.p.k.n.p.w.w.>...! ] ` ] ] ] Y Z v x b M S A F G U Y Y ] >.p.p.a.a.o.H Q ! ~ ` ] } ] X.k.k.V.k.>.y.!.'.>X3XtXtX3X}.oXoXoXoX].C.m.a.M.M.C.C.V.V.V.C.C.C.C.I.U.^.Q.eXSXSXbXnXnXnXSXSXnXhXaX5XtXhXSXHXnXGXSX5X].V.k.p.0.6.0.y.p.a.a.p.n.A.N.0.:.;.;.5.i.i.s.s.x.i.i.i.y.k.V.T.p.6.:.6.j.m.m.j.a.p.w.0.:.0.b.M.M.p.p.n.V.m.m.k.p.p.0.6.k.V.Z.Z.T.}.[.`.T.T.T.T.'.'.'.'.'.'.'.].'.[.[.!.[.[.[.>X1X>XoX}.1X1X1X1X1X1X1X1X>X>X>X>X,X,X,X,X,X,X,X1XoX{.1X1X1X1X1X1X4X4X4X4X3X3X3X3X5XwXwX4XwXwXwX3X3X3X3X3X4X3X3X3X3X3X3X3X3X3X,X,X1X3X3X,X>X>X>X>XoX>X>X>X>X>X>X>X>XoXoX{.{.{.{.{.{.[.[.[.[.'.].'.oX[.[.W.V.Z.[.].`.`.`.`.].].].].Q.Q.!.!.].].`.`.W.W.V.w.&.:.y.k.k.V.V.n.p.p.a.N.N.a.y.0.y.p.p.a.k.k.a.a.6.;.5.y.m.C.U.U.k.p.p.m.i.i.8.q.4.-.+.&.:.0.0.i.p.>.,.>.y.p.a.a.k.V.`.[.sXnXnXGXnXnXsXsXhXsXxXmXJXJXJXmXJXGXSX2XoX].W.W.V.n.n.N.N.N.B.B.N.N.n.a.a.n.V.W.W.>X5X5X5X4X>X>X[.>X>X{.Z.N.B.F.a.a.0.O.} ~ ~ ! ~ W T ] 6.y.y.p.0.+.W Z F F F Z Z Z b z a z Z Y W T W ] H ! X.X.;.:.:.;.>.+. .X.o.} &.0.0.0.0.0.H k p s s p p p ",
"p h c c k h a a Z / 0.p.].[.W.k.:.&.;.y.k.k.p.y.0.:. .Q ` ` ] ] ] Y Z m b b Z Z Z F H Y Y Y ] >.p.p.a.k...K E ~ ` ` ] ] ` +.k.k.k.N.N.W.>X1X5XtXtX3XoX1X1X3X>XW.m.m.n.M.V.V.V.V.V.V.C.C.V.U.m.z..X X,XFXSXSXnXnXnXnXnXnXfX5X5XaXgXnXnXnXnXnXnXHX5XW.V.k.0.y.y.p.s.p.y.0.>.a.A.p.>.;.0.6.q.s.}.oXc.c.c.z.i.s.k.T.T.k.4.*.p.k.n.j.n.n.k.p.0.6.w.k.M.M.p.m.C.C.W.C.n.>.:.k.V.V.C.C.].].].].T.R.`.].'.'.'.[.[.[.[.'.}.[.[.[.[.[.[.{.>X}.[.{.1X1X1X1X1X,X,X,X,X,X,X,X3X3X1X3X3X3X3X3X[.>X3X3X3X3X3X3X3X4X4X4X4X4X4X3X4XwXwXwXwXwXwX4X4X4X4X4X4X4X4X4X5X4X4X4X3X3X,X,X>X>X1X1X>X>X>X>X>X>X3X>X>X>X>X>X>X>X>XoX>X>XoXoXoXoXoXoXoX[.[.}.oXoX[.'.W.T.'.'.].].].].].].].].].].].].[.[.'.].!.C.N.n.0.>.y.s.n.C.Z.N.n.n.n.N.p.0.0.y.k.k.k.k.k.k.k.6.;.5.s.V.U.U.C.j.0.q.k.V.R.I.j.i.6.6.>.-.-.u.u.p.:.:.:.0.y.p.a.N.].C.V.W.aXHXnXxXGXnXnXbXbXsXsXsXbXGXKXKXGXGXGXGXtX,X].].`.C.N.B.n.n.N.B.B.V.m.n.n.n.n.m.C.W.!.[.>X5XeX4X[.oX>X>X>XS.C.Z.C.N.6.o.` ` ~ ] ! W W ] 6.p.p.a.0.+.W Z F F F Z Z Z m k k z b G T T W / H ! X.+.&.;.:.;.>.+.'  . .} ..;.0.w.w.o.z s u p p p p p ",
"r p g g g a a a h H >.p.C.V.n.w.:.&.;.y.k.k.p.y.0.:. .Q ` ' ] ] _ T Z v c b Z Z Z F H Y Y Y ] >.s.p.a.a...H E ~ ~ ~ _ _ ~ +.k.m.V.T.W.>XtXfXaX3X>X>X5X5X>X[.T.V.k.m.V.V.V.C.C.C.V.V.V.V.U.m.U.]..XwXlXFXSXSXmXnXSXSXfXsXaX7XtXfXgXgXhXhXnXGXGXHX4X[.W.C.y.y.y.a.p.y.0.>.&.:.a.N.a.0.0.0.s.R.3XeXXXY.c.z.s.s.s.k.U.V.i.;.:.0.j.m.M.m.n.n.p.0.>.0.m.V.V.W.W.W.C.V.C.k.k.V.C.C.Z.Z.].[.}.oX].].[.oX.X:XoXoXoX.X[.[.{.}.[.[.[.[.[.{.oX[.[.{.>X>X>X1X>X>X,X,X,X,X,X>X1X1X1X1X3X3X3X3XoX>X3X3X5X5X4X4X4X5X5X5X4X4X3X3X4X4X4X4X4X4XwXwXwXwXwXwXwXwXwXwX5X4X4X4X3X3X,X>X>X>X1X1X>X>X>X>X>X>X3X>X1X1X1X3X1X>X>X>X>X>X>XoX>XoXoXoXoX}.[.oXoXoX[.'.].W.'.[.].].].].[.[.[.[.].].].].[.].].!.!.Z.C.V.V.k.s.k.n.V.Z.V.V.V.n.p.0.0.p.n.V.V.V.V.N.k.6.;.i.k.N.C.U.C.j.q.0.p.V.Q.3XOX].k.6.:.:.>.0.p.w.>.:.>.y.p.6.p.V.Z.].].`.W.2XnXHXDXDXmXnXbXbXbXsXsXsXnXHXKXVXVXGXGXHXdXwXOX].T.C.V.B.n.N.N.V.V.V.V.M.n.n.n.n.C.Z.W.Q.>X4X3X>X3X>X1X>X{.`.W.W.C.>.` ` ` _ ~ ! W W ] 6.p.p.a.0.+.W Z F F F Z Z Z m k k z b G Y Y W / H ! X.+.&.;.;.;.>.+.`  . . ...&.,.0.=.F s u s s p p i i ",
"0 i g a a h a a s n &.0.y.0.6.>.:.&.;.y.k.k.p.y.0.:. .Q ` ` ] ] Q K Z x c b Z Z Z F H Y Y Y ] >.s.p.a.a. .G E ! ! ! ! ! ! %.n.m.V.Z.W.oXtXaXeXoX[.3X3XoXW.C.V.V.M.V.Z.T.Z.Z.Z.Z.V.V.m.k.k.W.].].tXSXSXhXSXDXSXSXSXfXfXaXaXaXsXfXhXfXhXhXnXnXsX9X>X[.[.`.N.N.N.k.y.0.:.:.+.X.-.i.W.k.0.s.C.}.].@XaXOXV.c.z.s.i.i.k.N.m.y.:.:.q.n.V.V.M.m.n.p.>.;.w.p.T.].].W.k.k.C.C.C.C.C.C.Z.Z.W.].'.[.'.[.oX>X:X:X>X>XoX[.[.[.}.[.[.[.].[.[.[.[.[.[.{.{.{.[.[.[.[.oX>X>X>X>X>X>XoXOXOX>X>X>X>XoX>X3X>X3X3X3X3X3X3X3X4X3X3X,X,X,X,X>X>X>X,X,X3X3X3X3X3X3X3X3X3X3X3X1X>X3X3X,X,X>X>X1X1X>X>X>X>X>X>X3X>X>X>X>X>X>X>X>X>X>XoXoX[.oX.X[.[.[.'.].[.oX[.[.'.'.Q.'.'.].].].].].`.`.`.Q.Q.W.W.W.T.T.Z.U.C.V.V.N.s.s.N.N.V.Z.Z.W.Z.k.>.:.0.n.V.C.C.C.V.k.0.4.6.N.V.V.V.C.j.q.q.p.m.].oXwXrXOXT.k.>.:.y.n.a.=.&.=.>.y.p.p.k.T.T.W.[.}.].].eXSXDXmXGXnXnXbXbXhXhXsXsXbXDXVXVXVXGXHXHXkXtXoXW.W.Z.Z.V.B.M.V.V.V.V.V.m.M.n.m.m.m.C.W.Q.Q.].>XeX>XoX>X>XoXW.!.T.4.^ _ _ ~ ~ ! ! W ] 6.p.p.k.0.+.W Z F F F Z Z Z m z k z b H Y Y R / I ~ +.+.&.;.:.:.5.+.'  .o...o...=.=.~ z u s i s p i i i ",
"r p g g h h a a z b o.&.,.;.,.:.:.+.;.y.k.k.p.y.0.:. .Q ` ` ] ] T K Z z b b Z Z Z F H Y Y Y ] >.s.p.a.a. .G Y ! W R T T ! X.m.V.T.`.W.{.1X{.'.[.].'.].W.V.m.V.T.C.Z.T.W.T.Z.Z.Z.C.V.k.k.[.[.T.tXgXnXnXnXSXSXSXSXfXfXfXfXfXfXsXaXsXsXsXfXhXfX2XW.].`.[.`.[.{.`.k.0.>.:.-.} o.o.>.V.k.s.`.oX].].#XuXrXXXA.k.k.i.6.6.s.m.m.y.4.:.0.a.n.m.m.m.a.0.;.,.p.].[.].V.y.i.C.V.V.V.V.V.C.C.T.T.Z.Z.V.C.T.W.T.T.W.W.Z.T.W.W.[.].`.`.W.`.`.`.`.].`.`.`.[.`.W.W.`.[.[.[.[.[.[.{.}.}.{.oXoXoXoX{.oX>XoX>X>X>X>XOXOXOXOXOXOXoXoXoXoXoXoXoXoXoX}.oXoXoXoX>X>X>X>X[.[.[.[.[.[.[.[.[.[.[.[.[.[.'.`.Q.'.[.[.[.[.[.[.[.[.[.'.'.].].!.].!.!.!.!.W.W.W.!.W.W.T.C.T.T.W.Z.Z.Z.Z.W.W.W.W.C.C.C.C.C.V.V.V.V.m.M.N.N.s.s.k.k.n.V.Z.!.W.n.;.;.0.k.V.C.C.m.k.4.;.0.k.V.N.N.m.j.q.q.y.k.C.oXwXrX3XOX.X].p.0.a.C.y.X.X.X.&.-.:.0.a.[.>XV.T..X>X].[.4XSXDXmXmXnXbXbXbXhXsXyXyXsXVXVXVXGXCXHXHXHX5X[.Q.].!.Z.V.m.M.V.V.V.m.m.m.m.m.n.n.m.U.W.U.C.[.wX'.W.'.>X[.C.W.T.6.' _ _ ! ! ! ! W ] 6.p.p.a.0.+.W Z F F F Z Z Z m z z z b H L I T / I ! +.+.&.;.:.:.>.+.! } o...........Y k s s s s p p i i ",
"r g g g h h a a k Z o.&.;.;.;.;.;.+.;.y.k.k.p.y.6.:.} Q ` ` [ ] E ] G z b b Z Z D D U Y Y Y ] 0.s.a.k.p. .G E Y W W T T ~ >.T.].`.}.}.1X>X'.[.V.C.T.T.C.C.C.C.C.C.C.C.C.T.T.T.C.T.C.C.W.T.[.fXSXnXnXnXnXSXSXSXgXfXfXfXfXfXaXaXaXtXaXtXdXtX[.T.W.].[.[.[.{.>XW.0.o.+.&.;...X.-.5.0.V.[.[.}.R.T.rXHXkXeX].N.k.i.t.6.6.p.V.m.j.0.;.0.p.m.V.M.p.:.+.;.T.[.].`.C.V.y.a.k.k.k.k.k.m.V.m.m.n.n.n.n.n.n.M.M.m.n.m.j.k.V.V.V.m.m.k.m.m.m.V.V.N.N.N.V.B.N.N.B.C.C.C.C.B.V.A.A.Z.A.C.C.V.N.C.C.C.C.T.T.T.T.T.T.T.T.C.T.T.W.W.!.!.W.].W.T.Z.Z.Z.Z.W.!.W.W.W.V.V.V.M.N.V.V.V.V.V.V.V.M.M.M.M.V.V.C.Z.C.C.C.C.T.C.C.V.V.V.V.V.m.m.m.m.M.n.a.p.p.p.a.k.a.y.s.m.a.a.n.n.n.N.V.V.V.m.k.k.m.m.m.m.a.a.p.p.p.p.s.s.y.m.N.Z.!.[.W.p.o.&.y.V.U.k.6.*.6.j.k.j.z.z.V.i.q.6.q.m.U. X3XrXwXOX.X}.Q.T.C.C.v.-.X...} &.-.-.:.6.a.W.3XT.Q.,X,X.X.XeXHXDXnXnXSXSXnXnXbXhXsXyXsXnXVXVXCXHXHXHXHXfX3X].].W.U.C.V.V.V.C.C.V.V.V.V.V.V.V.V.m.M.m.Q.W.W.W.T.W.].W.C.C.i. ._ ` _ ! ! W ! ] 6.p.i.k.w.+.E Z F G F D Z Z m z z l A T ! ! ~ ~ Y ! ..+.&.;.:.:.>.+.! } ..o.+.o.X...Y a u s i i i i e e ",
"r g g g g h a a k Z o.&.*.;.;.;.;.+.;.y.a.k.p.y.6.:. .^ ` `  .[ E ` F z b b Z Z D D U Y Y Y } y.p.p.k.p.` F ! ] ] { ....=.a.W.[.{.>X}.].].T.p.6.j.m.C.C.V.V.V.C.C.C.C.C.C.C.C.C.W.`.[.Z.'.sXHXnXnXnXnXnXSXSXgXfXfXfXfXfXfXaXaXaXdXdXdXtX>XT.C.W.'.W.[.5XeXN.k.y. ...&.;.=.X.+.6.y.C..X>XoX}.R.oXkXHXkXwXT.z.s.s.6.5.q.k.n.m.k.y.>.6.y.p.y.>.&.+.y.].[.].T.C.C.;.;.:.:.:.6.0.y.i.y.q.w.w.y.q.y.y.p.a.a.a.n.n.p.k.p.p.s.s.y.y.y.y.y.y.y.y.y.y.y.y.a.p.p.u.p.p.u.u.p.p.p.p.p.p.p.p.p.p.p.p.p.p.p.p.j.j.p.s.s.p.k.k.V.V.N.n.n.a.p.i.s.s.i.a.n.n.N.N.a.p.p.p.p.p.a.a.p.p.p.p.p.p.p.p.p.p.p.p.p.p.p.p.p.p.p.p.p.p.p.p.p.p.p.p.p.p.w.0.0.0.0.y.0.0.6.V.M.n.n.a.p.n.n.n.a.p.i.i.q.q.0.0.6.6.6.6.0.0.y.y.;.k.N.V.!.[.'.M.&...;.p.y.4.;.5.z.m.z.j.z.j.j.8.6.i.k.C.].@XrXeXwX.X}.].[.T.V.C.n.:.X.X.o...o.X.:.a.C.V.>X1XT.T.oX,X>XoX5XnXHXDXSXSXnXnXbXbXbXhXsXsXnXGXnXCXHXHXHXHXfX4XoX[.Q.T.V.V.V.V.C.C.V.V.V.V.V.V.V.V.n.k.w.V.oX3X>X'.!.Z.V.m.j.*.[ O.&.&.&...] ] >.w.a.m.w.+.E Z F G F D Z Z b z k l A R ~ _ ` ] Y ! ..X.&.;.:.:.>.+.! } ..o.+.o.X...Y a u s i u i u e e ",
"r g g g g h a a a Z ..&.*.=.;.;.;.+.;.y.a.k.p.y.:.;. .~ } ] ....` ` Z z b b Z Z D D U Y Y T } y.i.p.s.s.E [ 0.0.w.0.0.0.>.s.N.V.[.>X'.'.>XC.6.0.y.n.V.V.N.N.V.V.V.V.C.C.V.C.T.W.[.}.[.{.aXnXnXHXSXSXSXSXSXgXfXfXdXdXfXfXdXdXaXaXfXfXdX3XQ.U.T.Q.W.].4XaX].].m.a.y.w.6.:.&. . .*.4.k.Q.oXwX3X}.].wXkXHXkX3X).c.k.i.0.0.i.n.C.U.C.a.4.:.6.:.&.X.>.C.oX[.W.C.C.V.+.X.+.+.+.;.:.6.6.6.6.6.6.0.0.0.0.w.w.p.a.a.m.6.6.p.s.y.y.0.y.y.y.0.0.0.0.>.>.0.y.n.a.p.p.y.w.0.0.>.>.>.>.>.>.0.w.0.0.0.0.0.0.0.0.6.6.6.6.6.>.6.y.V.C.C.B.n.v.a.s.a.u.0.y.v.n.n.a.w.0.0.0.>.>.0.0.0.0.0.0.>.>.>.>.0.0.6.6.6.6.6.6.6.6.0.6.6.6.6.6.0.6.6.6.0.6.6.6.6.0.0.0.y.6.:.p.p.<.n.N.p.a.v.a.y.y.q.q.6.6.6.6.>.>.>.:.:.>.6.0.;.y.V.C.W.[.{.!.y.*.+.6.+.*.q.N.I.N.k.k.V.s.6.8.8.k.C.R.@XrXrXrX XR.R.].W.m.p.p.y.>.:.:.=.&.>.p.0.m.C.V.m.>X1XQ.T.oX3XoX[.7XSXHXFXFXSXbXnXnXnXnXsXsXsXnXnXnXnXGXHXHXHXnX7X>X[.].W.T.C.C.C.C.C.C.C.C.C.C.C.B.N.n.=.n.'.>X>X].Z.C.M.k.p.0.5.6.0.>.>.,.&...&.>.p.k.w.&.E S G H F D Z Z m z k z Z T _ ] ] ] T !  ...%.=.;.;.>.+.!  ...+.+.+.X...Y a p p i i u u e e ",
"r g g g g h h a a Z ..&.=.=.;.;.;.+.;.y.a.k.p.y.:.;. .' } ] o.O.+.[ Z k b b Z Z D D U Y Y T  .i.y.i.p.y.;.y.y.0.0.0.0.0.y.s.s.p.[.[.W.'.oXW.i.6.p.m.V.V.N.N.V.C.V.V.V.C.T.W.].[.[.oX1XfXnXnXmXJXSXSXFXFXgXfXfXfXdXdXfXfXdXdXaXaXgXdX4X[.T.T.T.Q.[.eX4XT.Z.W.V.C.C.V.n.a.+.&.&.+.+.4.m.].OXeXwXrX].eXHXHXHXdX].s.m.k.i.q.m.V.T.Q.!.a.:.;.=.&.=.M.[.oX`.C.C.T.y.+.6.0.0.0.:.4.6.0.i.i.y.y.0.0.0.0.6.0.w.a.n.p.=.p.p.p.i.s.y.y.y.y.i.i.i.i.i.p.i.y.y.y.0.0.0.0.0.0.>.>.>.>.:.>.0.y.p.p.p.p.p.p.p.p.0.0.0.0.0.>.>.p.C.!.!.`.Z.Z.V.V.S.Z.v.F.`.`.C.v.w.0.0.>.>.>.>.<.>.6.6.6.:.:.:.>.0.6.6.6.6.6.6.6.5.5.6.6.6.6.6.6.y.y.y.y.i.i.y.y.0.y.y.y.i.y.y.y.w.<.a.'.p.p.p.y.0.0.0.0.i.i.i.i.0.0.0.0.0.y.p.a.y.0.M.Z.Z.'.>X[.W.q.;.5.+.4.k.C.m.j.k.z.z.i.3.8.j.m.T..XwXrXwX@XE.V.I.T.m.6.&.:.>.y.0.&.<.p.n.n.m.V.V.m.V.V.oX3XT.C.[.,X>X>XwXSXFXSXSXnXnXnXnXnXhXfXyXhXhXnXnXnXGXnXGXHXSXtX>X{.>X.XQ.U.Z.C.C.C.C.C.B.B.B.B.B.C.,.p.C.T.].W.Z.V.V.a.p.y.6.6.6.:.>.>.>.;.,.>.i.m.w.+.E S G H F D Z Z m z g z Z ! ] ] ] } E ! [ [ %.=.*.;.>.+.~  ...+.+.+.....Y a p p i u u e e 0 ",
"i g g g g g p a a Z  .&.-.;.;.;.-.+.-.i.s.s.p.0.:.;.] }  .o.o.+.&...Z a b n Z Z S G H Y Y T o.p.i.k.k.6.i.k.y.6.6.0.0.y.y.k.N.T.].}.oX[.[.T.V.m.m.q.a.N.V.V.C.V.C.C.V.V.T.].oXoXoX3XaXgXnXnXnXnXHXFXSXgXgXgXfXdXfXfXfXfXtXdXdXdXtXtX3XQ.].U.C.[.eX4XN.y.0.p.m.V.V.n.m.p.0.m.m.q.6.4.q.k.U.Q..X.X).XXuXHXHXSXkXXXV.V.N.s.p.m.C.T.W.W.k.;.:.:.k.[.3X[.C.V.W.C.0.0.m.m.m.m.s.s.k.k.m.N.V.V.I.N.k.:.:.>.p.C.S.m.>..Xk.m.V.A.T.T.C.C.C.C.A.A.C.C.C.A.T.U.C.U.T.T.C.C.C.C.V.N.N.h.i.s.z.V.V.V.C.C.V.V.V.V.N.V.N.V.V.V.`.{.{.[.W.T.V.k.A.Z.S.`.1X}.Z.N.a.n.n.n.n.m.m.M.V.C.T.T.T.E.T.T.T.C.V.V.V.V.C.A.C.V.N.n.V.V.T._.`.W.T.T.W.W.`.`.`.`.`.`.T.Z.V.N.C.V.M.W.a.a.p.p.k.a.m.C.U.U.C.C.N.N.N.N.m.V.T.T.k.6.0.V.B.!.;X1X[.Z.y.;.+.6.k.k.N.N.m.m.k.6.6.i.k.V.}.eXdX}.T.N.z.].oXT.0.:.:.6.p.k.k.:.6.a.W.C.m.k.p.y.n.a.m.].1X`.C.].[.>XoX>XFXFXSXSXnXnXnXnXSXSXgXfXfXhXbXnXnXmXDXHXHXSXdX>XoXoX.XQ.U.Z.C.C.C.C.B.B.B.B.W.V.n.B.C.Z.W.{.[.W.C.n.p.p.0.>.>.:.>.>.:.w.y.y.p.k.w.+.E H G G G S Z Z b z g k M Y ] ] ] } W ~  . .X.=.*.;.:.+.`  .o.+.+.+.X...Y k p p i u u e e 0 ",
"i g g g g g p a a Z  .&.-.;.;.;.-.+.-.i.s.s.i.0.;.-.]  . ...+.&.+. .b k b n Z Z S G H Y Y T o.p.p.p.0.*.p.i.6.:.6.6.6.0.s.V.}.OX].[.3XtX[.W.T.C.U.M.p.n.V.C.C.C.C.W.V.C.}.oX].>X4XaXgXgXnXnXnXnXSXSXbXgXgXgXdXdXfXfXfXfXtXdXfXfXtX>X].W.Q.C.W.3X[.m.y.-.:.0.s.N.V.V.n.0.j.C.k.V.m.q.q.j.j.m.C.E.T.T.].eXdXHXKXuXE.C.T.k.p.j.k.V.T.W.C.y.6.y.T.>X>X`.C.C.C.a.w.p.n.n.k.k.k.k.k.k.N.V.C.C.T.C.z.;.-.6.n.Z.W.].p.W.`.1XeXeXeXeXeXwXwXwXwXwXrXrXrXwXeXrXrXrXuXeXrXrXeXrXeXuXrX@X+XOX@XrXeXuXuXuXuXuXuXuXeXeX3X4X4X4X5XtXtXtXdXuXuXV.C.[.4XaXaXtXeXeX4XwXeXeXwXwXeXeXeXuXuXuXeXeXrXrXwX5X3X3X5XaXfXdXaXeXeX5X5XaXdXkXgXeX3X3X4X4X5X5XwX5X5X4XwX3X}.A.Z.W.C.V.a.a.w.0.k.oX3XT.V.V.V.V.N.N.N.N.s.k.m.N.i.;.;.p.n.V.[.2X>X'.C.p.;.6.k.N.C.N.k.k.t.t.s.k.N.).3XzXeX].V.k.C.].R.k.y.6.0.y.].V.N.V.a.N.}.Z.p.y.0.6.6.p.p.p.T.oX].W.W.[.oX>X>XSXSXSXSXnXnXnXSXSXSXSXgXhXfXbXnXnXDXDXSXSXSXgX4X,X,X+XQ.U.C.C.C.C.B.B.B.S.!.B.B.V.C.S.W.>X[.[.`.Z.N.n.0.0.>.:.>.>.:.w.>.N.k.k.0.X.E G G G G S Z M b k a k b H ~ ] ] } ! ~  . .X.=.*.;.:.+.]  .o.+.+.+.X...Y a p p i u e e 0 0 ",
"i g g p g g p a a S  .+.-.;.;.;.-.+.-.i.i.s.y.0.;.&.] o. .o.o.+. .T z k v n Z Z F G H Y T E o.p.s.p.>.:.k.0.;.:.>.6.i.k.V.].OX1X>XoX>X1X[.[.].R.[.U.a.V.V.V.Z.C.C.V.Z.>X[.`.1XtXfXgXnXnXnXnXnXnXnXbXgXhXgXfXfXfXfXfXfXfXdXdXtX4XW.Z.Z.W.C.[.>XT.y.:.>.-.:.6.s.k.m.m.p.q.m.k.V.T.Q.m.h.q.j.j.k.U.T.T.Y.T.oXkXHXkX@X}.T.V.k.y.k.C.C.C.V.m.y.m.}.1X}.T.V.C.k.>.w.M.n.n.m.k.k.m.N.N.V.V.C.U.k.N.z.4.5.i.V.B.V.V.6.i.N.T.W.T.T.R.T.T.E.E.E.E.E.E.E.T.T.T.T.T.).R.T.T.).).].OX3XOX].].XXXXXXXXXX+XXXXXXX X X X X X.XoXoX,X,XOX3XwXeXk.T.oX3X3X1X>XoX{.oXoXoXoXoXoXoXOXOXOX.X.X X X X].oXoXoXoXoXOX>XoXT.U.C.V.C.T.R.].].R.T.T.R.R.R.).).R.T.T.].].T.N.k.N.C.m.i.0.&.+.;.].oXk.i.p.j.k.N.N.N.N.s.s.s.s.s.;.&.>.a.n.S.<X2X;X'.W.0.i.k.V.T.N.p.0.t.k.N.T.R.OXeXdX3XT.C.C.E.I.k.q.i.i.k.C.>XC.N.`.`.k.k.a.y.0.>.:.*.=.:.w.0.W.>X[.W.!.oX>X>X>XgXgXSXnXnXnXSXSXSXSXSXbXbXbXhXnXSXDXSXSXSXSXgXwX,X,X.XQ.T.C.C.B.B.B.v.u.p.N.C.Z.W.!.W.'.`.[.[.`.A.n.p.0.>.>.:.>.:.w.>.y.C.p.0...Y F H H G S Z M c k a a c D E ] ] } ! ~  .[ X.=.*.;.:.@.]  .+.+.&.+.+...H a s u u u e e 0 0 ",
"i p g p g g p a a S  .+.-.;.;.;.-.+.-.i.i.i.y.6.-.&.} .. . . .} Q V k k b n Z Z F G H Y T E o.p.p.i.0.y.j.4.&.;.;.0.k.T.}.}.[.oXOXoX[.W.]..XoX}.].Q.Z.W.C.V.Z.U.D.S.>X`.!.>X5XgXSXSXnXSXnXnXnXnXhXhXhXhXfXfXfXtXfXfXfXfXfXdX5XT.C.W.W.V.'.,X].y.:.:.>.:.y.y.i.p.a.i.0.n.m.V.].Q.Q.T.m.q.i.i.j.I.R.T.T.T.C.OXdXHXdX3X}.T.m.y.m.].W.m.k.V.m.`.>XoX].C.C.p.>.:.p.V.V.V.V.V.C.T.}.oXoXOX>X,XOX3XOXV.q.j.n.a.p.0.;.V.T.T.R.R.C.T.C.C.I.I.I.I.I.Y.T.E.I.I.I.I.E.Y.I.I.T.T.].OXuXuXuX3XXX).R.).R.R.T.T.T.T.E.E.E.T.R.R.E.R.R.R.T.].OXN.N.T.[.T.`.`.`.`.].].}.}.}.}..XoX X X).).Y.Y.R.).].oX@X3XOXoXoXoXQ.R.T.E.T.T.R.R.E.T.T.T.R.R.R.).).T.T.T.C.R.T.N.s.i.s.y.0.;.+.;.:.V.T.m.C.U.W.Q.T.T.T.T.C.V.V.V.k.p.>.,.p.n.M.'.2X;X[.[.p.i.k.A.C.k.6.;.s.N.R.XXOX3XwX3XoXC.T.R.I.s.6.q.y.p.C.[.].4X}.Z.`.C.y.a.y.0.6.:.....&.0.k.m.T.'.[.W.W.>X>X>X;XtXnXnXnXnXnXSXSXnXnXnXnXbXgXgXnXSXSXSXSXSXFXgXwX,X>X[.Q.T.C.C.C.B.<.n.C.V.Z.W.!.'.[.W.>X>X[.[.Z.k.a.0.6.>.:.>.:.w.6.&.n.a.6...Y F H H G S Z b c g a a z Z Y ~ ] ] ! ~  .[ X.=.;.,.:.-.]  .+.+.&.+.&...H s s s u u e e 0 0 ",
"q p g g h h h h a Z  .o.-.-.-.-.;.+.-.i.y.i.0.6.;.&.] ..] ] ` ! Y A v k b V Z S G H Y Y E W } w.y.&.;.k.k.6.*.*.:.y.N.R.}.}.oXoXoX>XoX[..X XXXXXQ.Q.Q.!.!.W.C.B.W.;XC.!.7XsXnXnXnXnXnXnXnXSXnXsXSXbXgXhXfXfXfXfXfXfXfXfXtX1X`.C.Z.Z.W.{.4X{.V.y.6.6.5.y.y.6.6.i.i.6.p.U.V.eXeXoX].T.U.m.q.q.j.m.I.U.I.C.T.T.].3XdXdXwXOXk.q.y.k.m.y.0.k.V.>X4XoXW.C.k.6.;.4.0.p.Z.m.y.p.U.].].}.].].Q.W.].}.).i.s.k.M.n.0.&.6.T.R.R.T.T.T.U.U.E.R.E.T.R.R.R.R.R.R.T.T.T.T.R.R.].].].].].wXdXdXwXXX].}..X.XoX X XoX X.X3X3X3X3X3XOXOX.X X}.1X1XV.s.{.[.{.oX4X5X5XeX5X4X3X3X3X>X>XOX X].).R.).].]..X@X3X@X@XOXOX.X+X+X+X+X.X.X.X X].].].].).XXOXOXOXXXXXXXOXoX].T.k.y.y.i.a.6.6.p.y.C.W.T.C.C.C.C.C.I.T.T.C.N.N. XT.m.q.=.:.n.p.C.<X4X>X>XC.V.m.V.5.&.+.0.T.R.oXwXrX3XoX].Y.E.T.C.p.q.y.p.p.U.].].oXdXgX`.N.Z.A.a.p.6.&.+.+.+.:.n.m.V.C.Z.'.>X[.'.>X>X[.[.tXnXDXnXnXSXSXnXnXnXnXnXbXhXhXnXSXSXSXDXSXSXSXfX1XoX1X].Q.Z.Z.M.B.C.C.Z.!.!.!.W.W.[.{.'.].}.`.N.a.0.>.0.>.:.:.p.p.X.o.y.6.] Y H G G D S Z M c k p g b F W ` ] ] ! ~  .[ ..&.=.;.;.-. ...+.&.&.&.&...H u p u u u e e 0 0 ",
"q p g g h h h h d A  .+.&.-.-.-.-.+.;.i.i.y.0.>.-.+.`  .] ` ! ! T G C k v b Z S G H Y T Y E ~ &.| ] 0.U.m.;.[ ..;.p.T.].}.}.oXoXoXoX>XoX.X X X X X].W.W.!.[.!.B.;XS.!.aXnXnXnXnXnXnXnXnXSXhXhXnXSXbXgXhXfXfXfXfXfXgXfX5X1X[.W.V.N.W.>XtX>XC.i.y.y.y.p.s.p.0.5.5.5.i.T.U.tXfXuX3X}.T.T.T.j.q.q.j.z.V.C.C.C.T.T.T.3XkXHXwXj.i.6.;.;.;.6.k.[.3X>X].T.V.y.:.&.4.p.m.Z.M.y.p.U.].].].Q.Q.W.W.].oXR.5.k.A.`.W.n.:.i.T.E.E.T.T.R.R.R.R.R.R.R.Q.].].].Q.Q.Q.Q.Q.Q.].]. X].].].]..X3X3X.X]. XOX3XwX3X,XOX3XwXdXkXlXfXkXdXlXkXSXHXkXkX1X_.v.1X6XfXHXHXKXKXHXFXfXtXtXtXtXdXeXOX.XOX+X.X.X].oX.X.XXX.X+XXX]. X.X.X.X X.X.X X].].].]. X+XOXOX@X@XOXOX3XOX].R.m.i.y.p.C.a.y.p.s.U.].W.U.T.T.T.T.T.R.R.T.V.N.]..XC.i.:.X.w.v.B.[.2X1X>XW.V.p.&.-.;.;.;.N.oXeX3X3XoXR.C.V.T.C.k.q.q.y.j.V.Q.[.oX4XfXHXdX[.`.].T.m.:.+.&.:.:.0.m.n.V.Z.W.Q.>X4X3X[.'.[.`.;X7XnXnXnXnXnXnXnXnXnXnXnXnXbXnXnXSXSXSXSXSXnXSXgX5XoX.X3X[.V.C.Z.W.W.`.`.!.`.`.!.[.[.'.[.[.`.C.a.y.0.6.-.>.y.k.k.-.] } ..! K G G G S Z Z M b k p k M H ! ] ] ] ~ ` ....+.=.,.:.;.;.-.&.;.;.;.-.=.X.K s u u i i e e 0 0 ",
"q p g g h h h h a Z  .O.+.&.&.&.&.+.>.i.y.y.0.>.&.+.`  .` ` ! Q E Y V z v b n Z F G H Y Y I H W } k.V.V.V.4.+.;.;.p.T.].}.}.}.oXoXoXOXOXoXoX X X X].].W.S.[.>X:X2X9XsXnXSXSXnXnXnXnXnXnXgXhXgXSXSXSXhXfXfXfXfXfXgXaX5X>X[.`.W.C.W.>XtX1XZ.a.i.i.p.k.k.k.i.6.:.4.6.C.].eXSXfXtX5XOX].T.T.V.h.q.i.j.k.N.V.C.C.V.C.}.dX5Xp.:.0.6.;.&.;.p.T.eX4XoXT.T.k.:.&.*.i.V.U.C.m.i.k.E.].R.R.T.T.T.T.].oXT.6.c.T.`.T.N.0.k.C.C.U.T.R.].].}.].].].].].].].].Q.Q.R.R.R.].].]. X].].].].]. X X).).].XXOXOXoXoX}.oX3XeXdXdXaXaXaXtXfXSXHXfXaX3X[.a.{.1XgXHXHXHXHXSXfXtXeXtXdXdXdX3X.X XOX@X@XXX].}.].].].}.}.}.].]. X X X X X X].}.}.}.}.XXXX.X.XOXOXoXoXOXXX).T.C.p.y.a.W.C.n.y.p.C.`.W.W.W.R.R.R.R.].].].C.k.R.3X}.k.>.X.=.u.n.Z.<X4X3X[.a.:.:.5.i.y.;.;.].3XwX}.C.k.k.k.N.k.k.y.y.p.m.T.[.3X4XdXfXkXHXfXoX`.[.T.y.-.;.0.p.p.M.n.m.Z.W.'.].>X4X[.W.W.[.`.[.9XnXmXnXnXnXnXnXnXnXnXnXnXnXnXSXSXSXSXnXnXnXnXkXwX@XrXwX[.W.`.`.`.`.`.`.[.[.[.[.[.`.].`.W.T.N.a.0.-.X.0.N.Z.V.p.;.} ~ K F Z S Z n c c z k p u a b H ! ] ] ] ! ` .. .+.=.,.:.;.>.;.-.;.-.&.&.&...H p i i i i e e 0 0 ",
"q p g g h h h h s V ]  .+.+.&.&.X.&.>.p.y.0.6.:.&.o.`  .` ` ! E T Y F b v b n Z Z S F G H H T ~ >.N.C.T.m.p.i.m.*.0.V.}.}.}.}.oXoXoXOXOXOX.X].).].].}.[.`.!.>XtXhXSXSXnXHXGXDXmXnXnXnXnXsXgXSXSXSXgXgXfXfXfXfXfXgX1X[.[.'.`.W.Z.4XfX3XV.k.a.p.y.k.k.k.k.6.>.4.6.k.].tXHXSXtXdXaXeXoXQ.U.W.m.i.q.i.h.k.m.N.N.V.V.N.T.s.;.6.6.6.:.:.6.V.oXeX3X[.T.V.y.-.:.0.V.Q.W.k.k.p.N.E.].E.T.C.U.T.T.].].N.s.T.]._.V.p.i.c.N.V.C.T.R.}. X.X.X}.].].}.].].].Q.Q.R.R.R.R.Q.].].).).).).).).).).).).).).).).].].].OX@X#XOXOX#XoX}.1X4X5X1X5X3X[.N.{.{.tX3X4X4X1XoXOX1X3X3XOXoXoX}. X XOXOXOX X).].).].+X X X X X X X X X X X X].].].].].].].].].}.].].].}.].R.T.A.v.p.a.C.W.C.p.k.W.}.[.Q.Q.Q.Q.].].}.}.}.T.k.T.wX,XT.y.>.] -.v.N.[.4X5X>XT.0.y.:.k.N.i.;.6.T.Q.N.k.k.k.k.k.k.k.p.j.m.C.W.oX5XaXdXfXaXHXHXaX}.].].V.0.:.0.p.a.m.V.V.C.Z.!.T.T.'.[.W.C.`.[.!.'.9XnXmXnXnXnXnXnXmXmXVXmXnXnXnXSXSXnXnXnXnXnXgXSXlX,X.XoX[.'.`.`.`.`.`.[.{.}.[.`.`.`.`.W.W.Z.Z.C.n.:.p.N.C.N.N.y.-...E H G H G Z n z k k a i k Z Y ! ] ] ] ! ~ .. .+.=.,.:.>.;.+.+.+.+.+.+.+. .G t i i i i e e 0 0 ",
"e p g g g g g g a b K ` #.+.&.-.;.>.t.t.6.y.6.;.&. ._  .] _ W E E Y K H S G Y Y R ! / ] ..X.=.>.a.v.N.B.N.N.n.6...4.m.Q.}.}.}.oXoXOXOXOXOXOXoXoX}.].].[.}.`.`.[.tXHXFXDXnXmXGXGXmXxXxXbXSXnXnXnXgXgXhXgXhXhXgXfX1X`.!.[.W.Z.N.4XkX1XV.n.k.a.s.k.k.k.s.y.>.6.i.k.T.wXFXHXfXtXeXeXrXwX.XR.U.I.z.h.i.i.q.i.s.p.k.N.k.s.0.y.0.0.:.=.,.N.{.tX5X{.`.T.k.6.;.5.m.Q.].C.k.p.k.T.).).).).R.Q.].].[.].k.T.].[.R.V.k.N.A.C.V.Y.R.]..X.X.X.X].].).).).).).].R.R.R.R.R.R.R.).).).).).).).).).).).).).).).).).].).). X].].}.].}.}.[.oXoX1XeX{.n.{.>XeX>XoX.XoXoXoXoXoXoX.X].].]. X+X.X X X X X]. X.X.XOX.X.X].].].].].XXXX+X). X].].].].].].].].].].]. X X).T.T.N.y.a.m.T.Q.T.T.R.].oX}.}.}.}.].}.XXXX}.T.m.k.oXwX.Xk.0.=.] 0.n.C.[.5X5X{.n.>.&.:.i.i.6.:.k.N.s.s.s.y.p.i.s.k.k.k.V.].>XeXaXaXfXfXfXgXHXKXgXoXQ.].m.&.6.i.k.m.m.V.V.C.T.W.M.V.[.[.!.S.!.[.'.`.4XCXCXCXCXCXnXnXmXmXmXmXnXnXnXnXnXSXSXnXgXhXfXuX[.].[.'.'.'.`.`.[.[.}.}.}.[.[.`.`.`.W.T.W.W.Z.p.0.0.p.M.n.n.p.p.>.+. ...} ~ E Y I G G D n n S I W ~ ~ ~ Q ~  . .X.&.-.:.:.>.-.&.X...o. . .} S s u u u u r r e 0 ",
"e p g g g g g g a a F  .*.;.:.>.>.>.t.y.6.6.6.;.=. .~ ] ` ! E Y E Y K L Y W ~ / R ! / ] $.&.-.0.a.a.v.N.N.N.n.6. .h.].OXoXoXoXoXoXoXoXoXOXOXoXoXoX[.].].`.}.[.T.Q.tXgXnXDXDXDXmXMXxXbXGXSXnXnXnXgXkXhXnXhXhXfX4X'.`.'.[.Z.k.].kX4XC.p.p.p.k.k.k.m.N.s.y.s.s.N.T.3XlXkXkXfXaXeXeXrXrXwX.XR.E.I.z.i.q.8.8.i.p.k.V.k.i.N.V.0.:.=.$.y.W.1XaX5X[.W.A.y.:.:.i.T.[.].V.k.k.N.T.].]. XXX]. X.XoXoX].N.`.[.[.T.V.N.A.T.T.V.Y.R.].].].].].].].).).).).).].R.R.R.Q.R.R.).).).].].].].].].].]. X].).).).).). X).).].).].].].`.].].].].1X5X{.N.{.>XeX>XoX}.oXoXoXoXoX.X].].Q. X X.X.X X X X X X X X X X X X X].]. X]. X+X+X]. X X].].].].].].].].].].].}.).Y._.T.i.p.k.U.Q.Q.].W.].OXoXoXoXoXXXXXoXoX}.T.V.z.W.3X,XC.p.&.X.-.a.V.`.1X5X3XW.p.-.-.:.0.y.6.s.m.k.s.p.s.k.s.k.N.C.C.T.}.eXaXaXsXfXfXgXgXSXHXHXdXoXQ.T.m.0.y.a.k.V.V.V.C.C.W.C.k.M.`.'.V.C.S.!.[.{.aXnXCXCXCXCXcXmXmXmXmXmXnXnXnXgXSXnXgXfXfX4X.X[.].'.'.'.`.`.'.[.[.}.[.}.[.[.`.`.`.`.W.[.`.n.&.=.0.a.n.n.k.p.q.0.,.&.X.] ~ E E Y I I G S Z S H ! ~ ] ~ E !  . .o.&.-.;.:.>.;.&.&.&.+.+... .F u u u u u r r e 0 ",
"e p g g a a a a p a F o.3.5.:.5.>.6.6.y.6.5.:.;.;...! ] ~ ! T Y E Y K H Y T ! W R ! / ] &.&.:.w.a.a.a.a.B.B.C.p.q.T.OXOXOXOXoXoX{.{.{.oXoXoXoXoXOXoX].`.W.[.[.W.m.W.3XeXfXDXDXnXMXMXGXJXnXnXnXnXgXgXnXnXnXfX3X[.].[.'.W.N.V.1X5XC.a.p.a.k.k.k.k.N.N.y.k.V.C.}.3XaXdXdXfXlXfXdXeXwXwXwXwX.XR.T.I.V.j.i.i.q.s.k.N.s.p.T.N.>.-.=.:.n.;X5XaX3X[.T.k.6.;.5.N.].oX].N.k.k.C.].}.XX+X+X X.XoXoXoX].[.oX[.[.T.N.V.A.T.C.Y.R.].].Q.Q.R.Q.].].).).).).).).R.R.Q.].].].).).].].].].].].].]. X+XXX].].].].].XX].).].].].].].]. X].R.R.OXtX[.M..XoX4XoX}.].}.}.}.}.}..X].].Q.]. X.X+X X X X X.X X].Q.].]. X].].}.].].}.}.}. X X X].].].}.].].].Q.].].].}.).T.T.R.k.q.j.U.]..X}.R.].OXOXOXOXoXoXoXoXoXoXR.V.m.k.oXwX[.m.:.-.+.w.N.W.>XtXtX1XV.p.>.>.6.i.y.i.N.k.k.s.s.k.k.N.T.W.Q.[.4XaXaXaXsXsXgXSXSXHXdXtXtXwX.X].[.p.y.p.k.V.V.C.C.V.C.M.0.w.V.`.W.B.B.W.<X2X{.7XGXGXCXCXCXCXVXmXmXmXmXnXnXsXgXgXgXfX>X[..X].].'.`.`.`.'.{.[.[.[.[.[.[.[.`.`.`.].].{.{.W.a.k.C.C.m.k.a.p.w.w.0.:.&.] E Y Y E Y Y I G S S H W ~ ] ~ E ! } } ..&.-.-.;.>.:.-.&.&.*.&.+...F u u u u u r r r e ",
"e p g g p p p p p k H +.4.6.4.:.>.6.6.t.6.;.;.;.,...! ] ! W Y Y K K H H Y T R R R ! / ] X.&.;.0.a.a.p.s.B.Z.`.T.T..XOX3X@X@XOXoX}.[.}.oXoXoXoXoX>X>X[.].W.W.].'.'.Z.[.4X3XlXHXnXmXJXKXGXmXnXnXnXbXnXnXnXnX5X{.`.{.{.`.C.A.oXoXk.p.a.k.m.k.k.k.k.N.s.0.`.T.].5XdXtXeXtXdXfXkXdXeXwXwXwXwX3X.XR.U.].U.k.j.q.y.s.k.s.N.Z.a.:.&.:.p.`.4X5X4X<X!.C.0.:.:.i.T.R.oX}.C.k.m.T. X XXXXXOX X.XOXOXoX`.oX4XoX[.T.k.N.V.V.N.]. X.X.X].].].].].].).).).).).).R.Q.].].].].].].].].].].].].].]. X.XOX].].].].].oX].).).].].].].}..X XR.Q.OXtX{.C.>X>X4XoX}.].}.}.}.}.}. X].].Q.]. X X.X X X X X X X].]. X X X].].}.}.}.).).).XX.X X}.].]. X].].Q.Q.].].}.XX].].T.C.T.p.p.V.Q.oX.XT.R.OXOXOXOXOXoXoXoXOXoXR.I.V.j.Q.3XOXT.y.:.;.,.M.W.[.5XfXtX[.C.y.;.:.i.s.k.k.m.k.k.k.k.k.C.Q.].oX4XdXaXdXsXsXgXnXSXSXkXdXeXeXuXeX>X[.W.y.i.p.m.V.C.C.V.p.p.:.>.p.V.`.S.B.C.[.4X;X2XaXCXVXCXCXCXVXmXmXmXmXnXnXsXgXgXfX,X X.X'.`.`.`.!.`.'.{.{.[.[.[.[.[.[.`.`.`.`.[.[.>X[.{.{.W.W.W.m.a.p.p.w.0.w.1.X.W Y H K Y Y I H H S S G Y W ! W E Q } } o.+.&.-.;.>.:.;.&.&.&.*.&.O.F u u u u u r r r e ",
"i p g g a a a a p h G  .4.4.:.5.5.5.6.0.6.;.&.&.&...` ] ! Y H G G G H Y Y T T T T T ! ] X.+.-.p.y.>.0.n.Z.W.W.].oXoX3X3X3X3XoXoX[.[.[.}.oXoX.XoX>X>XOX}.oX].`.'.'.Q.].oXwX,XtXDXJXJXKXGXnXnXnXnXbXbXSXbXtX{.[.[.>XZ.V.[.{.`.p.i.k.k.k.m.k.k.k.k.C.6.C.[.}.5XdXaXtXtXeXeXtXdXdXaXtXeXeXeXeXwXoXT.R.].R.z.i.i.i.y.i.k.p.>.-.:.0.W.>XtXtX5X>XW.m.0.:.6.k.T.]..X].V.N.V.R..X+X XOXOXoXoXoX3XoX].1X3X1XoXV.N.C.C.N.C..X3X3XOXQ.Q. X X].].].].].].].].].].].].].].).].].].].].].].].]. X X].].XX].].}..X].].].].].].].]..X.X].].oXfX`.C.>X>X4X.X].].].].].].].].].].].R.R.]. X X.X X X X X].]..X X]. X X).).}. X).).XXOXOX.XXX X}.].].].].].]. X X X XY.I.T.m.p.n.Q..XoX].R.}.3XOXOXOX.X X.XOXOX].Y.I.V.V.+XwX XN.0.>.:.i.A.`.>X5X5X>X`.N.0.-.0.s.p.p.p.k.k.k.m.V.T.].].,XeXaXaXaXsXgXnXHXHXSXeXeXeXeXeXfXaXoX[.W.p.p.m.V.V.m.p.y.0.0.0.a.a.n.Z.C.V.W.'.oX{.<XsXVXVXCXVXVXmXmXGXnXnXDXHXSXSX3X.X].].[.'.!.W.].[.[.}.}.[.[.[.[.[.[.[.].`.`.[.}.>X>X>X2X[.'.W.W.n.0.>.>.>.>.,.&.! H H Y Y Y Y Y H G S S Y G F G G ! } }  .o.&.&.;.:.:.-.&.&.*.*.+...F u i i i i r r r r ",
"p g g a a a a a p h F  .4.5.4.5.5.6.6.6.6.-... .` ] ` ] E K G G G G H Y Y E W T ~ W E ! ] +.y.y.>.:.y.N.`.].[.[.oX>X,X3X3X3XOXoX}.[.[.}.oXoXoXoXoXOX>X>X>X[.].].'.'.].]..X.XoXSXKXKXJXDXnXnXnXnXbXSXSXtX>X{.{.{.`.T.`.>X`.y.>.p.s.k.k.k.N.N.N.k.i.s.[.}.wXdXdXeXtXtXeXeXeXtXdXdXdXtXeXeX5XeX4XoXR.].}.R.p.y.0.0.0.y.0.-.:.0.N.>X4XtX5X1X].C.p.>.:.p.C.].}.}.R.V.V.E.]..X+X+XOX.X.X.XOXOX}.}.3X3XOX[.N.N.C.V.V.R..X3XwX3X.X.X.X X].].].].].].].].].].].].].].).).].].].].].].].R.].].].].].].].}..X].].].].].].].]. X X X XOXgX[.V.oX>X3X[.].).].].].].].].].].].R.R.]. X X X). X X X].]. X]. X XXX}.}.XX X X X X).].].].].].].].].].].]. X}. X XT.E.T.V.p.n.W.[.oX}.Q.].3X3X3X@XOX.XXXOXOX XR.Y.I.V.R.OXOXT.p.6.:.0.n.W.[.>X5X5X[.T.p.:.>.0.y.i.y.p.k.k.U.>X].].,XeXtXdXaXsXsXgXHXHXSXfXeXeXeXeXeXdXdX4X].}.W.k.k.k.p.0.6.0.y.p.W.W.n.p.M.C.Z.Z.T.'.>X;X;XsXVXVXVXVXmXmXGXnXnXnXHXiX.X>XQ.].[..XW.!.`.[.[.[.}.}.[.[.}.[.[.[.[.].`.`.[.}.,X3X3X4X>X>X>X.XC.p.0.>.:.>.,.&.} ! Y H Y Y Y Y G F F S H H H G G W } } } } ..X.-.:.:.-.&.&.*.&.+. .S u i i i i i r r r ",
"p p p g a a a a g h F ` 4.8.8.4.6.6.6.5.;.+.+...Y ` ] ] Y H G H G G H Y T W W W ~ ! ! ] o.:.:.>.w.k.Z.`.].[.[.[.{.oXOXOXOXOXOXoXoX}.}.{.}.oX}.}.oXoXOXOX3X1X}.].].[..X[.W..XOXwXGXKXJXmXnXnXnXnXnXSXtX[.U.2X{.Z.C.[.>XZ.a.>.0.0.p.s.k.k.k.k.i.s.y.].[.wXdXdXaXwXtXeXeXeX5XeXtXdXhXaXtXeXeXeXeXwX X X.XoXm.y.0.0.6.>.:.&.>.p.[.5XtXtX5X[.Z.m.0.;.6.m.].OX.XR.I.I.U.Q. X.XOX+XOXXXoXoXoXoX].OX5X3XoXW.k.V.A.V.Y.].@XrXrXwX.X.X.X X].].].].].].].].].].].].].].).).].].].]. XXX].R.).).).).]. XXXXX.X X].].].].].]. X X X X.X3XSX.XC.oX>X4X.X].).].].].].].].].].].R.].]. X X]. X X].].].]. X]. X.X+X XXX#XXX+XXX X). X X].].].].].].].].].].].].].].R.Q.T.j.n.W.].}.}.].R.3XeXeX3X3XOX.XOXOX X).Y.T.V.V. X3X}.N.0.6.:.i.A.!.[.5XtX1X[.C.0.;.>.0.0.y.p.m.V.Q.eX,XoXwXeXtXdXfXfXnXnXCXnXfXaXeXeXeXeXtXaXdXaXOX}.}.T.k.k.w.>.>.>.>.>.p.a.p.y.p.n.Z.W.Z.W.[.>X{.2XsXnXVXVXVXVXGXGXnXhX3X^.T..XQ.[.[.[.!.`.[.>X[.[.}.[.[.[.}.[.[.[.[.[.`.'.[.[.,X3X4X3XwXwX4X,X].U.k.q.>.>.:.-.+...! Y Y Y U H F F Z Z F H E ] W ~ ] } } ~ ] } -.;.;.&.&.&.*.&.+. .Z p i i i i i i r r ",
"p p p g a a a a h h S ` 4.8.q.5.0.6.5.4.;.+. .] H ] ] ] Y G G H G G H Y E W ! W ! ~ } &.-.&.-.0.a.C.].].`.].[.[.[.{.oXOXOXoXoXoXoXoXoXoXoXoX}.oXoXoXoXOX3X3X1X[.].'.[.[.[.R. X.X9XmXGXGXnXnXnXnXgXtX[.m.Z.'.V.B.[.[.C.p.p.0.>.:.y.p.s.k.6.;.;.s.N.OX5XdXdXaXeXwXeXeXeXeX5X5XeXtXdXfXdXtXdXeX5XeXOX,X,X,XU.j.y.y.6.:.-.-.w.V.>X5XtX5X1XZ.n.p.6.0.i.C.oX,X.XU.V.U.R.]. XOXOX+XOX X.XOXOX}.`.1X5X3X].T.N.V.C.A.R.}.wXrX3X.XQ.]. X X].].].].].].].].].].].}.].].].).].].].].OX#XXX).).).).]. XOX@XOX.X X].].].].].]. X]. X.X.XrXHXoXC.oX>X4X.X].Q.].].].].].].].].].].]. X X X X.X X].].].]. X]. X.X+X+X+X@XOXOX+X X X.X+X].].].].].].].].].].].].]. X].].T.n.n.W.].[.}.[.Q.,XdXdXrXrX@XOXOXOX].).T.R.Y.V.I.3XOXT.s.6.>.0.n.W.`.>XtX5X>X`.k.;.;.>.6.p.k.C.T.].3XwX3XeXtXaXfXfXgXnXnXnXsXaXtXeXeXeXaXtXtXtXdXaX}.}.[.C.k.y.6.:.>.0.w.0.w.>.y.w.y.M.W.W.W.W.{.1X[.;XsXGXGXVXGXGXHXSXfXR.Q.T.].[.[.[.W.[.[.[.{.[.[.}.[.[.[.}.[.[.[.[.[.`.'.[.[.>X>X>X,XwXwXwX,X,X>XQ.k.p.y.0.:.+.&...! Y I H H F A Z Z F Z H ] o.} ] ] ] E Q ` -.-.-.&.&.&.&.&.+. .Z p i i i i i i i r ",
"i i p p g a a a h h S ` 3.h.i.6.q.6.5.4.;.+. .! Y } ] ~ E K F F Z F K E E ! ~ ! W +.>.>.>.:.>.0.V.T.W.W.!.].[.[.[.}.oXoXoXoX}.].oXoXOXOXoXoXoXoXOXOXoXoX,X3X3X>X}.`.`.[.oXoX XQ.`.2XHXGXnXnXnXnX7XW.n.V.W.m.C.<X[.B.p.y.6.6.6.y.>.p.n.k.0.+.j.V.oX5XtXtXdXaXtXtXeXeXeXeXeXeXeXeXeXfXkXfXtXeX4X3XoXwXwX.XT.U.V.m.k.0.:.:.p.[.5X5X5XtX3Xa.w.0.0.w.V.].oX.XU.V.V.T.]..X+XOXOXOX@X+X].oX,XQ..XwX4X3X].T.V.T.C.T.}.wXwX3X.X]. X X X X].].].].].].}.}.].oXOX3XOXOXoXXXoX.X+XXX@XwX3XXXXX X}.}..X.X.XoXoXXX}.}.].].].]. X]. X X.X,XHXoXC.oX,X,X.X.XoXoXQ.Q.Q.Q.W.W.Q.]. X].}. X]. XwXOX+X X]. X X X X.X.XOX@X@X@X@XOX X.XOX.X.X.X.X+XOX.X X].].].].].]. X].].U.V.k.n.!.oX[.[.Q.].rXeXeXwX3XOX.X.X X X].R.R.E.E.OXwXoXN.i.i.6.i.T.].oX3X5X3X{.W.y.>.y.s.m.C.[.,X,X3XuXuX4XeXaXsXnXGXHXSXfXaXtXtXeXeXaXaXeXeXeXeXuXwXOX}.R.C.k.y.0.Z.'.Z.a.w.0.6.w.w.p.M.].!.V.W.>X3X<X;XtXKXGXGXGXDXFXQ.T.]. X X}.}.[.[.{.[.{.{.[.[.[.[.}.}.}.{.[.[.'.'.`.`.[.[.>X>X,X2XwXeXwXOX,X,X].C.m.n.a.p.>.:.,.X.W H F Z Z n n Z F Z F W ~ ~ ~ ~ ] Y G ~ -.-.-.&.&.&.+.+.+. .S s p p i i i r i i ",
"i i p p g g a a g h F ] 5.s.i.i.q.6.5.;.*.+.:.-.:.&.` ! G F S F b Z L Y ! Y Y ~ =.0.p.y.p.y.p.n.T.W.W.W.W.].].[.[.[.}.oXoX X].].[..XoXOXoXoXoXoXOXoXoXoXoX>X3X4X4X>X[.].}.,X,X.XT.W.>XHXDXnXHXfX!.C.[.3XW.W.1X>XB.y.6.>.>.6.y.i.p.i.0.6.0.m.V.W.eXdXdXtXdXaXtXtXeXeXeXeXeXeXeXeXeXdXgXfXaXtXeXwXwXwXOXQ..X].].W.N.0.;.:.C.>X5XtX1XtXW.y.0.0.w.p.W..X.X].V.V.T.Q. XoXOX3XOXOX@XOX3XwX3XW.oXeX4X].R.T.C.T.C.T. XwXrX,X.X X.X.X.X.X}.}.}.].}.}.}.}.}.oX3X4X3X3XOXOX.X.XXXXX.XOX.X}.oXoX X}. X.X.XoX.X.X X X].}.].]. X X X X.X3XHXoXC.oX,X,X.X.X.X.X.X.X.X.X].]..X.XoX X X X X].3X3XOXOX.XOXOX.X X+X+X+XOXOXOXOX.X.X.XoX.X X.X+X.XOX.X X]. X].].].]. X}.].E.m.k.j.T.[.[.].].Q.3XeXeXwXrX@X.XOX.X.X].R.].).R.].3X1XT.k.s.0.6.V.W.'.[.5X5X1X[.V.p.p.k.C.Q.oX3XwXwXuXeXeXuXfXnXnXHXHXgXfXdXtXtXeXtXaXaXeXeXeXeXuXdXeX3X].].T.k.p.a.n.M.V.p.0.6.0.w.w.p.n.].oXV.[.3X3X[.[.gXDXSXHXFXW.U.]..XoXoX}.}.[.[.[.[.{.{.[.[.[.[.}.}.}.[.[.[.'.'.`.].[.[.[.[.:X>X,X,XoX X.X].U.V.m.M.n.a.p.w.0.,...W H F m x x m F Z Z Z S Y ~ } X.] E o.-.&.&.&.&.&.+.+.+. .Z p p p i i i r i i ",
"i i p p a a a a g k G  .;.h.i.i.q.6.5.;.*.O.k.C.a.=.] W S n b b b A F Z Z H ..<.p.y.i.p.k.k.N.T.W.W.T.T.W.W.].].[.[.[.}..X}.].`.].[..XoXoXoXOXoXoX>X>X>X>XoX>X4XtXeX4XoX[.>X3X,X[.[.W.>XHXKXSX5XQ.[.oX[.!.tXeXN.p.6.>.>.>.y.s.k.k.>.-.>.k.k.C.3XdXfXdXaXdXaXtXtXeXeXeXeXeXeXeXeXeXaXdXdXdXtXeXeXrX3X XR..X.X[.[.V.0.>.a.[.5XtXtX5X5Xn.0.y.w.i.V.]..XoXR.I.T.].}..XOXOXwXOXwX3X3XrXeXoXQ.3XeX>XC.T.I.C.C.I.E. X3X3XoXoX.X.X.X.X.X X X X X X X X X.XoX.XoXoXoX.X.X.X.XXXXX]..XOX X.XoX X X X X X XOXoX.XoX X X X X X X.X.X.X3XHXoXU.oX,X,X.X.X.X.XOXOXOXOX.X.XoXOXOX.X X X X].OX3XOXOXOX@X@XOX.X X X+X.XOX.X3XrX4XdXdXwX.X.X.X+X+XOX.X X X X X}.}. X}.].E.m.m.j.V.].].[..X]. XeXdXrXrX3XOXOXOX.X X].}.XX X}.3XeX`.N.k.p.>.6.C.].].1XeX4X>X[.m.p.m.W.oX3X3XwX,XwXeXuXdXkXHXHXGXnXfXfXdXtXtXtXaXeXaXeXeXeXuXdXdXdXuXwX}.C.V.m.y.0.p.V.V.i.6.0.0.w.w.0.n.[.>X>X>X4X2X'.<XfXFXiX.Xm.U.oX3X,X}.[.[.[.[.[.[.{.{.{.[.[.[.}.}.}.[.[.[.[.[.[.[.[.'.'.'.Q.Q. X].Q.T.T.C.V.V.m.m.m.n.n.n.q.:.&.] T F n z a a b Z b k a Z T ] X.&. ...&.&.&.&.&.&.+.+.+. .Z s p p i i i r r i ",
"i i p p a a a a g k H ..@.i.q.8.0.6.4.:.O.+.k.0.0.X.] Y Z x a u Z F Z v Z ] >.0.0.i.a.a.m.m.C.].W.W.T.T.T.W.`.].].[.[.[.}.}.].`.Q.Q.}.oXoXoXOXOXoX>X>X>X>XoXoX,XwXfXfXeXoXoX,X>X,XoXQ.Q..XSXeX.X[.:XW.m.tXtXC.p.y.>.>.6.>.y.s.N.y.-.-.y.k.T.tXdXdXdXdXdXdXaXtXtXeXeXeXeXeXeXeXeXtXaXtXeXtXaXtXeX3XOX XQ.Q.`.].`.C.i.s.W.2X5XtX4XfX{.n.p.p.p.k.].Q.]. X}.T.].}..XOX3X3XrX3XrX3X3XuX3X]..X4XeXW.C.C.C.I.C.I.T. XoXoX.XoXoX.X.X.X.X.X.X.X.X.X.X X XoX.XoXoX.X.X.X.X.X.X+XXXOXeXuXwX.X.XoX X X X X XOXOXoX.X.X.X.X X X X X X.X3XHXoXU.+X3X,X.X.XOXOXOXOXOXOX.X.X+XOX.X+X.X+X X X+X.X+X.X+XOX@XOXOX+X+X.XOX@XOXrXuXwXlXlXeXOX.X.X+X+XOX.X X XoXoXoXoX X}.].E.U.U.m.n.W.!.[.oXoXQ.3XdXeXrXrX@XOXOX.X.X X XOX@XeXeXwX].N.m.m.0.o.m.!.'.[.5X5X1X>XC.k.a.W.>X3X>XoXQ.,XeXuXlXHXHXSXnXgXsXfXdXtXtXeXaXeXtXeXeXeXeXdXdXdXdXfXwXoXC.C.p.>.6.a.m.m.y.0.0.0.w.p.p.M.>XeX>X>X2X!.C..XiXW.m.m..X3X4X>X].[.[.[.[.[.[.{.>X{..X[.[.}.}.[.[.[.[.[.[.[.[.[.'.!.!.W.W.Q.U.V.V.C.V.m.V.m.m.m.m.a.n.p.4.&.o.~ H F m a s i b b t 7 g Z W X.&.X.o.&.&.&.&.&.&.+.+.+. .Z s p p i i i i r i ",
"i i p p a a a a g k H ..;.8.8.6.6.6.4.*.[ ..&.X.[ ~ T G M g p k Z H M D ] X.X.X.&.;.q.k.N.T.Q.].T.T.C.C.C.C.W.`.`.].'.[.[.].].].Q.Q.].}.oXoXOXOXoX>X>X>XoX.X.X,XwXuXlXlXeXoX.X>X,X,X.X[.T.U.W.W.W.W.V.,XfX].k.y.6.>.>.>.y.p.k.i.>.&.:.s.'.tXgXfXfXfXdXdXdXaXtXtXeXeXeXeXeXeXeXeXtXeXeXeXeXeXeXtXfX3XW.W.C.Z.T.T.k.k.W.1X5XtX5X5XeXm.y.p.q.k.U.].Q.].OX@X X].].XX+X.X@XrXwX@X.XrXeX.XQ.[.wX>XW.Q.N.C.T.C.C.Q.}..XoX.XoXOXoXoXoXoX.X.X.X.XOX.XXX X+X X X.X.X.X.X.XOXOXOXOX3XdXdXrXOXOX.X.X.XoX.X@XwXwXoXoXOXoX.X.X.X.X.X.X XoXHXoXI.+XwX,X.XOXOXOXOXOXOXOXOXOX,XOX@XOX+X X+X+X X+XXX+XOX@XOXOXOXOXOXOXOX@XOXuXrXwXuXuXwX,XOX.X.XOX.X X}. X.X.XoXoX.X}.].Q.T.T.U.m.Z.'..XoX,X[.oXlXzXeXrX,X,XOXOX.X}.oX3XdXkXlX3X,XT.N.T.k.>.6.W.[.!.>XeX5X4X[.V.k.V.W.[.[.W.W.}.3XlXlXkXSXkXgXgXgXfXdXaXtXdXtXtXtXtXtXeXtXdXdXaXdXfXfXeX4XV.C.i.>.p.a.k.m.s.6.6.0.y.y.p.k.W.[.!.m.0.0.B.Q.Q.m.Q.,X>X>X[.`.'.'.'.'.[.[.{.;X>X>X>XoX>XoX;X[.[.[.[.].'.'.`.W.Z.Z.D.Z.C.C.C.V.V.V.m.V.V.V.V.M.V.k.0.&.o.} ] ~ Y G n k e p k t 7 p c F ~ } o. .o.+.&.+.&.&.+.+.o.} Z a p p p i i i i i ",
"i i p p a a a a g k H ..;.8.8.6.4.4.;.*.[ ] ] W T H D M k a b Z b H Y / / o.} }  .+.;.i.N.T.R.].W.T.T.A.C.C.T.T.W.].].'.].].].].].Q.Q.].oXoXoXoXoX>X>X>XoXoX>X,XeXuXlXlXdXwX,X,X3X3X.X[.U.m.V.U.k.6.W.tX].j.0.6.>.6.>.y.p.s.i.>.6.6.0.[.dXfXfXdXfXfXdXdXdXaXtXtXeXeXeXeXeXeXeXeXeXeXeXeXeXtXdXdXeXoXW.W.A.N.a.p.n.C.{.5XaXtX5X5XoXn.p.p.j.m.U.Q.T.].@X3XXX).).]. X.X.X.X+X.X3XdX,X[.].>X3X].T.T.N.C.T.T.T.].}.}..X.XoXoXoXoXoXoX.X.X.X.XOX.XXXoX.X.X.X.X.X.X.X.XOXOXOXOX@XrXeX3XOXOXOXOXOX.XOXwXdXuX3XOXOXOXoXoXoXoXOXOXOX3XkXOXU..X,X3X.XOXOXOXOXOXOXOX.XOX,XOXOXOXOX+XOX#X X)..X+X+XOXOXOXOXOXOX@X@X@XOXwXwX3XeXrXwX3XOX.XOXOX.X.X X X X X}.].].].R.R.T.U.C.V.V.!..X.XoX.XoXuXdXrXwX3X.X.X.X.XoXoXwXuXlXrXOX3XoXN.C.T.w.:.n.[.`.[.3XtX5X>XW.V.p.m.T.W.T.W.[.OXuXzXdXgXfXfXfXfXdXaXaXtXdXtXtXtXuXuXtXtXdXtXdXgXSXkXtX4X4XW.R.p.0.0.a.V.k.6.;.:.0.0.y.i.m.T.W.Z.D.C.!.>XoXU..X,X>X;X{.'.'.'.'.'.[.{.{.;X>X>X>X>X>X>X;X:X;X[.[.[.[.Q.W.Z.C.V.C.V.C.V.V.m.m.V.m.V.V.V.V.M.M.w.&.[ ] ] ~ ~ E Y F n z g p 6 6 e a Z T ! ~ ` o.X.&.X.&.&.+.+.o.} Z a p p p i i i i i ",
"i i p p a a a a g k H ..;.6.6.4.:.:.*.+.] T T K H F Z c a e m D F Y W ] ] | / / [  .+.4.k.T.].].].].R.T.A.A.T.T.T.W.].].].].].].].].].].].oXoXoXOXoXoXoXoXoXoXoXwXeXuXdXuXwX3X,X2X>X].W.V.V.R.].k.V.[.M.i.6.:.6.5.6.y.p.i.p.6.;.6.i.[.fXgXfXaXaXfXfXdXdXdXaXtXtXeXeXeXeXeXeXeXeXeXtXeXeXeXdXdXtXOX}.W.T.C.p.>.:.B.`.5XdXgXtX1X{.M.p.p.p.m.V.U.T.C..XwXeX@XXX].XX]. X.XOX+X.XwXdX,X.XoX3X,XW.W.T.m.C.T.T.R.].}.}.oX XoXoXoXoXoXoXXXXXXXXXOXXXOXOXOXOXOXOXOXOXOX.XOXXXXXXXOX#X#X@X@X@X@X@X@XOX@XrXlXdX3X@X3X3X3X3X3X3X3X3XOXOX3X}.E.].OXwXOX@X3X3XrXwXwXwXOX3XwX3XOX@X@XOX3X3XOX+XOXOXOXOXOXOXOXOX@X@XrX@XOX@X3X3XrXwXwXwX3XOXOXOXOXOXOX+X X].].).R.T.E.E.R.U.V.V.m.W.oX.XoXoX X.X,XoX.X X.X.X.X.XoX3XwXwX3X,XOXeX3XR.C.T.m.:.0.W.[.{.{.4XtX4X{.W.p.p.N.C.Z.`.[.}.@XuXdXdXdXdXdXdXaXaXaXaXdXaXtXtXtXtXuXuXiXtXfXSXHXHXfXtXtXwXoXR.m.6.6.k.k.y.:.-.:.6.0.0.w.n.'.5X:X!.'..XQ.V.>X>X>X;X;X[.'.'.'.'.[.[.[.;X>X>X>X>X>X:X:X:X[.:X.X[.].W.Z.C.V.V.V.V.N.m.m.m.m.V.V.V.V.V.V.M.p.=. .] / ~ ~ ~ E Y H S S b k a e e a Z H Y E Q } o.X...+.+.+.+.o.} S a p p p i i i i i ",
"i i p p a p a a g k H o.-.5.5.4.:.;.*.+.! K Y Y Y G F b p u Z ~ I Y W ~ } X.} ] ] [ #.@.k.C.).].].].].R.T.T.T.T.T.T.W.].].].].].].].].].]..XoXoXOXOXoXoXoXoXOXOX,XwXwXwX,X,X,X>X>X>XW.C.C.T.R.N.W.oXZ.w.;.&.;.0.6.y.p.k.y.0.>.6.p.oXdXfXtXfXfXfXfXdXdXdXdXaXtXtXeXeXeXeXeXeXeXeXeXtXtXeXeXdXeX1X}.].W.T.V.y.:.:.W.1XaXfXaX5X{.N.>.p.w.a.C.C.C.T.C.,XdXdXrX3XOXOXOXOXOXOX3X3XeXtX3X,X3X5X.XQ.[.T.k.C.T.T.OX3X3X3X3X3X4X5X4X4X4X4X3X3X3X3X@XoXoX3XwXeXeXwXwX3X3X3X3X3X3X3X3X3XrX3XwXrXeXuXuXuXuXwXaXaX3X3XeXeXwX5XwXwXwXrXwXOX}.].R.].oXwXwXrXwXwXwXwXwXwX3XwXeXwX3XwXwX3XrXdXeXwXuXuXuXeXeXuXdXuXzXlXdXuXwXrXeXrXuXeXeXdXdXuXeXeXrXuXeXrX3XoX}.].R.R.R.].].U.m.m.m.W.oX.X.X,X3XwXeXwXwX3XOX,X3X3X3XwXwX3X3XwX,X3XT.R.T.A.V.p.0.n.{.{.{.>XtX5X4X{.V.p.a.N.A.`.[.R. XrXuXeXdXdXdXdXdXaXaXaXdXaXtXtXtXtXtXuXiXtXfXFXDXnXgXfX5XdXeXOXoXk.5.>.k.a.y.>.>.:.:.6.>.p.V.[.[.S.D.U.k.y.}.{.{.[.;X[.'.'.'.'.'.'.'.[.;X>X>X>X[.[.'.'.'.>X>X].W.T.C.V.V.V.V.V.B.N.M.M.m.V.V.V.V.V.V.M.,. .~ ~ ~ ~ ~ ~ ! E K F G G Z Z b t a Z H G K Q } ..X...+.+.+.+.o.} S a p p p i i i i i ",
"i i i p p p a g h p Z ] +.;.4.:.;.;.+.] E Y E ~ ~ ~ ~ ~ E n ~ ] H T ! ] ] } } }  . . .} :.N.R.R. X].Q.T.T.T.T.T.T.T.Z.T.W.Q.].].].].].'.W.W.].oXoXoXoXoXoXoXoXOXoXoX,X,X.X.XoXoX>X`.p.p.m.T.C.p.n.y.>.:.-.;.>.y.i.i.i.>.0.p.k.V.>XgXfXtXfXfXfXfXfXfXfXfXdXtXeXeXdXdXaXtXeXeXeXeXtXtXtXeXeX5X3XoX].R.T.C.n.:.-.n.;X5XaXfXgX>XW.a.0.0.p.m.C.Z.C.T.T.].1XwXOXOXOXOX3X3X3XOXoXoX>X>X3X>X>X>X!.W.'.3XC.T.T.R.3X4X5X4X5XtXeXtXtXtXtXtXtXfXtX4X>X[.[.>XeXeXeXeXeX4X3X>X1X1X4X5X4X4X4X1XeXeXeXwX4X4X3X1X1X>X1X3XdXaXeX5X5X5X5X5XoX`.T.T.V.T.}.3X,X3X3X3X3X3X3X3XeXeXeX5X4X3X5X5XtXtXtXaXtXtXeX5XtXtXtXtXeXtXtX5XtXtXtX5XeXeXeXeXeX5X5X4X4X4X4X4X,X>XoX}.Q.Q.Q.].].T.k.V.`.Z.`.oX].,XeXwXwX,X].].oXoX.XoXoXoXoXoXOXoX.X.Xk.k.N.N.y.k.n.p.C.[.[.!.tXfXtX>XW.a.y.p.C.W.`.]. X+XuXuXuXdXdXdXiXiXiXiXfXfXdXtXtXiXiXtXtXfXnXDXGXmXmXnXnX7XtXdX X Xk.:.y.y.i.>.>.>.0.w.0.;.&.*.0.C.T.W.i.6.N.[.[.[.[.[.'.'.'.'.'.'.'.'.[.[.>X>X:XW.W.[.[.'.].W.W.Z.V.V.N.N.B.M.N.M.N.M.N.N.N.N.C.C.m.6. .` ] ] ] ] ] ] ! E Y Y Y H S G F Z n Z H K Y Y ] [ .. .} o...o.o.~ n a p p i i i i i i ",
"i i i p p p a g g g S ~ o.+.-.-.-.*.+.] E E ! ~ ] ] ] ] } E Y E Y E ~ ] ~ / ] } }  .} } ..y.A.}. X XQ.T.A.A.A.A.Z.Z.Z.T.T.T.W.Q.].].].'.].`.`.[.oXoXoXoXoXoXoXoXoXoX>X>X.X.X.X[.oXV.&.X.k.`.C.$.X.X.&.;.&.>.y.i.s.i.>.&.:.V.W.5XkXtXtXfXfXfXfXfXfXfXfXfXtXeXeXtXdXdXaXtXeXeXeXeXtXtXtXtXeX3XoX].Q.T.C.m.0.:.u.W.2XtXsXfXtXW.N.V.a.0.p.m.m.n.m.m.V.V.V.C.T.T.T.T.`.].`.W.C.C.Z.Z.`.`.[.[.W.!.>XeXT.T.T.T.W.W.W.W.W.[.'.'.`.`.`.!.!.!.W.C.Z.V.V.Z.Z.Z.Z.Z.W.W.S.Z.S.W.!.`.'.'.`.!.].].].!.W.W.W.W.T.W.!.`.[.[.`.!.!.!.`.`.W.V.N.N.N.C.T.].T.T.Q.Q.T.T.T.T.`._.`.`.S.!.!.'.!.!.!.'.'.!.!.W.!.!.!.!.`.`.`.`.'.'.'.!.[.'.'.'.'.'.'.'.].'.'.].].].W.T.U.C.C.C.C.n.p.T.[.`.`.`.].[..XQ.Q.W.T.T.[.oX.X.X X.X[.[.].].Q.W.V.V.V.m.a.a.p.w.n.n.W.{.3XtXtX5X[.C.p.y.n.A.T.`.].).@XuXeXdXdXdXiXiXiXiXfXfXaXdXtXtXiXiXfXbXSXGXVXVXVXmXVXnXtXtXwX].R.i.&.&.6.>.>.0.w.0.p.&.W Y =.n.V.V.6.4.0.V.[.[.'.'.'.'.'.'.'.`.'.'.[.'.'.`.!.!.].[.!.W.T.T.Z.V.V.V.n.M.M.B.M.M.N.M.N.N.N.N.V.M.0...` ` ] ] ] ] ] ] W E E Y E Y F H Y H T ! E T Y Y W ]  . .o.o...o.o.] Z a p p p i i i i i ",
"i i i p p p a g g h S ~ o.+.-.-.&...` E ! ~ ] ] ] ] ] ] } ` G E Y Y E W W ~ ] } } } } } ` &.p.W.[.].R.Z.A.C.C.C.C.C.A.C.T.T.W.W.].].].].[.].`.W..X.X[.[.[.[.[.[..X.XoX.X[.[.[.[.[.V.-.,.N.!.B.-...X.&.-.-.>.i.s.i.>.;.&.0.W.tXgXfXaXgXfXfXfXfXfXfXfXsXsXtXtXfXgXfXaXtXtXeXeXtXtXtXtXtXeXeX#X].R.R.T.C.y.>.0.B.2XtXsXhXaX{.S.n.n.p.0.0.q.0.6.:.:.w.y.p.k.m.m.m.m.m.m.m.k.m.C.W.].].[.[.S.T.'.[.].T.C.N.N.N.N.N.V.V.Z.Z.Z.Z.Z.Z.Z.W.Z.Z.V.B.M.M.B.V.V.V.V.C.Z.Z.Z.Z.W.W.W.Z.T.Z.Z.Z.Z.C.C.U.U.W.U.!.W.U.Z.U.Z.C.C.C.C.C.C.C.N.n.k.n.N.C.W.].].[.[.`.`.`.`.].`.].].!.!.S.Z.B.B.B.B.C.B.N.n.C.C.C.C.C.Z.C.Z.Z.Z.Z.C.W.Z.Z.Z.W.W.W.W.!.`.`.`.`.`.`.W.!.W.Z.Z.W.V.p.n.W.S.C.Z.].[.U.C.M.M.M.M.Z.C.C.C.T.T.T.T.C.C.V.V.p.p.p.w.>.>.>.w.p.u.M.>X[.5XaXtX>X`.n.y.i.N.T.R.].R.}.wXeXdXdXdXiXiXiXiXtXsXfXsXhXtXtXfXlXSXHXGXVXGXVXVXVXCXnXtXwXeX].U.:.&.6.y.>.y.p.w.w.=.] ` &.p.k.k.s.i.6.m.].].'.'.'.'.'.'.'.].].[.[.].`.`.].'.'.!.W.T.C.V.B.N.M.n.n.n.M.N.M.N.N.N.N.N.N.N.m.0...` ! ` ] ] ] ] ] ! Y Y Y Y E T H Y T E W ~ ! W E T W ] ] ] ..} } } } ~ Z g p p p i i i i i ",
"i i i i s p a g p h F ! ~ } o. .! E E ! ~ ] } ] } } } } X.} K K H H H Y Y W / ] } } } } ] / +.p.].`.W.Z.C.C.C.C.C.C.C.C.U.T.T.W.`.].].].[.'.].W.[.[.[.[.[.[.[.[.[..X.X.X[.[.[.[.'.W.n.Z.!.C.N.C.p.y.:.X.:.>.y.i.>.o.6.>.w.3XfXfXaXgXfXgXfXfXfXfXfXfXsXsXsXsXnXHXsXtXtXtXtXtXtXtXtXtXeXeX5XoX`.T.T.C.m.:.0.M.`.3XaXfXfX4XW.Z.v.p.a.n.p.6.w.6.:.;.w.y.p.p.p.p.p.p.0.y.0.6.y.i.a.k.A.[.[.D.C.M.m.V.C.N.k.i.y.6.0.y.p.b.a.b.v.v.a.a.n.n.n.n.a.a.b.a.a.a.a.a.n.n.n.k.n.n.n.n.p.a.p.p.p.p.p.p.p.p.j.j.j.p.p.p.q.y.y.y.p.i.i.y.y.p.p.y.u.i.y.p.i.p.p.a.a.a.a.p.p.p.p.p.a.a.a.a.p.u.w.w.u.i.p.s.a.a.a.a.p.a.a.p.a.a.a.p.p.p.p.p.y.p.p.p.a.a.a.a.p.p.p.p.a.p.p.p.u.0.1.n.S.Z.v.a.T.].U.Z.p.p.p.p.p.n.m.V.n.n.n.n.n.k.a.p.p.p.n.a.p.0.0.y.0.u.n.W.[.>XtXfX4X>XZ.i.0.k.V.T.T.].R.oXeXdXdXdXiXiXiXiXtXtXsXfXHXsX7XtXgXSXnXnXGXGXZXJXVXVXGXSXtXiXeXQ.j.+.;.6.:.y.p.0.>.+...X.6.q.0.j.N.T.V.A.`.!.!.!.'.'.'.'.[.].].].`.`.`.`.].'.].W.W.T.C.V.N.N.n.n.n.n.M.N.N.N.N.N.N.N.N.N.p.o.! ` ` ` ] ] ] ] ` Y Z A F F Y Y H Y T W W W W W ! ` ~ ] ~ E ] ~ ~ ! T Y b a p p p i i i i i ",
"i i i i p p p p p c G N S H Z b H ! ] ] ` ] } } } o.o.&.;.&.H Y H H G S F H Y ! } ] / } } / ~ o.y.Z.T.Z.Z.C.C.C.C.C.C.C.Q.C.C.W.W.W.].].}.[.[.'.[.<X;X;X{.{.{.[.[.'.].].'.'.'.'.`.W.W.[.W.M.a.n.n.n.>.&.>.-.:.t.+.] :.n.5XtXhXfXhXhXfXsXfXfXfXfXgXfXsXtXhXnXmXGXnXsXtXtXtXtXuXuXeXeXeXwX3X].T.A.Z.n.0.>.p.!.>X3XtXdXtXC.N.n.p.a.p.a.M.p.n.p.w.w.a.M.V.m.M.m.n.k.M.M.V.V.V.p.6.y.V.[.Q.n.M.0.0.V.C.V.C.C.U.T.T.T.W.].!.].!.!.!.!.T.Z.C.V.C.C.C.C.C.T.R.T.T.T.T.U.C.C.C.C.C.T.T.T.T.T.T.E.U.U.E.U.C.C.T.C.I.C.Y.Y.U.U.C.C.V.p.i.p.u.y.y.6.y.m.m.m.N.N.N.N.N.V.C.C.V.N.M.m.n.m.V.V.C.A.T.A.A.C.A.A.C.T.T.T.T.T.T.T.C.C.C.C.N.N.V.N.m.m.m.m.k.k.k.k.k.k.a.a.a.a.n.Z.!.B.w.<.T.!.U.!.b.w.p.n.p.V.U.C.T.Z.C.V.C.V.V.m.a.n.N.n.M.p.0.0.w.p.n.n.!.[.3XfXtX1X[.N.y.a.V.V.C.T.R.`.OXrXeXdXdXdXiXiXtXtXfXnXHXGXhXtXtXhXSXDXJXJXZXZXZXVXGXGXnXsXtX3X[.y.O.4.*.&.:.>.,...X.>.6.:.0.k.W.T.T.R.].].!.!.'.'.'.'.`.[.[.].W.[.3X[.W.].W.Z.T.Z.C.V.M.V.a.p.n.n.N.N.N.N.N.N.N.V.k.6...! ! ` ` ` ` ` ] ! K Z Z Z F K Y Y E W ! ! ! ~ ` ` _ _ ] ] ~ ! F H H D g 0 b z g p p p i i i i ",
"i i i i i i i i g c i q M b b H ! } ..} ] ] }  .o.X.-.:.:.+.E ] ] Y F S Z S F H ~ ] } } } ] ~ ~ ] :.V.Z.Z.C.C.C.C.C.C.C.T.V.V.C.T.W.W.W.[.}.}.}.[.7XyX>X'.{.;X{.[.[.'.`.'.'.].].W.C.V.C.w.0.0.a.n.0.>.p.-.-.6.;.o.-.a.7XgXgXhXfXhXhXfXsXfXfXfXfXfXfXyXsXmXmXGXJXGXnXsXtXiXuXuXuXeXeXeX4X}.T.T.Z.k.0.-.>.m.>X>X5XtXtX1XN.n.p.p.a.a.w.6.m.!.V.p.p.m.C.Z.C.C.V.V.m.n.V.C.Z.V.i.p.k.W.[.!.M.M.p.p.V.V.V.V.V.T.T.T.W.].[.[.[.[.[.[.[.].].].Q.Q.].].Q.]. X.X X}.].].].R.R.R.R.T.W.Q.].].Q.Q.R.E.T.R.T.T.T.T.T.T.T.T.T.R.R.R.W.T.m.p.a.s.i.a.p.m.U.C.C.C.C.U.U.I.T.E.T.C.C.Z.T.T.T.[.1XwXoX].R.T.Y.T.T.T.R.].R.Q.Q.Q.W.R.R.R.R.T.T.R.T.T.T.T.T.C.C.C.C.C.V.V.V.M.V.V.W.!.n.0.p.[.[.W..XB.p.w.p.W.].[.].].].W.W.W.T.C.V.k.n.N.M.n.p.0.0.p.v.n.p.V.>X>XtXaX5X{.Z.y.y.p.p.N.C.T.W.).OXeXdXdXdXiXiXiXtXhXHXHXHXHXnXsXsXgXSXGXGXZXZXZXZXZXGXmXnXsXtX4X'.q.*.M.;.;.6.=.%.=.0.w.>.0.m.T.A.T.W.].].'.'.'.'.'.'.[.[.].W.C.[.eX].W.W.W.U.T.C.C.V.n.a.u.a.n.n.N.N.N.N.N.N.N.s.:. .` ! ` ` ` ` ` ` _ Y A Z Z V F ! ] ! ~ } ..] ] ] ] ] ] ] ] ] ] ] I Z b b z t p z k a p p i i i i ",
"i i i i i i i i g p 7 x Z I R ] } X.X.o.}  .o.o.&.;.>.>.>.-.}  .} E F S Z Z Z Z Y ` } } } ] ] ] W ] w.C.U.Z.C.C.C.C.C.C.C.V.V.V.C.Z.T.W.].[.[.}.{.tX5XB.N.Z.`.W.`.`.`.W.W.!.!.!.W.N.p.>.0.0.p.k.0.:.y.0.&.0.y. .>.!.5XsXnXbXfXhXbXbXfXsXhXfXfXfXfXfXsXnXGXVXZXJXVXDXnXyXiXiXuXuXeXeXwXoXT.C.Z.V.y.:.-.p.W.1X5XtXtXeX!.M.a.p.p.n.n.0.6.V.k.p.p.n.n.V.V.V.V.V.M.m.n.V.T.C.i.0.k.M..X[.W.m.Z.M.n.N.i.j.k.k.m.m.N.N.C.E.T.T.T.T.T.T.T.E.E.T.U.E.E.U.R.R.R.E.E.E.E.E.T.C.C.V.c.V.V.C.I.C.C.V.C.I.I.I.C.C.C.C.V.V.V.V.V.V.V.V.V.V.a.V.p.p.m.m.m.U.V.C.C.C.I.V.V.V.C.I.V.C.C.C.T.T.}.3X3XT.V.C.V.c.V.V.V.C.Y.C.C.C.C.C.C.I.I.I.I.I.I.I.C.C.C.C.V.V.m.m.k.k.k.k.y.0.6.a.W.C.n.M.[.[.W.>XW.n.w.q.T.[.[.].W.W.T.T.C.V.m.k.a.k.V.m.p.4.*.*.p.n.n.p.n.'.{.1XfXtX1X[.N.y.0.y.a.V.T.R.T.].3XdXdXuXiXiXfXfXgXHXHXGXGXGXcXsXfXSXmXmXZXZXZXZXZXZXmXmXnXsXsXtX>XU.,Xp.0.M.w.w.j.C.Z.k.i.p.N.N.V.T.!.!.!.!.!.!.!.!.!.W.T.V.m.T.oX'.W.T.Z.Z.Z.V.V.M.p.y.p.n.n.N.N.N.N.N.N.N.s.:.} ~ ] ] ` ` ` ` ` Q Y F Z Z F F Y ! ~ ! ] X.X.} ] ] ] ] ] ] [ [ [ ] ] Y Z b c p 6 i a p i i i i i i ",
"i i i i i i i i 2 > 6 x N R / ..o.&.&.&.X.&.&.-.:.:.>.6.>.:.o.~ ~ ! Y Z F Z Z Z G E ` ] } } } } ] ] O.p.U.U.C.C.C.C.C.C.C.C.C.V.C.C.C.C.T.W.].[.'.'.B.p.a.B.N.s.N.C.C.C.W.W.W.W.W.Z.M.a.n.a.p.p.0.>.k.y.p.p.+.-.N.3XsXyXnXnXnXnXbXbXfXsXhXfXhXfXtXsXnXJXJXVXZXvXmXDXmXbXiXiXiXuXeXeX4X].T.V.C.k.>.:.<.W.>X>XtX4XdX[.M.N.a.a.n.N.n.p.n.m.m.T.W.T.V.Z.W.Z.Z.Z.C.V.V.T.T.V.0.p.m.W..XQ.T.V.C.n.B.`.m.V.U.T.U.E.T.T.T.R.R.R.T.T.T.T.R.R.R.R.E.R.R.E.R.R.R.E.E.E.R.R.R.R.E.I.V.I.T.T.E.U.U.U.E.T.R.T.T.T.T.T.C.C.C.C.C.C.C.C.V.V.i.V.i.i.m.V.I.U.V.U.T.T.E.E.V.V.C.I.R.T.T.T.T.R.}.oX].A.Y.c.c.c.c.c.N.C.C.C.V.V.V.V.C.I.I.I.I.I.I.C.C.I.C.I.C.C.V.V.V.V.m.m.k.j.i.k.!.'.Z.V.U.U.C.>X[.Z.n.q.n.W..X[.W.T.T.U.T.T.Q.Q.T.T.].W.n.w.>.>.w.a.n.n.M.B.[.>XtXaX4X{.`.k.y.0.p.n.V.T.T.R.OXuXdXdXiXiXfXfXnXHXGXGXVXVXCXnXfXfXnXMXZXZXZXZXZXZXmXvXmXcXmXnX7X3Xn.,.q.T.n.m.T.!.'.W.V.i.k.k.N.T.W.W.!.!.!.!.!.W.T.T.C.V.m.m.V.T.].T.V.V.V.B.M.M.w.y.n.n.m.N.n.N.N.N.N.N.6.o.` `  . .] ` ` ` Q Y F Z Z Z F Y E Y G E ] X.X.} ] ] ] ]  . .[ [ ......] Y Z l r 3 3 6 0 e r i i i i ",
"i q 0 9 q r e 9 ; 3 e g m S Y ~ } X.X.&.-.>.6.6.y.0.6.>.;.+.o.] Q ~ E Z Z Z Z Z Z H Q ] o. .} } ] ] ] ..k.C.C.C.C.C.C.C.C.C.C.C.V.T.T.Z.C.W.`.W.M.p.p.N.C.A.N.p.p.p.0.;.W.`.W.V.V.C.m.k.m.V.k.p.0.0.a.C.].C.C.i.+.a.tXSXnXnXnXnXnXnXbXbXhXhXhXhXsXnXGXGXJXZXNXNXVXGXDXDXDXyX7X5XeXwXoXT.C.C.V.s.>.p.Z.[.3XtXtXtX1XS.N.N.n.M.N.n.p.M.W.W.tXhXgXgXyXyXyXsXtXtXtXtXtX[.Z.n.p.V.W.[.oXW.C.C.M.p.W.tX5XwXeXeXtXtXeXeXeXeXeXeXeXeXeXwXwXwXwXrXwXrXrXrXeXrXwXwXwXwXrXrXeXeXeXeXwXwXwXwXwXwXeXeXeXeXeXeXwXwXeXeX4X4X4X3XwXwXwXwXOX.Xz.I.z.z..X,X3X@X3X3X3X3X3X3X3X3X3X3X3X3XwXwX3X3X3X3XwXwX3X3XOXOX3X3X3XwXwX3X3X3X3X3X3X3X3X3X3X3X3X3XeXwXwXwXwXwXwXwXeXtXaXtXtXtXtX5X3X>X[.'.Z.M.C.[.>X].Z.m.j.C.3XeXwXeXeXtXtXtXdXdXdXfXgXSXtX>XW.p.0.q.n.V.M.M.W.>X>XtXaX1X{.T.a.0.p.a.m.C.T.T.).3XtXtXtXtXsXnXmXmXVXVXVXVXVXVXnXbXxXmXNXvXZXZXZXZXZXZXvXmXmXHXaX5...O.q.T.M.y.w.a.W.W.C.n.p.y.y.n.M.M.v.y.p.C.W.W.W.W.W.Z.N.n.a.a.Z.Z.T.V.V.C.V.w.p.a.n.N.N.N.N.N.N.k.s.;.+.] ` ] ` ] ] ` ~ ! Y G Z Z Z F G K G G K ` o.+..... .} o.o.....X.X.o.o.] ~ Y M k p 7 7 5 e p > 9 q i q ",
"6 1 - ; 6 i p e q r p h k c M I ~ } o.&.6.k.N.k.s.y.6.>.-.&.&...~ E H F Z Z Z Z Z S H E ] } } } } ] ] ] +.a.V.C.C.C.C.C.C.C.C.C.C.T.`.`.C.C.Z.C.N.N.N.N.C.Z.A.V.C.C.N.p.0.T.C.p.6.C.T.C.M.V.M.p.:.0.m.'.[.[.V.6.&.0.[.nXnXbXnXnXnXnXnXbXfXhXhXsXnXVXGXGXZXZXNXmXVXVXmXDXGXbXtXtXaXOXR.T.V.V.n.y.p.n.W.>X5XtX5XeX[.C.N.n.n.n.m.a.w.U.[.>XnXFXHXHXFXFXFXSXSXSXSXSXSX;XW.N.n.Z.[.oX}.T.V.V.n.S.;XsXfXgXkXkXkXSXSXSXSXgXgXgXgXgXgXgXgXgXgXgXfXlXlXlXkXkXdXdXdXfXlXlXlXlXdXdXdXdXdXfXfXfXfXfXfXdXdXdXdXdXdXdXdXdXdXdXdXdXdXdXuXeX X.XOX,XuXuXlXdXdXdXdXdXdXdXdXdXdXdXdXdXdXdXdXdXdXdXkXlXlXlXdXdXdXdXlXlXlXdXkXgXgXgXgXgXkXgXkXkXkXkXSXSXSXSXSXSXkXkXSXFXHXSXHXFXSXfXfXtX4X>XW.M.V.!.>X[.!.C.n.C.[.fXfXfXkXgXfXkXkXkXgXnXHXHXHX5X,XC.p.q.a.C.m.M.C.'.3X>XtX5X1X[.Z.a.w.0.p.m.C.T.R.oXeXtXtXsXnXVXVXmXmXVXVXZXZXVXDXnXyXbXmXZXNXZXZXZXZXZXZXmXDXfXV.t.*.;.n..XW.n.w.w.Z.W.T.V.a.y.y.a.N.N.n.a.m.T.!.W.W.`.W.W.T.Z.C.V.a.m.W.C.C.V.m.p.a.n.N.N.N.N.N.N.N.k.>.o.] ] ] ] ~ ] ] ~ W Y F Z Z Z F K K G G K ! o.&.;.+.+.+.+.&.&.&.&.&.X.X...! H b k a p t t i k a > & , 9 q ",
"< & @ $ 5 i g i g g h h h a k b H ~ ..&.y.N.T.C.p.y.>.;.&.;.;.;.&.] K G F F Z A Z Z Z F E ~ ] } } } ] ] / X.a.Z.C.C.C.C.C.C.C.C.C.T.`.[.n.a.W.W.W.`.`.W.W.W.W.`.`.`.W.A.0.y.k.6.y.C.C.V.V.V.M.p.6.p.C.].T.k.:.q.a.C.`.tXhXnXcXnXSXSXnXbXbXbXhXbXGXZXGXGXZXZXmXmXVXVXmXDXDXnXnXgXeX].C.C.V.N.p.>.n.C.{.tXtXtX5X>XZ.M.M.n.n.n.v.u.a.'.>XyXHXHXSXSXSXSXSXSXSXSXSXSX7X;XW.p.C.W.oX>X[.Z.V.!.2X5X4X5XfXgXgXkXSXSXSXnXnXnXnXnXnXnXnXnXnXSXSXSXnXSXSXSXkXfXfXfXfXfXfXfXfXfXfXfXfXfXfXfXgXgXgXgXfXfXfXfXfXfXfXfXfXfXfXdXdXdXdXdXdXdXuXtXuXdXdXdXkXfXdXfXfXfXfXfXgXgXfXfXfXfXfXfXdXdXfXfXfXfXdXdXdXdXdXdXfXfXfXdXfXfXfXfXgXgXgXgXgXgXSXnXgXgXgXgXgXgXgXgXgXSXSXSXFXSXfXtXsXtX3X>X[.Z.B.S.>X1X[.W.C.C.T.fXgXlXSXSXfXgXgXSXgXnXmXGXKXtX>X>Xm.p.p.M.Z.m.M.Z.>X>X5XfX5X>X[.A.p.0.y.a.V.T.C.].wXiXsXnXGXJXJXLXDXDXZXZXZXZXZXDXfXsXMXNXNXNXZXAXZXZXJXGXKX[.s.4.y.n.C.C.'.T.a.6.k.V.U.T.m.a.a.a.B.C.C.n.T.W.].].].[.].`.[.[.].`.W.Z.`.W.B.n.p.a.n.N.N.N.N.N.N.N.m.0.+.] ` ] } ] ] ] ~ E Y F Z Z V F G K G G K _  .+.;.-.&.+.+.;.>.:.-.&.&.X...! Z b k a g a a a p k g 0 & % % , ",
"< 1 = $ q i p i i p g g g a p g n Y ] &.>.p.N.N.i.6.-.+.&.;.:.6.y.-.! G F F F A Z Z n n Z Y ~ ] ..} } ] ~ ] &.N.C.C.C.C.C.C.C.C.V.V.W.}.C.k.W.W.W.W.W.W.[.`.W.`.W.`.`.Z.C.y.;.6.m.C.m.m.V.k.a.w.k.C.T.V.V.y.w.V.W.'.'.{.7XhXnXnXnXSXnXnXbXbXfXDXGXZXGXVXZXZXmXmXVXVXmXDXmXnXHXHX[.T.A.V.V.a.y.s.M.[.5XfXsXtX1XW.V.n.n.M.n.n.p.w.Z.[.>XFXHXnXhXhXhXhXgXgXSXSXSXSX2X;XC.N.`.[.>XoX`.V.T.>X2X<X5XsXsXfXfXgXgXgXhXnXhXbXbXbXnXnXnXnXnXnXnXnXbXSXbXgXhXfXaXdXdXdXfXfXfXfXfXfXkXkXkXgXgXgXgXfXfXfXfXfXfXfXfXfXfXfXfXfXfXfXfXfXfXfXiXdXdXdXdXfXfXdXdXdXsXsXsXsXfXfXfXfXfXfXfXfXfXdXdXdXgXfXfXfXlXfXfXfXfXfXfXdXgXhXhXfXfXfXfXfXgXgXgXgXbXbXbXbXbXbXgXgXgXSXSXSXSXSXsX7X5X5X3X2X5X'.C.S.{.1X>X'.W.U.W.eXfXfXfXgXgXgXnXnXnXnXVXJXGXGX<X>XC.M.a.a.Z.V.m.n.].3X1XfXaX4X>X].m.p.y.y.m.C.C.W.wXfXnXKXKXJXJXLXDXDXZXZXZXZXZXGXDXsXxXMXNXNXBXZXZXJXJXGXhXC.N.i.p.C.C.p.0.m.m.6.6.a.V.Z.T.m.p.p.V.Z.Z.C.].].].'.[.[.[.].`.W.W.T.`.`.'.W.a.y.0.n.N.N.N.N.N.N.N.N.y.&. .` ` ] ] ] ] ] ! H S Z Z n Z G K K G K _  .+.-.-.+.+. .o.;.>.:.-.&.X.o.] S c z k a a a k k k a i p 5 @ X % ",
"# & + ; r i i i g g g g p p p p a b Y | &.=.>.0.6.:.-.+.+.&.6.k.0.;.+.K K F G A n b b M M Z I ! ] | | } ] / } -.N.N.V.V.C.A.C.N.C.n.i.N.i.p.p.a.n.p.p.a.N.V.W.[.`.Z.N.k.V.i.6.k.T.m.n.V.V.M.0.q.C.C.q.a.n.m.U.!.W.U.Z.W.[.2XsXHXnXnXnXnXbXnXDXJXJXJXGXVXmXmXmXmXmXVXmXmXnXDXHX4XT.I.C.C.p.i.y.p.Z.1XfXaXaX{.{.Z.N.N.M.N.n.a.0.a.'.[.fXSXDXnXnXnXhXgXgXbXgXSXgX5X9X[.B.Z.T.{.>XoXT.C.oX5X<X2XsXnXsXhXhXhXbXhXhXnXnXnXSXbXnXnXgXSXgXgXgXgXhXhXgXfXfXfXfXfXfXfXfXfXfXfXfXfXfXfXfXfXfXfXfXfXfXfXfXfXfXfXfXfXfXfXfXfXfXfXfXfXfXfXfXfXfXfXfXfXfXfXfXfXhXhXhXhXhXhXhXhXhXhXhXhXfXfXfXfXdXdXdXdXdXdXdXfXfXfXfXfXfXhXhXhXhXhXhXhXhXhXhXhXhXhXhXhXhXhXhXhXsXnXDXDXSXnXbXaX5X9X7X;X7X5X!.D.`.;X1X>X:XZ.Z.2XtXhXSXhXhXhXhXhXxXnXVXJXmXJXsX[.:XT.p.M.n.C.V.V.V.[.>X>XgXtX4X{.W.k.0.y.p.V.C.U.Q.fXGXKXKXJXJXLXDXDXmXmXZXZXJXKXJXDXxXxXvXNXBXZXZXJXGXgX'.`.A.V.T.Z.C.V.,.:.a.n.u.w.p.n.Z.N.n.w.0.a.C.!.].!.W.W.Z.W.Z.n.k.k.p.i.a.p.u.p.0.0.v.N.N.N.N.N.n.N.N.k.;...} } ] ] ] ] ~ W H Z m x m Z G K K F H ` o.o.+.:.&.` E ~ ..;.-.=.&.&.o.] H b g g g g g g g k a a i i r < + * ",
"+ + # 9 i i i i g g h g p p p p a k M Y X.X.&.&.;.;.;.;... .;.m.y.;.;. .T W _ ! Z n A b b M Z U ! ] | | } ] ~ } -.N.V.V.C.V.V.C.C.>.} } } o.o.X.&.&.=.-.0.i.n.V.W.N.i.6.6.6.k.V.m.m.m.n.p.w.y.C.U.n.w.V.V.T.W.!.W.U.C.C.W.{.eXnXnXnXnXnXnXDXJXJXJXJXGXVXmXmXmXmXmXVXmXmXnXHXnX[.T.C.V.N.p.p.k.V.>XtXfXaX3X>X!.V.N.N.N.N.M.0.0.Z.!.2XHXHXnXnXcXnXhXgXgXgXgXbXsX7X9X!.M.!.!.{.>X[.T.W.>X3X:X<XsXsXhXhXhXnXnXhXhXhXhXhXgXgXhXhXnXnXgXnXnXnXnXnXhXhXfXfXfXfXfXfXfXfXfXfXfXfXfXfXfXfXfXfXfXfXfXfXfXfXfXfXfXfXfXfXfXfXfXfXfXfXfXfXfXfXfXfXfXfXfXfXfXfXhXhXhXhXhXhXhXhXhXhXhXhXfXfXfXfXdXdXdXdXdXfXfXfXfXfXfXfXfXhXhXfXhXnXnXnXnXnXnXnXnXnXnXnXnXnXnXnXnXnXnXnXnXnXnXbXsXaXqX;X;XsX<XD.S.[.2X2X<X!.C.Q.tXsXnXfXhXhXbXnXnXmXZXZXmXJXnX2X>XQ.M.n.b.V.C.V.m.W.[.>XaXaX5X1X[.C.a.y.p.m.C.T.Q.5XbXVXKXJXJXJXmXmXmXmXmXZXJXJXKXJXmXxXMXvXBXZXJXJXSXoX}.`.W.T.Z.Z.C.V.p.y.p.V.n.w.0.p.N.C.C.a.w.0.p.n.n.m.V.V.V.n.y.:.;.-.&.o.| | ] } $.w.<.:.p.k.n.k.a.n.a.0...} }  . . . .] E G Z m x z m S Y Y H F Y `  . .&.5.+.Y H ' +.;.&.&.X.X.} Y b a g g g g g g g k a a i i q 0 & . ",
"* & ) 0 i i i p h h h g g g p p h h k M W ] ....+.+.;.:.:.+.;.y.y.:.-.&. .` ` X.W n A b b b M A I ! ] } } } ] ~ ] y.N.C.N.V.C.V.>.} o.} X.&.;.:.=.-.=.&.;.>.>.0.k.p.0.0.y.y.s.y.k.C.Z.m.p.0.p.C.T.T.U.W.W.W.T.U.T.W.].].W.].oX6XnXnXnXnXDXJXJXJXJXZXmXmXmXVXmXmXmXVXmXmXSXHX4XC.T.C.N.p.s.k.A.[.5XfXfXtX>X{.V.M.B.N.N.N.a.0.a.`.'.nXHXHXnXcXcXcXhXgXgXgXnXyXtXtX3XS.C.'.[.>XoX`.W.[.3X>X{.2XsXsXhXbXnXnXnXnXnXsXsXcXnXnXnXnXnXnXnXnXmXmXDXmXnXbXfXfXhXhXfXhXfXfXfXfXhXfXgXhXgXgXfXfXfXfXfXfXfXfXfXfXfXfXfXfXfXfXfXfXfXfXfXfXfXfXgXgXfXfXfXhXfXfXfXfXfXfXfXfXfXfXfXfXfXfXfXfXfXfXfXfXfXfXfXfXfXfXfXfXfXfXfXfXfXsXxXmXJXGXmXmXVXmXVXmXGXGXVXVXmXmXVXmXnXnXnXmXnXnXnXsXqX2X'.qX7X'.Z.`.<X2X2X'.C.C.5XtXnXbXbXbXnXmXVXVXZXZXZXJXJXsX2X[.C.b.j.M.Z.C.M.V.`.{.1XfXaX5X>X`.V.p.p.n.C.W.W.[.7XnXGXJXJXJXZXVXVXVXmXmXGXJXJXJXDXnXxXvXNXNXJXGX>X].[.[.`.`.Z.Z.C.B.N.N.v.v.M.p.>.>.0.n.V.Z.n.>.:.0.y.p.k.m.p.>.&.o...&.-.&.X.X.| ..&.-.X.X.&.:.p.n.a.p.0.&.} }  . . . .} Q F n x z k z b S Y Y Y Y ! ` ` ] +.6.>...o.@.@.+.X.X.o.] Y b a a k k g k g g g g a a i i r q < # ",
"* - i i i i p g h h h p g p p g h h a h b Y { .. .+.;.6.0.6.6.y.6.;.;.-.+...] X.X.F Z Z b b B M Z H ! ] } } } ] ] o.y.c.N.N.i.+.~ -.:.&.&.;.>.0.p.p.0.,.:.:.:.;.-.>.y.p.k.p.>.6.k.W.].V.0.0.M.C.C.T.W.W.W.T.U.C.Q.[.[..XW.T.T.`.SXSXnXnXGXJXJXJXZXmXvXmXVXVXmXmXVXmXmXmXGXtXW.C.T.C.k.y.s.N.`.1X5XtXtX1X>XW.N.M.B.N.N.N.0.a.S.S.7XHXHXnXnXnXcXnXhXgXgXgXSXtX5XtX<XS.!.'.{.>XoXT.W.>X4XoX>X7XnXnXbXnXnXnXmXDXnXsXxXnXVXVXVXVXVXVXVXVXmXmXGXGXmXnXfXfXhXsXhXhXfXfXhXfXfXfXgXgXgXgXfXfXfXfXfXfXfXfXfXfXfXfXfXfXfXhXfXhXhXfXfXfXfXhXgXgXgXfXfXfXfXfXfXfXfXfXfXfXfXfXfXfXfXfXfXfXfXfXhXhXhXfXfXfXfXhXfXfXfXfXfXfXsXsXsXmXJXZXZXZXZXZXJXJXJXJXJXJXJXJXKXVXcXcXnXmXnXnXGXcXsX9X'.9XsX;XZ.S.{.2X;X'.W.C.<X9XhXnXbXnXDXGXJXZXZXZXZXJXJXDX9X:X'.n.j.n.C.Z.V.n.C.[.[.tXfXaX4X}.T.V.p.k.V.U.!.W.>XfXmXmXJXZXZXZXVXVXmXmXmXJXJXJXJXmXxXMXvXvXnX<X[.].].].`.W.Z.Z.C.B.B.B.B.n.n.n.p.>.>.y.0.a.N.p.:.>.>.6.0.y.6.-.X.X.>.0.y.0.y.<.>.<.<.:.-.| ~ o.:.p.p.0.-.} }  . . . .} ! Y b x k k k x b Z K E ` ` ` ` ` ` o.-.>.:.;.;.+.....o.} E b k a a k k k k g a a a a a i i i 0 8 > ",
"# $ < q j p h h p p p g g g p p p p a p p b E ....o.X.-.:.>.>.>.6.;.;.&.&.+... ...H b b b b c b b Z H W | | | ] } } +.0.y.X.~ !  .;.0.>.:.;.,.>.w.p.p.w.w.=.X.&.y.6.6.0.C.k.0.i.k.C.V.p.>.M.V.C.T.W.W.`.W.W.W.W.].[.}.{.[.].W.W.,XlXHXGXZXZXZXZXNXmXmXVXVXVXVXVXVXmXmXKXFX>XC.T.T.m.i.y.a.C.{.5XaXfX4X>X{.C.m.V.V.V.m.p.<.C.C.[.DXGXDXSXnXnXnXbXbXbXhXhXsX9XtX9X!.!.[.[.{.3X[.W.'.4X3X>X<XsXcXcXcXnXMXmXmXmXmXxXcXmXvXVXZXZXZXZXNXNXZXNXJXGXGXbXfXfXfXfXhXhXhXfXfXfXfXfXfXfXgXgXfXfXgXgXgXgXlXgXfXfXfXfXfXfXfXfXfXfXfXfXfXfXgXgXgXgXhXhXhXfXfXfXfXfXfXfXfXfXfXfXfXfXfXfXgXfXfXfXfXfXfXfXfXfXhXhXfXfXfXfXhXsXhXfXxXmXNXZXZXZXZXZXZXZXZXZXJXJXJXJXJXVXcXnXVXmXVXmXmXcXxXsX:X:XsX9XS.Z.`.1X1X{.`.B.'.5XyXnXnXnXmXJXZXZXNXNXZXAXJXJXnX<X:XD.j.b.V.Z.C.M.M.!.oX>XtXfXeX4X[.T.k.p.m.U.W.'.!.2XnXmXZXZXZXZXVXVXVXmXmXmXZXAXAXZXMXcXmXVX;X`.'.}.[.[.`.`.W.Z.C.V.V.V.B.B.n.p.y.0.w.0.-.p.C.V.p.y.6.&.&.;.;.&.;.0.k.p.i.y.y.y.<.<.<.:.&...] / X.w.>.&.} } } ] ] ] } W H Z c c c c c b b Z D I ~ ..} }  .o.X.+.-.-.;.+.o.o.o.o.! Z a a a a g g g a g g g h g a i i 0 5 - + ",
"$ # # < j g h p p p p p g g p p p p p p p g M W X.X.X.+.-.:.>.>.6.:.;.&.&.&.o.o.} Y Z m b b b c b b Z U E | ..]  . .o.;.o.` ~ } o.:.0.0.y.0.0.0.0.y.u.w.p.w.:.+.6.>.0.y.k.k.i.y.6.k.p.&.w.m.N.C.T.W.W.`.W.W.W.W.].[.}.}.oXoX[.].}.3XSXGXZXZXZXZXNXNXZXVXVXVXVXVXVXmXDXGX5XQ.U.U.V.k.i.y.m.W.>X5XtX5X>X>X!.N.m.V.V.V.n.p.n.Z.S.9XGXDXSXnXnXnXbXbXbXbXhXhXtX5XtX[.W.!.[.{.{.>X[.W..X4X2X;X5XsXcXcXnXnXmXvXvXmXmXcXMXvXZXZXZXZXNXNXNXNXNXNXJXJXGXbXiXfXfXfXfXfXfXfXfXfXfXfXfXfXfXfXfXfXfXfXfXfXfXfXfXfXfXfXfXgXfXfXgXgXgXfXfXfXfXgXgXgXhXhXhXfXfXfXfXfXfXfXfXfXfXfXfXfXfXgXfXfXfXfXfXfXfXfXfXfXhXhXfXfXfXfXhXhXhXfXbXmXLXZXZXZXZXZXZXZXNXNXJXJXJXJXJXVXnXnXVXmXVXvXvXMXxXxX2X;X7X9X'.D.S.;X1X{.[.C.W.>X7XbXnXnXmXZXZXNXNXNXZXZXAXJXDX8X:X!.M.j.M.Z.C.B.M.Z.'.oX4XtXdXtX>XW.j.p.p.m.U.'.!.S.yXMXvXNXZXZXVXVXGXVXmXmXNXZXAXJXJXmXGX4X`.`.'.[.[.[.`.`.W.Z.C.V.V.V.B.B.V.n.p.w.w.6.&.0.C.m.k.y.:.&.+.&.;.:.0.p.0.0.0.0.>.y.u.<.-.&.$.X.| ] | :.$...} } ] } ..} ~ G n b c c c c c b M Z D Y / ..} ..o.o.+.+.-.-.-.X.o.} ] E Z z a a a a g g g a g g g g h h g i r , # * ",
"& % + # 5 i g i p p p p g g p p p p p p a a k M ~ ..X.o.X.&.>.>.6.:.;.&.;.&.+...] ! H n b b b b b b M D D ! o.o.o.o.X.&.] ~ ` o.X.-.>.0.y.i.p.i.y.p.p.y.w.6.6.6.6.:.>.y.p.p.i.t.>...] =.p.a.i.n.T.W.W.`.W.W.W.W.].[.}.}.oXoX[.].}.3XSXGXGXZXZXNXmXNXJXVXVXVXVXVXmXnXGXfXQ.C.T.C.k.p.i.p.V.[.4X5X5X5X{.W.Z.n.M.V.C.V.a.a.C.S.:XnXDXSXnXnXnXbXbXbXbXbXhXhX7XtX5XS.Z.`.{.>X>X[.[.[.,XwX>X<XaXnXnXmXnXmXmXvXvXZXmXnXMXmXZXZXZXZXNXNXNXNXNXNXJXJXGXbXfXhXfXfXhXhXhXhXhXhXgXgXgXgXhXhXfXfXfXfXfXfXfXfXgXhXhXhXgXgXgXgXhXhXhXhXfXfXfXhXfXfXfXfXfXfXhXhXhXhXfXfXgXgXgXgXhXhXhXhXgXgXfXfXhXhXhXhXfXfXhXhXhXhXhXhXhXhXhXfXbXmXLXLXZXZXZXZXZXZXZXZXZXZXZXZXZXVXcXcXVXVXVXVXVXmXnXxX8X;X2X8X<XS.C.[.1X<X;X`.Z.;X4XhXnXnXcXvXZXNXNXNXNXZXAXJXJXDX2X:XT.p.a.D.Z.C.M.N.Z.'.>X5XSXfX5X].n.p.y.a.C.W.`.Z.0XxXMXmXZXZXJXVXGXGXVXmXvXvXZXKXJXGX7X[.'.'.'.'.[.`.].W.W.Z.C.V.V.V.B.B.C.V.p.>.&.&.+.;.0.6.5.6.6.>.-.+.-.:.0.y.:.:.6.0.p.a.y.,.-.$.$.X.o.~ W ..] | ..} ] } ] W S m z x c c c c c b Z F Y R ] o.o...X.+.-.&.&.&.X.o. .] Y n k a a a a a g g g a h g g g p h p 9 > $ # & ",
"< # . . @ 9 i i p p i p p p p p p p p p a g a k Z W ] } ..X.-.>.6.:.;.&.;.-.+.+.} ~ ! G b b b b b b M Z M H ~ X.o.o.o.+.~ E E ~ o.$.-.>.0.0.i.i.p.a.a.p.i.6.;.6.6.:.>.0.p.q.6.s.k.6.X.0.p.0.:.i.T.W.W.`.W.W.W.W.].[.}.}.].].].].}.3X4XsXGXVXZXvXNXZXJXVXVXVXVXVXnXnXFX>XC.U.Q.C.s.y.i.a.C.oX5X5X3X5X[.a.N.n.M.C.C.M.a.Z.B.'.sXDXSXnXnXnXbXbXbXbXnXbXhXhX5XtX;XC.S.[.>X[.>XW.[.oX4XwX>X<XhXnXnXVXnXmXmXvXvXZXVXnXmXVXZXZXZXZXNXNXNXNXNXZXZXJXJXxXbXnXnXnXnXnXnXnXbXbXbXhXhXhXhXhXhXbXbXbXbXbXbXbXhXhXhXhXbXbXbXbXbXbXbXbXbXbXbXbXxXxXxXxXxXxXxXsXhXhXhXhXhXhXhXhXhXhXhXhXbXbXbXbXbXbXbXbXbXbXbXbXbXbXbXbXbXbXbXxXxXmXLXLXZXZXZXZXZXZXZXZXZXZXZXZXZXVXcXcXVXVXVXVXVXmXnXcXsX4X2X4X4XS.N.`.4X1X2X'.!.'.<XsXnXnXcXvXZXNXNXNXNXZXZXJXJXKXmX[.!.p.j.C.Z.C.B.n.n.`.{.>XSXSXtX[.V.k.p.a.V.V.!.!.S.8XxXMXmXZXJXJXVXVXVXVXcXvXVXKXGXsX>X.X[.[.'.`.`.`.].W.W.Z.C.B.V.V.B.B.N.N.p.=.>.>.;.o.+.&.;.6.i.s.5...&.;.;.;.;.:.0.p.0.>.,.-.-.&.X.| ] E Y E / ..X.} ] } W F x k z m c c c c c b Z H R W ] ......X.+.-.&.+.X.X.o.] Q Z a s a a a a a a a p p h g g g i g q - # $ $ & ",
"b 3 + O + & 5 i g i i g p p p p p p p p p p a g k Z W ] o.X.&.;.;.:.:.:.:.;.&.+.} ~ T F b b b z b b b M b Z G ! X.X.] ! ! E Y Y ~ ] X.&.-.;.>.6.6.0.y.i.i.0.5.5.6.:.>.y.i.4.>.k.N.m.p.p.w.a.k.k.T.T.T.T.T.T.W.W.W.W.`.`.`.].[.}.].OX#X>XDXGXZXNXZXZXZXGXmXVXVXVXnXHX5XW.V.U.T.m.p.y.p.m.!.3XtX5X4XtXN.n.a.v.C.W.Z.a.n.Z.Z.5XDXDXnXnXnXbXbXbXbXbXnXDXnX9XtXtX!.V.!.{.{.>X[.W.[.>XlX4X>X7XnXnXnXmXmXmXVXZXVXVXmXMXmXZXZXZXZXZXZXZXZXZXZXZXZXZXZXZXZXZXZXZXmXmXmXmXmXmXmXmXmXmXmXmXNXNXNXNXmXmXmXVXmXmXVXVXVXVXGXVXmXmXVXmXmXmXZXZXNXNXNXNXNXNXZXZXZXZXZXZXZXZXZXZXVXVXmXmXmXmXmXmXmXmXvXmXmXmXvXvXmXVXVXVXVXmXmXmXmXZXZXZXZXZXZXZXZXZXZXZXZXZXZXZXZXZXZXZXvXvXvXvXVXVXmXnXsX4X<X5X2X;XN.Z.2X1X2X;X'.W.;X7XnXmXnXcXZXZXNXNXZXNXZXZXZXZXGXsX:XW.0.M.Z.D.C.B.n.Z.'.[.>XgXgX4X'.M.p.p.n.m.U.!.W.:XsXDXmXVXVXVXVXGXVXVXmXnXGXJXsX<XoXoX[.'.'.'.`.`.].].W.S.Z.V.C.V.V.V.Z.n.6.6.q.p.6.+.O.&.:.0.p.p.&. .&.&.-.;.;.>.6.:.:.,.=.=.$.X.o.! H F G H Y ! } X.] Y Z m m x x z c c c c c M F Y T ] ....X.X.X.X.+.X.o...] ] Y m k k a a a a a a g a g p g g p p h q 1 # o $ + 8 ",
"A A 0 O X X $ < i p i i i i i i p p p p p p p p p k Z Y ] o.o.&.-.:.:.:.:.;.-.&.o.~ H S c b c b b b b M b b Z G ~ | ] W E Y I G Y ! ] o.o.o.X.+.@.+.-.-.;.;.-.+.;.5.6.;.:.+.&.s.N.C.V.0.w.p.m.m.V.V.U.T.T.T.W.W.W.W.W.`.`.].[.[.].].{.1X;X9XmXJXZXZXZXVXmXnXmXCXHXaX].U.V.U.V.k.y.y.V.T.[.tX5X3XtX[.N.n.n.n.Z.T.n.p.V.V.[.tXSXSXnXnXnXbXbXbXbXbXnXnXhXtXtX>XZ.C.[.{.>X{.W.W.1X5XkX3X3XsXnXnXnXmXmXmXmXVXZXVXmXMXJXZXZXZXZXZXZXZXZXZXZXZXZXZXZXZXZXZXZXZXZXZXZXZXZXZXZXZXZXZXZXZXZXZXZXZXZXZXZXZXZXZXZXZXZXZXZXZXZXZXZXZXZXZXZXZXZXZXZXZXZXZXZXZXZXZXZXZXZXZXZXZXZXZXZXZXZXZXZXZXZXZXZXZXZXZXZXZXNXNXNXZXZXZXZXZXZXZXZXZXZXZXZXZXZXZXZXZXZXZXZXZXVXZXZXZXvXNXvXvXVXVXmXnXcX9X;X2X5X2X`.S.;X2X2X2X[.W.[.5XtXnXVXVXZXZXZXZXZXZXZXZXZXZXZXGX:X!.M.M.V.C.C.C.n.M.S.'.{.aXSXhX1XW.n.p.a.n.V.T.W.'.5XbXnXmXVXVXVXVXGXGXVXcXnXaX>X[.oXoX[.'.'.`.`.`.].].!.S.Z.V.C.V.V.V.C.p.6.0.w.p.0.;.6.6.6.0.y.6.+.] +.&.-.:.:.>.>.:.:.=.X.o.| / Y G F F F H Y E W W Y Z m m m x x k c z k g c Z H T ~ ..X.X.X.X.o.X.X.o...} ] Y n k a a d a k a a a p p p p g p p i 0 > $ @ @ $ 3 l ",
"U D A 5 $ X . $ < r i i i i p p p p p p p p p p p a k n E ] o.o.&.;.:.:.:.:.;.;.-.] G F n c l c c c m b m n b Z F W / W T Y U G D H E ~ ] } } } | } } } } ` ~ ' o.+.0.6.q.+.o.k.c.C.V.p.0.w.k.m.m.V.C.T.T.T.W.W.T.T.W.W.`.].[.[.].W.'.>X[.W.sXVXZXZXZXVXmXmXmXnXgX3XC.V.U.U.k.p.y.a.T.>XeXeX>X5X4XM.n.a.N.C.W.V.a.M.V.Z.tXhXmXnXnXnXnXnXbXbXbXbXbXsXtXsXtX[.B.W.{.{.>X[.V.'.tXtXfX3X3XnXnXnXmXmXmXmXmXZXZXZXmXMXJXZXZXZXZXZXZXZXZXZXZXZXZXZXZXZXZXZXZXZXZXZXZXZXZXZXZXZXZXZXZXZXZXZXZXZXZXZXZXZXZXZXZXZXZXZXZXZXZXZXZXZXZXZXZXZXZXZXZXZXZXZXZXZXZXZXZXZXZXZXZXZXZXZXZXZXZXZXZXZXZXZXZXZXZXZXZXZXNXNXNXZXBXBXBXZXBXZXZXZXZXZXZXZXZXZXZXZXZXZXZXZXZXZXZXZXZXZXZXVXVXVXVXmXnXqX;X2X5XtX5XW.[.<X2X5X<XW.S.2X2XnXGXVXZXZXZXZXZXNXNXZXZXBXVXZXxX!.!.b.a.B.C.C.n.v.N.!.`.4XgXSXtX;XC.a.q.a.M.C.W.W.[.4XnXmXmXZXVXVXVXVXGXnX>X[.[.>X>X>X`.`.`.`.`.`.].].!.S.Z.V.C.C.V.V.V.w.6.y.p.p.y.y.p.p.y.>.;.;.:.6.X.] ] X.+... . . .] W E T G S S G H H H Y Y H F Z m b b m x x z z z k k b Z Y ! | X.X.X.X.X.o.o.o...} ` Y n g k k k k k k a g a p p p p p p i 9 - # @ @ % 3 l A ",
"I U D A 9 % * * + 3 i g i i p p p p p p p p p p a a a k Z E } o.+.&.-.;.:.:.:.:.;.-.} &.~ b k c z c x m m m b b b D Y W ! W Y Y D A F Y E ^ ` } } ` ~ ~ E K Q o.;.` &.0.O...+.s.k.k.m.V.w.w.p.m.C.C.C.C.T.T.W.W.T.T.T.W.].].[.[.[.'.].].>X`.'.sXGXGXVXVXCXmXmXSX3XR.U.U.U.m.p.p.a.V.].3XtX4X4X5XB.a.a.a.C.Z.T.V.V.[.V.[.SXSXmXbXnXnXnXnXbXbXnXbXnXtXtXhX5X!.B.!.{.>X{.[.n.[.fXfXeX2X7XSXnXnXmXmXmXmXVXZXZXZXmXMXZXZXZXZXZXZXZXZXZXZXZXZXZXZXZXZXZXZXZXZXZXZXZXZXZXZXZXZXZXZXZXZXZXZXZXZXZXZXZXZXZXZXZXZXZXZXZXZXZXZXZXZXZXZXZXZXZXZXZXZXZXZXZXZXZXZXZXZXZXZXZXZXZXZXZXZXZXZXZXZXZXZXZXZXZXZXZXZXZXZXZXZXBXBXBXBXBXZXZXZXZXZXZXZXZXZXZXZXZXZXZXZXZXZXZXZXZXZXZXVXVXVXVXmXmXsX;X2X3XtXsX{.`.>X5X5X3X!.Z.2X2XsXVXmXZXZXZXZXNXNXNXZXZXZXVXVXmX2X!.U.w.n.V.Z.n.v.v.B.`.[.5XgXfX5X'.B.y.p.k.m.Z.W.T.'.sXmXmXVXVXVXVXGXnX5X[..X>X,X[.{.`.`.`.`.`.`.].].!.S.Z.V.V.V.V.V.n.0.0.0.y.p.p.a.p.p.y.&...+.0.w.;.] ~ ] ` Y K K H G F F Z b V S Y Y Y K G G S n m m b b b x z z k l b b Z H ! ] ..$.$.X.X.X.X.X...} ~ Q m k k k k k k k k a g a p p p g p i 0 > o o @ $ 3 l N A ",
"T I A N M 0 & X . # , 0 g p u p p p p p p p p p a h g k a b ! ..&.X.&.:.:.;.:.:.:.>.;.>.-.W c h h z x k v b b b m b Z H W W W W Y U D D G K ! ] ] } ..o. .]  .-.:.` ! 6.O.` 4.k.k.m.m.n.n.w.p.M.`.W.W.C.A.W.`.`.].].].].].].[.[.[.[.[.[.oX>X}.}.5XSXGXVXCXVXSXtX].Q.T.V.m.a.u.u.n.'.3X5X5XtXtXW.m.a.a.m.C.W.T.p.C..X!.fXDXDXnXnXnXnXnXnXnXgXbXDXSX5XfXfX2XD.Z.[.;X;X[.W.B.tXgXtX>X2XbXDXnXnXMXmXmXmXNXJXJXNXmXNXZXZXZXZXZXZXZXZXZXZXZXZXZXZXZXZXZXZXZXZXZXZXZXZXZXZXZXZXZXZXZXZXZXZXZXZXZXZXZXZXZXZXZXZXZXZXZXZXZXZXZXZXZXZXZXZXZXZXZXZXZXZXZXZXZXZXZXZXZXZXZXZXZXZXZXZXZXZXZXZXZXZXZXZXZXZXZXZXZXZXZXZXZXZXZXZXZXZXZXZXZXZXZXZXZXZXZXZXZXZXZXZXZXZXZXZXZXZXZXZXGXGXGXVXmXGX9X<X5X5X7X2XS.{.>X4X4X[.Z.[.8XsXnXmXJXZXZXZXZXZXZXZXZXZXZXZXJXnX>XC.p.w.C.V.C.v.a.v.'.{.[.tXSXsX1X`.n.y.w.p.N.Z.W.'.;XyXbXbXnXDXGXDX5X{.[.oX>XoX[.'.[.[.[.[.].].].].`.`.W.Z.A.C.C.C.n.:.>.0.y.y.p.k.n.n.*.+.-.} o.>.0.X.0.=.! H F G V V b b b n S H Y I I H I H Z b b M M b b c z k g b A U T / | X.&.&.&.X.&.o.o.X...] H z k k k k k k k g p p p p g p p h i 8 1 + # $ # 3 M A A D ",
"T Y D A N c 9 & . . $ , e p p p p p p p p p g g a a a a a a x E X.X.X.&.-.;.:.;.5.5.;.;.+.! M c g z x v x v b m b b c b I ~ ] ~ ! R I G Z F H H H H ~ &.&.+.+.-.&.....>.;...O.6.m.m.k.n.M.p.p.M.W.W.[.N.A.`.`.`.].].[.[.[.[.'.'.[.[..X[.].}.oX}.OX1XhXCXGXnXgX,XQ.Q.T.m.n.p.u.p.W.2XtX5X5XtX1XC.n.a.k.V.T.T.V.y.m.W.5XSXDXSXnXnXnXnXnXnXbXbXbXSXhXtXhXtX'.C.W.[.>X;X'.Z.!.fXfX5X:X5XDXGXnXnXmXvXmXmXNXZXJXNXNXZXZXZXZXZXZXZXZXZXZXZXZXZXZXZXZXZXZXZXZXZXZXZXZXZXZXZXZXZXZXZXZXZXZXZXZXZXZXZXZXZXZXZXZXZXZXZXZXZXZXZXZXZXZXZXZXZXZXZXZXZXZXZXZXZXZXZXZXZXZXZXZXZXZXZXZXZXZXZXZXZXZXZXZXZXZXZXZXZXZXZXZXZXZXZXZXZXZXZXZXZXZXZXZXZXZXZXZXZXZXZXZXZXZXZXZXZXZXZXZXZXJXLXJXZXmXmXnX;X2X3X5X5X'.W.;X1X1X[.Z.S.5X7XhXGXJXZXZXZXZXZXZXZXZXZXZXZXJXJX2XC.M.q.p.N.C.N.v.v.C.'.[.1XgXhX5X;XC.p.w.w.v.C.S.!.'.>XbXSXbXDXSX9X:X[.{.{.{.[.[.`.[.[.[.[.].].].].`.`.W.Z.A.A.C.C.p.:.>.0.y.i.p.k.p.0.O.4.o...$.=.| $.0.X.Q K S V v v b b n S H H Y I H G A M c z b M M b b c l z c M D Y ] ..X.&.&.&.&.$.X.X.X.X.] H m a k k k k k k k g p p a a p p p g 9 > $ + # & 0 B A A D U ",
"! R I G M M c q & . . $ > 0 p p p p p p p p p g a a a a s k a b Q o.X.X.&.-.-.;.>.6.0.:.X.~ N b b c b b v x b b b b b b c G ~ ] ] ! Y D F F Z b b z b S  .&.;.;. .o...X...O.*.4.k.m.m.n.M.a.y.n.Z.Z.W.C.T.`.[.[.[.[.[.[.[.[.[.[.[.[.}.}.W.`.[.OXOXOX>XtXSXgX.XQ.].].U.j.a.u.u.n.>XtXtX5XtX5X[.n.a.a.m.T.T.m.y.n.V.W.SXHXSXnXnXnXnXnXnXSXSXSXSXnXtXSXbX>XC.C.Q.>X>X;X'.C.[.fXtX<X>XtXGXDXnXcXmXmXmXmXNXZXZXNXNXZXZXZXZXZXZXZXZXZXZXZXZXZXZXZXZXZXZXZXZXZXZXZXZXZXZXZXZXZXZXZXZXZXZXZXZXZXZXZXZXZXZXZXZXZXZXZXZXZXZXZXZXZXZXZXZXZXZXZXZXZXZXZXZXZXZXZXZXZXZXZXZXZXZXZXZXZXZXZXZXZXZXZXZXZXZXZXZXZXZXZXZXZXZXZXZXZXZXZXZXZXZXZXZXZXZXZXZXZXZXZXZXZXZXZXZXZXZXZXZXZXZXJXNXNXmXmXGX;X<X2X5X7X>XC.'.>X1X>XW.M.:X2XtXJXJXZXZXZXZXZXZXZXZXZXZXZXVXKXyX!.W.p.>.n.B.B.n.v.n.S.[.{.tXSXfX5X[.n.w.y.u.B.S.!.!.[.tXSXSXgX5X[.[.;XoX[.'.'.[.[.[.[.[.[.].].].].`.`.W.Z.V.N.V.V.y.-.>.0.i.p.a.k.j.*.*.*. .&.-.$...>.>.X.W Z x d k x b n S H H H Y I I H Z z g c b M M b b b c b A F I / X.&.&.+.&.$.&.X.X.X.X.] H m a k k k k k k k k k a a a a p g p e > % # $ = e A A A D U Y ",
"! T Y Y D N N c 9 & O . @ , r p p p p p p p p p a a a a a a k a m E X.&.+.&.+.-.+.>.y.y.>.X.E I I n x v m v x b c b Z D D Z I ! / W H Z Z F A g h a p p V ] &.&.&.....&.+.] *.;.p.j.k.n.m.n.p.k.Z.C.u.`.T.`.}.[.[.[.[.}.[.[.[.[.[.[.[.}.[.W.].oXoX,XoX[.3X4XU.R..XQ.V.i.p.u.p.W.5XtXtXtXaX>XC.n.a.n.V.C.T.y.6.C.Z.>XSXDXnXnXnXnXnXnXnXSXSXFXSXhX7XFXsX'.V.Z.'.>X>X;X!.B.[.9X>X<X9XhXDXnXnXvXmXmXmXNXNXZXNXNXZXZXZXZXZXZXZXZXZXZXZXZXZXZXZXZXZXZXZXZXZXZXZXZXZXZXZXZXZXZXZXZXZXZXZXZXZXZXZXZXZXZXZXZXZXZXZXZXZXZXZXZXZXZXZXZXZXZXZXZXZXZXZXZXZXZXZXZXZXZXZXZXZXZXZXZXZXZXZXZXZXZXZXZXZXZXZXZXZXZXZXZXZXZXZXZXZXZXZXZXZXZXZXZXZXZXZXZXZXZXZXZXZXZXZXZXZXZXZXZXZXZXZXNXNXNXLXMXnX9X:X2X4X4X2XC.S.>X1X>X'.C.D.<XtXHXJXZXZXZXZXZXZXZXZXZXZXZXVXGXJX2X!.N.>.y.v.B.B.n.n.n.`.{.>XgXSXaX1XC.p.y.0.n.Z.!.Q.[.:XgXSX2X!.'.:X>X[.[.!.`.[.[.[.[.[.[.].].].].`.`.W.Z.n.n.n.n.0.-.:.y.p.p.a.k.p.6.;.....:.>.-.>.,.! E Z e ; 3 k b Z F H H H H F H Y T M g g b b M M b b b c M D U Y X.&.=.&.X.$.&.&.&.X.X.] H z a k z k k k k k k k k a a a h h h r > $ # % = t N A A D H Y Y ",
"~ ! ! R T G Z M M 9 & O @ @ > r g j r r p p p a a a p p a a a a a m E &.X.X.+.-.-.;.0.p.w.:.X.! E H Z b m m b x m n D H U U H U D G F M Z F Z k e 9 e r p Z ..+.;.+...;.6.+. .&.6.k.m.n.m.k.k.y.T.T.C.W.Z.`.[.`.}.}.}.[.[.[.[.[.[.[.[.}.oX[.].[..X.XoXoX].U.T.Q..XT.k.y.y.a.Z.>X5X5XtXfX5XW.n.n.k.V.T.W.V.6.a.W.W.hXHXGXmXmXmXnXnXnXnXnXSXSXgXtXfXfX3X[.V.!.>X>X>X'.Z.W.5X5X:X3XtXnXVXnXCXVXVXmXNXNXZXZXNXZXZXZXZXZXZXZXZXZXZXZXZXZXZXZXZXZXZXZXZXZXZXZXZXZXZXZXZXZXZXZXZXZXZXZXZXZXZXZXZXZXZXZXZXZXZXZXZXZXZXZXZXZXZXZXZXZXZXZXZXZXZXZXZXZXZXZXZXZXZXZXZXZXZXZXZXZXZXZXZXZXZXZXZXZXZXZXZXZXZXZXZXZXZXZXZXZXZXZXZXZXZXZXZXZXZXZXZXZXZXZXZXZXZXZXZXZXZXZXZXZXZXZXZXZXNXNXNXmXmXxX2X;X9X4X2X'.W.{.>X3XoXW.C.W.2XnXJXZXZXZXZXZXZXZXZXZXZXZXZXZXJXsX'.Z.v.-.a.B.C.B.n.n.C.>X;X5XgXSX5X{.W.p.y.a.C.W.Q.'.'.>XiX>X>X>X{.[.[.'.[.[.[.[.[.[.[.].].].].].].[.W.N.k.n.N.n.p.y.y.p.p.p.a.p.6.q.....:.6.>.>.-.! H Z a ; - 2 t k M Z D G I Y T / / H b b b c b b b b b M Z Z I ! ..&.&.X.o.X.-.&.&.$.X.~ F z k k k k k k k k k k k k g g g p h e > $ & & = r B A A D Y Y T W ",
"/ ~ ! ! W I G Z M b r - O X @ > 0 p p r p p p a a a p p a a a a g k n E &.X.o.+.-.-.>.y.y.0.:...] E H Z n m m b m n Z F D D D D D Y T I Z Z b g 8 6 8 r t k Y X.&.+.+.-.6.;.O...&.q.k.n.k.k.k.k.].`.'.W.Z.W.[.[.[.[.[.[.[.[.[.[.}.[.[.[.oX{.[.'.[.oXoXoX.XT.R..XQ.V.p.y.0.Z.4XaX4X4X5XtX>XC.n.n.n.V.W.Z.i.p.V.C.3XSXDXnXmXmXMXMXnXnXnXnXSXgXfXaXfX5X>X'.U.'.>X>X[.!.W.[.5X3X<X4XsXnXmXmXvXvXvXmXNXNXZXZXNXZXZXZXZXZXZXZXZXZXZXZXZXZXZXZXZXZXZXZXZXZXZXZXZXZXZXZXZXZXZXZXZXZXZXZXZXZXZXZXZXZXZXZXZXZXZXZXZXZXZXZXZXZXZXZXZXZXZXZXZXZXZXZXZXZXZXZXZXZXZXZXZXZXZXZXZXZXZXZXZXZXZXZXZXZXZXZXZXZXZXZXZXZXZXZXZXZXZXZXZXZXZXZXZXZXZXZXZXZXZXZXZXZXZXZXZXZXZXZXZXZXZXZXZXNXNXNXNXNXVXmX9X:X2X4X5X;XC.[.>X>X>X'.C.T.>XsXmXNXZXZXZXZXZXZXZXZXZXZXZXZXZXcX;XS.N.<.u.n.V.V.N.n.V.'.;X>XtXgXaX[.[.C.p.p.n.Z.!.Q.!.[.>X:X>X>X[.[.`.'.[.[.[.[.[.[.].].].].].].[.W.Z.T.V.V.N.n.N.k.p.a.N.N.a.&.&.*.O.&.6.6.:.:. .K F m 2 - ; 2 e k Z F F Y W ! ~ T Z c b M Z b b b b b M Z G Y ! ..&.&.X.o.o.o.X.&.&.X.] G z a k k k k k k k k k k k g g p p g e > & @ & = r N A A D U Y Y W W ",
"] / ~ ! W E Y H Z Z b q - o . # ; e h p p p p a a a a p a a a a g g g m Q o.X.X.-.&.-.0.0.0.6.;.+.] W Y Z n m m x b b M b b b b Y ! } o.~ T D N t 4 3 e y t C ] ..&.&.;.6.4.-...[ ;.p.n.m.N.N.T.1X].`.'.W.W.`.[.[.[.[.[.[.[.[.[.}.}.[.[.oXoX[.[.[.[.[.[.>X].].[.T.a.y.0.a.>XfXfX4X2XtX1X!.n.n.n.m.C.W.k.0.V.T.W.bXDXDXbXmXMXMXMXmXmXnXSXSXgXtXfXfX5X'.D.W.[.>X>X'.D.W.2X7X>X>X5XgXnXnXmXvXVXVXmXNXNXZXZXZXZXZXZXZXZXZXZXZXZXZXZXZXZXZXZXZXZXZXZXZXZXZXZXZXZXZXZXZXZXZXZXZXZXZXZXZXZXZXZXZXZXZXZXZXZXZXZXZXZXZXZXZXZXZXZXZXZXZXZXZXZXZXZXZXZXZXZXZXZXZXZXZXZXZXZXZXZXZXZXZXZXZXZXZXZXZXZXZXZXZXZXZXZXZXZXZXZXZXZXZXZXZXZXZXZXZXZXZXZXZXZXZXZXZXZXZXZXZXZXZXZXZXZXZXNXNXNXNXNXVXVXxX:X;X4X5X2XZ.W.oX,X3XoXW.C.[.7XMXvXNXZXZXZXZXZXZXZXZXZXZXZXZXZXqX`.Z.v.<.a.V.C.V.N.M.C.[.[.3XfXnX4X[.'.a.y.a.C.W.W.W.!.'.[.{.{.[.`.'.[.[.[.[.[.[.'.].`.].].].].].C.C.].W.W.Z.C.N.N.y.a.A.C.y.` O.O.+.4.w.>.:.X.~ G n e - = ; 0 c A W / ] ] ! Y I M z b b Z Z b b b b Z G Y W ~ ..&.&.&.o.o.o.o. .+.X./ S x s a k k k k k k k k k k g a g g p r > % $ & = r Z N A D G I T W W ! ",
"] ] ~ ~ ! W W E H Z M l i - O @ o 2 t p p p p p a a a a a a a a p g a p x Q $.X.X.&.&.:.:.6.0.6.;.X.} ] Y Z n m x b b b z z z z M I ] $.>.&.o./ A e 3 9 4 t d H } +.-.:.6.6.;.O.! ..>.k.V.A.C.OX1X>X!.W.[.W.T.W.[.[.[.}.].].[.[.[.[.oX{.}.[.oXoXoX[.].].[.oX}.].N.i.0.p.W.5XfXfX5X5XtX[.C.n.n.n.V.T.C.a.i.C.Z.>XFXnXDXnXnXMXMXMXmXmXmXSXnXdXaXeXtX9XZ.Z.Q.:X>X>XW.W.[.2X5X1X5XtXnXnXmXVXvXVXmXmXmXNXZXZXZXZXZXZXZXZXZXZXZXZXZXZXZXZXZXZXZXZXZXZXZXZXZXZXZXZXZXZXZXZXZXZXZXZXZXZXZXZXZXZXZXZXZXZXZXZXZXZXZXZXZXZXZXZXZXZXZXZXZXZXZXZXZXZXZXZXZXZXZXZXZXZXZXZXZXZXZXZXZXZXZXZXZXZXZXZXZXZXZXZXZXZXZXZXZXZXZXZXZXZXZXZXZXZXZXZXZXZXZXZXZXZXZXZXZXZXZXZXZXZXZXZXZXNXZXZXNXNXNXZXVXVXnX0X:X2X5X2X'.W.[.>X,X>X.XU.].3XxXvXmXZXZXZXZXZXZXZXZXZXZXZXZXZXnX:X'.S.y.p.m.V.C.C.B.n.!.'.[.5XSXgX'.>XC.p.p.n.Z.W.S.W.`.'.[.[.`.`.[.[.[.[.[.[.'.].].`.`.].].].T.T.W.[.`.`.`.Z.V.A.k.Z.V.V.&.` =.O.*.0.0.>.-. .! G a ; = = 2 b ! | &.-.&...~ Y Z c c c b Z Z M b b Z F E ~ ] ..&.&.&.+.X.X.X.X.o.X.] G k k k k k k k k k k k k k k g a p g q > $ # & = r N N Z D G I Y W W ! ! ",
"] ] ] ] ] ~ ~ ! T H Z b z i ; + o # 2 t h p i p p p p p g h h a a a a a a h ~ X.&.X.$.-.-.:.>.6.6.:.&...! H V m b c l l h h g g Z G W X.:.>.:...] I 6 > 6 t e a } +.-.;.5.6.6.:.` E &.k.W.].[.[.>XoX[.!.`.`.`.`.W.].'.].].[.[.[.}.}.}.}.}.}.>X>XoXoX[.].[.[.[.Z.p.0.w.C.>X5XfXtX<X4X>XZ.N.N.n.V.C.Z.n.y.V.C.'.nXnXnXnXnXnXnXnXnXmXDXDXSXfXtXeX5X7X>XB.W.[.<X>X'.D.S.:X5X4X>X4XhXmXmXVXVXVXVXmXmXZXZXZXvXZXZXZXZXZXZXZXZXZXZXZXZXZXZXZXZXZXZXZXZXZXZXZXZXZXZXZXZXZXZXZXZXZXZXZXZXZXZXZXZXZXZXZXZXZXZXZXZXZXZXZXZXZXZXZXZXZXZXZXZXZXZXZXZXZXZXZXZXZXZXZXZXZXZXZXZXZXZXZXZXZXZXZXZXZXZXZXZXZXZXZXZXZXZXZXZXZXZXZXZXZXZXZXZXZXZXZXZXZXZXZXZXZXZXZXZXZXZXZXZXZXZXZXZXZXZXZXZXZXZXZXVXVX9X'.2X5X2X{.W.'.>X3X3X>X].W.2X9XbXmXmXZXZXZXZXZXZXZXZXZXZXZXZXZXxX:X!.B.w.m.V.Z.Z.C.B.C.!.'.>XfXgX>X[.1XV.a.N.Z.W.S.Z.W.`.`.`.[.[.{.{.[.[.[.[.].].].!.].].W.W.W.`.`.`.`.[.`.Z.Z.].T.Z.n.>.! ] &.&.:.>.>.,.X.} ! F 3 ; - > h ( $.:.<.,.&.%.] D b c l z k c l k x Z H Q `  .X.X.&.&.&.+.-.X.....o.~ F z a a a a g k k k k k k k k k g g g 0 - % $ % = r M A D G Y T R ! ! ! ! ~ ",
"] ] ] ] ] ] ~ ! W T H Z b x s 2 o X @ 2 r p i p p p p p g h g h a a a a p p h Q X.X.X.$.&.-.:.>.6.6.;.+.o.` H b c z k h g h k k k n Y o.>.>.>.:.&.] D 0 2 6 6 s ` ..&.;.:.5.0.6.+.K ..C.}.}.}.[.{.`.!.`.`.`.`.`.W.W.W.].].].].].[.}.[.[.oXoXoX>XoXoXoX[.W.].oXZ.p.w.n.[.>X5XfX5X4X<X`.N.n.M.V.Z.Z.V.q.n.C.!.2XHXnXnXnXnXnXnXMXnXmXDXDXSXfXtXeX5X9XD.D.W.:X>X{.!.S.'.>X5X>X1XtXnXmXmXmXZXVXVXmXmXZXZXZXvXZXZXZXZXZXZXZXZXZXZXZXZXZXZXZXZXZXZXZXZXZXZXZXZXZXZXZXZXZXZXZXZXZXZXZXZXZXZXZXZXZXZXZXZXZXZXZXZXZXZXZXZXZXZXZXZXZXZXZXZXZXZXZXZXZXZXZXZXZXAXZXZXZXZXZXZXZXZXZXZXZXZXZXZXZXZXZXZXZXZXZXZXZXZXZXZXZXZXZXZXZXZXZXZXZXZXZXZXZXZXZXZXZXZXZXZXZXZXZXZXZXZXZXZXZXZXZXZXZXZXZXZXVXsX'.2X2X2X;X`.]..X,X3X3X>XQ.>X2XfXmXGXVXZXZXZXZXZXZXZXZXZXZXZXZXvX2X'.W.p.p.V.Z.Z.D.C.B.D.'.{.tXaX2X{.>XW.n.n.Z.S.W.W.`.'.[.[.[.[.[.[.[.[.[.[.'.Q.!.W.!.!.`.`.].[.].[.`.`.`.C.`.{.`.`.i.&.!  .+.*.:.6.>.=.o.] E v : @ = h ! %.,.u.n.n.w.&./ F b c l z k k g p x Z P ~ o.+.-.-.-.&.&.$.&.$.X.%.~ F z a a a a a g g k k k k k k k k h g q & # # & = i Z Z A G I T R ! ! ~ / ] ] ",
"] ] ] ] ] ] ] ~ ! W T H Z b z p ; o X @ > e p p p p i i g g h h p p p p s h p h E o.X.X.X.&.-.:.>.5.>.;.&. .Y Z z k h g i i i i u b E X.-.>.0.>.&.] ] S 5 3 3 k E } +.=.;.:.6.0.:.Y ..Z.{.}.[.[.`.C.W.`.`.`.`.`.].W.W.W.`.`.`.].].[.[.[.oXoXoXoXoXoXoXoX].'.'.Z.a.B.`.>X;X3XaX5X5X[.V.n.n.V.Z.Z.Z.k.w.Z.Z.:XsXGXnXnXnXnXnXnXnXmXmXDXDXSXfXtXeX5X2XM.W.[.<X>X'.Z.Z.;X3X4XoX4XfXnXmXmXVXJXVXVXmXmXVXZXZXvXZXZXZXZXZXZXZXZXZXZXZXZXZXZXZXZXZXZXZXZXZXZXZXZXZXZXZXZXZXZXZXZXZXZXZXZXZXZXZXZXZXZXZXZXZXZXZXZXZXZXZXZXZXZXZXZXZXZXZXZXZXZXZXZXZXZXZXZXZXZXZXZXZXZXZXZXZXZXZXZXZXZXZXZXZXZXZXZXZXZXZXZXZXZXZXZXZXZXZXZXZXZXZXZXZXZXZXZXZXZXZXZXZXZXZXZXZXZXZXZXZXZXZXZXZXZXZXZXZXZXZXZXJXnX:X;X2X2X2X{.!.'.>X3X,X,X].].>XyXnXmXVXZXZXZXZXZXZXZXZXZXZXZXZXZXxX:X[.n.w.M.C.Z.D.C.n.C.!.'.[.>X>X[.1X>XZ.M.C.W.`.`.].}.}.}.[.[.[.[.[.[.[.[.].!.W.W.W.W.].].[.[.}.[.`.W.Z.B.W.}.`.W.V.0.]  .&.;.6.6.>.X.} ! Y k > - r R %.$.:.u.B.V.p.| G c k g h g p i r i b S Q } -.;.:.-.-.+.&.$.X.X...] F z a a a a a a g g k k k k g k g k p 0 & # $ @ = r A Z D G I Y W ! ! ~ ] ] ] ] ",
" . .[  .[ ] ] ] ` ! W T I M z g p ; O X o 2 r p p p p p h g g g p p p p p k p a k E X.&.X.X.&.-.;.;.>.>.+.] E G k h p i 0 0 9 6 r k M G X.>.>.:.>.../ ! b e 7 b K ` X.=.;.;.:.6.;.] ;.V.{.{.{.{.W.N.C.`.`.].].`.].[.].W.W.W.W.W.].[.[.[.oXoXoXoXoXoXoXoX>X'.!.W.W.[.{.[.[.2XtX5X>XZ.N.C.V.C.Z.Z.B.y.n.!.S.7XGXmXnXnXnXnXnXnXnXnXmXDXDXSXfXtXeX5X[.D.'.:X>X>X`.C.Z.;X>X3XoX5XhXnXmXmXmXJXVXVXmXmXVXZXZXvXZXZXZXZXZXZXZXZXZXZXZXZXZXZXZXZXZXZXZXZXZXZXZXZXZXZXZXZXZXZXZXZXZXZXZXZXZXZXZXZXZXZXZXZXZXZXZXZXZXZXZXZXZXZXZXZXZXZXZXZXZXZXZXZXZXZXZXZXZXZXZXZXZXZXZXZXZXZXZXZXZXZXZXZXZXZXZXZXZXZXZXZXZXZXZXZXZXZXZXZXZXZXZXZXZXZXZXZXZXZXZXZXZXZXZXZXZXZXZXZXZXZXZXZXZXZXZXZXZXZXZXZXVXnX9X:X0X2X2X;X[.].[.>XoX>X'.W.2XtXhXsXmXGXZXZXZXZXZXZXZXZXZXZXZXZXmX2X'.S.p.a.V.Z.C.C.B.B.D.`.!.[.1X{.`.[.W.a.V.T.W.`.[.}.{.{.[.[.[.[.[.[.[.[.!.W.W.W.T.W.].[.[.}.}.[.].C.N.B.V.W.C.V.N.N.] } ;.;.:.:.=.| } ! Z a i c Y ..=...=.w.a.p.] Z z k i i r r 0 6 0 i b H ~ o.-.:.:.-.-.+.X.$.....] A z a a a a a a a g g k k k k g g g g q & + + @ & r Z Z D G I Y T ! ! ~ / ] ] ] ] ",
" . . . .[ [ ] ] ` ! W E T I Z b k t ; O X @ > r g i i g p g g g g g p p p p p p a m Y | X.X.X.X.+.-.-.+.....` T b p 0 6 5 5 2 ; 5 0 i p a H -.:.:.&.} ~ ! Y m u Z Y ] ..O.+.-.;.6...y.y.V.].oX].'.C.V.W.`.].].`.].[.].].T.C.W.].W.'.[.oX}.oXoXoXoXoX}.}.[.oXoX'.W.`.[.[.[.>XtX5XW.n.N.V.M.Z.!.S.w.w.C.C.2XnXGXmXnXnXnXnXnXnXnXnXGXGXSXhXSX3XaX4XS.!.'.<X<X[.C.Z.[.4X3XoX>XaXsXmXVXZXVXVXZXZXZXZXZXZXVXVXZXZXZXZXZXZXZXZXZXZXZXZXZXZXZXZXZXZXZXZXZXZXZXZXZXZXZXZXZXZXZXZXZXZXZXZXZXZXZXZXZXZXZXZXZXZXZXZXZXZXZXZXZXZXZXZXZXZXZXZXZXZXZXZXZXZXZXZXZXZXZXZXZXZXZXZXZXZXZXZXZXZXZXZXZXZXZXZXZXZXZXZXZXZXZXZXZXZXZXZXZXZXZXZXZXZXZXZXZXZXZXZXZXZXZXZXZXZXZXZXZXZXZXZXZXZXZXZXZXZXZXZXVXVXxX:X;X<X2X4X'.S.[.>X[.{.[.W.[.tXtX2XbXGXJXJXZXZXZXZXZXZXZXZXZXZXZXnX[.S.a.y.v.B.C.C.C.B.B.Z.[.W.[.3X'.C.M.C.`.`.`.[.[.}.{.[.[.[.[.[.[.'.[.{.[.W.C.m.T.'.{.[.oXoX[.`.A.V.V.Z.C.C.V.N.N.C. . .&.;.:.:.&...! I n x Z ] ,.X.{ { :.w.-.Y l l i p e e 0 3 > 2 0 g N I ~ ] o.} ~  .+.X...X.X./ D l g g g g g g g g g k k k g g g h l i & $ @ O = g b D D G Y E W ! / ] ] ] | | | | ",
" . . . . . . .] ] ` ! W W T Y F M b s ; O X @ > r p i i i p g g p p p p p p p p p a m Y o.X.} } ` } o... . .` E Z p 5 2 3 3 , ; 3 0 r e 5 e E X.-.-.X./ ~ ] H a x V Y ] +.+.+.+.5.+.y.y.m.T.].[.'.W.Z.Z.W.Q.].].].].].].`.V.V.T.W.'.[.oX}.oXoXoXoX}.[.}.[.[.[.>X`.!.`.`.W.'.5X[.V.n.N.V.N.W.[.v.u.v.Z.W.yXDXGXnXnXnXnXnXnXnXnXnXGXnXnXSXfX4XaX{.C.'.[.2X;X!.Z.W.>X5X>XoX4XtXsXGXGXVXVXVXZXZXZXZXZXZXVXVXZXZXZXZXZXZXZXZXZXZXZXZXZXZXZXZXZXZXZXZXZXZXZXZXZXZXZXZXZXZXZXZXZXZXZXZXZXZXZXZXZXZXZXZXZXZXZXZXZXZXZXZXZXZXZXZXZXZXZXZXZXZXZXZXZXZXZXZXZXZXZXZXZXZXZXZXZXZXZXZXZXZXZXZXZXZXZXZXZXZXZXZXZXZXZXZXZXZXZXZXZXZXZXZXZXZXZXZXZXZXZXZXZXZXZXZXZXZXZXZXZXZXZXZXZXZXZXZXZXZXZXZXVXVXnX2X;X<X2X2X[.S.!.{.{.{.>X[.!.>X5X3XnXGXGXJXZXZXZXZXZXZXZXZXZXZXZXGX4XS.W.a.p.n.B.B.C.B.M.C.W.'.[.{.>X`.W.'.`.[.[.}.}.[.[.[.[.[.[.[.[.[.[.[.}.T.k.C.[.oX{.}.oX}.].Z.A.C.C.A.C.C.V.N.N.N. .] +.&.-.-.o.~ H S n S ~ =.$.] [ %.1.=.Y a 0 i 0 0 9 9 6 5 2 6 i b A Y ( / ] ! Y ~  .+.} ] ~ F l h k k g g g g g g g k k k g g a p i & . @ @ : g M D G G I E W ! ~ ] ] ] ] | | | | ",
"...... . . . . .] ] ` ! ! W W Y G Z m p ; @ X @ > 0 p i i p p p p p p p p p p p p p a b E } o.] E E ! ` ` ] ] ! H h 5 2 5 5 2 ; , 9 r 5 , 0 G ] | X.X.] ! ] ~ S v x Z E ..O.....:.;.i.p.a.V.W.[.[.].Q.U.T.W.].].].].].[.[.C.N.T.!.'.[.{.}.{.oXoXoX{.[.{.oXoX[.oX[.[.!.W.Z.!.[.B.n.n.N.V.Z.'.!.w.u.B.!.2XSXGXmXnXnXnXmXmXmXmXmXmXGXnXnXSXtXeXaXZ.B.'.>X4X[.Z.S.'.5X5X}.oX5XtXbXGXVXZXVXVXVXZXZXZXZXZXZXZXZXZXZXZXZXZXZXZXZXZXZXZXZXZXZXZXZXZXZXZXZXZXZXZXZXZXZXZXZXZXZXZXZXZXZXZXZXZXZXZXZXZXZXZXZXZXZXZXZXZXZXZXZXZXZXZXZXZXZXZXZXZXZXZXZXZXZXZXZXZXZXZXZXZXZXZXZXZXZXZXZXZXZXZXZXZXZXZXZXZXZXZXZXZXZXZXZXZXZXZXZXZXZXZXZXZXZXZXZXZXZXZXZXZXZXZXZXZXZXZXZXZXZXZXZXZXZXZXZXZXZXZXJXmXmX7X:X;X<X2X2XS.W.'.>X>X<X>XW.].3XeXHXHXGXGXZXZXZXZXZXZXZXZXZXZXZXVXxX2X'.Z.y.v.B.C.C.C.n.N.V.`.[.`.>X{.[.{.].[.[.[.[.[.[.[.[.[.[.[.[.[.`.`.V.s.V.[.oXoXoXoXoX[.T.C.Z.Z.Z.A.C.C.V.N.N.a.&. .+.+.X...W H Z S D / &.=.] ~ %.=.1.! k 0 e i 6 3 5 3 3 5 9 i k N D Y R R R Y K ~ } o.} T Z z h h k k k k g g g g k k k k g a p 6 - # + $ , k Z G H Y Y W W ! ~ ] ] ] } ] | | | | ",
".......... . . .] ] ] ` ~ ! ! ! Y H Z c h > @ @ O > r g i i p p p p p p p p p p p p p a z E ..] T K K Y ! ` ] ~ Y l 0 0 9 0 5 2 > 9 0 3 - 6 N Y W } } ~ ~ } ` Q G b m F ] [ ..O.:.6.p.p.p.m.T.W.].].Q.W.T.T.R.].].].].].].].T.W.W.'.[.{.}.{.oXoXoX{.oX{.oXoXoXoX[.>X[.W.!.!.n.p.n.n.N.Z.!.[.v.w.M.D.'.sXGXGXmXmXnXnXmXmXmXmXmXmXGXHXSXgX5XeXtXZ.C.[.<X>X!.W.`.'.7X5X[.>X5XtXmXGXZXZXVXVXVXZXZXZXZXZXZXZXZXZXZXZXZXZXZXZXZXZXZXZXZXZXZXZXZXZXZXZXZXZXZXZXZXZXZXZXZXZXZXZXZXZXZXZXZXZXZXZXZXZXZXZXZXZXZXZXZXZXZXZXZXZXZXZXZXZXZXZXZXZXZXZXZXZXZXZXZXZXZXZXZXZXZXZXZXZXZXZXZXZXZXZXZXZXZXZXZXZXZXZXZXZXZXZXZXZXZXZXZXZXZXZXZXZXZXZXZXZXZXZXZXZXZXZXZXZXZXZXZXZXZXZXZXZXZXZXZXZXZXZXJXmXDXxX:X;X<X2X2XS.Z.!.{.>X2X1XW.T.oXeXHXHXDXGXZXZXZXZXZXZXZXZXZXZXZXZXGXqX<X{.a.p.n.B.C.C.n.n.V.Z.W.`.`.'.[.[.[.}.[.[.[.[.[.[.[.[.[.[.[.'.!.W.k.V.].OX[.[.[.oX[.W.A.A.Z.Z.Z.A.C.C.V.N.n.p.6.;.-.&.o.` F Z S I ! $.=.} ] | ,.:.&.Z p e e i 6 3 2 > > < g c N A A D U U D H Y } } ` ] n g p p g k k k k k g g g k a k k a p 6 - O # # < m Z G H Y E ! ~ ! ~ ] ] ] } | | ........",
"O.O.O.O... . . .[ ] ] ] ] ` ! ! E Y H F b a 2 o @ $ > 9 h i i g p p p g p p p p p p p a p c Y ] ~ Y H Y E ! ~ T M b x g i e 6 2 , 3 3 > , 3 p G Q ~ ^ ~ ~ ! / ! Q G n V Y ] ..&.:.0.s.p.s.k.V.T.W.`.`.W.W.T.C.T.`.].].].].].].].T.T.W.].}.oX[.[.[.[.}.oXoXoX{.{.{.[.}.`.!.M.y.p.a.n.C.S.'.S.w.v.D.S.9XGXGXGXmXMXmXmXmXmXmXmXmXmXGXGXtXaX3XaX`.V.[.<X>X[.Z.S.`.<X5X>X3XtX5XbXGXVXZXZXZXZXZXZXZXZXZXZXZXZXZXZXZXZXZXZXZXZXZXZXZXZXZXZXZXZXZXZXZXZXZXZXZXZXZXZXZXZXZXZXZXZXZXZXZXZXZXZXZXZXZXJXJXJXJXZXZXZXZXZXZXZXZXZXZXZXZXZXZXZXZXZXZXZXZXZXZXZXZXZXZXZXZXZXZXZXZXZXZXZXZXZXZXZXZXZXZXZXZXZXZXZXZXZXZXZXZXZXZXZXZXZXZXZXZXZXZXZXZXZXZXZXZXZXZXZXZXZXZXZXZXZXZXZXZXZXZXZXZXZXZXZXZXmXDXmX4X!.[.2X2X;XW.`.}.1X2X4X'.C.T.aXHXHXsXGXJXJXZXZXZXZXZXZXZXZXZXZXZXnX7X{.C.0.p.Z.C.C.C.C.n.N.V.Z.!.[.[.'.[.[.[..X[.[.[.[.[.[.[.`.!.W.T.V.A.].oXoXoXoX{.[.W.Z.Z.Z.Z.T.Z.C.C.V.V.N.n.a.y.:.=.&.] H Z G T ~ o.&.o.] ] X.:.=.Y c p r e e 6 , 3 , ; , g M Z M A A A D G H ~ +.} K m k k k k k g g k k k k g g g g p g k p = @ @ @ 2 M Z F H Y Y E ! ` ` ] ]  .................",
"O.O.O.O.O... . . .[ ] ] ] ] ` ` ! Q E Y A b h 3 $ O + = 0 i i i p p p g p p p p p p p p p a b Y ] E H Y Y Y H b c c k g p u 6 3 2 3 3 3 5 5 0 c S H H ^ } ~ } ! Q E H S S T ..&.:.0.s.p.k.m.V.A.W.`.`.W.Q.T.C.C.T.`.].].].].].].W.T.T.W.].[.[.[.[.[.}.oXoXoX{.oX{.{.>X].V.p.p.a.n.N.Z.S.'.M.u.B.D.:XnXmXGXGXmXMXmXmXmXmXmXmXmXmXGXHX{.dX3XwXT.V.;X0X>X'.C.!.;X2XtX<X2X9XtXnXJXZXZXZXZXZXZXZXZXZXZXZXZXZXZXZXZXZXZXZXZXZXZXZXZXZXZXZXZXZXZXZXZXZXZXZXZXZXZXZXZXZXZXZXZXZXZXZXZXZXZXZXZXZXZXZXJXJXJXZXZXZXZXZXZXZXZXZXZXZXZXZXZXZXZXZXZXZXZXZXZXZXZXZXZXZXZXZXZXZXZXZXZXZXZXZXZXZXZXZXZXZXZXZXZXZXZXZXZXZXZXZXZXZXZXZXZXZXZXZXZXZXZXZXZXZXZXZXZXZXZXZXZXZXZXZXZXZXZXZXZXZXZXZXZXZXZXZXGXDXyX[.[.<X4X<X`.T.[.oX1X2X>XW.V.3XHXSX2XnXJXJXZXZXZXZXZXZXZXZXZXZXZXmXsX>X{.a.w.B.C.V.V.B.n.n.N.C.Z.`.[.'.[.[.[.[.[.[.[.[.[.'.`.!.W.Z.m.C.].oXoX}.oXoX[.W.Z.Z.Z.W.T.T.Z.C.C.C.V.N.n.a.p.y.0.X.Y V F Y ` ..X.} ~ ~ ] } -.} b a p r 0 0 6 , 2 2 2 6 g c M b N M A F T !  .&.E b a a k k k k g g k k k k g g g g k l p > @ + @ 5 Z S F H Y T Q ! ` ] ] [  ...........X.X.X.X.",
"O.O.O.O.O.O... . . .[ ] ] ] ] ` ~ ~ ! W U Z M l 5 $ o @ 1 0 j j p p p p p p p p s p p p p p a c Y W Y H Y F b a h g g g g i 0 5 5 5 6 0 0 9 6 p x F G Y Q ~ } W E W ! E S S W &.:.0.i.p.m.V.C.A.W.`.`.W.W.W.T.C.T.T.`.].[.].].].W.W.T.T.W.`.].].[.[.}.}.oX}.oXoXoX>X{.A.p.0.p.n.C.Z.S.!.S.u.b.D.S.8XJXJXGXGXmXmXmXmXmXmXmXmXDXDXGXtX'.kX5X1XN.!.2X2X;X!.Z.!.2XtX3X>X4X4XyXDXJXZXZXZXZXZXZXZXZXZXZXZXZXZXZXZXZXZXZXZXZXZXZXAXAXZXAXAXZXZXZXZXZXZXZXZXZXZXZXZXZXZXZXZXZXZXZXZXZXZXZXZXZXZXZXAXAXAXAXZXZXNXNXZXZXZXZXZXZXZXZXZXZXZXZXZXZXZXZXZXZXZXZXZXZXZXZXZXZXZXZXZXZXZXZXZXZXZXZXZXZXZXZXZXZXZXZXZXZXZXZXZXZXZXZXZXZXZXZXZXZXZXZXZXZXZXZXZXZXZXZXZXZXZXZXZXZXZXZXZXZXZXZXZXZXZXZXZXVXGXnX<X'.;X4X2X[.C.].{.2X2X5X!.m.].fXaX<X8XNXJXZXZXZXZXZXZXZXZXAXZXZXJXmX5X4XZ.:.p.V.V.V.N.N.v.n.B.N.W.[.[..X.X.X.X[.[.[.[.'.'.!.W.T.M.V.W.}.}.}.[.[.].W.Z.Z.Z.S.W.W.T.Z.C.C.V.N.N.N.k.a.p.:.W Z Z K E ]  .] ~ ! ~ ] ] ..D g g a e 0 e 0 3 2 2 6 i g k k k l l b Z H ! } ` S k a k k k k k g k k k k k g g g k k p 2 @ + = 7 Z Z Z H Y E ! ` ] ] ]  . .............X.X.X.X.",
"O.O.O.O.O.O.O..... . .[  .] ] ] ` ~ ~ ~ T D A M l 8 & @ + > 0 i p p p p i i i i p s p p a p p p c H W I F c a a p p a a g i 0 5 5 5 9 r 9 9 9 e p n Z G Z Y / W E ! ] ~ H n S ] :.0.i.p.V.V.C.C.W.`.`.W.W.T.T.T.T.T.W.`.].].].].`.`.W.T.T.T.W.`.[.[.}.}.oX}.oXoX>X>X`.p.:.0.a.N.W.W.W.`.u.u.M.S.:XnXGXJXGXGXmXmXmXmXmXmXmXmXDXDXsX2X3XeX3X`.n.>X2X0X'.!.!.'.4XtX!.>XeX4XbXGXZXZXZXZXZXZXZXZXZXZXZXZXZXZXZXZXZXZXZXZXZXZXAXAXAXAXAXAXAXAXZXZXZXZXZXZXZXZXZXZXZXZXZXZXZXZXZXZXZXZXZXZXZXZXAXAXAXAXAXZXZXNXNXZXZXZXZXZXZXZXZXZXZXZXZXZXZXZXZXZXZXZXZXZXZXZXZXZXZXZXZXZXZXZXZXZXZXZXZXZXZXZXZXZXZXZXZXZXZXZXZXZXZXZXZXZXZXZXZXZXZXZXZXZXZXZXZXZXZXZXZXZXZXZXZXZXZXZXZXZXZXZXZXZXZXZXZXZXVXVXVXqX'.{.2X2X[.C.W.[.>X1X7X[.m.T.4X4X5X9XMXJXZXZXZXZXZXZXZXZXAXAXZXJXDXyX4X[.0.;.m.m.N.N.N.v.n.n.n.C.`.'.[.[.[.[.[.[.[.[.].!.W.Z.V.C.W.[.}.[.}.[.].T.C.C.Z.W.W.W.W.T.Z.C.A.V.V.N.N.n.a.p.] F Z Y E ! ! E ! ! ` W ~ ] I k k g i e e r e 0 2 6 r g p g p h g h z b F W ! G Z m c z k k k k k k k k k k g g k k p > o + @ 6 Z Z G Y Y T ! ~ ] ] ]  . .....X.........X.X.X.X.",
"+.O.O.+.O.O.O.O..... . . . . .] ] ] ` ~ ~ W U A A c 9 % @ + - 0 g g p i i i i i i i i i a a a a a b A F b k p p i p p a g i i r 0 0 r i e 0 e r r g b M c c Z S H W ~ ~ W D G Y O.4.y.m.V.C.Z.C.T.W.].].W.T.C.V.C.Z.W.W.W.!.].'.].W.W.T.T.T.T.T.].].[.[.oXoXoXoX{.}.n.y.:.p.N.V.W.!.'.V.:.0.n.B.8XmXmXGXJXGXVXmXmXmXmXmXGXDXGXxX9X7X5XeX3Xm.Z.<X;X;X'.W.W.[.4X5X!.[.5X7XDXGXZXZXZXZXZXZXZXZXZXZXNXNXZXZXZXZXZXZXBXBXZXAXZXZXZXZXZXZXZXZXZXZXZXZXZXZXZXZXZXZXZXZXZXZXZXZXAXAXAXAXZXZXZXZXZXAXAXAXAXAXZXNXNXZXZXZXZXZXZXZXZXZXZXZXZXZXNXvXZXZXZXZXZXZXZXZXJXZXZXZXZXZXZXZXZXZXZXZXZXZXZXZXZXZXZXZXZXZXZXZXZXZXZXZXZXZXZXZXZXZXZXZXZXZXZXZXAXAXAXAXAXAXAXAXZXZXZXZXZXZXZXZXZXZXZXZXZXZXVXGXVXhX{.'.>X>X[.Z.V.T.>X1X7X>XV.C.[.tXsX7XxXZXZXZXZXZXZXZXZXAXAXAXAXJXDXbXtX>X0...p.N.V.N.B.v.n.a.n.N.Z.[..X[.[.[. X[.[.].].W.T.V.T.].[.}.}.}.}.Q.C.T.W.W.!.>X'.W.T.Z.C.C.Z.N.N.N.A.N.y.&.T E W ! ] ~ E K Y ' ~ Y W I M h h i e e e r p h a p h h p g g g a p h c Z S Z b c b b c k k k k k k k k k z z k l i - @ o $ e D D G Y Y E ! ` ] ] ] [ ..X.X.X.X.O.+.+.+.X.X.X.X.",
"6.O.+.&.O.O.O.O.X..... . .[ ] ] ] ] ] ] ] ~ R U M M l 0 - + O = 0 p h h i i i i i i i i a a a a p p p k c a p p i p p p g p p i 0 i g g t r e e r i g c c c k c H E ! ~ / ! / | ..*.0.m.[.T.C.C.C.C.T.W.W.T.C.C.C.T.W.W.W.W.!.].].].W.W.W.W.W.W.].].[.[.oXoXoXoXoXZ.0.0.w.a.N.V.W.'.W.a.0.a.C.W.mXGXVXmXGXVXmXmXmXmXmXmXDXGXmX7X9X7XeXeXoXm.[.2X:X;X'.W.!.>X5X7X;X[.3XtXGXJXJXZXZXZXZXZXZXZXZXZXZXNXJXJXJXJXJXZXZXZXZXZXZXZXZXZXZXZXZXZXZXZXZXZXZXZXZXZXZXZXZXZXZXZXZXZXZXNXNXNXZXZXZXZXAXZXZXZXZXZXZXZXZXZXZXZXZXZXZXZXZXZXZXZXZXZXZXZXZXZXZXZXZXZXZXZXZXZXNXvXZXZXZXZXZXZXZXZXZXZXZXZXZXZXZXZXZXZXZXZXZXZXZXZXZXZXZXZXZXZXZXZXZXZXZXZXZXZXZXZXZXZXZXNXNXNXNXNXNXNXNXvXZXZXZXZXvXvXvXVXVXnX<X'.;X<X{.`.a.C.{.3X7X2XW.W.`.5XhXsX8XvXVXZXZXZXZXZXJXJXJXJXLXLXJXDXsX>Xp.+.p.C.N.S.W.n.a.a.a.n.V.T.[..X[.'.[.].Q.Q.W.T.U.T.[.}.oXoXoX}.Q.U.T.T.W.W.>X>X[.W.Z.Z.C.C.A.V.V.C.V.p.-.] ] ] ]  .] ` ^ E Q ^ E G F b l h g p p r p p g k k g h a g g g g p p a k b z g k k c b z k k k k g k g g p a k k h - @ @ @ 0 Z H G Y Y E W ~ ] ] [ ......X.X.X.X.O.O.+.+.+.+.+.+.",
"p.;.+.+.+.O.O.O.X.X....... . . .} ] ] ] ] ] / R A N M l r 1 + X = 0 g i i i i i i i i i a a a a k p e p k a p p i p a a a g g g g l l h p i t r i p p h a k b D I I W / UXX.2.-.+.*.;.p.[.W.C.A.C.C.C.T.W.W.T.C.T.W.W.W.Z.T.W.W.`.].].W.W.W.W.W.`.`.].'.{.{.}.].W.a.>.y.a.N.Z.`.1XtX;Xn.a.M.T.4XGXGXmXnXGXmXmXmXmXDXDXDXmXmXsX7X5X5X5X4X].T.1X2X:X;X'.!.'.<X5X7X5X>X3XtXDXGXVXVXVXVXVXVXVXVXVXVXVXVXGXJXJXJXJXZXZXZXZXZXZXZXZXZXNXNXZXZXZXZXZXZXZXZXZXZXZXZXZXZXZXZXmXvXZXNXNXNXJXJXJXJXJXJXNXNXmXZXZXJXZXZXVXVXVXVXVXVXVXVXVXVXVXZXJXJXZXZXZXZXZXZXZXZXZXNXmXvXmXZXZXZXZXNXZXZXZXZXJXJXJXJXJXJXJXJXJXJXZXZXZXZXJXZXZXZXZXZXZXZXVXVXVXVXZXZXZXZXZXZXZXZXNXNXNXNXNXNXmXmXmXvXvXvXvXvXvXmXnXnX;X'.:X>X;X{.`.`.[.>XtX1X[.].R.1XaXsXsXnXGXVXVXVXVXGXGXJXJXJXDXLXJXDXsX>XV.>.y.T.!.7XgX2XC.n.p.a.n.V.W..X[.Q.Q.Q.Q.Q.W.T.T.].oXoX.XoXoXQ.U.U.T.W.W.!.[.[.W.Z.U.Z.C.V.C.C.V.n.i.:...} &.+.+.X...] ` Q E K F V z p h g h g g a a k c b b b k a g g p p p p p a k a i p a k l z k k k g a a g g a k g e = X + @ e Z F Z Y Y E ! ` ]  .......X.X.X.X.X.X.O.O.+.+.+.+.&.&.",
"k.i.+.+.&.O.O.O.X.X.X....... . .} } } ] } ] ] / ! D b l B i > @ O $ 3 p i i i i i i i i a a a a r e r h h p i p i p a a g g k c Z D M g h g p i p g p r e u c G I H Y / | 2.2.-.;.+.+.6.V.C.Z.Z.V.V.V.C.Z.W.W.Z.T.W.W.W.C.C.T.W.W.`.].].`.`.`.W.`.`.].].[.[.].T.a.y.>.p.N.Z.[.4XtXaX>X!.W.'.!.>X9X9X7X8XsXsXsX8XsXsXsXsXyXyX2X9X5X4X4X4X].oX>X<X;X;X[.;X[.>X5X7X7X3X5XtX7X8X7X7X7X7X7X7XsXsXsXqXsXsXsXsXsXsXsXsXsXsXsXsXqXsXqXqXqXsXyXyXsXsXsXsXsXqXqXqXqXsXsXsXxXxXxXxXxXxXxXxXxXxXxXxXxXxX8X8X8XsXsXxXxXxXsXsXsXsXsXsXsXsXqXsXsXsXxXxXxXxXxXxXxXxXxXxXxXxXsXqXqXsXsXsXsXsXsXsXsXsXxXxXxXxXxXxXxXxXxXxXxXsXsXsXsXsXsXsXsXsXsXsXsXsXsXsXsXsXsXsXsXsXsXsXsXsXyXsXqXsXsX8X9X9X9X9X8X7X7X8X9X5X`.'.:X>X>X1X5X3XOX4XtX>X[.>X[.}.1X5XtXtXtX8XqXqXsXsXsXsXsXsXyXyXyX9X2X;X[.[.[.[.[.2XtXtX[.n.p.p.a.n.C.].[.W.Q.Q.Q.Q.W.T.W.Q.oX}.].}.].C.C.W.T.W.!.`.].`.Z.W.U.C.C.V.C.V.k.y.:.&.+.&.;.=.&.+.X. .] ! K F b a p i i g k k z z z c M Z G Z c k g g p p i i i p k k h i i h z k k k g g a a g g p k e % o O % t Z F F H Y T ! ~ ] ]  .......X.X.X.X.X.X.O.O.O.O.&.&.&.&.",
"m.a.0.&.+.+.+...X.X.X.X.X...................o...] ! H A b Z h ; @ O $ < p i r i i i p p g g p p r r g g i i i i p p h k k z Z E ] | Z k k p k g a a a a p p g k n G W / X.$.-.:.=.&.&.+.,.0.n.Z.C.V.V.V.V.Z.T.W.T.W.W.W.W.T.C.Z.U.T.W.W.!.!.!.!.`.`.`.[.[.[.C.p.y.p.n.N.W.'.[.,X>X>X[.].!.!.!.!.W.W.`.`.`.'.[.{.[.[.{.{.>X>X>X;X[.[.[.}.].].!.'.].`.].`.'.[.[.{.2X2X0X<X;X[.[.:X{.{.{.{.{.{.{.{.{.{.;X{.{.{.{.{.{.{.{.{.[.[.[.{.{.{.{.>X{.{.;X;X{.{.:X{.{.{.{.;X;X;X;X;X;X;X;X;X<X<X<X<X;X;X;X{.{.{.>X<X>X;X{.{.{.;X;X{.:X:X:X;X;X:X:X;X:X:X:X:X;X;X;X;X;X;X;X{.{.{.{.;X{.{.{.{.>X{.;X>X>X>X>X2X2X2X2X2X2X2X2X2X<X>X>X>X2X2X<X<X;X;X;X;X;X;X;X;X;X;X;X;X;X;X;X;X;X;X;X:X:X:X:X:X;X;X<X>X>X].`.}.3X3X1X1X3X5XeXeX4X{.].[.].].].].[.>X>X{.>X>X>X>X>X>X>X>X[.[.`.`.'.'.!.W.W.`.[.>X1X1X'.n.M.v.p.p.m.V.C.!.W.W.W.W.W.W.W.!.].[.].W.C.C.W.].W.W.W.W.W.W.T.Z.C.C.C.C.A.a.>.&.&.&.&.-.-.-.=.&.$.] R F b v z k g a p h l k k z c b Z K ~ Y F x g p g g i i i p g h k h i i g k k k g g k a p g k e % O O - p M F G H Y E W ~ ] ] [ ......X.X.X.X.X.+.+.+.+.+.+.&.&.>.i.",
"m.k.p.0.&.+.+...X.X.X.X.X.X.X...........X.X.X.....] ! H M b M h > @ O $ , i p q i p p a a p p i r g g p i i i i p p h k z n W =.:.-.] n x k z k a a a a p g k c b Z H W X.&.=.&.&.&.&.+.X.&.>.p.N.C.V.N.N.C.Z.W.T.W.W.W.W.W.W.T.C.U.T.W.!.!.!.`.`.`.`.W.W.Z.n.y.y.a.N.V.W.T.W.'.Q.W.T.T.T.W.W.W.T.W.W.W.W.W.W.`.].].].].].'.'.W.Z.Z.T.C.T.T.C.Z.Z.T.W.].W.Q.'.'.[.[.[.'.!.!.W.!.[.[.[.].].`.`.`.`.`.`.`.`.`.`.`.].].].].W.W.W.W.`.`.].].'.'.'.[.[.[.[.].`.`.].[.'.[.[.[..X.XoXoX[.[.[.[.[.[.[.[.[.[.[.[.{.[.[.[.[.[.[.[.{.{.[.[.[.[.[.[.:X:X:X[.[.[.[.[.[.[.}.}.{.{.{.{.}.[.[.}.oX}.oXOXoX>X>X>X>XoXoXoX>X>X>X>X}.}.}.[.[.[.[.[.[.[.[.[.[.[.[.[.[.[.[.[.[.[.[.[.[.[.[.'.[.[.[.[.W.W.!.].`.T.R.[.].].].].}.oXXX}.W.`.].W.'.'.'.'.'.[.[.[.[.[.}.[.[.[.[.[.W.W.T.T.W.W.W.Z.W.W.W.W.!.`.W.N.V.B.n.n.a.w.n.Z.W.W.W.W.!.!.].].].W.T.C.C.W.`.].W.W.W.W.T.T.Z.Z.C.C.A.V.p.>.&.+.&.&.-.&.:.-.&.$.] T A b b b z k k h p a p k b b M G ! ] } ~ E F k g g g i i t p i p h h h i i g k k g g g p p a 0 @ + @ - t b Z G H Y E ! ~ ] ] ....X.X.X.X.X.X.X.X.+.+.+.+.&.&.;.6.y.a.",
"m.k.a.k.0.-.+.+.o.......o.o.o.....o.+.+.+.+.+.+.X.o.] ! U A b l p > @ X + 6 p i p p a a i p p p g g p i i i i i p p g k Z T &.w.>.>.>.] m b Z k a a a a p g c c b b Z G ! o.&.&.=.&.&.&...X.&.,.y.N.V.N.N.V.A.Z.T.T.W.W.W.W.W.W.C.C.U.T.W.W.`.W.`.`.W.Z.C.n.y.0.p.N.Z.C.Z.n.n.n.V.V.M.m.m.m.m.m.M.M.m.m.n.n.k.a.a.p.w.0.0.p.a.a.p.y.0.0.:.:.:.>.4.4.q.y.q.q.p.p.n.a.a.p.p.p.p.a.k.k.k.a.a.a.a.a.a.a.a.a.a.a.a.a.a.a.v.v.p.p.p.p.p.p.a.a.p.p.p.p.i.i.i.i.i.y.i.i.p.p.a.a.a.a.a.a.a.a.a.a.k.k.k.k.k.k.k.k.k.k.a.a.a.a.a.a.n.n.n.n.v.n.a.v.v.n.n.a.a.a.p.p.k.k.k.k.n.n.n.n.p.p.p.p.k.k.c.V.V.N.N.m.m.k.n.n.n.n.n.n.p.p.p.p.p.p.p.p.p.p.a.a.p.p.p.p.p.p.p.p.a.a.a.a.a.a.a.a.j.j.j.j.p.p.i.i.i.i.p.k.p.s.s.s.s.s.s.p.p.p.p.6.6.6.6.6.w.0.0.q.p.p.p.q.y.w.y.y.y.y.i.p.a.n.n.n.n.v.a.p.p.v.N.V.C.W.Z.V.>.n.C.p.Z.W.W.!.!.!.!.!.W.Z.C.C.W.!.`.`.W.W.W.Z.T.T.Z.Z.T.T.N.p.-.o...&.&.-.&.&.-.&.X.] H Z b c b c z z k g a p 0 p b G Y ~  .o.o.} ] E b k g h i t t p i i i g g h i i g k g g p g a 6 @ O @ - t b Z Z H Y E ! ~ ] ] ..X.X.X.X.X.X.X.X.X.X.+.+.&.&.;.;.0.p.a.i.",
"m.a.p.a.k.y.:.-.&.+...o.o.....o.&.&.-.;.-.-.-.-.&.+...] R U A l b i ; O o - 0 g p a a a u i p p g p i i i i i i p p g k D ..>.>.<.>.>.:.o.G n k a a a a g k c b z b n M F W } X.&.&.&.&.X.X...o.&.0.n.N.N.V.C.Z.T.T.W.W.W.W.W.T.U.C.C.U.T.W.W.`.].`.T.Z.N.y.>.6.p.C.!.Z.B.w.:.:.>.>.6.6.6.6.6.6.0.6.:.:.;.=.&.+. ...X.+.,.,.=.+.X...] ] o.o.........O.O.O.O.+.+.+.O.O...+.O.X.+.+.+.X.X.+.+.+.+.+.+.+.+.+.+.+.X.$.X.X.X.&.&.&.&.&.&.&.&.O.O.+.+.X.X.X.X.&.&.X.X.&.&.+.+.O.+.+.+.X.X.X.X.X.+.+.+.+.+.....+.+.o.o.o.X.X.X.X.X.X.X.X.X.X.X.X.X.X.X.X.o.........o...X.X.X.o.o...........+.-.-.&.+.+.+.+.+.+.+.X.X.X.o.o. .o.......o...X.X.X.o.o.o.o.o.o.o.o.+.O.O.O.O.+.+.X.O.O.O.O.+.O... . ... . . .o.o.o.......] ] ......] ] ] ] ] ] ] [ ............o.o.o...+.+.=.=.,.:.-.-.-.-.X.,.y.n.V.W.W.V.:.p.p.w.n.Z.W.!.!.!.W.W.Z.C.Z.W.].].W.W.W.W.Z.Z.T.T.T.Z.T.C.p.-.o.o.o.X.-.&.&.+.+.o.] Y M b b c c l z z z k a p 7 0 b ! ] }  ...o.o.o.] G c h h i t t p r r r t g g g p h g g g p g 0 - + + - t b M Z H Y E ! ~ ] ]  ...X.X.X.X.X.X.X.X.X.X.+.+.&.;.:.5.j.m.a.:.",
"k.p.p.p.a.V.k.:.;.-.+.+.+.+.+.+.>.>.5.6.6.6.5.>.;.-.&.X.] W H Z b a 6 - = $ = e a a i i p g g i r e r p i i i i r t p k ] -.>.>.:.,.:.:.} Y n m G M k p x k c k b b b b b Z Y ] &.=.$.X.X...o...o.X.0.n.N.V.V.C.T.T.W.W.W.W.W.T.W.U.U.C.V.Z.W.`.W.`.`.B.p.n.i.p.p.n.V.!.W.=.&.+.&.&.&.&.&.&.*.&.&.+.X.X.X.X.X.X.] ]  . ...X...] ] ~ ~ ] ....................O.O.............X.X.......o.o.o.o.o.o.o.o.o.o.o.o.o.o.o.....+.+.+.+.+.+.+.+.+.X.X.X.....o.o...o.o.o.............o...o.o.o.o.........o...o.o......... . . . . . .............................o.o.o... . . . .........X...+.;.+.+.X..... .........X.X...O.O.O.O.O.O...X..................................... . . . . . . . . . . . .} } } } ] ] ] ] ] ] ] ] ] ] ] ] ] ] ! ~ [ ] [ ........o.o.........X.X.X.X.X.X.X.X.&.X.=.n.C.S.W.W.p.>.<.w.u.C.W.`.!.!.W.Z.B.Z.!.`.].].].].W.T.T.C.W.U.C.T.C.y.&. .} o.X.&.X.+.+.....~ G m b b b b c c z z k k z z z Z T ~ ! ! ` ] .. ...] / Z k i r r i p p i r r r i p h i i p g k r : = @ ; s x b V G Y E ! ` ` ]  ...X.X.X.X.O.X.X.+.+.+.+.&.&.+.;.q.j.m.a.0.>.",
"p.p.p.p.p.p.i.0.0.6.>.:.-.+.+.-.6.0.0.0.0.0.6.6.5.;.-.&...] T G F M c t 6 ; = > e p u p k l g 0 5 5 9 r i i i i r t p z ] =.-.$.&.$.X.X.] E Y Y W G M k c c c c b b b b m n Z F ~ o.X.$.X.X.X...o.o.$.>.k.N.V.V.C.T.T.W.W.W.W.W.W.W.U.U.V.C.Z.W.`.W.!.w.>.a.C.T.V.n.C.W.a.&.X.X.X.X.....O.O................. . .[ [  .[ X.+.O...~ ~ ] ] } } }  .[ [ [ [ [  ........... .........o. . .} } } } } } } } } } } } }  .......X.X.X.X.X.X.X.X.X.X.+.+.o.o.o.o.o.o.o.o......... . . . . . . . .o.o. . . . . . . . . . . . . .} [ [  . .[ [ [ [ [ [  . . . . . . . . . . . . . . . . . ... ...&.X.X.....] ] ]  .................................................o.o.o.o...[ ] ] ] ] ] ] } } } } ] ] ] ] ] ] ] ] ] ] ] ] ] ] ] ] ] ] ] ] ` ! ! ] ] ]  ....... . .o.o.....o.o.o.o.o.o.....X.X.=.a.n.n.V.Z.W.Z.n.w.<.B.W.W.!.W.C.N.C.S.!.`.].].].].W.T.T.C.C.U.T.C.p.;. .}  .o.X.+.X.&.X.} Y S b x b b b b c c c c z b Z D H ~ ] ! E ! ` } ...... .W Z k r r i p p p i e e e r r i i p p p g 0 = @ - p b m V G Y ! ` ]  . ...X.O.O.X.+.+.&.X.X.+.+.&.&.&.;.;.6.i.j.k.p.0.>.",
"p.p.p.p.p.0.6.s.y.i.6.6.>.+.+.>.i.y.0.y.y.y.6.6.6.5.;.*.+. .! K Y G A Z b t ; ; 5 p p h k k i 5 3 3 6 r p p p p t p h l Y ] ..] o...o...| | o.X.| } Y b c c m m m m b b b b n M F W ] o...X.X.X.X.o. .o.6.k.N.V.V.C.T.T.W.W.W.W.W.W.W.U.U.C.C.Z.W.`.W.w.0.w.N.Z.C.B.Z.a.=...........o. . . . .} ] } } } } } } } } } } } ..X.X.X.W ~ ] ] ] ] ] ] [ [ ] ] ]  .......} } } | | ....] ] ] ] ] ] ] ] ] ] } } } }  . . . . . . . . . . . . . .o.o...o. .......}  ... . . . . . . . . .} } } }  . . . . . . . . . . .[  .[ [ [ [ [  . .[ [ [ [ [ [  . . . . . . . . . .} } } } } } } } } ] ] ......} ] ] ] ] ] | | }  . . . . . . . . . .} ] ] ]  . . . . . . . .[  . .] ] ] ] ] ] ] ] ] ] ] ] ] ] ] ] / / / ~ ~ ~ ~ ~ ~ ` ` ` ` ` ] ] ! W W ` ] ] ]  . . . . . . . . .| | | ......} } } o.X.>.w.p.n.B.n.B.n.>.-.N.S.`.S.C.N.N.Z.W.`.`.'.`.`.`.W.T.T.C.C.U.V.p.+...}  .....o.X.o.o.} E Z x x x b b c c b b b b b Z H Y ] ..] ~ ~ ] }  .....] W F M c h i g g g p i e 0 0 e e r i g g e g 0 ; - s v V V G Y W ` ]  .....+.+.&.&.+.&.&.&.+.+.+.+.&.&.-.:.5.i.h.i.i.i.0.0.",
"w.y.i.p.k.0.6.s.s.i.6.6.5.&.-.6.i.i.y.y.y.y.6.6.6.6.4.;.-.+.] E Y G H T A z 3 ; ; e m c g p e 5 5 5 0 i p p p p p h k b b Y ] ] } ..X.&.-.:.>.0.>.<.$.I b b b b m m b b b b m b n S Y ~ } ..X.X.o.o.} } +.6.k.N.V.C.C.T.T.T.W.W.W.W.W.W.T.Z.V.V.A.`.Z.M.C.v.N.A.M.C.Z.-.] [ ........ . .] ] ] ] ] } } } } } } } } } } } ] ..X...T ~ } ] ] ] ] ] ] ] ] ] ] ]  .} } } } } | | } } ] ] ] ] ` ` ` ` ] ] ] ] } } } } }  . . . . . . .} } } } } } }  .} } } } } } } }  . . . .} } } } } } } }  . .} }  . .[ [ [ [ [ [ [ [ [ ] ] ] [ [ [ ] [ [ [ [ [ [  . . . .} } } } ] ] ] ] ] ] ] ] } ] ] ] } } ] ] ] ] ] ] { { } ] ] ] ] ] } }  . .] ] ] ] ] ] ] ] [ [ [ [ [ [ [ [ ] ] ] ] ] ] ] ] ] ] ] ] ] ] ] ] ] / ~ ~ ~ ! ~ ~ _ _ ` ` ` _ _ ~ ! ! ! ! ` ` ] ] ] ] } }  . . . .} } } } | } ] ] ] ] / } -.y.n.N.[.S.y.-.y.B.Z.Z.B.B.B.C.Z.!.`.`.'.`.`.`.W.T.T.C.C.V.i.&. . .o.o.o.o.....} ] E Z m x x z c c c c b b b b F H Y W ] ] } } | } o..... .~ F b c M c p g g g i i 0 0 0 0 0 e i h h 0 0 0 5 i b v n F Y W ` ]  ...+.&.&.&.&.&.&.&.&.&.+.+.+.+.&.;.:.:.5.i.i.6.6.0.0.y.",
">.0.p.k.y.i.i.s.s.i.i.8.6.3.4.i.i.i.q.q.q.q.q.q.6.6.6.5.&.*...` ! W Y U A l e > > 5 g c p i q 9 6 0 i p p p p g k k k k k n Y ] } o.&.:.:.:.0.p.y.>.=.] G n b b b b b b b b b b b b V F E  .X.o...o.o.} } +.0.k.C.C.C.C.C.T.T.W.W.W.W.W.W.W.T.Z.V.m.W.a.M.V.W.W.W.W.n...] ] ] ] ] ] ] ] ] ] ] ] ] ] ] ] } } } } } } } } ] ] ] ] ! ] ] ] ] ] ] ] ] ] ] ] ~ ]  .] ] ] ] ] ] ] ] ~ _ ] ] ] ` ~ ` ] ` ` ` ` ] ] ] ] ] ] ] ] ] ] ] ] ] ] ] ] ] ] ] ] ] ] ] ] ] ] ] ] ] ] ] ] ] ] ] ] } ] } } ] ] ] }  . .] ] ] ] ] ] ] ] ] ] ` ` ] ] ` ` ` ` ] ] ] ] ] ] [ [ ] ] ] ] ] ] ] ] ] ] ] ] ` ` ~ ~ ~ ~ ! ! ! ~ ~ ~ ] ] ] ] ] ] ] ] ] ] ] ] ] ] ] ] ] ] ] ] ] ] ] ] ] ] ` ` ! ! :.y.] ~ ~ ]  .} } } ] ] ` ` / ] ] ~ ! ~ ~ ~ ` ` ` ! ! ! ! ! Q E ! E ~ ~ ` ] ] ] ] ] ] ]  .}  . . . .} } ] ] ] ] ` ` =.w.0.M.`.Z.y.p.C.S.v.a.n.B.Z.S.!.!.'.'.'.'.].].T.T.C.C.N.i.&. .o.o.o...X.X.&.&.~ G n b z z k k c c c c b b b A I Y ! o.o.o.o.o.o.} ] } X.~ F b k z c m h g h g p i e 0 9 0 e i r p p 0 6 3 r k z z Z Y E T ] ..+.&.*.;.;.;.;.;.-.-.;.-.;.-.*.&.-.;.:.0.i.t.8.t.i.i.y.6.",
":.>.w.y.q.q.i.i.s.s.i.i.q.6.6.i.i.q.q.q.q.q.q.q.0.6.6.6.;.*.+.] Y Y H G A A k 3 ; , 5 i p i q r 0 i p p p p p g k k k k g k n Y } X.X.&.;.:.:.0.p.>.X.] ~ Y Z Z b b b b b b b b b b b b Z E } o.....o.o.] } &.0.m.V.V.C.C.T.T.T.T.T.T.T.W.W.W.T.].0.0.X.p.V.W.W.Z.W.>.] ] ] ] ] ] ] ] ] ] ] ] ] ] ] ] ] ` ` ` ` ` ` ` ` ] ` ! E W ` ] ] ] ] ] ] ` _ _ ~ ` ]  .] ] ] ] ] ] ` ~ ! ~ _ ~ ! &.+.] ] W W ! ! W ! ! ~ ] ] ] ] ] ] ] ] ] ] ] ] ] ] ] ] ] ] ] ] ] ] ] ] ] ] ] ] ] ] ] ` ` ` ` ` ` ` ` ] ] ] ` ` ` ` ` ` ` ` ` ` ! ! ` ` ` ` ` ` ` ` ` ` ` _ _ _ ] ] ] ] ` ` ` ` ` ` ~ ~ ~ ~ / ~ / ] ~ ~ ~ ~ ~ ~ ~ ~ ~ ~ ] ] ] ] ] ] ] ] ] ] ] ] ~ ~ ] ] ] ] ] ] ] ] ` ~ ~ ~ ,.X.] ~ ~ ~ ` ` ` ` ` ] ] ] ] ! ! ~ ! ! ! ! ! ! ! ! ! ! ! ! E Y Q E ! ~ ~ ` ` ` ` ` ] ] ] ] ] ] ] ] ` ` ` ` ~ ! ! W +.0.0.w.n.C.n.a.n.a.>.:.n.V.C.Z.!.'.`.'.'.'.].`.T.C.C.V.i.-. .] o.o.o.o.X.X.o.] H n x k a a k k z z c c b M D I H T ] X.......o.o.o.X.o.~ G m z k k c c h g h g g i e 0 9 r i 0 0 e p p 9 e z z z b F E ` ! ] +.*.;.;.;.;.;.;.;.;.;.;.;.;.;.;.;.;.*.4.i.h.i.i.i.i.i.0.>.",
",.:.>.6.6.6.0.q.i.s.s.i.y.i.y.y.i.q.q.q.q.q.q.q.y.0.6.4.;.&.X.| ! Y Y R Y R M 5 > , , 2 i q 0 i i p p p p p g h k k k k g a k m Y ] ..o.&.;.:.:.w.>.&.} ] ~ Y S Z M b b b b b b b b b b m Z E ] o.....o.} } o.-.y.k.V.C.C.C.T.T.T.T.T.T.T.C.V.k.k.&.;.=.0.V.W.Z.V.n...Q ` ` ` ` ` ` ` ` ` ` ` ` ` ` ` ` ` ` ` _ _ ! ! ! ` ! T K T ~ ] ] ` ` ` ` ~ ! ! ! _ ] ] ! ~ ~ ~ ~ ~ ! W W ! W ` ] n.a. .] ! ! ! ! ! ! ~ ~ ~ ~ _ _ _ _ _ _ ~ _ _ _ ~ ~ ! ! ! ! ! ! _ _ _ ! ! ! ! ! ! ! ! ! ! ! ! ! ! ! ! ! ~ ~ ! ! ! ! W W ^ ^ Q Q E Q ! ! ! ! ! ! ! ! ! ! ! ! ! ! ! ! ! ! W W W W W W ! ! W W W W W W W W W W ! W ! ! ! ! ! ! ! ! ! ! ~ ~ ~ ~ ~ ~ ~ ~ ~ ~ ~ ~ ~ _ ` _ ! ! ~ ~ o.E ~ ~ ! E ! ! ! ! ! ` ` ] ] Y Y ~ ~ ! W E ! ! ! Q ^ E E Q H G E E Q ! ~ ~ ` ` ` ` ` ` ` ` ` ` ` ` ` ` ! ! W E T Y ] ,.6.6.y.M.n.p.,.>.0.-.p.n.V.Z.'.'.'.'.'.'.].W.C.C.V.y.;. . .} ....o.o.o.} ~ Y Z n b x k k g a k z c b M F Y ! W ] ..X.X.X.X.X.o.X.o.~ S x z z g k k c h g h g p i e 0 r i 0 > 2 6 p z p h l l z b H ` ] ~ ] +.*.;.;.:.:.:.:.:.:.:.4.5.5.5.:.:.&.;.0.i.i.i.s.s.i.0.0.>.",
"-.-.;.:.5.6.6.6.q.i.s.s.p.p.i.y.i.q.q.0.0.q.q.q.y.0.5.;.X.....X.] ! ! | { ! M 0 2 2 < ; 9 6 9 i p p p p p g h l k k h k k a a a k F ~ } o.&.;.:.:.>.,.&.} ] ~ Y F Z b b b b b b b b b b n b n Y ] o.....}  . ...-.y.m.C.C.C.C.T.T.Z.T.T.C.m.i.6.;.;.:.p.a.m.V.m.k.&.] Y ! ! ! ! ! ! ! ! Q Q ! _ ' ` ` ` ! ! ! ! E E E E E E Y K T ! ] ` ` ` ` ` W W W W W ! W Y W W W W W W W W W E ] =.6.p.] X.............o.o.] ] ] ] T T T T T T T T T T T T T T T T T T T T T T T T T T T T T T T T T T T E E E T Y Y Y Y Y Y Y Y Y E E Q ! ! ! ! ! Q Q Q E ! Q T Q Y Y Y Y Y Y Y Y Y Y Y Y H H H H G H H Y Y Y Y Y E E E E E E E E E E E E E E T E W W W W W W W W ! ! W E W ~ W Y ~ ] ! Y E E E E E E ! ` ] H H ] ] ~ W T Q Q Q E Q E E E F F E E E Q ! ~ ! ! ! ! ` ` ` ` ! ! ! ! ! ! Q Q T Y Y Y ! X.,.4.>.p.n.p.>.&.>.>.,.p.M.Z.'.'.'.'.'.].`.T.C.V.y.:... . . . .o.o.o.} ~ H n Z Z Z b n x k p g k b b A Y ! ] ..&.$.o.$.&.&.&.} } ! S k a k k a k k c h g g p p i e 0 g 0 ; @ = 2 r l b l b b b Z Y ] ] ! ] ..&.&.*.;.:.:.:.:.4.4.5.6.6.6.4.:.*.:.q.i.8.i.i.q.0.0.0.>.",
"-.-.-.;.:.4.6.6.0.i.i.i.i.i.i.i.i.i.i.i.i.i.q.q.0.0.;. .W W ~ ] ] ~ W ~ ] Y k 5 0 6 2 , 5 - > i i r i r p g g g l k h g k k k k a x F !  ...&.;.,.>.>.>.-.o.] ] W A M A b b M Z } ~ G x Z Z n Z Y ~ | o.X.o.} } o.&.0.m.C.C.V.V.C.C.V.V.k.y.6.:.:.;.6.k.m.k.y.k.>.` Y K Y T E Q Q Q Q Q E E E E E E E E T Y T Y T T E ! ! T K K Y W ! W ` ~ W W W W E E ] ] Y Y E E W E E W ! W W E o.p.B.v.p.p.p.p.p.p.p.p.p.u.p.w.w.] H F H H L L I I I I Y Y Y Y K K Y K L G H H H H F H Y T H H H H H H H H Y Y Y H F G H G K K Y Y Y Y E o.` ! ! ! E Q E Y Y Y Y Y Y Y Y Y Y H H G G H H H F F F F F F F F K K K K K K K K Y Y T T Y Y Y Y Y Y Y Y Y Y Y Y Y Y T T W W W E T Y Y H ] &.W E ! ! E Y Y E ! ` ! Y I ~ ~ ~ ! T E E E E Q Y K K Z Z K H E E Y Y Y Y E E E E Y Y Y Y K Y Y Y K K Y K H H Y _ X.;.-.p.n.p.a.>.-.:.=.,.a.M.W.!.!.!.W.W.W.T.C.0.+. . . . . . ... .` Y Z n S S Z S H W H z k a z b M E ~ ] o.&.&.&.&.&.X.$.&. .W n x g k k k a a k k k g p i p i i u i > @ + @ ; 7 a b A A M Z G ! ] ] ~ T Y Y E o.-.;.:.:.:.:.>.5.6.6.6.6.6.6.q.q.q.h.h.i.q.6.6.6.>.",
"-.-.-.;.;.:.4.4.6.0.y.i.i.i.i.i.i.i.i.i.i.i.i.y.5.&.} ` W W ~ ] ..! Y I R A g 0 p i 0 5 > & = 3 0 r 0 i p p g g l k h g g g k k a a x F ] o.+.&.-.:.>.>.>.&.o.o...! G M M M Z H ! W T H n M Z Z Z H ! ] X.X.} }  ...&.;.k.V.V.V.C.V.V.m.p.6.:.;.;.;.y.m.V.T.m.s.O.E E Y E Q ! ! Q Q Q Q E E E E Q T K K K K L L K Y T T Q Q T K Y E W E W W E T T E E W ] ] ! ! ~ ~ E W E ] ] ] ~ / -.p.B.n.v.v.v.v.v.v.v.n.n.n.n.n.a.&.~ ~ _ _ ~ ~ ~ ~ ] ] ] ] ] ] ] ` _ _ _ ! W W W W ! ~ ] ] | ] ] ~ ~ ~ ~ ~ ` ] ` ! Y ~ ] ] ] ] }  . .o.o.;.+. .} ] ]  .} ] ........o.X.&.=.] ] _ _ ~ ~ ~ ~ ~ ~ ~ ~ ~ ~ ~ _ ~ ~ ~ ~ ~ ~ ~ ! ! ! ! ! W W W W ! ! ! ! ! ! ! ! ! ! ~ ~ ~ ~ ` ` ~ ! ! ! ] X.] ~  .` ! E E  .&.&.o.! Y H E / ] W Q Q Q Q _ ! E Y G G H K Y E E Y Y Y Y E E E E E ! ! ! ! ! ! Q Q W W E E T T ] O.=.w.a.p.a.0.=.=.,.=.0.p.C.W.W.W.W.W.W.U.p.&. .}  . . .o. .] ` E F n Z F H Z S Y ~ W Z z b b D I ] | X.&.&.&.&.&.$.&.&.&.` n k k k g k k a a k k k g p i p i u e 5 & o @ @ = 2 p k M A M C Z T ~ ] ~ T H K E W o.&.;.:.:.:.:.5.5.6.6.6.6.q.8.8.h.h.h.8.6.6.4.>.:.",
"-.-.-.;.;.;.:.:.6.0.i.i.i.y.i.i.i.s.s.s.s.i.i.6.+.~ E ] T E ! ] ] W D Z A l i r g g r 5 - = = 1 6 k h p p r i h l k h g g g g g a a a x H ] o...&.,.>.>.>.,.&.X.X.o.] Y G S H ~ } ~ E Y Y b b F n n G W } o.o.}  . ...o.>.a.V.V.V.V.m.m.0.:.;.:.-.>.s.N.T.].T.s.;.+.+...+.+.*.*.+.+.+.+.+.+.o.+.+... .} } } ] [  .+.&.X... .] ] ]  ... .......o..... . .[ ] 0.:.....~ ] >.y.>.w.w.u.v.N.u.y.y.u.u.u.u.u.u.p.p.p.p.a.p.w.>.>.0.w.0.0.0.0.0.0.0.w.w.w.0.0.0.0.0.0.0.>.>.>.>.>.>.>.0.0.0.y.6.6.6.6.0.y.0.6.6.k.V.M.M.n.m.m.n.m.n.V.6.:.;.;.p.a.a.p.b.b.n.b.p.a.n.n.w.0.6.>.>.>.>.>.>.>.>.>.>.>.>.>.>.>.>.>.>.>.>.>.>.>.>.>.:.:.:.:.>.>.>.>.>.>.>.>.4.4.>.4.>.>.>.>.0.w.w.y.>.&.X.&.+. .+.&.o.6.p.a.p.X.~ E Y ] &.=.;.;.;.;.;.&.+.+...} ` } X.-.&. .] ] ] ] ....+.&.;.;.;.;.;.;.-.;.;.=.=.&.&.+.=.6.>.y.p.p.a.y.=.$.=.%.=.w.n.Z.W.W.W.W.C.s.&. .}  . . ...o. .! K G Z Z F Z Z Z F T W Y H M Z Z Y ~ o.&.-.=.&.&.&.&.X.&.X.] S k k a k k k k a a k k k g p i i u e q 2 - $ $ = = 2 6 i z b b b V F Y W W Y H I Y X.=.+.;.:.:.:.:.:.>.>.4.6.6.q.8.i.j.i.q.6.4.:.:.,.;.",
"-.-.-.;.&.*.*.;.:.6.6.i.y.t.i.t.s.s.s.s.i.0.5.:.+.X.} ! G H W ] ! G Z Z k p e r p h q < > , > > > r k p p e r g l k h g g g g g a a a a k H ]  .X.&.:.>.:.,.:.-.,.=.+.] W Y ! X.&.] W E E Y Z m b b n G ! ]  . .o.o. . .+.:.p.m.V.m.m.k.:.-.-.;.&.5.k.V.V.T.R.k.V.k.j.i.j.k.k.k.k.k.k.k.k.k.a.k.k.k.k.k.p.p.a.a.a.V.C.m.y.-.&.>.p.a.n.a.n.n.V.V.V.n.p.w.=.&.n.n.0.p.>.p.B.N.w.n.C.B.v.w.$.$.$.-.,.,.,.,.,.,.,.:.0.>.>.p.a.v.n.B.N.N.N.N.N.N.n.N.N.N.n.n.M.N.V.C.C.C.C.C.C.C.C.C.A.C.B.N.N.N.N.N.V.C.V.m.M.!.[.W.`.`.W.W.W.`.S.W.p.a.n.M.V.Z.W.Z.C.C.C.C.B.N.B.B.V.V.B.M.V.V.N.N.n.n.n.n.n.n.n.n.n.n.n.n.n.n.n.n.n.n.n.n.n.n.n.n.n.n.n.n.N.N.N.N.V.M.M.M.m.m.m.m.n.n.B.V.V.n.p.0.y.=.6.6.>.w.n.V.M.y.>.:.} &.,.y.k.k.k.k.m.k.p.y.p.6.&.>.0.k.N.k.0.0.0.0.0.y.p.k.k.k.k.k.k.k.k.n.M.M.n.n.n.n.n.n.v.a.p.u.p.y.-.X.=...$.:.u.B.C.Z.W.C.i.+.] ]  . . ...o.o. .T F Z S H G Z Z Y ~ ] ~ Y W W Y Y ] &.-.:.-.&.&.&.&.&.X.X.] F a k a a k k k k a a g k k g p i u e q 0 e 9 > - 0 i p 0 0 p k z c b Z F Y W T F H W ,.=.o.&.:.:.:.:.>.>.>.>.6.6.6.i.j.j.q.6.5.:.,.;.;.=.",
"&.&.&.&.;.;.:.:.;.>.6.y.t.i.i.i.s.s.s.6.:.:.*.&.X.X...[ T T ] ] Y D Z m g i e r i h k b l c h 9 > 6 0 p p i q p g g h h g g g g g g k k k m H ] X.X.&.,.,.:.>.>.:.*.&... .] / -.:.] W ~ ! W Y F z b n n Z E ] ] ..] ]  . .o.-.i.m.m.V.6.=.&.&.&.&.y.N.N.V.k.s.s.V.V.V.m.m.N.V.V.V.V.C.C.C.C.C.C.Z.Z.Z.Z.W.a.N.W.W.Z.!.V.:.-.n.C.Z.Z.Z.S.S.D.Z.W.C.v.M.1.&.p.M.n.B.N.B.Z.Z.u.<.N.B.p.-.} / / } } ] ] / / } } } } o.&.>.:.<.p.n.B.B.N.N.N.N.N.N.N.N.n.n.n.n.B.B.C.C.Z.Z.Z.Z.C.V.N.k.k.m.M.N.N.N.N.N.N.V.V.C.Z.W.Z.Z.Z.S.S.S.S.`.[.B.B.W.S.B.p.p.N.v.v.v.n.n.n.v.v.n.n.n.n.M.M.N.m.N.N.N.N.N.n.n.N.N.N.N.N.N.N.N.N.N.N.N.N.N.n.n.n.N.N.N.N.B.N.V.V.k.k.k.k.N.N.N.N.N.N.N.N.n.N.n.a.w.u.0.p.p.p.b.M.M.n.p.<.>.a.>.p.Z.n.M.V.C.C.V.B.V.N.n.y.0.p.Z.C.N.N.N.N.n.n.n.n.n.n.v.v.v.v.v.v.v.b.b.b.b.b.b.v.v.v.p.u.p.p.0.=.X.$.} &.0.n.B.V.V.p.&. .] ]  .o.] o...~ H S Z n Z Z Z Z ` ] ....] ] ~ Y ~  .&.:.,.-.=.=.,.$.X.X.=.] G k k k k k g g h k g g g g p h p i g i 9 < 9 k i g c M M g r 6 0 p k b Z F Y W W Y T X.:.X.&.&.+.+.6.>.;.:.:.>.6.6.0.0.0.0.0.6.>.:.,.;.-.=.",
"&.&.&.&.-.;.;.;.;.;.>.6.6.i.i.i.s.i.5.;.;.>.:.%.%.X.X.X.~ ~ ..W I S M k i r r p k b A A Z A A l e 2 2 e i r 0 0 i i p g a a g g g g k k k k b H / X.-.-.-.:.:.>.4.4.:.;.=.>.=.X.>.:.X.] ~ ! W Y Z x z b b Z Y ] ....} ] o. . .&.p.V.p.&.+.&.&.&.&.0.N.V.N.k.s.k.m.m.m.m.N.N.B.B.V.V.C.C.C.C.C.C.Z.Z.Z.Z.C.M.W.[.!.W.W.p.:.N.W.W.W.W.W.W.W.D.Z.V.w.M.a.,.<.v.B.v.C.C.C.S.B.u.u.B.B.u.>.>.-.-.-.,.&.$.X.X.X.X.X.X.o.>.a.>.y.p.N.N.B.B.B.B.B.N.B.B.M.M.N.N.B.B.V.V.V.N.N.N.V.C.C.C.m.V.V.C.A.A.Z.Z.Z.Z.W.W.W.T.Z.C.M.n.n.v.v.B.IX'.B.B.S.Z.a.y.<.u.u.p.v.v.n.n.n.n.n.N.N.M.M.N.N.N.N.N.N.N.N.m.m.m.M.M.M.M.M.M.M.M.n.v.F.N.N.n.N.N.N.N.N.N.N.N.N.M.N.n.N.N.N.N.N.N.N.N.V.V.N.V.N.n.u.b.0.n.v.b.n.B.C.V.B.M.p.n.p.y.V.a.n.n.C.Z.W.W.Z.Z.V.n.y.0.n.Z.C.V.V.V.B.B.B.B.B.B.N.B.N.N.N.N.M.n.B.n.n.n.n.n.v.v.a.p.p.p.0.-.X.&.} X.=.y.n.p.p.&. .] ] ]  . . .} ~ G Z n b n Z b F ! `  .X.X...] | ] &.:.6.>.,.-.=.=.=.&.&.X.] G m k k k k k g g g g g g a a g i 9 6 0 , - ; 9 l c M N D D M c r 6 0 p k m Z H Y W W ! X.&...X.+.+.+.+.+.-.;.:.:.6.0.6.6.6.6.>.>.:.,.;.;.=.&.",
"&.&.&.&.&.&.-.;.;.;.;.>.6.y.y.i.y.:.&.&.>.6.>.$.X.X.X.+.} | | Y D Z b i e e a b A A D A A A A A b h 0 5 5 6 9 q i i p p p p a g a a k k k k k b D / X.-.=.-.:.:.6.0.0.0.k.V.i.:.:.6.>.&. .` ! W H n z z x x Z Y ] .. .} ]  .] } =.w.=.....X.&.&.&.y.N.N.N.k.a.n.k.k.k.k.a.k.n.N.M.n.N.N.N.N.N.N.V.V.V.V.n.n.S.W.V.W.M.>.n.Z.T.`.Z.Z.Z.Z.Z.V.C.a.n.M.u.a.V.Z.V.n.B.C.Z.C.n.p.N.C.B.a.p.n.a.a.v.v.p.p.y.w.y.y.y.y.<.p.p.w.n.C.C.C.C.D.D.C.C.C.C.C.C.C.C.C.Z.Z.Z.C.V.V.V.V.m.V.V.C.V.C.Z.Z.S.S.S.S.W.W.W.W.T.T.C.A.A.A.C.C.n.B.Z.S.n.N.Z.B.N.N.N.n.n.n.N.B.B.B.B.B.V.C.C.V.V.V.V.V.V.V.V.V.V.m.M.M.m.m.m.m.m.M.M.M.n.n.v.v.n.M.M.M.N.N.N.N.M.M.M.M.N.N.N.N.N.N.N.N.N.N.N.N.N.N.N.n.p.n.0.B.n.b.n.n.C.Z.Z.S.p.p.V.0.n.p.p.0.n.N.Z.Z.S.W.Z.B.n.p.w.N.B.n.v.N.N.N.N.N.N.N.N.N.N.N.n.n.n.n.n.n.v.n.n.a.a.a.a.a.w.u.y.>.&.&.| o.X.-.y.>.&.[ ]  . . . .} } ! G b b b m b b H _ ] ] ..O.X.&.-.y.p.y.6.>.>.:.-.=.=.&.&.X.] F x z z k k k k g g g g a a a a i i q 9 ; $ & 3 p c Z Z M Z Z Z D c e 6 7 i k m F Y ! ~ ~ X.} ] ..X.+.&.....+.;.:.:.>.>.>.>.>.>.>.:.,.-.-.=.=.&.",
"+.+.+.+.&.&.-.-.-.;.;.;.:.6.y.i.-.+.&.;.>.;.$.] [ [ ....o...W H A M k u e p b F G G G G L A A C M A k - % ; 6 r i i p g p p a g a a k k d a k k k S ! $.=.-.-.:.6.0.i.i.V.m.y.i.a.:.=.=.&. .` ! H G n a a z v b Y ] .. .` ]  .] ~ ] ..o. ...&.=.:.y.k.a.n.a.k.N.k.k.a.a.i.p.s.a.a.a.a.a.v.v.v.v.n.n.n.n.p.a.N.a.n.a.-.a.V.C.N.n.V.V.V.V.V.n.V.y.M.p.<.n.B.B.n.a.n.V.C.N.y.0.N.n.p.p.p.p.y.u.p.p.p.p.y.w.y.y.y.y.<.w.-.w.n.V.C.B.V.V.B.V.B.B.B.B.V.V.V.V.C.V.V.M.M.V.V.V.M.M.V.V.m.n.N.N.B.B.B.B.V.V.C.C.C.C.A.C.C.C.Z.Z.C.B.B.B.i.a.N.a.v.B.B.N.B.N.M.n.n.N.n.N.N.N.N.N.V.V.V.V.C.V.V.V.C.m.m.m.m.m.m.m.m.m.M.M.n.n.v.v.v.n.n.n.n.n.n.n.n.n.n.n.n.k.k.k.a.a.k.k.n.n.n.n.k.n.k.p.w.n.1.n.v.p.p.b.M.V.Z.S.y.0.Z.0.p.w.w.:.p.p.p.p.a.n.a.p.a.0.&.>.a.0.0.a.a.a.v.v.v.v.v.v.a.a.a.a.s.p.s.s.y.y.y.y.p.p.p.p.y.w.w.>.-.&.o.o.X.o.,.&.[ ]  ...o. .} ] E F m m m x z k Y _ ] ] ] ..+.+.&.,.p.a.y.0.>.>.:.-.=.&.X.X.] S b k k k k k k k g g g g a a a a r p 0 ; o @ , i k c Z D Z Z Z F G D b e 5 7 s k Z H ! ] ~ } ] ] [ ..+.&.&.o...+.;.:.:.>.>.>.>.>.:.,.-.-.=.&.&.&.",
"~ X.&.+.+.&.&.-.-.-.-.-.-.-.;.+.+.-.;.;.&.X.] ! ! ] X.+.X.} Y Y G k u e i n H G I Y T _ ! T G A b b k = @ @ - 6 r p p g g g g g a a g g g g k k h x S ! X.&.&.,.:.,.>.y.V.p.p.C.Q.m.0.:.;.+. .! Y H F Z z k x b b Y ] X.[  . ...~ ` ]  . .] X.;.>.-.:.:.>.>.0.0.6.6.6.6.>.>.>.>.0.0.0.0.0.y.0.>.w.w.0.,.&.-.:.>.-.] X.<.>.>.>.0.6.6.>.>.:.:.0.-.n.&.-.0.0.0.>.>.0.a.p.,.=.&.y.0.;.,.4.0.:.>.6.6.>.>.>.>.>.>.:.;.;.=.=.&.,.,.:.:.:.:.:.:.:.,.,.-.>.>.>.>.>.>.>.>.>.>.6.6.6.>.6.6.5.>.>.>.:.:.:.:.:.:.>.>.6.6.6.6.0.0.0.0.6.>.>.>.o.:.:.>.>.0.0.6.6.6.>.>.:.:.:.:.:.:.:.:.:.:.>.>.0.0.0.0.0.6.6.6.4.4.4.4.4.4.4.4.>.>.>.>.>.:.:.:.:.:.:.:.:.:.:.:.;.;.;.-.-.-.-.-.-.-.-.-.-.:.-.&.&.<.%.:.:.,.>.=.-.>.<.1.=.o.y.=.:.,.-.=.&.$.$.&.&.$.$.$.=.X...] X...o.=.:.:.:.:.:.:.:.>.:.:.:.:.>.>.>.>.:.:.:.:.-.-.X.o.] } X.&.&.X.o.] X.o.} ]  .] ] ]  . .` Y Z n Z b p e k G ! ] ]  .....X.&.:.-.>.p.i.0.:.-.:.-.&.+.=.~ Z z k k k k k k k k g g g a g g p p p 0 = @ o 2 t k b F Y Y H Y K F D Z Z b e 5 7 p b G ! ] ~ ] ~ ~ ] ] ..$.&.X. .} o.+.:.>.:.:.:.:.-.-.=.=.=.&.&.X.",
"Z T ] X.+.&.+.-.-.-.-.-.&.] E ] +.+.&.&.X.| / T H R ..+...~ G F M p 0 u Z G U G T ! ] [ ] _ ! T F M c 6 = O O = q p g p g g g g a a g g g g k k g h x S ~ X.=.X.=.=.;.0.p.k.T.].T.C.k.0.:.&...] Y G G H Y b a x v Z Y ] [ ]  . .! ] ] [ ] ] ..;.+.` ` ] ] } } } ] ] ] ] ~ ~ ~ ~ ] ] ] ] ] } ] ~ ] ] } ] ~ ~ / / T F Y / ] ] ] ] ] ] ] ~ E ] ~ } -.E ! ` ] ] ` ~ ] X...! W T ` W ! ` ]  .....X.O.+.+.O.O.X.X.X... .] ] ] ` ` ~ ~ ! ! ! ! Q W W W Y T T T ! ! ! ~ ! ! ` ` W W E Q Q E E E E E E E E E E E E E E E E E E ! ! ! ! ! F W ! ! ! ~ ~ ~ ~ ~ ! ! E E E E E ! ! E W W W W W W W W W T Y Y E E T T ! ! ! ! ! ! ! W W W W W W W W W E E E E E E E E E E E E W W W W T E Y I ! { R / ] ] ] ~ R ! / ! W W ] E ~ ] ] ] ~ ~ ~ ~ ~ ~ ! ! ~ ~ E Y W E W ~ W ! W W W W ! ! ! ! ! ! E E E E E E E E E Y H G H Y T E ] ] } ] } } ] ] ] ] ] ] ] ! Y F Z F F b x x Z E ] ] [ X...+.=.-.=.&.:.0.6.>.;.-.-.-.=.X.W Z z k k k k k k k k k g g g g g g a p 0 = X o 2 p k b Y T T E E ! W Y F Z M M b i 6 e x S Y E ! } ~ I ! ] | ..X.X.o.] E Q } :.-.-.-.-.-.=.=.&.&.&.] E ",
"b Z K _ +.+.&.&.&.&.=.=.+.W K ] +.+.+...| ] W U F H ] +...] H H b e s Z Y Y Y Y ~ ] o.o...] ] ~ W F M k 0 = O O > 9 i g g g g g a a g g g g k k g g h x S ~ X.$.$.$.-.>.6.p.]. XU.U.V.k.i.4.*.O.` E Y G T Y b a k b Z T ] _ W Y W ]  .] ` ` [ =.] E K K Y K K H G G G G F F F F G G H H H Y H F F Y T Y Y Y Y I Z M F H H H H H H H H G S Y F E ~ Z F G K H G G Y E Y F K H H G H Y T E W ! ~ ] ] ] ] ] ] ] ] ` ! ! W W E E E E I I I H H G G H G G H H H H H H H H Y Y G G H H Y Y Y Y K H H K H H K K K K K K Y K Y Y T T T T b H Y Y Y Y Y H H H K Y H H H H H K Y H Y I U U Y Y Y Y Y H G G H H H H H H K H Y Y I H H H H H H H H H H H H H G G G G H H H H H H H H G H G Z U Y D Y T Y W H G Y Y Y Y H G Z G Y G Y Y Y Y Y Y Y Y Y Y T H Z F F H H D F S S F F G G G G G G G G G G F F F F F F F F F G G H ! ] ] ] ] ] ] ` ] ] ` ` E H F Z S H G Z S F Y ~ ] ] X.&.+.;.:.;.&.&.-.6.>.>.;.-.&.=.X.! m k k k k k k k k k k k g g g g g g g 6 & o O ; k b C Y ] _ _ ` ` ] ] ! Y G Z M D M c c D T E Y E ` ~ F D ! ] ......} } Q K E o.&.&.&.&.=.=.&.&.o.] H m ",
"b v Z H ..+.&.&.&.&.&.&...E ! ] ..+... .] ~ Y F D D ~ X.X.} W ! Y G H Y W Y T ~ } ..o...o...} ] ] W D b M r = O O = 0 p p p g g a a g g g g k k g g g h x Z ! &.$...+.:.:.0.V.T.C.V.m.V.V.j.6.;.+...~ Z Z S H Z k z b Z F G H Y E ] ..] ` ] ] ..Q Y Y K K K G G F F F F F F F F G H H H H Y G F G I Y H Y H G F Z Z I H H H H H H H G G G F Z G H m S G G G F F Y Y H F F F F G G H Y E T E W ! ~ ` _ _ _ ~ ! W W W E E E E E E I I I I G G G G G G G G G G H H G H I I I H Y Y Y Y Y Y H H H H H H K K K K K K H H K Y Y Y Y Y b H Y Y H Y Y H G H Y Y H H H K Y Y Y Y Y I U U I H H H H G G G Y Y Y Y H H H H Y Y Y H H H H H H H H H H H H H G G G G G F F F G G G G G H G Z G U D U I U Y F F H Y H Y G G m S H n S G H H H H I Y Y H Y H n Z F G F F F F F G G G G G G G G H G H H F F F F F G F F H H G G T ! ~ ! ~ ~ ] ] W W W W K F Z F H Y S G H H T ! ] ..+.&.:.0.6.=.-.:.:.6.;.-.-.-.+.X.! m a k z z k k k k k k k k g g g g g g 9 $ O O @ z C C G ] ] ` _ ` ]  . .] ~ E I F Z I ! ] ] X.] E K E ! F R ! ~ ] ] ] } ] ] Q E ~ o.+.+.+.=.&.&.&.~ Y m a ",
"A b b b T  .+.+.&.&.X.~ E E `  .o. .} ] } ] ! W Y M F ..X.&.&.X.X.] ~ ~ E E E ~ o.o.o.o.....o.....] W F M b g > o X = 8 p p p h h h h h a a g g g g g g k k Z ~ X.&.X.&.;.:.6.s.k.m.V.V.T.V.j.q.4.O.! F F Z F G Z Z M Z F H Y T ! ] ] ~ ~ _ ] ] Y H K K K G S S F F F F F F G G G G G G G G G G F H H F G G G G Z Z F G G G G G G G F S S Z n H H b F G G G F S H H G S F Z A H Y Y Y Y Y Y T T T T T T E E E T Y Y Y Y Y Y I I H H H H H H H G G G G G H U U H H H H H H H H H H H U I Y Y Y Y I I I I H H H H Y Y Y Y Y Y Y Y M Y Y Y Y Y Y Y H U U U U U U U Y Y Y Y I I Y Y Y Y Y Y Y H H H H H I Y Y Y Y Y I I U I H H H H H H H H H G G G G G G G H G G H G G G H H H G F H H D F G G Y G F H H G G G G m Z F b C F F H H Y Y Y Y I Y F n Z D D D Z S U H G G G G H H H H H H H H G G G G G G G F G S F F G W W ! ~ ~ ~ ~ ! T K F G G G F F F F G K Y ! ]  ...+.;.6.:.;.;.>.0.:.-.&.+.+.X.o.E Z k k k k k k k k k g h h h a a g k l 6 & + + % i Z b F E ~ ] ] ] [ [ [  . .] ! T Y T ~ ..X.....o. .` Q H F ] ! W ! / ] ] ] ] ] ~ E ! ] o.X.X.&.&.} G v a a ",
"b v b b b H ] +.+.o.~ E E ~ ]  . .} ] ] ` ] ] ] { R W ..X.=.:.,.=.} ~ W W W ! ] o.o.+.o.o.o.X...o...] W A N M g > X X = 2 i h p h h h h a a g g g g g g k g k M W X.X.X.&.;.;.6.y.m.V.V.V.U.V.k.0.&.] T G Z S G D D Z Z F H Y T ~ ] _ ! ! ~ ~ _ Y G H H G F S F F F F F S S F F F F G G G G G G F H H F G G G G M Z D F G G G G G F S Z S Z n H H m S G G F S S G H G S F Z Z H H H H H Y Y Y Y Y Y Y Y Y Y Y Y Y Y Y Y I I I I H H H H H H G G G G G G H U H H H H H H H H H K I L U U Y Y I I I I I I Y Y Y Y Y Y Y Y Y Y Y Y Z Y Y Y Y Y Y Y H U U U U U U H Y Y Y Y I I U H H H H H H H H H G H H I Y Y Y Y U U H H H H H H H G H H G G G G G G F G D D D D G G G G G G F F H G F F F F H S S G G S F F S x Z Z C Z F F G H H Y Y Y H H F n M S D D Z Z G G H H H H H H H H G G G G G F F F F F F S S F F S G E W W ! ! ! ! W T K G H H H H F G G G Y W `  ...+.;.>.:.>.>.6.:.>.:.-.&.&.X. .E Z k k k k k k k k k k g g h a p p h g 0 @ + o = k S S F E ` ~ ] ] ] [ ..........] W T ` ] X.$.X.X.....o.o. .] ! ! W ! ! ~ ~ ] ] ] ] ~ E ! ] ] o.X...E x p s p ",
"b z k l z b G ` } ! K E ! ] } ] } ] ` ` ~ ` ] | &...$.$.$.-.>.>.:.X./ E W ! ` o.+.+.+.o.+.X.+.+.X.o...] E D N M p 1 X X @ 3 i p g g h h g a g g g g g g g g a a n W o.X.&.-.-.,.>.p.N.V.V.T.T.V.q.;. .! Y G F F G H H F F H Y T _ _ ! ! ! ! W T G Z F A G S Z Z Z Z Z Z Z Z A Z S S F F F F F F F G G F G F F F b M Z D S S S S S Z Z Z S Z n H G m S F F F S Z F G F Z D Z Z G G G G G H I Y Y Y Y Y Y Y Y Y Y Y Y Y Y H H H H G G G G G G G G G G G G G H U U H H H H H H H K L L H U H H H H Y I Y Y Y Y Y Y Y Y Y Y Y Y Y Y Z Y Y Y Y K K K H H H H H H H H Y Y Y Y H H H H H H H H H H H H G G H I I I I I U U H H H H H H H G G H G G G G F F F F D D F D G G G G G G F F H G F F S F H S Z D D S S S S x Z Z Z Z Z D F D F F G F S D S n b Z D D D Z D D F F F F F F D D D D D D Z Z Z Z Z S Z Z m m N S S E E E W W W W E Y Y H K K K K G H H H ! ]  .X.+.;.>.:.6.0.0.0.:.;.:.&.&.X...E Z k k k k k k k k k k k g g g g p p p 7 @ + $ ; b G M G E ~ ] ] ] [ ......X.X.+.[ ] ] ] ......X.%.X.o.o.+.-.-.X.] ] ~ W W ! ! ~ / / / / E E E E ~ ~ E n s p s a ",
"M z h p g z c Z E K Y E ` ] ] ` ` ] ` ! ~ ~ ~ / X.=.-.&.=.:.:.=.-.=.o.! ! ~ } X.&.&.&.o.+.X.+.+.X.X.o...| E A N A p > o X @ 3 p p g h h g g g g g g g g p g k a a n E ..&.&.-.-.:.>.s.N.C.W.T.m.q.6.+.] E Y K H Y Y H H F H Y T _ ~ W ! ! T T Y F Z Z Z Y F n b M M Z Z M M Z Z Z Z Z Z Z Z Z Z Z F F Z S S F S b b Z Z n n n Z Z n n b Z n m G F x Z S S S Z Z F F D Z D Z Z G F F F F H H Y Y I Y Y Y Y Y Y Y Y Y Y Y G G G G G G G G F F G G G G G G H H I U G G G G H H H K L I U H H H H H Y Y Y Y H H H H H I I Y Y Y Y Y V Y Y Y K K K Y H H H H H H H H K K K K H H H H H H H H H H H H G G H U U H U U U U H H H H H H G G G G G G G G F F F F F D F D G G G G G G F F H G F F S S G Z Z S S Z S S Z z V S Z Z Z Z A D Z Z Z Z M Z M c c M Z D D Z D Z Z Z Z Z M M M M M M Z Z Z Z Z Z n N n n g i k S S Y T E W W W E Y Y Y Y Y Y Y Y H H H Y  .+.&.=.;.>.:.-.y.p.y.6.:.-.-.&.X...E Z k k k k k k k k k k k k g g g g h s 2 @ + @ - Z G Z H E ! ~ ] ] [ ......X.+.+.+.O.[  .X.X...| ....X.X.o.#.-.+.] F Y ! W W W W ! ~ ~ ~ ~ W E Y H S F n s u p p a ",
"M c h g i g h c n H W ~ ! ~ ] ] ` ! ! ! E E Z p h { ,.&.=.=.-.&.-.-.-.X.` ] X.-.-.-.&.&.+.+.....o.X.X.X.X.] W D M M k ; O o + 2 i p i p g g g g g g g g a a a a a k n T | X.-.:.-.;.y.k.k.R.R.6.0.6.&. .] E K G U U Y Y Y I U ! _ ~ ! ! ! T Y H Z M M b Z b c c l l l l b c c M b b b b m b b b b b n n S G S Z b b b c b b b b b m b m Z b n S G x Z Z Z Z Z Z F S Z Z Z n Z S A A D D F F G G G G H H Y I I Y Y Y Y Y H H H H F F F F F F G G D F F D G G G G G G G G G G G G H H H H H H H H H H H H H H H H H H H H Y Y H H V G L K L L L L H H H H H H H H H H H H H H K Y Y H H H G G G G F F D D G H U I U U U U H H H H G G G G G F F S F F F F F F F F F F F F G D F D G H F Z Z Z Z Z n Z Z n Z Z S x M M Z Z D N b b b b c l c c c c g M D A Z M b c l l l c c c l l l c b b b b b b c c c c i 7 p Z S I Y E Y Y Y Y Y H G G Y Y Y Y K K Y ~ =.=.:.0.0.6.>.0.0.0.:.;.;.&.+.+.] Y n z z z z z k k k k k k g a g k p p i ; & + O > c G G I W ! ] ] ] } ........+.&.-.;.&.&.X.........] o...+.+.-.o.Y p 0 c U W W W W W ! ! ! W T Y H F b z a t t r p p ",
"B l h p i i g h z Z T ! W ! ~ ` ` ! Q Q H Z a 6 ; 6 R =.=.&.&.&.X.&.-.&.o.+.-.:.-.-.&.&.&.+.+.+.X.o.o.X.X.o.] W A M M k > o O + > r h i p p g g a a a a a a a a a a k n E | +.X.-.-.:.y.s.N.N.5.;.6.:.+. .` E H I Y Y R I G A Y ~ ~ ! W W T Y F c b Z Z D k p g g g g k h g h c c c c c c c c l l b m m S F S Z z z z z g g g g a k x b n b m Z F z n n n n n n S Z n b Z b Z Z Z Z Z Z Z D F F H H H H H H H H U U I U F F D D S S S S F F G G D F F D F F F F G G G G G G G G H H H G G G H H H H H H H H G G H H H H H H G G b G G L L L L H H H H H H H H H H H H H H H H Y H H H G G G G G F F F F D G H U U U H H G G G G H H G G G F F S F F F F D D D D F F F F F D A Z F F Z M M Z Z M m n M n b n n g m b M M M c k k g g g h g g g g i b Z Z M m c k k k k k k k k k k k k k l l k l k k k x k p k M S G I Y Y Y Y Y Y H H Y Y Y Y Y Y Y W [ >.w.y.6.:.:.0.y.0.:.;.&.&.+.X...E m k k z z z z k k k k k k g a p g g i ; $ @ @ ; k D G I W ! / ] } ....X.X...X.&.&.;.;.;.;.&.X.....} ....o.o.+.o.W a 2 3 8 h D Y W W W W W W T Y H Z M z p e r e r i p ",
"c l g i t i j g a x D E T E W ! Q E Y H m u 5 2 - = 0 Y X.&.+.&...X.&.&.:.0.0.>.-.-.&.&.&.&.+.+.X.X.X.X.o.X...] ! D M M l ; o O @ 2 r g p p p p a a a a a a a a a a a k x Y  .-.X.-.-.-.6.y.i.>.&.;.6.:.&. .` Y Y Y R W Y U A Y ~ ! T T W Y H Z b b Z D M h r i p p p p j i g h h h h h h h k k k k x x n S S Z z l z z g g g g a k z x m z x n Z a z z x x z z n n b m n b n Z Z Z Z Z Z Z Z Z G G G F F F F F F F F F Z Z Z Z Z Z Z Z S S F F F D A Z Z Z Z Z S S S S F F F F G G G G F F F F F F F F F F F F H H H H G F F S v Z F F G G G G D D D D D D D F D D F F F F G H G G F F S S S S Z A A A D F F D D D F F F F F F F F F F F F S S D D D D Z Z Z Z Z Z Z Z Z Z Z M Z Z M b b M M b g c m c c m m p h k c b m h g g p p g g j g p p r c A Z b c k h z z l l l l k k k h h h g g g g g g h k b c m M Z D H Y Y Y Y Y T G H W Y Y T Y Y Y ] &.w.p.0.&.&.:.0.6.:.;.&.&.+.X.} E b k z a x x x z k k k k k k g a a k i = $ @ + - k D D H W ! / ] } ..o.o.X.X.X.+.&.=.;.;.:.:.,.&.O...} ....o.o.o.! s = ; > > > 0 A R W W T T Y Y Y F Z b p e e r e r r p ",
"c k g r r t i i p h m D Y Y E W Y H F Z 0 > - > - = > p Y o.X.&.o.+.&.-.y.k.a.0.-.-.&.&.&.&.+.+.+.+.X.X.....o.} { ! A M M l > O O @ , p p p p p a a a a a a a a a a a a a m K  .X.X.X.X.-.;.>.;.&.&.:.0.:.+.} ! Y T W W ! Y D Y ! W T T T Y F Z b b c c h i r e r r r r t r p g g g g g g g g g g k k x x V Z n b b b b b b b b m x z x x k k b Z s a a a a a a c x z z m z m n b n n n M M Z Z Z Z Z Z Z Z Z Z Z Z Z Z M M M M Z Z Z Z n Z Z Z A Z M M M M M M Z Z Z Z S S S F A A F D A A A A S S S S S S S S S D F F Z Z Z Z z n Z Z S S S S A A A A A A A A Z Z Z Z Z Z D F S S Z Z Z Z Z Z Z Z Z Z Z Z Z A Z Z Z Z Z Z Z Z Z Z Z Z S Z Z Z Z Z Z Z Z Z M M M M M M M M b b b b b k c m m c i g k k a g g e p g c b b k g g h g h k k k k k g M Z N M c l k c c c c l l l l k h h p r r r t i g g k c m M M b Z G H Y Y Y Y E G H ~ T T T T T ~ ..:.w.0.;...&.:.:.;.;.&.&.+.&.o.E n k x k x x x x z k k k k k k g a h p > @ X @ - k D S G Y ! ~ ] } o.o.X.o.+.+.+.&.&.&.-.;.:.6.6.:.=.&.X... . . . .k = = = - = - 3 t A Y W T Y Y I H S m k r e e r e r r t ",
"c g i q r r i i p p k b S G H Y Y H n e > - = = & = 2 i k H } &.;.;.;.0.k.m.m.a.y.-.-.+.-.-.-.-.+.+.+.+.+.+.....} ] W F M A k ; O X + ; i p i p p p g h p p p p a a a a a k m G | $.+.X.o.X.+.-.;.-.:.6.>.;.+.] W T Y T Y I T T T E E W Y Y G D b b b b b b b b b b b b M b b b b b m m c c c c c c z k v n S F Z A Z A F D S Z M b c z b g p a g a u e u u g g k h a a g k k b c c c c c m b b b b b b b b b b b b b b c b b c b b b b b b b b b b b b b b b b b C C C b b b b M M M M M M Z Z Z Z Z N N N Z Z Z Z Z Z A M M M x N S S S S S S S A A Z Z Z Z A Z Z Z Z M M M M Z M M M Z Z Z Z A A A A Z M M M Z Z Z Z Z Z Z Z n M M M M M M M M M M M b b b b m m m b m m m m c c k k k c c c p p a g i i p i p g k l b z c H H H Y H H G L G Z Z Z Z Z A A Z Z Z Z A A A A A b b k p a a a p l l b b M M M Z b Z G Y Y Y T E ~ Y G Y Y R / ] X.X.&.:.>.=.X.&.:.;.-.&.:.&.&.&.o.Y c k z z x x x x x z k k k k g k g h p ; $ $ $ = p Z F H Y ! ` ] } o.o.o.X.$.+.+.&.&.*.-.-.:.6.>.>.;.;.:.;.+.! E Q v x e = $ = = - ; > 0 b D G G G D Z m g i r r r r r r r i ",
"g p r r i i i i i p p k m S G G F b e ; - = $ # @ = 6 h a k K &.:.:.>.y.m.k.m.V.N.y.;.+.-.-.-.-.&.+.&.+.+.+.o.....} ] E Z M M k 2 O X @ > i p i i p p p p p p p a a a a a a a m H } X.o.o.o.o.X.-.&.-.:.6.:.&...! R W ! T T _ ~ E W ! ~ ~ ! W E D D F G H H G G H H H H Y G F G H U I I I I I I I I I H G H H H Y Y R R W R T Y Y H Z z k g a a b c i 0 u i c c x x x k g c c b b b b b b b b b b b b M b b b b M M M M M M M b Z Z Z Z Z Z Z Z S Z Z Z A D D S F F F F F F F D D D D D D D D D S S S S S S D D D D D D A A Z Z b S D G D D D D G G G G G G G G H H H H H H H H U G G G G G G G G G H H D D D F H H H H G G G G D D D D D D D D D D D D D D Z Z Z Z Z Z Z Z Z Z Z M M M M M M M c m b m p g m c g k l b z z Z _ [ _ _ ! K E ] ~ Y Y Y Y Y Y Y Y Y Y Y I I H G G H G A Z Z A A A Z A D D D D G F G H K Y E W W W ~ W Y G W ! ] | $.&.=.>.0.:.-.-.-.-.&.&.&.+.+.o.Y b k k z z z z z z z z k k k k g i g i - # # $ ; l M M H Y ! ~ } } o.o.o.o.X.&.+.*.-.-.;.;.;.4.6.4.4.:.,.,.,.;. .Z x x k x 7 = $ & = = = , 0 c A D D Z b g i u r r r r r r r r ",
"p i r r i i i i i i p p a n S S m 7 - = = = # o = 3 r h k k F ;.:.;.>.y.m.k.m.C.T.k.>.;.;.-.-.-.&.&.&.&.+.+.+.o.o...} ] W Z b b b 3 +   + < i p p i i p p p p p a a a a a a p p x G ] X.....o.o.&.&.&.;.>.6.;.+.} / ] ..] =.>.$...X.X.&.&.X.X.X.] ~ ~ ~ ~ ~ ~ ~ ~ ~ ~ ~ ! T Y E ! W W W W W ! ! ! / ~ ~ ] ] ] / ! ! / / ] ] W H W T D c k z c k Z D k e i p c b c c x k p c c c m m b b m b b b b b M M b b b b M M M M M M b M M M M M M Z Z Z Z Z Z Z Z Z Z Z Z Z Z Z Z Z Z Z Z Z Z Z Z Z Z Z Z Z Z Z Z Z Z Z Z A Z Z A A M M k M Z Z Z Z Z Z D D D D D D D D F F F F F F F F G D D D D D D D D D D D D D D D F F F F D D D D Z Z Z Z Z Z Z Z Z Z Z Z Z Z M M M M M M M M M b b M M M M b m c b b b c g c D D b b b b z k c I ] ..X...] [ O.] ] ] ] ] W Y Y Y Y Y Y Y Y Y I I Y H H I W W W ! ! ! ! W W W ! ! ! ! ! ~ ` ` ` ! ] ] ] / ~ ] ..$.$.&.=.>.0.>.:.-.-.&.&.+.&.+.} K m k k g z z z z x x x x k d d k g g p ; $ @ $ - z Z b G Y ! / ] } o.o.o.o.X.X.+.*.;.5.4.:.;.;.5.>.>.>.:.:.;.;.;.&.H a k a a z 0 = @ $ = = = > 9 l M Z b k p i i r r r r r r r r ",
"i i i i i i i i p p i s i c n n 0 = $ = = & $ @ , r g g z S ~ :.;.;.:.>.y.k.m.m.N.s.;.-.;.;.;.-.-.&.&.&.&.+.+.+.o.o...} ] Y Z b n c 5 + X + , p p p p i p p p p a a a a a a s i u x H ] } o.......&.+.&.:.6.:.&.&.o.X.=.} o.-.=.X.&.-.>.>.>.>.>.:.-.=.&.&.&.&.&.&.&.&.&. .] ] ] ] ] ] ] ] / / / ] ] ] | $.&.&.&.=.=.=.,.1.:...T Y H Z b M M b z b b g i p p k k c x k k i x k k k k x k k c c c b b b b b b b b c b c b b b b b M M M M M M M M M M M M M M M M M M M M M M M M M M M M Z Z M M Z Z Z Z Z Z Z N Z Z Z Z A M M M k M N Z Z Z N Z Z A A A D D S D Z Z Z Z Z Z Z Z S Z Z N Z Z Z Z Z Z Z Z Z Z Z Z Z Z Z Z Z Z Z Z M M M M M M M M M M M M b b b b m b m m b m m c c c b b b c k h g c z p p c F H M M M M b k k D ] =.=.&.&.O.=.&.=.=.&.&.~ H H H Y Y Y Y E E E E ~ Q ! ] X.X...X.X.X.o.| { | ........X.+.....] ~ ! ] { { ] | $.&.X.X.&.:.>.>.,.&.&.&.+.X.&.o.K x a k k k k k z z x x x x k k d d c p ; @ @ $ - p F b S T ! ] ] ]  .o.o.o.....X.+.-.5.q.6.;.;.;.4.;.,.:.,.,.;.;.,.;.&.Z k k a g k 2 & @ $ = = = - e k c k p i i i r r r r r r r r ",
"u u r i i i i i p p p p p k c i ; $ = - @ o & 6 i h p i x Y o.;.;.;.;.;.;.:.0.y.6.-.-.-.:.:.:.:.;.-.&.&.&.&.+.+.X... .] ] ` Y Z Z n z 7 O X O ; p i r p i i p g a a a a a a a a k a m G ] ........+.+...X.+.&.;.:.&.=.&.Y Y W / o.&.-.>.,.:.0.0.>.>.:.:.:.:.:.:.>.>.>.:.[ ] _ ] [ [ [ [  ...] ~ ~ Y T ] $.$.=.=.$.$.$.$.-.=.{ R T G Z b b b c z c c g u i u h c k c k g 6 e u i p p p g g k c c z z z z z z z k k g g g g h h h z z z z c c c c c c c c m m b m b b b b b b b b m m m m m b b n b b M b b b b b M b b b b c k k i c M M b M M M N N M M N N M M N M M b b b b b n n n n b b b b m m m m m m m m b b b b b b c l c c c c c c c c c c c c c c z z k k k k g h h g a g g b m g g p p g g u i g D D b g g k k p c D ! %.,.,.=.=.&.+.&.=.=.&.] Y F I W W W W ! ! ! ! ~ ~ ~ ~ -.&.&.&.&.&.X.X.X.X.X.X.+.+.O.O... .` ! ! W R T ] ] ..%.$.X.&.,.>.0.=.$.&.+.+.+.] H x a k z k k k k k k k k h k x k x h p = @ @ + = p Z Z F Y ! ] ] ] | o.o.....X.+.&.&.6.6.5.:.;.-.-.*.;.;.;.;.;.;.-.&.+.+.] S z p i a p 3 % O & 1 - & - 0 k l h p p p i r r r r r r r ",
"u e r i i i i i i p p p k k e - $ = > = O = 9 h g p i c G ] &.&.;.;.;.;.;.:.>.6.-.+.-.;.:.:.>.:.:.;.-.&.&.&.&.+.X.X... .[ ] ] Y F Z n z 2 + O + > q p i i i i p a a a a a a a a k a a m H ~ } ..X.+.+...X.....o.&.$.X.X.~ ! ! ~ ] } o.X.=.-.,.>.:.:.:.,.>.>.>.>.0.0.4.>. .] ] [ [ [ [ [  . .] ` T Y W ] $.%.%.$.$.$.$.$.$.../ Y H F M c b b c z k k p e i 0 q 0 0 i s i 7 0 e u q e u i i p a g g g g g k g a a g p i i i p p p a a a a g k k k g g g g g g g g k k k k k x x k g g g g g g k x l l l l l l l l c z z k z h p t e g k k l l l c c c c c c c c c c l l z k k k k k x k x c c c c x x x x z z z z l z z k z k k k g g g g g g g g g g g g g g a a p p p p i i i i i p i k k i e 0 i p i e u a D D g i g l b g M F Y ] | ..+.X.+.X.%.$.&.&.o.] ~ ~ / ] / / ] ] ] ] ] ` ` ] :.:.:.:.-.-.-.&.&.&.=.=.=.=.=.=.+.X... .{ ] ] ] { ......$.X.X.&.X.} $.=.+.+.+.} K v a d x x x z k k k k g h h h k k h e = o $ $ = a Z M F Y ! ] ] ] ......o.o.X.&.-.;.:.q.6.;.;.;.-.-.*.=.=.-.-.;.-.&.&.+.&.&.] Z g p p g i 2 = @ & - ; = > e k g p p p i i r r r r r r ",
"u e u i i i i i i i p g k r ; $ - > = @ & 9 g k h i g F `  .X.o.-.-.-.-.-.;.;.;.+.-.-.-.:.>.>.>.:.:.;.-.&.&.&.&.O.X.X... .[ ] ` T F M n b < + O + > r i i i i i a a a a a a a a a a a g b H ] ..X.+.+.X.+.X...o...o.} X.=.-.-.-.-.:.-.,.:.>.>.>.6.6.0.0.0.0.0.0.w.0.0.0.:.>.>.4.:.4.:.:.;.;.-.+...o...&.X.X.X.X.........{ ] R H F F Z c c c z k a k p u i 6 6 5 5 7 e e e e u i i i i i i p g g a a a a a p p i i r e e r r r r p p p p p p p p a a g a g g g g g g g g g k k g p p p p g g g h k k k k k k k k k k g g h a p e r g g g h k k l l l l l l l l l l l k k k k k k k k k k k k k k k k k k g g g h k k k k k g a a g a g g g g g g a a a a a a p p i i i i i i i i i i u p p e e 0 i i u e e a Z D p r g l k a D G U W ~ ] } | ......X.$.$.&.&.,.,.-.,.-.,.>.>.:.:.-.-.-.:.y.p.p.y.>.>.>.:.:.:.:.:.6.6.4.4.:.:.:.:.:.-.-.,.,.=.] ~ X.X.o.o.] } &.X.+.+.} K m k k x m b x z k k k k h h h g k k e - # # $ > k Z m F Y ! ] ] } ..o.o.o.o.X.&.-.:.6.y.y.5.;.;.;.-.-.-.-.-.-.&.*.=.&.&.+.+.+.X.! b p i i h p 6 = @ = > ; - , i h g p i i i r r r r r r ",
"q e u u i i i i r i g h h 3 $ = > = @ = 6 h k p g g M ! o.o.X.+.&.&.&.&.-.-.&.&.+.-.-.-.:.>.>.>.>.:.:.;.-.&.&.&.+.X.X.X... .[ ] ] T F M Z b 5 + . @ > r r i i i p p a a a a a a a a k k g b I ] X.+.+.X.+.+.....] ] ] X.>.y.p.u.a.p.u.y.w.w.w.0.p.p.a.a.p.p.p.p.p.p.w.w.p.b.n.a.k.k.k.k.a.k.p.0.0.>.-.X...X.X.o.o.o...../ ! Y D F H F b c c k k k k g p p 0 0 6 6 0 0 0 i i p p k k k k k c m b b b b b c c z k k g g g g h h h a a a a a g g g k h h g k k k k k k k k h k k k g g g g g h k k z z z l k k k k k k g g h k k a a g g g l l c c c c c c c c c c b c l l l l l l c c c c m m m b b b b b l l l l b b b M b b b x x x x x x x x x z z z z k k k g g g g g a a a a p p u p p u p p p i i i e p Z A h i g l g p D I Y ! ~ ] ] ] ] } | ..X.X...$.<.p.w.w.w.w.p.p.u.p.y.y.y.p.p.n.n.p.p.y.y.y.y.y.y.y.p.p.p.q.q.p.p.a.p.p.u.w.1.:.X.W o.X...] &.&.o.X.+.} K b k k x x m b x z k k k k a h h g h r - o @ % > k Z c F W ! ] ] } ..o.o.o.o.X.&.&.:.>.y.a.y.6.4.5.;.;.-.-.-.-.-.&.=.&.&.&.+.+.....} Y c p i p h g 0 = $ - , ; - 5 i g p i i i r r r r r r ",
"0 q q ) i i i i i i g p < = = 1 = & > 0 r h g p u m E ] | | o.o.-.-.-.&.-.=.=.-.-.;.;.;.:.>.>.>.5.5.>.;.-.-.&.&.+.+.o....... .[ ] ` T F Z D b 6 $ O @ > e i i p i p p p g g g g p p p p g k n I ] $.&.$.X.X.&.&.] ~ } -.0.a.a.i.a.a.p.p.p.p.p.p.p.p.a.a.a.a.p.a.a.p.p.p.n.n.a.a.p.p.p.p.s.a.p.y.;.&.o...o.o.o.........| ] / T F Z Y W Y Z Z n b k c b M M M M m c b b c b b M M n n m x b m m m b b b b M M M M M M Z Z Z Z A A A A A A F A A A S S S S S G G S F F A Z Z A Z Z Z A A A G H U I Y I H G G H H H H G G F H U I Y Y I H G Y I Y Y Y Y Y H I I I I Y Y I I Y I H G D G H U Y Y Y Y Y Y Y Y T Y Y W T Y Y T W T T Y Y Y K K H H H G H F F F Z Z Z Z F F D A F F F A M M M c b Z F F D D G I b c Z D Z Z F G D A F Y ! ~ ] ] ] ] { | | | ..X...$.,.w.p.w.w.p.p.p.p.p.p.p.p.p.p.p.p.b.a.a.a.p.p.p.p.p.p.u.p.a.p.p.p.a.a.p.p.p.0.:.-.} ] o...X.&.&.X.X.} G b x x x x x x x x x k k k k x g h k h = + O @ ; l F M F E ~ ` }  ...........o.+.+.;.;.6.y.a.m.y.6.6.>.:.-.-.-.-.-.-.&.&.&.&.+.+.....] ~ F g i i p p p 8 - & - , > - 3 q i i i i r r r e e e ",
"9 0 0 0 ) ) ) ) r i q 3 = & = & = , q g i g g p k I ] | | | o...+.-.-.&.=.=.=.-.-.;.;.;.:.;.>.>.5.5.>.;.;.-.&.&.&.+.....X.X... . .] ~ T D A D M 9 & O @ > 0 i i i i p p g g g g p p p p p g k n H ] $.X.X.X.$.>.] ..-.0.n.N.V.N.V.N.N.N.k.k.a.k.k.n.n.n.a.a.a.a.k.k.a.a.a.a.p.p.0.0.0.y.i.i.0.>.+.X.X.o.} | o.o.X.....| { / Y D F Y Y H H H H G M Z A F G G G D Z D Y M M Z Z F Z b n n Z Z Z Z Z Z Z Z Z Z D D F F F F D D F F F F F F F F F F F F F F F F F F G H G D U Y Y H U I I I Y Y T T Y Y I I Y Y Y Y Y Y I H Y Y T T W W W T T Y T T Y Y Y Y Y Y Y Y T T T T Y Y Y I Y Y T R W W W W W W W W ~ W T ! T Y Y Y Y Y T Y Y Y Y Y K K K K Y H H G H H H U I H G F A D F I H Y U F G T ! W / ! ! ! G D G D A G Y Y Y I I Y Y W / ] ] ] { | | | ....X.....=.>.w.w.w.p.p.p.p.p.p.p.p.p.p.b.n.a.p.p.y.y.y.w.y.w.w.w.p.p.a.a.a.a.p.p.p.w.0.:.$.Y ] ..X.&.X.X./ G n x x x x x x x x x x k k k k h g h i - o o # ; b Z b D T ! ~ ]  .o...........o.+.+.;.>.6.y.p.y.i.y.6.:.:.-.-.-.;.*.-.&.&.&.&.+.+.....] ] W Z p r r r j p 8 - & - , > ; 3 q i i r r e 0 9 0 r ",
"8 0 0 0 q q q q r 0 , - - = & & 6 r p r g g p h S ! | | | | o...o.-.-.&.-.=.=.=.-.;.;.;.:.:.;.:.>.>.:.;.:.;.-.&.&.+.+.+.X.X.X...} } ] ~ Y D F D N 0 & O @ > 0 i i i i p g g g g p p p p p p g k k G ] =.&.] H ! o.,.6.0.a.a.n.N.C.C.V.V.n.n.n.n.n.n.N.N.a.a.p.p.p.p.p.p.p.p.y.w.>.>.>.>.0.6.:.+.X.o...} | | } ......{ ] ] W I G G H H G T E E E D U Y Y W W W Y I I Y Z G I T ! F x Z F H H Y Y Y Y Y Y Y Y Y Y Y Y I U U H I I Y Y Y Y Y Y Y Y K K K K G G G H T W W W ~ ] ] / ~ ~ / / / / ] ] ! ! ~ ~ / ~ / / _ ~ ~ W W W ~ _ / / / ~ ! ! ! ! ! E W ~ / ~ ~ ~ ` ] ` ` ~ ! W W ! ! ~ / / / ] ] ] ] ] ] ] ] ~ _ ! T Y Y Y T W W ! ! ! ! Q Q Q W W W R T T T T T ! W W T Y U G ] ~ ] ~ W T ! / ! / / ] / ! R R U Y W ! R W R Y Y Y R ! ! / ] ] ] ] ] | ..] ] ] { &.0.p.u.p.p.p.p.p.p.p.p.p.p.p.p.>.>.0.0.0.0.0.0.<.<.w.p.n.n.k.k.a.p.p.p.p.y.0.:.~ F ~ &.X.../ G b x m m x x x x x x x x k k k k h g e > # # @ 1 k Z n Z Y W ~ ] ]  ...o.........+.+.+.;.5.0.w.6.&.>.y.y.:.:.;.-.-.;.;.;.&.&.&.&.+.+.....} ] ! I c i q q i j p 8 1 = - , - ; 3 q i r r q q 0 0 0 ",
"8 8 0 0 0 0 0 0 0 > = > ; & & 3 i i r i p i i M E ~ } | | | ....o.+.-.&.-.=.=.=.=.;.;.;.:.:.;.;.:.:.:.;.:.;.-.&.&.&.+.+.X.X.X.X.o.} } ] ] T G D Y N 9 $ X @ > q i i i i g g g g p p p p p p p g z c F ] &.] n n >.y.0.-.:.:.>.y.N.n.n.n.k.k.k.k.a.k.k.k.0.6.6.6.6.6.0.0.q.w.0.0.6.6.6.6.>.>.&. .X.o.] ~ / ] | | ..| ] ] ~ Y I Y ~ ! ! W ] ] ] } Y R ! ~ ~ / / W W W Z Y ] ] $.=.H z Z Y E E W W W W W W W W W W ! ! ! ! ! ! ! ~ ~ _ _ ] ~ ~ ~ ~ ! ! ! ! E Y Y E ! / ] ] ] | | ] ] ] ] ] ] ] ] ] ] ] ] { ] ] ] ] ] ] ] ] ] ] ] ] ] ] ] ] ] ] ] ] ~ E ! ] } } } }  . .........[ ] ] ] | | | { | |  . .....X. .] ] ] W Y Y T ! ] ] ] ] ] ] ] ] ] ] ] ] ] / ~ ~ ~ ~ ! W W E W Y D ] ] | ] / Y W ! ! ! ] ] ] ~ ~ / R { X.../ ! / / ! T R T Y ! ! ~ / / / ] ] ! W ! | ..,.p.a.p.p.p.p.i.i.i.i.y.y.6.>.&.-.>.0.>.>.>.>.0.0.p.n.B.N.n.n.a.p.p.p.p.p.u.0.&.x W } ..] G m x x m b x x x x x x x x k k k k k i > O # % > k Z M H Y W ! ~ ] ]  ...+.........+.+.+.;.6.0.6.:.+.+.&.:.:.:.;.-.-.;.;.;.&.&.&.&.+.+.....} ] W Y U g i r r i p p 0 1 & - ; - ; 3 i r r q 8 0 5 - ",
"# - < 9 0 8 8 5 > - 1 1 = = 3 r r r r r p i p N E ! UX| ..o.| | | o.-.-.-.-.-.=.-.;.;.;.;.;.;.;.;.;.;.;.;.;.-.&.&.&.+.+.o.o.o.o.X.o.| } ] ] W U G U M 9 @ O + 1 i p r i i i i i p p p p p p p p k k c b ! ] F G y.p.p.y.w.w.p.n.M.M.n.n.n.n.n.n.s.N.s.>.;.&...} ` ..:.:.0.6.4.>.:.:.>.>.,.=.&.X.o.] E Y T ! ] ] / / / / ~ ] ] ] o.X.X.X.&.=.,.o.G W ! ] W ! / ] ! Y Z T X.=.-.=.Y I H G Y Y Y E W W W W W W W W ~ ~ ~ ~ ! ! ! W ! ! ! ! ! ! ~ ~ ~ ~ ~ ~ R W W W ] ] ] ] ] ....{ { ] ] ] ] ] ] ] ] ] ] ] ] ] ] ] ] ] ] ] ~ ~ ] ] / ] ] ] ! ! ~ ~ ~ H ~ } } } } } ] ] ] ] ] ] ] } ] ] | | ........X.X.X.X.X.X....... .] ~ ] ] ] ] ] { { { ] ] ] ] ] ] ] ] ~ ~ ! W W W R R Y Y T ] | { ] ] W F I Y T ] ] ! ! ~ / Y ..&.&.$.$.&.=.=.&.] ! ! ~ ~ ~ ~ / ~ ! ! Y Y ] ] ..$.:.y.w.w.w.w.y.y.p.p.0.:.+.o.o.=.>.<.0.0.0.0.0.0.w.w.a.a.p.p.y.w.0.0.y.w.y.y.0.E Z W E S b m v v v x z z z z z k k k a k a g g = o o O > l A Z S H T W ! ] ]  .......o.o.+.+.+.&.;.>.6.:.;.=.=.=.&.=.;.;.;.-.;.;.;.;.&.;.:.,.&.X. .] ] ~ E I U M g i r r r r r 9 1 & % - - = 1 8 q q 0 1 # . ",
"X . # # 1 < < 1 = = = & - 3 0 r r r r r i i i c G P ~ } | | | |  .o.-.-.-.-.-.-.-.;.;.;.;.;.;.;.;.;.;.;.;.;.-.&.&.&.&.+.+.o.o.o.X.X.o.} } ] ] W D A U A 0 + . + - 0 i i i i i i i i p p p p p p a g k k k M S W ;.0.y.y.:.,.:.0.y.w.0.0.u.y.y.y.0.0.:. .} } ` E Y `  . .X.=.:.>.:.>.>.:.&.$.o.....W H H T W ~ ~ | | | | X.&.=.=.-.-.-.-.-.,.:.o.Y ..&.&.&.&.=.=.X.~ ~ ] =.>.<.>.o.| } ] ] } | ..| | | | X.X.$.$.%.%.$.$.$.X.......X.%.%.$.$.$.$.&.$.$.$.&.=.=.&.&.&.&.&.&.=.=.&.=.=.&.&.&.&.&.&.=.=.=.=.=.=.=.=.=.&.&.&.X.X.&.&.$.$.$.&.$.$.&.&.&.o.&.X.X.X.X.X.X.X.X.X.X.X.&.&.$.$.$.$.&.$.=.&.&.&.&.&.=.=.=.=.=.=.=.=.=.=.=.=.=.=.&.=.$.$.$.$.%.%.%.%.........| | | | { ] ..&.,.&.&.$./ W ] X.&.-.-.=.=.$...W ..-.0.>.<.0.0.0.<.-.$.%.$.$.$.$.X.......] ] ] ..$.$.&.>.0.0.0.0.0.>.,.-.&.o.] ] ! ] ..o.X.X.....X.X.X.$.o.o.o.o.} ] ] ] ] ] ] ] ] W S z v x x m v v x x z z z k k k k k g a k p > o . O - c D Z S H T W ~ ] ]  .o.......+.+.+.+.&.-.:.6.:.;.;.=.=.=.=.=.-.-.-.-.;.;.-.-.*.;.,.;.X.o.} ] ] ! I D M h i q r r r r r r 5 1 @ & = - & > < < & # X X ",
". . X   # & & # $ $ $ & < 0 r r r r r r r i i p m S E ! } | o.o.o.X.+.&.=.=.-.-.-.;.;.;.;.;.;.;.;.;.;.;.;.;.-.&.&.&.&.&.+.+.o.o.X.X.X.o.| } ] ] ! U A A M 0 + . O = e 0 i i i i i i p p p p p p p p a g e t Z Y Y ~ ] ] W Y Y W Y Y Y Y Y Y I H H Y H S H Y Y G Y W ~ ! ~ ] ..X.-.>.>.-.X.o.} } ~ Y E } X.&.=.&.-.-.,.-.:.>.<.>.>.>.>.>.>.>.>.X.] >.w.w.y.y.w.w.-...&.&.,.0.u.w.0.0.>.:.>.0.0.w.w.w.w.w.w.w.w.w.0.0.0.0.0.<.<.1.1.<.0.0.0.0.0.0.0.0.0.0.<.<.0.0.0.0.0.0.0.0.0.<.<.<.<.<.0.0.0.0.<.0.0.0.0.0.0.0.0.0.>.>.,.:.>.>.>.1.<.<.w.w.w.u.w.0.0.>.>.>.>.>.>.>.>.>.>.>.>.>.0.1.:.:.:.:.,.,.:.:.>.>.0.0.0.w.w.w.w.w.w.w.w.w.<.<.<.<.<.<.<.<.1.1.1.1.>.:.,.,.:.>.>.>.>.>.0.0.w.0.0.<.:.&.0.p.p.p.p.p.p.u.0.$.&.1.u.0.u.u.w.w.0.1.>.,.:.:.:.:.-.-.-.,.1.=.] | $.$.X.-.>.>.>.>.:.=...] ] ] / ~ H H H Y I H G F F G H H F G G G G F S S S Z S S Z G W a s k b m v x x z z z z k k k k k g g e = O O # > B A b A H Y W ~ ] ]  .....o.+.+.+.+.+.+.&.-.;.;.;.;.=.=.=.=.=.=.&.&.-.-.-.-.-.-.-.;.,.=.o.| ] ~ ! I S B g i q q q q q q q r 0 5 & # $ & % # # .   X X . ",
"o . X   X X . * # # $ - 8 q i r r r r r r i i r s m F H Q } | ..o.+.+.&.-.=.=.-.-.-.;.;.;.;.;.;.;.;.;.;.;.;.-.&.&.&.&.&.&.+.+.o.X...X.X.o.| } ] _ T D N D B 0 +   o $ 6 i i i i i i p p p p p p p p a a 6 p G Z Z S S Z n b m b m m b b b m m m b m b m b n S G E ! ~ W ! W Y Y  .:.:.&...} ] ] ! ~ ..=.:.>.>.:.0.0.0.0.0.0.0.0.0.>.0.0.w.w.0.&.:.u.p.p.p.p.y.0.$.&.:.>.<.u.a.a.p.p.y.y.w.y.p.p.p.p.p.p.p.p.p.p.a.a.a.a.p.p.p.u.p.u.p.p.p.p.a.a.a.a.a.a.b.b.p.p.p.p.p.p.p.b.b.p.p.p.p.p.p.p.p.p.p.p.p.p.p.p.p.p.p.p.p.y.0.w.w.w.w.w.u.u.p.p.p.a.p.u.y.p.p.p.u.u.u.u.u.u.p.p.p.p.p.p.w.0.0.0.0.0.0.0.0.0.p.p.a.b.n.n.a.a.a.a.a.a.p.p.p.p.p.p.a.a.p.p.p.p.p.p.u.u.u.p.u.u.w.w.w.w.w.w.0.0.0.:.w.a.a.p.u.u.w.u.u.:.,.w.u.0.p.u.w.0.0.w.w.0.1.1.1.1.<.<.1.>.w.<.$.$.$.$.X.&.:.:.:.:.$.../ ! ~ ~ / / Y G F F Z Z b b b b M M m n n Z n n b m n n n n Z F F x e a x x x x x z z k k k k k k g a 0 $ X X # > B D c Z I Y W ~ ~ ]  .....o.+.+.+.+.+.+.+.+.+.&.&.-.-.=.=.=.=.=.=.&.&.+.&.;.*.;.-.;.:.;.&.| } / ! I D c g i q q r r r r r q q 0 0 3 & o # # o X   X . . X ",
". . . .       . * + = 3 0 r r t i r r r r r r r i p x N Y W / ..o.X.+.&.&.-.=.=.-.;.;.;.;.;.;.;.;.;.:.:.:.;.-.-.-.*.*.&.+.+.X.X........... . . .] _ T F M Z M i + X X + 6 q ) ) p i i i p p g g p p i 7 6 c S m c c x x x x x x x x x x x x x x c c z k k c Z Y W ! W E ! E K G o.;.-. .] ..} / ] X.-.y.:.>.0.0.w.w.w.w.u.p.u.p.y.y.y.y.y.y.u.p.u.u.p.p.p.p.p.0.:.y.p.p.a.a.a.p.0.0.0.0.0.y.p.n.p.p.p.a.a.a.a.a.b.p.p.p.p.p.b.p.p.p.a.a.n.n.v.v.n.n.n.n.n.n.n.n.v.v.v.b.v.v.v.v.v.v.v.v.v.v.a.a.v.v.a.a.n.n.n.n.n.n.n.n.b.v.n.n.M.n.v.n.N.N.N.n.p.p.p.p.a.a.a.a.v.v.v.v.v.v.b.b.a.p.w.p.v.v.v.v.b.b.b.b.p.p.p.p.p.a.a.a.b.b.b.b.a.a.a.a.v.v.v.v.v.v.v.v.v.p.p.u.a.a.p.w.0.<.<.:.1.>.<.<.<.:.:.0.p.w.w.u.w.u.u.<.:.<.y.u.y.y.w.w.0.w.0.0.0.0.0.0.>.:.:.>.u.u.-.%.&.$.&.&.&.=.-.&...~ ! ! ! ! ~ ~ T Y Y H Z M b n M M n n b b n n n n n n n n n n n b n n s e z m z z z k z z k k k l g h q # . . o > l A M N G Y W ~ ~ ]  . .....+.+.+.+.O.+.+.+.X.X.X.X...+.=.=.*.*.*.-.&.&.&.&.;.;.4.6.:.;.&.X.] ] ! Y S c h i e e e r r r r r r r r r 0 < # .               X ",
". . . . . .   . . = 3 9 0 r r t i r r r r r r r i i p c S I ! } o.o.X.+.&.&.=.=.=.=.-.-.;.;.;.;.;.;.:.,.;.:.:.:.-.*.*.&.+.+.X.X.X........... . .] ] ~ Y Z Z Z b p @ X O & 9 ) p p i p p p p p p p p e 5 i b n c c k k k z z z z x x x x x x x x z k k k z z Z ! ! ! E Y T Y K Y X.-.&.o.] } ] ] $.&.>.a.y.u.p.p.a.a.a.p.a.a.a.a.v.v.v.v.v.v.v.v.n.n.n.n.M.M.a.y.<.u.a.v.N.v.u.0.>.>.>.>.0.w.p.p.a.a.n.n.n.n.n.n.n.n.n.n.n.n.n.n.n.n.M.B.V.V.V.V.V.V.C.C.V.V.C.C.B.B.B.M.N.N.N.N.N.N.N.N.M.M.N.N.M.M.M.M.C.C.C.C.C.C.C.C.Z.D.W.W.W.Z.Z.W.W.S.C.N.N.N.N.N.N.N.N.N.B.B.B.B.B.B.B.B.M.M.a.n.V.V.V.V.V.V.V.V.B.n.n.n.n.M.M.n.M.B.M.M.M.M.B.M.N.N.N.N.N.N.M.M.n.n.n.n.n.b.p.p.u.u.w.w.w.w.w.u.p.w.>.:.<.w.w.p.p.v.v.u.w.y.u.u.u.u.u.u.u.p.y.y.y.y.y.y.y.0.0.y.u.u.<.$.&.$.$.$.&.&.-.&...~ W W W W ! ~ ! Y T H Z M b n M M b n b b n n n n n n n n n n n n n n x 7 z k z z k k k k k k k h h 9 & . . # 1 l N b N G I E ~ ~ ] } o...+.+.+.+.+.+.O.O.+.+.X.X.X.X...X.&.=.*.*.*.-.&.&.&.&.*.;.4.8.:.&.X.} ] / W D c h i q e e r r r r r r r r r r q 8 < #               X ",
". . . . . . X X   & 8 q 0 q r i i r r r r r r r i i i p m D E ~ } ..X.X.&.&.-.-.=.-.-.-.-.-.-.;.:.:.:.:.:.6.6.;.-.*.*.*.+.+.+.X.+.+......... . .] ] ] ~ U Z Z Z Z i @ + . % 0 i i i i i i i i i p i 5 9 c M x c k k k k k k k k k k k k k k k x z k k g c b Z W ! E Y Y L G K ! &.-.&.o.] ] ] | &.-.0.n.p.p.a.a.n.n.n.n.n.n.n.n.n.n.B.N.N.N.B.B.V.V.V.V.C.V.p.6.y.a.n.n.v.v.v.v.a.v.v.a.a.a.a.n.n.n.N.N.N.N.N.N.B.B.B.B.V.V.C.V.C.Z.W.`.Q.Q.Q.!.!.!.'.'.'.'.'.'.S.S.D.C.C.C.C.C.C.C.C.C.C.C.C.C.C.C.C.C.S.S.S.S.S.S.S.D.S.S.!.'.`.W.Z.W.S.Z.Z.S.S.S.Z.Z.Z.C.C.Z.Z.Z.D.D.D.D.Z.D.Z.Z.M.n.Z.Z.Z.Z.Z.Z.Z.Z.S.C.B.n.C.C.C.B.C.C.C.C.C.C.C.C.B.B.B.B.B.B.B.B.N.B.B.v.u.w.w.n.B.M.B.n.n.n.M.N.n.n.p.0.p.a.n.n.n.n.v.v.v.a.p.p.p.p.p.p.p.p.p.p.a.a.a.a.p.u.u.p.w.u.u.&.&.%.X.X.X.X.=.&.X.! T Y T R W ! ~ T Y G M b b M b b b b b b n n n n n n b b b b n n n n b a 0 k k k k k k k k h l h 0 o . . + > l M l A G Y W W ~ ] } o...+.+.+.O.O.+.+.O.O.O.O.X.X.X.X.o.X.&.&.&.&.-.-.&.&.&.&.*.;.5.6.;.&.| ] ~ W G b h i q q r r r r r r r r r r r r 0 8 < .     X X X   X X ",
". . . . . . X X   $ < q 0 q r i r r r r r r r r p i i i h n G E ~ } ..o.+.&.&.-.=.-.-.-.-.-.-.;.:.:.:.:.k.m.j.6.;.-.*.*.+.+.+.X.+.+.+.......o. .] ] ] ] ! Y F A b M p $ X . % 0 i i i i i i i i g q 2 p M c h c g k h h k k k k k k k k k k k k k k k g b Z F H W T Y G F Z K ] X.+.&.o.] ] ] ..=.-.w.n.p.p.a.n.n.n.n.n.n.n.N.N.N.B.B.B.Z.Z.Z.C.C.C.C.C.C.N.y.-.y.a.N.N.N.N.B.B.C.C.C.Z.N.N.N.N.N.N.N.N.V.B.V.V.B.B.C.C.C.C.C.C.M.V.W.!.!.!.!.!.!.!.!.!.!.!.!.!.!.S.S.D.D.D.D.D.Z.Z.Z.Z.Z.Z.Z.Z.Z.Z.Z.Z.Z.Z.Z.Z.D.C.C.B.B.B.B.C.Z.V.N.V.B.C.W.!.S.S.S.S.S.S.S.S.W.W.W.W.W.W.W.W.W.!.V.n.W.W.W.W.W.W.W.W.!.W.C.M.B.B.B.B.C.C.C.C.C.C.C.C.C.C.C.C.C.C.C.C.B.B.n.w.=.=.0.M.C.C.C.V.V.V.V.C.V.C.N.p.a.b.n.n.B.N.N.N.B.n.v.a.v.v.v.a.v.v.v.v.a.a.a.a.v.p.p.v.u.u.u.-.=.$.X.X.o.X.=.&.X.! Y Y Y T W W ! Y K Z n b b M M b b b b b n n n b n n m m m m n n n n n m 0 a k k k k k h h h k 9 # O . o 1 B B l A I Y W W ! ] } o.o...o.o.o.O.+.O.O.O.O.O.O.X.X...X.X.X.&.&.&.-.-.-.&.&.&.&.;.:.:.:.-.X.] ! H G n a i q q u r r r r r r r r r r r r 9 < # .     X .     X X ",
". . . . .   . .   X $ < 0 q q ) ) q q ) i i r i i i i i a k n F E ` }  ...&.&.&.=.=.=.=.&.;.-.;.;.;.q.V.Q.].T.i.5.;.;.;.&.+.+.+.+.+.+.+.o..... .} ] ] ] ] ! Y F M n n i $   . # 8 i r i p i i p q ; 7 M b g g k g g k k k k k k k g g g g g g g k z k k b Z F Z L Y Y H F Z F  .;.-.X.] } ] ] $.$.&.p.p.v.v.n.n.N.N.N.N.n.n.N.N.N.N.B.B.C.C.C.B.C.B.B.B.W.C.6.-.s.n.N.N.N.N.B.B.N.N.N.B.V.N.n.a.n.M.N.V.V.N.M.n.v.v.n.n.n.v.v.v.v.n.V.C.V.V.V.V.V.C.C.C.C.C.B.B.B.B.B.B.B.B.B.B.V.V.B.B.B.V.V.B.B.B.B.B.B.B.N.N.n.N.N.N.v.v.v.v.n.n.n.n.C.C.C.C.C.C.C.C.C.C.Z.Z.Z.Z.Z.C.C.C.C.C.Z.V.N.k.W.W.Z.Z.Z.Z.Z.Z.Z.Z.C.V.M.M.N.N.N.N.N.N.N.N.N.N.n.N.n.n.n.n.n.n.B.n.v.p.1.-.>.n.M.B.V.V.V.V.C.C.V.N.n.a.p.p.n.n.N.n.v.N.n.v.v.v.v.v.v.v.n.n.n.n.n.n.n.n.v.v.n.n.v.u.<.<.&.$.X.X.| ..&.=.{ ! Y I T T Y Y T T H b n n n n n n n b b n n n b b b x b m b x c c c c b c r 6 g h h l k l l j 9 # o o . < l N B N A U W ! / ] } } o.o.....o.o.X.X.+.O.O.O.O.+.X.X.X.X.X.X.X.X.&.&.&.+.&.&.*.*.;.:.:.;.+.} ~ I S b h s q q q q q q u e e e r i r r i q < & .     X X X X X X X ",
". . . . .   .   X   X $ < 0 i i i i i i u u u i i i i i p p k n H E ` } o.+.&.+.&.&.=.=.&.;.;.;.*.6.m.T.]..X XU.q.;.;.@.-.+.+.+.+.+.+.+.o.....o...} ] ] ] / ! Y Z n b c i +   X @ 0 p r e i i e ; 5 h b g g g h g g g g k k k k g g g a h h h h k k k z z M Z D G Y Y G F F Z  .-.&.o.] ] ] X.-.&.0.n.n.a.a.n.v.a.a.n.n.v.n.n.n.n.n.B.N.N.N.B.B.B.B.B.B.C.N.0.>.p.a.v.a.a.v.v.v.a.a.v.n.N.n.n.a.n.n.n.M.M.N.M.M.n.n.n.n.n.v.v.v.a.a.n.M.n.n.n.n.n.n.n.n.n.n.n.n.v.v.v.v.v.v.n.n.V.N.M.n.n.n.n.n.n.n.n.n.N.N.N.n.n.n.n.n.v.v.v.v.a.n.n.n.V.V.V.V.B.B.B.B.B.B.B.B.V.V.V.V.B.B.B.B.B.C.N.0.N.N.N.N.N.V.V.V.Z.C.C.V.N.N.N.N.n.n.n.n.n.n.n.n.N.N.n.N.n.n.n.n.B.B.B.n.p.1.>.u.n.M.N.N.N.N.N.N.M.n.a.a.p.a.n.n.v.v.v.v.n.v.a.a.a.a.a.a.a.a.a.a.v.a.n.n.v.v.v.n.n.b.u.u.=.&.X.X.| ] o.X.{ ~ Y I Y Y Y Y Y Y G V n V n n n b b b b n n n b m b x x z k k x x k k g k e - 6 g h j l l j 8 *   . # 3 l N b N U U I ! ~ ] ] } } o.o.........X.X.X.X.X.X.X.X.X.X.X.X.X.X.X.X.o.&.&.+.&.&.*.*.;.;.;.+.X.] W D c g i u q q q q q q e e e e e e r r r 0 & o     X X X X X X X X ",
". . . .               X # , 0 ) i u u u u u u i i i i i p p a x Z H E ] } X.&.+.&.&.&.&.&.-.;.;.4.m.Q.Q.R.Q.Q..XT.5.@.+.@.@.+.+.+.+.+.+.+.o.....o...} ] ] ] ] ! H Z M c N i +   + @ 0 p r r 9 2 ; i h p i a g g g g g g k k k k k k k k c c c c z z k k k c Z F G L H F F Z H +.-.o.] ] ~ ] -.<.w.Z.Z.n.a.a.a.p.p.p.p.p.u.u.u.u.u.u.u.u.u.u.u.u.u.p.p.p.0.y.>.>.0.y.y.<.>.<.<.<.>.>.>.>.y.w.0.0.>.0.0.w.p.p.p.p.u.u.u.p.p.u.u.u.y.y.u.u.u.u.u.u.u.p.p.u.y.y.y.y.w.w.w.w.w.w.w.w.p.p.p.y.0.0.0.0.0.0.0.0.w.w.y.y.y.y.y.y.y.y.y.y.y.y.p.p.a.a.p.p.p.p.p.p.u.u.u.u.p.p.p.u.p.p.p.p.p.k.s.-.y.y.y.y.p.p.p.p.p.p.p.p.p.p.p.p.y.y.y.y.y.y.i.i.i.i.i.i.u.u.u.u.p.p.p.u.w.-.....-.1.w.u.y.y.y.y.y.0.0.0.0.0.0.w.w.w.<.u.p.u.y.y.y.u.u.u.y.y.y.y.y.y.y.y.u.y.p.v.n.v.u.v.1.&.X.&...} } o.{ ] W I Y Y Y Y H H F S F H G F S Z n n n n n n b m b x z k k a k k k k p u ; & & = g j l j w # *   . < B M b M D U R W ! / ] ] } } o.o...o.o...............X.X...X.X.X.X.......o.+.&.&.&.&.&.&.&.&.+.o.} ! H n p u e e q q q q 0 0 e e e e e e e e 0 , o       X X X X X X . . ",
". . . .                   + , 9 p p p u u u u i i i i i p p a k b S K ! ] o.+.X.&.&.&.&.+.&.-.;.j.T. X X.X X^.Q.3XT.4. .#.+.+.+.+.+.+.+.+.o.....o.o...} ] ] ] ] ! Y D M N D j = .   O 3 p 5 - % < p p 0 e p h g g g g g k k k k c c b b b b b b b c z z a z M F F H H F F Z ` >.&. .~ ~ ! ..>.:.p.!.N.y.y.y.y.w.w.0.0.0.>.>.>.>.-.-.-.-.$.$.$.$.&.=.&.&.o.X.X.-.,.:.-.&.X.$.$.&.X.X.X.&.$.$.&.&.o.o.X.X.&.&.-.,.-.-.-.-.$.$.$.%.X.X.X.X.X.X.X.X.X.X.X.X.&.&.&.&.&.&.&.&.&.&.=.-.-.-.=.&.X.X.X.X.X.X.X.X.| | X.X.X.X.X.X.&.&.&.&.&.&.-.-.-.-.-.=.-.&.&.&.&.&.-.-.=.=.=.,.,.,.-.-.:.>.>.o.+.+.-.-.&.$.X.X.o.X.&.+.&.+.+.+.X.X.X.X.X.X.X.X.+.+.+.&.&.&.&.&.&.&.$.| ] ] / ] / | $.-.&.+.&.+.&.&.&.&.$.X.X.X.$.....%.-.-.$.$.-.-.-.-.-.-.=.=.-.-.-.-.,.-.<.p.v.b.u.b.p.&.X.&.&.X.} } { ] ! I Y I I Y Z Z G K E ~ ~ Q Q K F S n n n n b m b x x z k k k k k k p u $ % 1 o 0 h j 8 #       & l A h k A U I W ( / ] ] } } } o.o.....o...................X.X.X.X.........} o.&.&.&.&.&.&.+.o. .} ~ Y Z k u e e u q q q q 0 0 e e e 0 0 0 0 0 8 %             X X X X . X "
};
