/* XPM */
static char *_d0e1fe7226b461afdf61bf8ad788352SLHmG4edbEyNL5CS[] = {
/* columns rows colors chars-per-pixel */
"512 512 236 2 ",
"   c #000205",
".  c #02050A",
"X  c #050A0D",
"o  c #090C0E",
"O  c #040907",
"+  c #060C12",
"@  c #0A0E13",
"#  c #0A0D18",
"$  c #0C1115",
"%  c #0E1319",
"&  c #121316",
"*  c #12161B",
"=  c #14191D",
"-  c #191C1E",
";  c #09110F",
":  c #161C21",
">  c #1A1D22",
",  c #181C26",
"<  c #1C2125",
"1  c #1E2329",
"2  c #1E2931",
"3  c #212426",
"4  c #22262B",
"5  c #24292D",
"6  c #292B2E",
"7  c #28272A",
"8  c #262C31",
"9  c #2A2E33",
"0  c #262934",
"q  c #2C3236",
"w  c #2D3439",
"e  c #2B3437",
"r  c #313336",
"t  c #31363B",
"y  c #34393E",
"u  c #393B3E",
"i  c #303A37",
"p  c #302F34",
"a  c #3C413F",
"s  c #353B41",
"d  c #393E43",
"f  c #373B45",
"g  c #374043",
"h  c #3C4146",
"j  c #3E4449",
"k  c #3F484D",
"l  c #3E4752",
"z  c #414246",
"x  c #42464B",
"c  c #444A4E",
"v  c #494B4E",
"b  c #444947",
"n  c #464C52",
"m  c #4A4E53",
"M  c #4A4D57",
"N  c #4C5155",
"B  c #4E5459",
"V  c #4B5759",
"C  c #515456",
"Z  c #51565B",
"A  c #54595E",
"S  c #595C5E",
"D  c #57585B",
"F  c #4C514F",
"G  c #565C61",
"H  c #595E63",
"J  c #5B5E69",
"K  c #515761",
"L  c #4E5860",
"P  c #635D61",
"I  c #566164",
"U  c #5B6166",
"Y  c #5E6469",
"T  c #5D6769",
"R  c #626466",
"E  c #62666B",
"W  c #64696E",
"Q  c #696B6E",
"!  c #69676B",
"~  c #656B71",
"^  c #696E73",
"/  c #696C77",
"(  c #677074",
")  c #6C7176",
"_  c #6D7479",
"`  c #6F787C",
"'  c #677179",
"]  c #717476",
"[  c #71767B",
"{  c #74797E",
"}  c #797B7E",
"|  c #797778",
" . c #605B5F",
".. c #817D7F",
"X. c #7B817F",
"o. c #6F7A81",
"O. c #757680",
"+. c #767C81",
"@. c #7A7E83",
"#. c #7B7E89",
"$. c #757B89",
"%. c #7D7F90",
"&. c #817C80",
"*. c #778084",
"=. c #7C8186",
"-. c #7E8489",
";. c #7D888B",
":. c #7F8392",
">. c #818285",
",. c #81868B",
"<. c #848A8E",
"1. c #898B8E",
"2. c #868888",
"3. c #858791",
"4. c #868C92",
"5. c #898E93",
"6. c #8B8F99",
"7. c #878B98",
"8. c #8C9195",
"9. c #8E9499",
"0. c #8E999A",
"q. c #869294",
"w. c #909497",
"e. c #91969B",
"r. c #94999E",
"t. c #989C9F",
"y. c #99979F",
"u. c #8D8F8F",
"i. c #9AA09E",
"p. c #9295A2",
"a. c #969CA1",
"s. c #999DA3",
"d. c #9C9EA9",
"f. c #9799A8",
"g. c #8B92A0",
"h. c #A19EA4",
"j. c #9CA1A6",
"k. c #9EA3A9",
"l. c #99A3A5",
"z. c #9FA4B1",
"x. c #A1A4A7",
"c. c #A2A6AB",
"v. c #A4A9AE",
"b. c #A8ACAF",
"n. c #A8A7AC",
"m. c #A4A6B2",
"M. c #A6ABB0",
"N. c #AAAEB3",
"B. c #ABAEB9",
"V. c #B0AFB4",
"C. c #A7B0B4",
"Z. c #ADB1B5",
"A. c #AEB3B8",
"S. c #AFB8BC",
"D. c #B0B4B7",
"F. c #B2B6BB",
"G. c #B5B9BD",
"H. c #B8BBBF",
"J. c #B8B8BA",
"K. c #B5B3AF",
"L. c #C1BDBC",
"P. c #BCC1BF",
"I. c #B5B6C0",
"U. c #B7BBC0",
"Y. c #BABEC3",
"T. c #BCBFC9",
"R. c #B7BCC8",
"E. c #AEB8C0",
"W. c #C0BFC5",
"Q. c #C0BFC8",
"!. c #BCC0C3",
"~. c #BDC0C1",
"^. c #BDC1C4",
"/. c #BEC2C5",
"(. c #BFC3C6",
"). c #BEC0C5",
"_. c #BDC1C5",
"`. c #BFC2C9",
"'. c #BFC3C9",
"]. c #B9C2C6",
"[. c #C1C2C6",
"{. c #C1C2C6",
"}. c #C1C5C9",
"|. c #C2C6CA",
" X c #C8C7CD",
".X c #C5C9CD",
"XX c #C9CACE",
"oX c #C4C9C7",
"OX c #CDD0CF",
"+X c #C7D0CF",
"@X c #C3C6D0",
"#X c #C7CBD1",
"$X c #CBCED2",
"%X c #CCCED9",
"&X c #D1CED5",
"*X c #CDD1D4",
"=X c #CED2D8",
"-X c #CFD8D7",
";X c #D1D3D7",
":X c #D5D8D7",
">X c #D3D6DA",
",X c #D6D9DC",
"<X c #D8DBDE",
"1X c #D9D7DE",
"2X c #D0D1CE",
"3X c #DBE0DE",
"4X c #D4D6E1",
"5X c #D7DAE1",
"6X c #DBDDE1",
"7X c #DCDDE9",
"8X c #E0DFE4",
"9X c #E0DEE8",
"0X c #DEE1E4",
"qX c #DEE2E9",
"wX c #E2E4E6",
"eX c #E5E9E6",
"rX c #E4E6E9",
"tX c #E8E7EB",
"yX c #E6E9EB",
"uX c #EAEBED",
"iX c #E8E7E6",
"pX c #EDF0EF",
"aX c #E7EAF0",
"sX c #ECEDF1",
"dX c #E6E7F0",
"fX c #F0EFF3",
"gX c #EEF1F4",
"hX c #EFF3F8",
"jX c #F2F3F5",
"kX c #F4F9F6",
"lX c #F5F6FA",
"zX c #F6F9FC",
"xX c #FEFFFF",
"cX c #FDFEFF",
"vX c #F9F9F9",
"bX c #F0EEEE",
/* pixels */
"H.H.H.H.F.F.G.G.N.j.j.N.F.N.N.N.Z.Z.Z.Z.D.j.=.W r.j.e.5.9.9.e.r.M.N.N.b.c.c.c.c.c.c.c.c.k.s.s.s.k.k.k.a.=.^ ) =.<.5.<.=.{ ,.9.a.s.j.k.k.k.k.k.k.k.k.k.k.a.a.r.0.r.9.-.,.9.9.8.9.,.5.8.9.8.r.a.r.>.^ W 5.9.a.s.a.N.N.M.M.N.v.e.E { N.M.rXcXcXvXcXcXcXcXcX<Xb.H.Y.) h [ F.}.^..XY.U.U.Z.c.<.m h 8.k.j.j.v.M.c.9.k.}.^.H.s.<.a.Y.'.Y.Y.!.!.!.!.!.!.!.!.!.!.!.!.!.!.^.^.^.^.^.^.^.^.^.^.^.^.^.^.^.^.'.'.^.^.}.}.s.^ N.H.^.U.H.U.^.^.!.H.H.^.^.^.^.^.^.^.}.}.}.F.b..X}.}.}.}.}.}.}.}.}.}.{.{.{.{.{.{.^.^.^.^.'.'.'.'.}.}.}.}.}.}.{.{.{.(.^.{.{.(.^.^.{.{.{.{.}.}.}.}.}.}.}.}.}.}.{.{.}.{.{.{.{.{.{.{.!.^.Y.F.Y.'.}.(.{.{.{.!.Y.D.}.{.{.Y.Y.Y.}.}.}.G.<.e.F.Y.^.^.^.^.^.^.{.{.{.^.^.^.^.^.^.^.^.^.^.^.}.!.U.!.^.^.^.^.^.^.^.^.^.^.^.^.}.!.s.=.A.U.'.a.a.N.U.U.U.N.c.e.[ n ~ 5.N.F.^.}.^.!.^.H.b.{ 5 N x.D.XXcXcXcXcXcXxXxXcXcXqXk.j.O.B 5.N.N.x.c.b.N.b.x.j.9.=.~ B { a.a.s.a.a.9.4.3.=.=.@.[ [ +.-.<.8.e.a.s.x.x.x.x.k.k.j.j.j.a.a.k.a.5.@.{ =.>.5.5.+._ _ +.5.9.a.a.r.a.a.j.j.j.k.k.k.k.x.x.c.x.N.b.a.a.5.4.a.v.k.e.^ ~ <.c.N.N.N.N.N.M.M.M.M.x.9.r.N.Z.D.D.D.F.F.F.",
"H.H.H.H.F.F.G.G.H.b.k.x.N.N.N.N.Z.Z.Z.Z.F.D.s.{ _ a.k.r.9.e.r.e.s.b.N.M.v.v.v.v.c.c.c.c.x.j.j.s.k.k.k.j.<._ ^ { -.<.5.<.=.-.5.r.j.j.j.k.k.k.k.k.k.k.k.k.l.l.a.a.a.r.<.=.5.9.r.9.5.5.8.9.5.<.8.a.a.<.=.5.c.N.A.A.U.H.F.A.Z.A.M.-.A 5.A.'.lXcXcXvXcXcXcXcXcXXXb.Y.s.m Z r..X^.'.^.^.Y.F.N.e.W h [ s.k.N.Z.A.M.r.r.U.Y.U.v.3.5.A.}.Y.Y.!.!.!.!.!.!.!.!.!.!.!.!.!.!.^.^.^.^.^.^.^.^.^.^.^.^.^.^.^.^.'.'.}.}.}.^.s.E N.H.^.^.U.U.!.!.U.H.F.U.^.^.^.^.^.^.^.^.^.F.C.^.^.^.}.}.^.(.^.^.{.{.{.{.{.{.{.{.^.^.^.^.^.^.^.^.{.{.{.{.{.{.{.{.^.^.^.^.^.^.^.^.{.{.{.{.{.{.{.{.}.}.}.}.^.^.^.^.{.{.{.{.{.{.{.{.(.}.^.H.U.'.}.!.{.!.!.^.}.J. XY.^.{.Y.Y.{.{.}.D.<.b.^.^.^.^.^.^.^.^.{.{.{.(.(.^.^.^.^.^.^.^.^.^.^.U.U.^.!.!.!.!.!.!.!.!.!.!.!.!.}.H.=.w.F.U.F.r.b.F.H.F.G.M.k.3.U m [ y.N.H.^.'.H.U.^.F.e.m q =.F.H.sXcXcXcXcXcXcXcXcXcX'.d.4.I Y a.N.N.b.M.N.Z.Z.N.Z.v.5.~ { e.s.a.s.a.a.e.e.a.r.a.8.=.{ =.<.5.e.r.s.k.x.x.x.x.k.k.k.j.j.a.a.a.9.=.{ =.<.5.5.,.{ _ [ @.8.e.a.a.a.a.j.j.j.j.k.k.x.x.c.c.j.x.c.s.9.5.,.a.v.k.a.+.U -.k.M.N.N.N.N.N.M.M.M.v.a.y.M.D.D.D.Z.Z.F.F.F.",
"H.H.H.H.G.G.G.F.U.F.b.j.c.M.N.Z.Z.Z.Z.Z.N.Z.Z.s.{ -.v.j.9.9.e.r.a.j.b.N.v.v.b.b.v.v.v.v.c.k.j.j.s.k.k.j.9.>.[ _ +.,.5.5.<.-.<.8.a.a.j.k.k.k.k.k.k.k.k.k.l.l.a.a.a.a.9.+.) -.9.e.9.5.3.5.5.-.<.a.k.k.r.8.a.c.N.N.Z.Z.Z.N.F.Z.Z.k.U R x.F.5XlXzXzXcXcXcXcXcXjXN.J.G.Q y { H.^.Y.^.Y.^.U.A.k.,.n A 8.j.M.b.M.M.j.8.Z.Y.Y.F.r.=.s.U.Y.Y.!.!.!.!.!.!.!.!.!.!.!.!.!.!.^.^.^.^.^.^.^.^.^.^.^.^.^.^.^.^.^.Y.Y.Y.Y.'.N.@.b.U.^.^.!.!.U.U.U.U.G.H.!.^.^.^.^.^.^.^.^.U.U.^.^.{.^.}.^.^.^.^.}.}.{.{.{.{.{.{././././.!.^.^.^.{.{.{.{.{.{.{.{.!.!.^.^.^.^.^.^.{.{.{.{.{.{.{.{.^.^.^.^.^.^.^.^.{.{.{.{.{.{.{.{.(.}.^.H.U.^.^.^.^.^.^.{.^.Y. XY.Y.{.{.{.{.{.Y.D.<.F.^.^.^.^.^.^.^.^.^.^.^.^.^.^.^.^.^.^.^.^.^.^.!.H.U.^.!.!.!.!.!.!.!.!.!.!.!.!.^.c.{ c.H.U.x.e.M.N.N.b.M.x.e.+.N G <.x.F.U.'.'.U.^.U.b.) 9 A b.J.XXcXcXcXcXcXcXcXcXcXyXB.f.' A _ j.b.j.e.a.c.N.F.Z.Z.x.>.+.9.w.-.+._ _ @.@.,.9.e.8.-.[ @.<.5.8.a.s.k.c.x.x.k.x.k.k.k.j.j.s.a.e.<.+.@.3.8.8.<.=.+.{ @.5.9.a.s.a.a.s.j.j.k.k.k.k.x.x.c.c.M.c.e.8.e.-.e.M.v.s.,.~ @.j.N.v.N.N.N.N.N.N.M.b.j.e.M.A.D.D.Z.Z.D.F.F.F.",
"H.H.H.H.G.G.G.F.F.F.Z.b.s.b.Z.Z.Z.Z.Z.Z.Z.Z.Z.Z.j.{ 5.c.r.5.8.j.j.a.s.M.v.v.v.v.c.c.v.v.x.j.j.s.r.j.j.j.r.9.<.+.+.>.5.8.5.5.5.<.9.r.j.k.k.k.k.k.k.k.k.k.k.k.j.l.a.a.r.=.~ ) { =.=._ ^ _ ^ ~ +.e.j.M.s.5.@.<.8.9.9.e.a.s.x.b.N.b.] v @.N.^.aXcXcXcXcXcXcXcXcX$XJ.U.5.x N j.U.^.Y.Y.Y.U.F.M.w.H x { <.9.s.k.k.a.,.c.U.Y.Y.c.{ 5.A.Y.Y.!.U.Y.Y.U.U.!.!.!.!.!.!.!.!.!.!.!.!.^.^.^.^.^.^.^.^.^.^.^.^.^.U.F.Z.A.G.N.e.M.H.!.^.^.!.H.H.H.!.G.H.U.^.^.^.^.^.^.!.!.^.^.!.^.{.}.}.}.}.}.}.}.}.}.}.}.{.{.{.{.(.(.(.(.{.{.{.{.{.{.{.{.{.{.{.(.(.^.^.(.(.(.^.{.{.{.{.}.}.{.{.^.^.^.^.^.^.^.^.{.{.{.{.{.{.{.{.!.^.Y.F.U.^.^.^.^.^.^.Y.J.Y.}.{.Y.{.{.{.Y.Y.Y.B.8.Z.Z.H.^.^.^.^.^.^.^.^.^.^.^.^.^.^.^.^.^.^.^.^.U.H.U.^.!.!.!.!.!.!.!.!.!.U.!.!.H.<.=.Z.U.H.e.8.a.a.a.s.s.a.3.W m ^ e.M.H.Y.}.^.}.^.H.t.m q <.Z.J.0XcXcXcXcXcXcXcXcXcX$Xm.9.B Z 5.c.b.x.e.e.e.e.a.a.j.r.=.w.e.e.8.=.G m N Z T _ _ ) [ @.-.<.8.9.s.j.c.v.x.k.k.x.k.k.k.j.s.j.a.9.=.=.<.8.5.5.>.@.=.@.<.e.r.a.s.a.s.j.j.k.k.k.k.k.k.x.c.c.b.j.e.s.4.e.v.k.M.4.~ O.j.b.v.N.N.N.N.N.N.N.M.b.w.c.Z.A.F.F.F.F.F.F.F.F.",
"H.H.H.H.H.H.G.G.G.G.G.G.c.s.N.Z.Z.Z.Z.Z.Z.Z.Z.Z.Z.r.@.8.a.9.9.a.k.a.9.j.v.v.v.v.v.v.v.v.b.k.k.v.j.9.s.c.j.e.5.=.+.+.>.5.8.8.5.5.<.9.j.j.k.k.k.k.k.k.j.l.l.l.j.j.a.a.9.<.@.) _ =.{ ) { { ,.<.8.8.r.a.a.e.-.>.a.a.k.c.v.M.N.N.N.Z.w.Z R a.B.#XcXcXcXcXcXcXcXcXsX{.H.b.E t { F.Y.Y.Y.Y.U.G.N.s.[ x U ,.5.r.r.s.e.-.=.F.Y.Y.Z.8.{ b.Y.Y.H.U.U.U.U.U.H.H.!.!.!.!.U.U.!.!.!.!.!.^.^.^.^.^.^.^.^.^.^.!.Y.U.I.m.e.s.c.c.b.H.!.^.^.^.U.H.U.^.H.b.F.{.^.{.!.!.!.!.^.!.^.^.^.^.^.^.^.^.'.'.{.{.}.}.{.{.{.{././.!.!.!.!.!.!.{.{.{.{.{.{.{.{.!.!.^.^.^.^.^.^.{.{.}.}.}.}.}.}.{.^.^.^.^.^.^.^.{.{.{.{.{.{.{.{.!.H.G.A.Y.Y.!.^.{.Y.}.{.D.U.{.Y.Y.Y.Y.}.Y.Y.U.N.j.b.5.j.H.H.^.!.U.^.^.^.^.^.^.^.^.^.^.^.^.^.^.U.G.H.U.H.U.U.!.!.!.!.!.!.U.U.^.H.c.{ e.H.Y.Z.<.e.j.s.a.a.s.e.-.B G #.s.N.^.^.^.^. XY.G.] q S s.F.XXkXcXcXcXcXcXcXcXcXaXF.M.E n ^ s.N.Z.N.N.N.M.b.s.a.e.3.r.k.s.8.p.e.9.-.^ ) _ @.{ { @.,.>.5.9.r.k.k.k.k.k.k.k.j.j.j.j.j.s.a.8.=.-.<.5.5.5.<.=.=.@.<.9.a.j.s.j.j.r.8.r.j.k.k.k.k.c.c.c.x.s.e.e.8.0.v.M.k.e.E _ f.v.M.N.N.N.N.N.N.N.N.j.9.k.N.Z.F.F.F.F.F.F.F.F.F.",
"H.H.H.H.H.H.G.G.G.G.G.G.F.j.s.M.Z.Z.Z.Z.Z.Z.Z.Z.Z.M.8.+.5.k.9.r.j.j.r.9.s.v.v.v.b.b.b.b.c.c.s.s.r.e.j.k.k.s.9.5.-.=.-.<.8.8.8.5.<.5.9.a.j.k.k.k.j.j.k.k.l.l.j.j.s.a.r.5.=.{ { >.>.<.5.5.e.8.8.9.9.r.a.a.9.5.a.M.Z.A.F.G.F.F.A.b.x.] c @.c.D.sXcXcXcXcXcXcXcXzX>XH.F.5.u x s.'.Y.Y.Y.Y.H.A.v.<.G N { 5.e.j.c.k.9.@.c.H.H.Y.s.[ w.F.H.H.U.U.U.U.U.U.U.!.!.!.!.U.U.!.!.!.!.U.!.!.^.^.^.^.^.^.!.!.U.^.U.M.s.9.c.N.N.b.H.!.^.{.!.H.U.U.!.U.D.b.U.!.{.^.^.^.^.^.^.^.^.^.^.^.^.^.^.^.^.Y.Y.Y.Y.{.{.Y.Y.!.!.H.H.U.H.!.!.Y.Y.Y.Y.Y.Y.Y.Y.!.!.!.!.!.!.!.!.^.^.^.^.{.{.{.{.^.^.^.^.^.^.^.^.{.{.{.{.Y.Y.!.{.!.U.!.Y.Y.^.^.^.{.Y.Y.D.B.G.U.U.Y.U.Y.{.^.Y.H.b.b.H.b.t.s.x.D.U.U.^.^.^.^.^.^.^.^.^.^.^.^.^.^.H.G.H.U.H.U.U.!.!.U.U.U.U.U.U.^.F.8.{ c.U.Y.v.e.s.x.k.j.s.a.w._ m ^ 5.v.F.^.^.^.^.{.J.s.C 9 >.b.Y.0XcXcXcXcXcXcXcXcXcX}.M.3.N G <.Z.A.N.N.N.N.N.N.N.c.8.8.x.c.a.8.0.e.e.9.4.,._ [ @.+.@.-.5.5.e.k.k.k.k.j.j.j.j.j.j.j.j.j.j.9.>.+.<.5.5.3.<.>.=.=.,.9.a.s.k.j.j.r.=.=.<.r.k.k.k.k.v.v.c.s.9.r.e.e.k.m.v.a.~ ~ 0.M.M.N.N.N.N.N.N.N.N.k.r.s.N.Z.F.F.F.F.F.F.F.F.F.F.",
"H.H.H.H.H.H.H.H.G.G.G.G.G.N.s.k.N.Z.Z.Z.Z.Z.Z.Z.N.N.v.<.{ e.j.a.9.s.a.r.r.s.v.v.b.b.b.v.k.v.e.<.5.a.j.k.k.k.a.9.5.>.=.-.5.8.8.8.5.<.5.9.a.j.k.k.j.j.j.j.j.j.j.j.j.j.a.9.<.@.+.-.,.<.>.<.8.5.<.8.9.r.s.a.a.5.<.a.v.M.N.Z.N.b.j.e.i.w.V G 6.x.;XcXcXcXcXcXcXcXcXsXU.Z.b.R r ) F.^.Y.Y.Y.U.G.N.a.^ x ~ 5.9.k.N.M.k.5.k.U.G.U.b.{ >.M.H.H.U.U.U.U.U.U.U.U.!.!.!.!.U.!.!.U.U.U.U.U.!.!.!.!.!.!.!.U.U.U.Z.4.a.M.G.H.Z.c.F.U.!.H.Z.C.F.H.!.H.H.b.c.H.U.^.^.^.^.^.^.^.^.^.^.^.^.^.^.^.^.Y.Y.Y.Y.Y.Y.Y.Y.!.!.!.U.U.U.!.!.Y.Y.Y.Y.Y.Y.Y.Y.!.!.!.!.!.!.!.!.Y.Y.Y.Y.Y.Y.Y.Y.!.!.!.!.^.^.^.^.Y.Y.Y.Y.!.!.{.{.!.!.^.^.!.U.U.H.J.F.N.b.N.D.F.H.J.J.J.Y.^.Y.G.c.Z.H.U.Z.s.<.x.^.U.U.U.U.^.^.^.^.^.^.^.^.!.^.!.H.G.H.!.H.U.!.!.!.U.U.U.U.U.U.H.b.@.>.Z.H.Y.r.a.x.c.c.k.j.r.<.H Z #.s.N.Y.^.^.^.^.H.D.=.r S c.D.$XjXcXcXcXcXcXcXcXcXwXZ.s.E c { c.Z.c.s.c.N.M.b.b.k.<.>.s.k.s.r.w.e.9.5.9.4._ [ ,.@.@.=.<.5.<.a.v.k.k.j.a.j.l.j.j.s.s.j.a.r.<.-.-.5.5.<.-.<.=.=.=.8.r.a.j.k.j.r.<.^ ) =.e.k.k.k.k.b.v.s.e.r.e.e.b.N.M.s._ W 0.k.N.N.N.N.N.N.N.N.N.x.r.s.N.Z.D.D.D.F.F.F.F.G.G.G.G.",
"H.H.H.H.H.H.H.H.G.G.G.G.F.F.b.j.b.Z.Z.Z.Z.Z.Z.Z.Z.M.Z.c.<.{ a.c.r.a.r.a.r.r.s.v.M.b.b.v.j.s.>.{ <.a.j.j.j.k.j.a.8.<.-.=.,.5.8.8.5.<.<.5.9.a.j.k.j.j.j.j.j.j.j.j.j.j.j.e.8.>.@.{ <.+.) @.-.=.-.<.<.8.a.k.v.r.=.@.<.5.5.8.3.<.5.w.j.x.} c { x.B.jXcXcXcXcXcXcXcXcX*XF.b.>.x h a.U.Y.Y.Y.U.H.A.k.=.B U @.8.j.M.M.k.6.w.F.G.H.Z.<.@.b.U.H.H.H.H.H.H.U.U.U.U.!.!.Y.U.!.!.!.U.U.U.U.U.U.U.!.!.!.!.U.U.H.F.-.k.G.U.G.Z.c.F.H.!.H.Z.N.F.H.U.U.U.H.c.j.c.C.C.C.C.Z.Z.Z.Z.Z.Z.Z.Z.A.A.A.A.Z.D.D.B.B.B.N.N.Z.Z.Z.Z.Z.Z.Z.Z.D.D.D.Z.Z.Z.Z.Z.Z.Z.Z.Z.Z.Z.Z.Z.Z.N.N.N.N.N.Z.Z.Z.Z.Z.Z.Z.Z.Z.C.N.b.N.N.N.N.Z.Z.Z.Z.Z.N.b.b.b.n.c.x.b.D.F.F.F.F.F.F.G.J.{.U.F.x.F.U.!.U.F.e.s.H.H.H.U.U.^.^.^.^.^.^.^.!.!.^.U.H.G.H.U.H.U.!.!.U.U.H.H.H.U.!.H.j.{ r.G.Y.F.8.s.j.c.k.d.s.e.{ m E 5.v.F.^.^.^.^.^.J.s.D t 1.c.Y.wXcXcXcXcXcXcXcXcXzX^.N.#.n H a.F.N.8.#.>.5.5.5.3.{ _ 5.e.e.e.e.8.3.@.=.5._ U ,.,.{ +.,.8.<.<.j.j.k.j.a.r.a.a.a.a.a.a.a.e.<.=.,.3.5.<.>.=.>.=.=.<.e.a.a.j.j.a.5.{ ^ _ -.e.k.k.k.k.b.j.r.r.r.e.x.N.M.k.+.U 5.m.M.M.N.N.N.N.N.N.N.N.e.j.C.Z.D.D.D.F.F.F.F.F.G.G.G.G.",
"H.H.H.H.H.H.H.H.H.H.H.H.F.F.Z.b.k.b.Z.D.B.B.Z.Z.N.N.N.b.j.=.@.s.c.e.r.r.w.8.r.j.c.v.v.b.k.a.5.+.a.j.j.j.j.k.j.s.a.8.<.=.@.=.<.8.9.5.-.+.=.<.5.5.5.5.5.5.5.5.5.5.5.=.,.9.8.5.>.=.=.*.) =.5.5.<.<.<.9.a.k.j.c.r.@.<.9.e.a.s.j.c.v.N.b.r.S D 5.x.*XcXcXcXcXcXcXcXcXsXD.C.j.U t ) D.^.^.U.U.U.F.M.9.E m ^ 3.a.x.c.c.e.@.j.F.F.H.a.[ s.F.H.H.H.H.H.H.U.U.U.!.U.U.U.U.!.U.U.U.U.U.U.U.!.U.!.!.U.^.H.Z.G.c.s.A.U.U.F.Z.c.F.U.^.!.!.!.!.U.U.!.!.H.H.D.c.c.c.c.c.c.c.c.c.j.j.s.s.j.x.x.x.x.x.x.x.x.x.x.x.x.x.x.x.c.c.c.c.c.c.c.c.c.c.c.x.j.c.b.c.c.x.x.x.x.x.x.x.x.c.c.c.b.b.b.b.c.x.x.j.j.x.x.x.x.x.x.x.x.x.c.x.c.b.b.b.b.D.H.Y.U.H.H.H.H.H.H.H.^.U.F.c.Z.Y.J.J.H.c.j.F.H.H.U.U.U.U.^.^.^.Y.!.!.!.!.U.F.H.J.U.U.U.U.U.U.U.H.H.H.U.H.A.5.-.c.H.U.k.3.k.x.j.x.s.e.5.U c { j.Z.U.Y.'.^.U.U.B.,.q D x.b.$XlXcXcXcXcXcXcXcXcX0XB.r.U x >.F.F.H.b.s.e.e.r.8.-.=.a.k.e.8.5.5.8.<.=.=.~ H +.,.{ [ >.w.8.@.=.>.<.5.5.5.<.8.e.e.9.8.8.8.<.+.-.4.4.<.>.-.-.=.=.<.9.r.j.j.j.j.s.e.-.{ @.5.j.v.v.v.v.c.e.e.8.5.j.v.M.v.+.Y -.j.v.b.M.N.N.N.N.M.Z.N.s.j.N.Z.D.D.D.F.F.F.F.F.F.F.F.F.G.",
"H.H.H.H.H.H.H.H.H.H.H.H.G.F.F.Z.b.c.M.B.Z.B.Z.Z.N.N.N.M.N.e.=.#.k.v.8.q.1.5.8.e.k.v.M.M.k.a.9.<.a.s.j.j.j.j.j.j.j.r.8.,.@.+.=.5.8.5.@.~ A Y ^ { >.>.>.-.<.<.<.<.>.-.<.<.,.5.<.=.-.;.-._ 5.s.r.r.8.e.a.j.j.b.x.8.8.N.Z.Z.Z.A.F.F.D.D.c.] x / e.D.hXcXcXcXcXcXcXcXzX.XC.b.<.x c w.U.Y.U.U.U.H.Z.s.@.Z H <.w.x.b.d.k.<.5.F.U.U.c.@.<.N.F.U.H.H.H.H.H.H.H.H.H.H.H.H.H.H.H.H.U.U.U.U.!.U.!.!.U.U.Z.b.Y.d.N.Y.U.G.A.Z.b.H.!.^.!.!.!.!.!.!.!.!.!.!.U.U.U.U.U.U.U.H.U.U.U.U.U.Y.Y.^.{.{.{.{.^.{.{.{.{.{.{.{.{.{.{.{.{.{.{.{.^.{.^.^.{.Y.U.^.}.{.^.^.^.^.Y.Y.Y.Y.{.{.^.^.!.!.!.!.{.{.!.!.{.{.^.^.{.{.{.{.{.Y.Y.Y.U.^.^.!.Y.Y.!.!.!.!.!.!.^.^.!.!.!.Y.H.N.b.J.J.F.J.F.N.b.H.H.U.H.U.U.U.U.!.U.U.U.U.U.H.Z.H.J.J.J.H.H.H.H.H.H.H.H.H.F.M.=.8.N.F.U.a.9.k.k.j.j.s.e.=.B G >.v.F.U.U.'.].U.F.x.G t >.x.D.wXcXcXcXcXcXcXcXcXzXJ.c.{ z S j.F.Z.Z.B.Z.Z.Z.F.c.e.r.c.c.j.j.r.e.a.s.j.5.[ _ -.=.{ >.5.8.<.5.5.5.3.<.<.<.,.>.>.=.{ ) ^ Y U ) -.8.4.>.-.-.=.=.<.9.r.a.j.j.s.j.s.r.5.-.5.a.c.v.v.v.k.s.r.8.@.<.k.N.k.<.Y +.j.v.b.M.N.N.N.N.N.Z.N.s.a.N.Z.D.D.D.F.F.F.F.F.G.F.F.F.F.G.",
"!.!.U.U.U.H.H.H.H.H.H.H.G.G.F.F.A.M.c.v.A.Z.B.Z.N.N.N.N.N.v.e.#.>.c.x.=.<.w.e.w.a.k.M.N.v.k.j.r.a.s.j.j.j.j.k.j.j.a.e.5.=.{ +.-.5.<.{ W [ [ @.<.5.5.5.5.9.9.9.9.9.9.e.8.=.,.5.<.<.5.9.+.{ 9.a.r.9.e.a.a.k.c.c.j.8.c.Z.F.F.F.F.F.D.D.F.r.D S 5.b.;XzXcXcXcXcXcXcXcXgXb.C.s.H t ) Z.!.Y.U.U.U.F.M.e.R c { <.e.v.a.a.,.+.v.U.H.N.5.@.v.F.F.G.G.G.G.H.H.H.H.H.H.H.H.H.H.H.H.H.H.U.U.!.!.!.!.H.H.b.j.v.k.H.F.G.F.Z.N.C.H.^.^.!.!.!.!.!.!.!.!.!.!.!.!.^.^.^.^.^.!.!.!.!.!.!.!.Y.Y.Y.Y.Y.Y.Y.Y.W.W.{.{.{.{.{.Y.Y.Y.Y.Y.Y.Y.Y.Y.Y.Y.Y.J.H.U.^.^.^.^.^.^.!.!.!.!.Y.Y.H.H.H.H.H.H.U.!.!.!.Y.Y.Y.Y.Y.Y.Y.Y.Y.Y.U.U.Y.^.Y.!.^.^.!.^.!.!.!.!.!.!.!.!.U.U.U.F.b.Z.U.H.J.J.J.N.Z.H.H.H.U.U.U.U.U.U.U.U.U.U.H.Z.H.U.U.U.H.H.H.G.H.H.H.H.U.H.a.{ j.F.U.Z.5.a.k.s.s.s.r.8.E c ] r.N.G.U.U.Y.].G.M.#.t C s.Z.XXzXcXcXcXcXcXcXcXcX<Xc.e.C x 2.F.B.F.N.Z.Z.Z.N.N.e.e.M.v.k.k.j.r.9.e.a.9.@.{ -.=.=.-.5.9.<.<.s.a.y.e.e.9.9.9.9.9.<.=.[ Q U U { ,.3.-.-.-.=.=.>.8.e.r.s.j.j.a.j.j.s.e.5.a.k.c.v.v.k.a.r.9.5.-.5.c.c.5.~ { r.z.b.M.N.N.N.N.N.N.N.s.j.b.Z.D.D.D.F.F.F.F.F.F.G.H.H.H.H.H.",
"!.!.U.U.U.H.H.H.H.H.H.H.H.G.G.F.G.A.b.k.N.Z.B.Z.N.N.N.N.N.N.b.e.{ <.b.<.<.s.j.r.a.s.c.M.v.k.k.j.s.j.k.k.j.j.j.j.k.s.a.e.,.@.{ @.<.-.{ [ { { @.5.e.e.e.e.r.r.r.r.a.9.e.9.,.>.5.8.5.q.9.9.) =.j.a.e.e.r.r.k.x.x.c.r.8.b.Z.F.F.A.Z.N.N.D.b.} m ] x.F.hXcXzXcXcXxXcXcXcX.Xv.Z.{ h m e.U.U.U.U.U.H.Z.s.+.x G ^ ) <.=.5.5.5.j.F.F.N.d.=.e.Z.Z.F.F.G.G.H.H.H.H.H.H.H.H.H.H.H.H.H.H.H.H.U.U.U.U.H.F.x.e.r.F.U.H.F.F.N.N.Z.U.!.!.!.!.!.!.!.!.!.!.U.U.U.U.U.U.!.!.!.U.U.U.H.U.!.!.Y.Y.Y.Y.Y.Y.Y.Y.W.W.W.W.Y.Y.Y.Y.Y.J.J.J.J.J.J.J.J.J.J.J.H.H.!.U.!.!.!.!.!.!.U.U.U.H.U.U.U.U.U.U.U.U.!.^.Y.Y.Y.Y.Y.Y.Y.Y.^.Y.Y.Y.Y.Y.U.U.U.!.Y.U.U.U.U.U.U.U.U.!.U.H.U.H.Z.c.D.J.J.J.H.Z.b.H.H.H.U.U.U.U.U.U.U.U.U.U.F.N.H.U.U.U.H.H.H.G.H.G.G.G.F.A.,.=.N.F.U.c.#.5.8.3.<.<.>.@.m A =.c.A.U.U.H.U.Y.A.k.H 9 } b.J.wXcXcXcXcXcXcXcXcXlXJ.x.] z ) N.Z.B.B.B.N.N.Z.N.k.5.j.v.v.k.a.j.a.a.a.9.+.) +.,.,.<.5.8.3.=.8.s.a.a.a.a.a.a.a.e.r.8.5.@.) ) ) @.-.,.,.-.=.=.,.5.9.r.r.j.j.j.r.a.j.s.r.r.j.k.c.v.k.a.a.r.<.8.s.s.c.5.E ' r.k.k.M.M.N.N.N.N.N.N.s.a.b.Z.D.D.D.F.F.D.F.F.F.F.G.H.H.H.H.H.",
"!.U.U.U.U.H.H.H.H.H.H.H.H.H.H.H.G.F.Z.b.k.N.A.N.N.N.N.N.N.N.N.c.5.] <.e.s.j.j.s.j.a.s.b.v.k.k.k.k.k.k.k.a.s.k.c.j.j.a.a.9.<.+.{ -.+.) [ _ [ -.e.e.r.a.a.a.a.a.a.r.r.r.r.5.>.<.9.5.q.8.9.+.) 8.e.9.9.e.e.s.s.j.k.a.5.9.c.N.N.Z.Z.Z.Z.Z.N.e.U A <.j.;XcXcXcXcXcXcXcXcXsXA.B.e.A u @.G.U.H.U.U.U.F.b.8.H x ^ 3.s.a.k.b.k.9.a.M.Z.N.<.,.v.Z.F.H.G.F.G.H.H.H.H.H.H.H.H.H.H.H.H.H.H.H.H.H.H.H.F.C.x.c.N.U.U.H.Z.c.b.H.U.Y.!.!.U.U.U.U.!.!.!.U.U.H.U.U.U.Y.!.Y.!.!.!.U.!.!.U.U.Y.!.!.U.Y.Y.Y.Y.Y.Y.Y.Y.Y.Y.Y.Y.Y.Y.Y.Y.Y.Y.Y.Y.J.Y.Y.J.H.!.^.U.!.!.!.U.!.Y.Y.Y.Y.Y.Y.U.U.U.!.!.!.!.U.U.Y.Y.Y.Y.Y.Y.Y.Y.Y.Y.Y.Y.Y.Y.Y.Y.U.U.U.U.U.U.U.U.U.U.U.U.U.H.U.H.J.Z.B.G.Y.J.J.J.b.c.G.H.H.U.U.U.H.U.U.U.U.H.Z.N.H.H.H.H.H.H.H.H.H.G.F.F.H.v.[ r.N.D.F.8.,.9.9.8.e.5.>.U h ^ t.b.H.H.G.G.U.G.Z.@.d m r.N.XXzXcXcXcXcXcXcXcXcX<XN.w.C c y.G.D.N.b.b.N.M.c.j.<.5.k.k.k.j.a.a.e.r.e.5.~ W { <.5.8.8.<.@.<.a.s.s.s.s.s.s.a.a.a.r.9.8.{ Q Q ) { @.=.=.+.@.-.5.9.r.s.k.c.k.s.a.s.j.j.s.a.k.c.k.x.s.a.e.5.8.j.Z.N.5.Y W 9.k.v.b.M.M.N.N.M.N.N.a.x.M.N.Z.Z.Z.D.D.D.D.F.F.F.G.H.H.H.H.H.H.",
"!.!.U.U.U.H.H.H.H.H.H.H.H.H.G.G.G.G.F.B.j.k.N.A.N.N.N.N.N.N.N.N.c.=.) 5.b.b.s.j.s.a.a.j.b.v.v.v.v.v.v.v.a.s.j.k.j.j.s.a.a.9.-.{ _ ^ E ~ ) @.5.8.e.e.p.a.a.a.a.a.a.a.a.a.e.5.<.5.<.5.8.8.<.~ { 9.0.9.8.8.r.a.s.s.s.8.=.9.b.N.Z.N.Z.Z.Z.Z.c.@.H ^ t.F.jXcXcXcXcXcXcXcXlX$XB.c.) u Z d.U.Y.U.U.U.G.N.s.[ m U 9.s.s.c.v.k.e.e.v.F.A.a.=.s.N.F.F.G.F.G.G.H.H.H.H.H.H.F.F.H.H.G.H.G.G.H.H.H.H.A.c.b.Z.F.U.G.F.c.c.N.Y.U.!.!.!.U.U.U.U.U.U.U.U.U.U.U.U.U.U.!.!.!.!.U.U.U.!.U.Y.!.!.!.!.Y.Y.Y.Y.Y.Y.Y.Y.Y.Y.Y.Y.Y.Y.Y.Y.Y.Y.Y.Y.Y.Y.Y.J.H.!.^.U.!.!.!.!.Y.Y.Y.Y.Y.Y.Y.Y.U.U.!.!.!.!.U.U.Y.Y.Y.Y.Y.Y.Y.Y.Y.Y.Y.Y.Y.Y.Y.Y.U.U.U.U.U.U.U.U.U.U.U.U.U.U.U.Y.Y.F.N.N.D.F.J.H.H.x.j.C.G.H.U.U.H.H.H.H.H.F.N.A.G.G.G.G.G.G.G.G.F.F.F.D.A.5.+.M.Z.F.b.5.M.N.N.N.M.v.<.m Z @.j.C.H.H.G.G.U.F.a.G t Q h.D.tXcXcXcXcXcXcXcXcXjXb.x.] z ^ N.G.D.N.b.N.b.b.N.9.5.j.j.r.9.9.9.9.8.9.<._ U Z ^ =.8.9.5.@.,.e.s.s.s.s.s.s.s.a.a.r.r.9.q.,.X.[ [ ) ) [ { { =.5.9.e.a.k.k.k.j.j.a.s.j.k.j.k.k.k.c.s.a.e.5.e.j.N.Z.a.) ~ 5.k.v.M.M.M.M.N.N.N.N.s.a.c.N.F.F.Z.Z.Z.Z.F.F.F.F.G.G.H.H.H.H.H.H.",
"^.^.^.!.U.U.U.H.H.H.H.H.H.G.G.G.G.G.G.F.M.s.k.A.Z.N.N.N.N.N.N.N.b.j.=.{ t.N.x.s.a.a.a.r.k.b.M.M.v.v.v.v.k.a.s.k.k.k.j.j.a.e.5.=.^ Z Z W _ =.5.5.9.9.r.r.a.a.a.a.a.a.a.a.a.e.8.5.-.=.-.4.,.@.T =.0.9.9.8.w.e.e.r.e.a.-.{ 8.a.b.Z.Z.Z.Z.Z.N.r.W H } x.$XcXcXcXcXcXcXcXcXsXI.M.u.C d =.G.G.U.U.U.U.F.M.3.Z m ,.a.j.c.x.j.s.s.Z.G.A.b.@.<.c.N.A.F.F.F.F.G.H.G.G.G.F.Z.Z.F.G.G.G.F.F.H.H.H.G.F.Z.D.b.H.U.F.N.s.M.H.Y.U.U.!.!.!.!.U.U.U.U.U.U.U.U.U.U.U.U.U.U.!.!.!.!.U.Y.U.U.!.!.!.!.Y.Y.Y.Y.Y.Y.Y.Y.Y.Y.Y.Y.Y.Y.Y.Y.Y.Y.Y.Y.Y.{.Y.J.H.U.!.!.!.!.U.U.!.!.!.!.!.!.!.!.U.U.!.!.!.U.U.U.Y.Y.Y.Y.Y.Y.Y.Y.Y.U.Y.Y.!.!.!.!.U.U.U.U.U.U.U.U.U.U.U.U.U.U.U.U.Y.J.D.b.c.B.F.F.H.N.x.C.Z.G.H.H.H.H.H.H.F.A.N.Z.F.F.F.F.F.F.F.F.F.D.D.D.N.+.3.N.F.U.s.6.M.M.b.b.j.s.{ c E 8.N.Z.H.H.G.G.G.M.@.y x 1.x. XcXcXcXcXcXcXcXcXzX$Xc.1.v m s.G.D.B.b.n.b.N.N.M.>.<.r.9.8.5.5.5.5.8.8.{ U U A Y @.5.<.=.#.9.j.j.s.s.s.s.s.s.a.a.r.e.8.q.1.2.=.{ ) ) Q ) +.,.9.r.r.j.k.k.j.j.j.j.j.k.c.c.b.c.k.j.a.e.5.9.k.N.A.j.#.^ 5.j.M.M.N.M.M.N.N.N.N.s.e.N.N.A.D.Z.Z.D.Z.F.F.G.F.F.H.H.H.H.H.H.H.H.",
"^.^.^.!.U.U.U.H.H.H.H.H.H.G.G.G.G.G.G.G.F.x.s.b.N.Z.N.N.N.N.N.N.Z.c.e.=.{ t.b.c.a.j.a.e.e.c.v.M.v.v.v.v.k.a.a.k.k.k.j.j.a.r.9.5.{ Y E ^ +.=.<.8.9.9.e.e.a.a.a.a.a.a.s.s.j.r.e.9.<.+.+.-.-.=.^ ~ ,.<.<.5.5.8.9.9.9.9.8.{ E [ <.j.N.Z.Z.Z.Z.N.>.A S w.Z.rXcXcXcXcXcXcXzXcX5XG.j.Q f G v.F.U.U.U.U.H.N.r.^ x ) e.s.x.j.d.j.y.j.N.N.M.=.@.r.M.Z.Z.A.F.F.F.G.F.F.G.Z.N.N.A.F.G.F.F.F.G.F.F.D.Z.G.C.Z.F.H.F.b.a.A.Y.U.U.U.!.!.!.!.!.U.U.U.U.U.U.U.U.U.U.U.U.U.!.!.!.!.!.!.U.U.!.!.!.!.Y.Y.Y.Y.Y.Y.Y.Y.Y.U.U.U.Y.Y.Y.Y.Y.Y.Y.Y.Y.^.Y.J.H.U.!.!.!.!.Y.U.!.!.!.!.!.!.!.!.U.U.!.!.!.U.U.U.Y.Y.Y.Y.Y.Y.Y.Y.Y.U.U.U.!.!.!.!.U.U.U.U.U.U.U.U.U.U.U.U.U.U.U.U.J.J.F.N.r.b.D.D.C.Z.b.c.b.Z.F.G.G.G.G.F.F.D.N.D.D.D.D.D.D.D.D.D.D.D.D.D.r.) j.N.A.F.a.e.v.x.x.j.j.5.E m [ r.Z.F.H.H.G.G.S.j.Z q W r.b.uXcXcXcXcXcXcXcXcXuXM.r.E x { G.D.A.B.b.c.b.M.a.#.U <.5.<.<.-.@.+.>.8.5.) W Z H ) @.=.{ ) 3.s.s.j.s.s.s.s.s.s.a.a.r.9.8.<.,.<.-.{ { ) ^ Q =.5.e.a.s.j.j.j.j.j.j.j.k.k.c.v.b.M.c.9.e.5.9.a.N.Z.x.<.^ <.s.M.N.M.M.M.M.N.N.N.a.a.N.A.Z.F.F.A.Z.D.D.F.F.F.F.G.H.H.H.H.H.H.H.H.",
"^.^.^.!.!.U.U.U.U.H.H.H.H.H.G.G.F.F.G.G.H.G.b.r.c.N.N.N.N.N.N.N.N.C.v.r.*.[ r.Z.j.a.j.e.9.j.v.v.b.v.v.v.k.k.k.k.a.j.j.j.s.a.e.8.<.{ _ +.=.,.<.5.8.9.9.e.r.a.a.a.s.s.j.j.s.a.r.9.9.+.^ O.3.4.4.#._ +.=.@.=.=.,.4.e.e.9.3.J N _ a.M.Z.Z.A.F.F.s.) N { b.U.lXcXzXcXcXcXcXcXzX%XB.<.m d -.U.I.U.U.U.U.A.j.@.B G <.k.k.k.r.5.~ E k.G.b.9./ <.x.b.N.N.b.N.N.N.N.N.b.b.s.x.Z.F.F.F.F.F.F.F.Z.Z.N.b.C.C.N.D.D.c.N.H.J.J.U.U.U.U.U.U.U.U.U.U.Y.Y.U.U.U.U.U.U.U.U.U.U.U.U.U.U.Y.Y.Y.Y.U.Y.U.U.U.U.U.U.H.H.Y.Y.Y.Y.Y.Y.U.U.U.U.!.!.!.U.U.H.H.U.!.U.!.!.U.U.U.!.!.!.U.U.U.U.U.U.U.U.U.U.U.U.U.U.U.U.!.!.Y.Y.Y.Y.!.Y.U.U.U.U.U.U.U.U.U.U.U.U.H.H.H.H.U.U.U.U.U.U.U.D.y.N.F.F.Z.j.t.r.b.Z.F.F.F.F.F.F.Z.b.j.Z.D.Z.N.N.N.Z.Z.Z.F.Z.Z.N.=.>.N.Z.A.c.{ >.s.j.k.s.r.-.m G <.k.A.F.Y.H.F.U.A.-.q d } x.}.cXcXcXcXcXzXcXcXcX}.d.=.v V j.F.A.N.M.c.x.c.5.G h ) 8.9.8.8.3.<.5.8.3.=.@.@.[ { =.=.[ ) =.r.s.j.s.s.s.s.s.s.s.a.a.r.e.8.5.<.<.-.=.@.{ _ { <.9.a.j.j.j.j.j.j.j.k.x.j.c.v.c.k.v.a.8.8.5.y.b.N.k.<.[ >.a.v.N.N.N.N.N.N.M.A.a.8.v.F.A.A.A.A.A.A.A.F.F.F.G.G.G.H.H.H.H.H.H.H.H.",
"{.^.^.!.^.!.U.U.U.H.U.U.H.H.H.G.G.G.G.G.G.F.Z.b.a.j.N.N.N.N.N.N.N.C.C.c.8.[ =.k.N.k.s.s.r.r.a.k.b.v.v.c.c.k.k.k.a.j.k.k.j.a.r.9.9.,.+.+.@.-.,.<.5.8.9.9.r.a.a.a.a.a.s.s.s.s.a.r.e.<.+.O.:.3.4.4.+.,.9.p.9.9.0.a.a.a.r.9.-._ <.j.M.Z.A.G.H.H.N.1.Z H w.N.6XcXcXcXcXcXcXcXcXyXG.a./ d G M.U.U.U.U.U.F.v.5.Y B { r.s.j.a.9.-.G a.U.A.e.^ { e.s.x.c.c.b.b.b.b.b.b.b.b.N.F.D.D.D.D.D.F.F.D.C.C.Z.Z.Z.b.b.Z.D.F.J.J.J.U.U.U.U.U.U.U.U.U.U.Y.Y.U.U.U.U.U.U.U.U.U.U.U.U.U.U.U.U.Y.Y.Y.Y.U.U.U.U.U.U.H.H.Y.Y.Y.Y.Y.Y.U.U.U.U.U.U.U.U.U.H.U.U.!.U.!.!.U.U.U.Y.!.!.U.U.U.U.U.U.U.U.U.U.U.U.U.U.U.U.!.!.Y.U.Y.Y.!.!.U.U.U.U.U.U.U.U.H.H.H.H.H.H.H.H.U.U.U.U.Y.Y.U.H.F.F.F.H.F.k.e.x.N.Z.F.F.F.G.G.F.Z.N.c.Z.F.D.Z.B.N.N.N.N.N.v.k.s.=.a.N.N.b.-.E 3.s.k.j.s.9.~ m ) 8.b.A.F.H.G.H.U.k.V 8 U w.c.wXcXcXcXcXcXzXcXcXyXv.6.H z } C.Z.N.N.b.c.j.a.8.@.+.<.a.j.a.r.w.8.e.r.w.5.<.<.<.<.>.{ _ =.9.s.j.s.s.s.s.a.a.a.a.a.r.9.9.5.<.<.<.=.*.{ { +.-.9.r.j.k.j.j.j.j.j.k.x.x.j.c.v.c.j.j.r.9.5.r.v.Z.x.5.[ +.a.v.N.N.M.M.N.N.N.Z.j.<.c.Z.A.C.A.A.A.A.Z.A.F.F.F.G.G.H.H.H.H.H.H.H.H.H.",
"{.^.^.^.^.^.!.U.!.U.U.U.H.H.H.H.G.F.F.F.G.A.F.G.k.s.N.Z.N.N.N.N.N.N.N.b.k.q.{ >.b.Z.k.j.a.e.9.a.v.v.v.v.v.v.v.v.j.j.j.k.j.s.a.e.a.8.=.{ { =.-.-.5.8.9.9.e.r.a.a.a.a.a.a.a.s.s.a.e.9.4.=.-.-.-.4.-.3.e.k.f.a.a.s.a.s.s.r.9.<.<.9.s.M.N.A.F.H.H.c.[ V @.b.H.jXcXcXcXcXcXcXcXzX}.v.3.M j ,.F.I.U.U.U.G.Z.j.@.B A <.r.j.j.c.j.s.c.A.H.N.e.a.N.Z.F.F.F.H.H.H.G.H.U.U.U.H.U.H.H.H.H.G.F.G.G.D.Z.F.F.G.N.N.J.U.J.J.U.J.U.U.U.U.U.U.U.U.U.U.U.Y.U.U.U.U.H.H.H.H.U.U.U.U.Y.Y.Y.U.Y.Y.U.Y.U.U.U.U.U.U.H.H.Y.Y.Y.Y.Y.Y.U.U.U.U.U.U.U.U.U.H.U.U.U.U.!.!.U.U.!.!.!.!.U.U.U.U.U.U.U.U.U.U.U.U.U.U.!.!.!.!.U.U.Y.Y.Y.Y.U.U.U.U.U.U.U.H.H.H.H.H.H.H.H.H.U.U.U.U.Y.Y.U.U.Y.H.G.G.G.G.N.A.A.F.F.F.G.H.G.D.F.F.G.H.Y.Y.J.J.F.F.G.G.H.G.F.Z.N.Z.N.Z.A.v.s.v.k.x.j.r.=.A G =.a.N.F.H.G.H.H.F.=.q g +.x.J.cXcXcXcXcXcXcXcXcX}.e.@.z A c.H.N.N.M.v.k.s.e.<.5.r.s.j.j.j.a.e.w.e.e.w.5.5.<.5.>.+.) @.8.a.j.s.s.s.s.a.a.a.a.a.r.r.8.5.<.,.,.-.=.@.{ =.<.9.r.a.j.k.j.j.j.j.k.x.x.c.c.v.c.j.s.r.e.9.r.b.Z.c.5.{ @.8.v.N.N.N.M.N.Z.Z.N.k.5.v.A.A.A.C.A.A.A.A.F.F.G.G.G.G.G.H.H.H.H.H.U.U.U.U.",
"}.^.^.^.^.^.^.!.!.!.!.U.H.H.H.H.G.G.F.F.G.F.G.F.Z.M.F.N.N.N.N.N.C.N.b.v.b.c.<.[ 9.N.Z.c.j.r.9.e.k.v.v.v.v.v.v.v.j.j.j.k.k.s.a.r.r.9.,.+.[ @.=.=.<.5.8.9.9.r.a.a.a.a.a.a.a.a.s.s.p.a.0.4.#.=.3.4.9.5.9.a.a.0.0.e.e.a.a.r.r.8.<.5.9.f.k.v.A.A.F.C.e.H S e.b.;XzXcXcXcXcXcXcXcX6XB.a./ x R x.U.H.U.U.H.A.v.5.U j W 5.a.v.A.A.Z.k.U.Y.U.N.M.b.M.b.c.c.b.b.b.b.N.Z.Z.Z.Z.Z.C.Z.C.C.C.Z.F.F.Z.D.D.F.G.N.Z.J.J.J.J.J.J.H.H.H.H.H.H.H.H.U.U.U.U.U.U.U.U.H.H.H.H.U.U.U.U.Y.Y.Y.Y.Y.Y.U.U.U.U.U.U.U.U.H.H.Y.Y.Y.Y.Y.Y.U.U.U.U.U.U.U.U.U.U.U.U.U.U.U.U.U.U.U.U.!.!.U.U.U.U.U.U.U.U.U.U.U.U.Y.U.!.!.!.!.U.U.Y.Y.Y.Y.U.U.U.U.U.U.U.H.H.H.H.H.H.H.H.H.H.H.U.U.U.U.U.U.U.H.F.Z.A.D.G.A.A.D.F.F.F.F.Z.N.b.b.Z.Z.D.D.N.N.N.Z.Z.Z.Z.D.F.F.F.F.F.F.c.j.j.b.c.c.s.e.~ B ~ <.j.N.F.H.U.U.F.b.G 8 Y e.N.6XcXcXcXcXcXcXcXcXyXs.6.H x >.F.F.Z.Z.b.c.j.s.<.{ >.e.s.a.a.a.r.9.8.w.e.w.8.5.5.<.=.{ +.5.e.j.s.s.s.s.a.a.a.a.a.r.r.e.5.5.<.-.>.-.@.+.{ <.9.a.a.j.k.k.j.j.k.k.k.k.c.c.c.b.c.j.e.9.e.e.b.Z.c.6.{ =.9.j.N.N.N.N.N.Z.Z.Z.b.j.Z.F.A.A.A.Z.A.A.A.A.F.F.G.G.G.G.H.H.H.H.H.H.U.U.U.U.",
"}.^.^.^.^.^.^.^.!.U.U.U.H.H.H.H.G.G.G.G.G.G.G.F.F.Z.A.Z.N.N.N.N.N.N.N.N.N.b.k.q.@.e.Z.N.b.j.r.9.9.j.v.M.v.v.v.v.v.k.j.j.j.a.r.r.a.r.8.-.+._ [ @.<.<.<.>.<.<.5.e.e.r.a.a.a.s.a.a.a.a.r.9.-.@.-.4.9.9.0.0.5.4.5.5.w.e.e.r.r.9.<.-.,.5.8.9.k.G.F.F.N.{ N [ x.F.uXzXcXcXcXcXcXcXlXU.a.6.K n -.N.H.G.H.H.S.M.r._ N B ,.k.Z.G.A.N.9.v.A.Z.N.N.M.c.k.c.x.c.b.b.b.b.b.b.c.c.c.c.b.b.N.C.N.C.Z.D.D.F.G.F.D.D.H.F.H.J.J.U.H.H.H.H.H.H.H.H.U.U.U.U.U.U.U.U.H.H.H.H.U.U.U.U.U.U.U.U.U.U.U.U.U.U.U.U.U.U.H.H.Y.Y.J.J.U.U.U.H.H.H.H.H.H.H.H.H.H.H.H.H.U.U.U.U.U.U.U.U.U.U.U.U.H.H.H.H.U.U.U.U.U.U.!.!.Y.Y.Y.Y.Y.Y.Y.Y.U.U.U.U.H.H.H.H.H.H.H.H.H.H.H.H.H.H.H.H.U.U.U.U.U.H.N.N.A.D.A.A.N.M.N.N.Z.Z.C.b.b.b.b.b.b.b.b.b.b.b.N.C.A.N.N.N.N.F.A.b.s.r.a.c.c.b.k.>.N A +.r.c.Z.F.H.U.G.F.<.s j =.a.F.cXcXcXcXcXcXcXcXcXG.d.@.z E x.F.A.Z.b.N.c.a.e.{ [ 5.a.a.r.9.9.3.3.5.5.5.5.5.5.5.=.{ { 5.e.s.j.a.a.a.a.e.r.a.e.r.9.5.-.+.-.,.=.=.+.+.@.@.5.9.a.a.a.j.j.k.k.k.k.c.c.c.c.v.c.k.8.e.e.a.v.F.B.y.{ @.8.k.v.M.M.N.N.N.N.N.N.v.v.F.A.A.A.A.A.A.A.A.A.F.F.F.H.G.H.H.H.H.H.U.U.U.U.U.U.",
"}.^.^.^.^.^.^.^.!.U.U.U.H.H.H.H.H.H.G.G.G.G.G.F.A.F.G.N.N.N.N.N.N.N.N.N.C.N.b.k.-.+.a.Z.Z.v.j.e.9.e.k.b.v.v.v.v.v.v.k.j.j.a.a.a.a.r.e.5.-.[ _ +.-.-.=.@.{ @.,.8.e.r.a.a.a.a.a.a.a.a.r.r.8.=.+.=.3.4.4.,.=.-.<.5.e.e.r.r.e.r.q.*.-.,.5.5.9.Z.G.A.D.r.S Z w.b.%XzXcXxXxXcXcXcXcX;Xd.f.O.M ~ s.H.G.G.H.G.Z.j.,.U N +.a.N.Z.A.Z.+.[ j.x.b.N.c.s.s.k.j.x.c.c.x.x.x.x.x.x.c.c.b.b.n.b.b.b.c.c.D.F.G.G.J.F.Z.x.H.H.J.J.H.H.H.H.H.H.H.H.U.U.U.U.U.U.U.U.H.H.H.H.H.H.H.H.U.U.U.U.U.U.U.U.U.U.U.U.U.U.H.H.J.J.J.J.U.U.U.U.H.H.H.H.H.H.H.H.H.H.H.H.H.H.H.H.H.H.H.H.H.H.H.H.H.H.H.H.U.U.U.U.U.U.U.U.U.U.U.U.Y.Y.Y.Y.U.U.U.U.H.H.H.H.H.H.H.H.H.H.H.H.H.H.H.H.U.U.U.U.H.G.N.A.F.F.D.A.k.k.b.N.Z.N.N.b.b.b.b.c.c.c.c.c.x.c.b.b.N.b.b.x.c.b.c.r.<.8.a.v.v.b.a.[ N W <.s.b.Z.F.G.H.G.v.~ q A 0.a.<XcXcXcXcXcXcXcXcX;Xa.w.Z n 2.D.D.Z.N.M.j.a.r.,.^ -.9.e.a.r.8.<.=.-.,.<.-.=.#.@.@.[ [ =.9.a.a.a.a.a.a.a.r.a.a.e.9.,.{ ) { =.-.@.@.+.@.-.5.9.a.j.a.s.j.k.k.k.k.k.c.c.c.c.v.x.r.r.9.r.k.A.Z.s.,.@.3.j.M.N.N.N.N.N.N.N.N.N.c.M.G.A.A.A.A.A.A.A.A.A.F.F.F.H.G.H.H.H.H.U.U.U.U.U.U.U.",
"}.}.{.^.^.^.^.^.!.U.U.U.H.H.H.H.U.G.G.G.G.G.F.F.D.F.N.k.Z.Z.Z.Z.C.C.N.C.C.C.M.b.j.@.{ a.M.N.c.s.9.9.r.k.v.v.v.v.v.v.v.k.a.a.s.j.s.a.e.9.5.@.[ { @.=.=.+.) ) +.,.9.r.a.a.a.a.a.a.r.r.r.r.r.=.[ O.-.-.,.,.,.3.5.8.e.r.r.t.r.l.e.<.=.<.5.9.0.B.I.S.A.N.} F ] s.D.wXvXxXxXxXvXcXcXsXM.f.6.J n 3.H.U.F.G.G.A.v.r._ N Y 8.M.M.Z.j.=.) 5.9.e.r.8.,.<.e.w.e.e.e.e.e.e.e.e.e.r.r.t.t.r.r.r.r.t.t.F.G.G.H.H.H.H.N.F.F.H.H.H.H.H.H.H.H.H.H.U.U.U.U.U.U.U.U.H.H.H.H.H.H.H.H.U.U.U.U.U.U.U.U.U.U.U.U.H.H.J.J.J.J.J.J.U.U.U.U.H.H.H.H.H.H.H.H.H.H.H.H.H.H.H.H.H.H.H.H.H.H.H.H.H.H.H.H.U.U.U.U.U.U.U.U.U.U.U.U.Y.Y.Y.Y.U.U.U.U.H.H.H.H.H.H.H.H.H.H.H.H.H.H.H.H.U.U.H.F.F.U.H.U.G.G.F.F.k.e.8.e.e.e.w.8.8.e.e.w.w.e.e.w.w.w.e.r.e.<.5.w.r.s.a.9.5.r.j.c.c.c.5.G N +.r.c.N.A.F.F.A.N.e.c s +.a.Z.zXcXvXcXcXcXcXcXhXM.d.[ d U x.D.N.F.F.k.8.=.@.#.,.r.a.r.r.9.8.5.5.5.5.5.<.>.#.+._ ) +.5.a.a.a.a.a.a.a.a.a.a.r.8.>.{ ~ W ) +.=.@.+.+.=.<.e.a.s.s.j.j.j.k.k.k.k.k.c.c.c.c.x.s.e.a.e.j.N.F.s.,.#.5.s.c.M.N.N.N.N.N.N.N.N.N.c.M.H.A.A.A.A.A.A.A.F.F.F.F.G.H.H.H.H.H.U.U.U.!.!.!.!.!.",
"}.}.{.^.^.^.^.^.!.U.U.U.H.H.H.H.U.H.G.G.G.G.F.F.D.F.s.r.Z.Z.Z.Z.C.C.C.C.C.C.C.M.M.a.{ { a.M.M.k.a.e.9.a.v.v.v.v.v.v.v.v.a.a.s.k.k.a.r.e.9.<.@.+.+.@.@.{ ~ ~ _ =.5.r.a.a.a.a.a.a.r.r.r.a.r.-.{ O.=.,.4.9.9.9.e.e.r.r.t.s.l.l.j.a.<.5.5.0.3.a.A.U.U.Z.s.R v 1.v.}.jXxXxXxXzXvXcXzX%Xc.e.O.n [ b.H.G.G.G.G.M.j.,.U N +.a.v.v.k.e.=.e.a.c.N.b.s.j.N.N.Z.Z.Z.Z.Z.F.F.F.A.F.F.G.G.F.G.H.H.H.H.G.G.H.F.G.H.H.N.D.F.H.H.H.H.H.H.H.H.H.H.U.U.U.U.U.U.U.U.H.H.H.H.H.G.H.H.U.U.U.U.U.U.U.U.U.U.H.H.H.H.J.J.J.J.J.J.U.U.U.U.H.H.H.H.H.H.H.H.H.H.H.H.H.H.H.H.H.H.H.H.H.H.H.H.H.H.H.H.U.U.U.U.U.U.U.U.U.U.U.U.U.U.Y.Y.U.U.U.U.H.H.H.H.H.H.H.H.H.H.H.H.H.H.H.H.H.H.G.A.s.F.U.G.H.G.G.F.F.H.H.F.F.D.Z.Z.Z.D.F.Z.Z.Z.C.N.N.C.Z.Z.M.3.>.8.w.s.s.r.s.c.c.j.k.s.#.x U <.j.M.N.A.A.A.Z.c.{ s A 9.k.*XcXcXcXcXcXcXcXcXJ.d.6.M v 2.F.N.b.F.s.) ~ [ @.<.r.s.e.r.0.0.0.r.r.e.8.5.3.<.=.@._ _ =.9.a.a.a.a.a.a.a.a.e.e.9.<.+.) W ^ ~ { =.+.{ +.>.8.r.s.s.a.k.j.j.k.k.k.k.k.v.c.c.c.j.a.a.e.s.b.A.c.-.} ,.a.b.v.v.N.N.N.N.N.N.N.N.N.v.v.F.F.A.A.A.A.A.A.F.F.F.F.G.H.H.H.H.H.U.U.U.!.!.!.!.!.",
"}.}.}.^.(.(.^.{.^.^.^.!.U.H.H.H.U.U.H.H.G.G.G.G.F.Z.e.x.Z.Z.A.A.Z.C.Z.Z.B.N.N.N.N.N.9._ =.a.v.M.v.a.9.9.s.b.b.k.v.k.k.r.r.j.k.k.j.s.a.a.e.8.>.+.+.=.=.*.` { +.+.,.8.9.r.a.a.a.a.a.a.a.a.r.<.+._ { -.5.5.0.0.e.e.e.e.e.e.a.s.s.f.5.<.,.-.+.-.a.B.A.F.v.<.x U e.M.=XhXzXsXuXjXkXkXyXU.w.,.N Z j.F.G.G.F.A.Z.k.9.{ h W w.x.x.k.s.>.#.r.j.M.N.c.j.M.C.Z.Z.Z.F.F.F.F.F.F.F.F.F.F.F.F.F.F.F.F.H.F.G.F.F.G.D.N.A.F.H.H.H.H.H.H.H.H.H.H.H.H.H.H.H.H.H.H.H.H.H.H.H.H.H.H.H.H.H.H.H.H.H.H.H.H.H.H.H.H.H.H.H.U.H.H.H.H.H.H.J.J.J.J.J.H.H.H.H.H.H.H.H.H.H.H.U.U.U.H.H.H.H.H.U.U.U.U.U.U.U.U.U.U.U.U.U.U.U.U.H.H.H.H.H.H.H.H.H.H.H.H.H.H.H.H.U.U.H.H.H.H.G.H.G.G.G.F.F.F.F.F.F.F.F.F.F.F.F.F.F.F.F.F.D.D.D.D.D.D.D.D.Z.D.F.D.N.e.e.j.j.c.j.H 5.a.j.a.a.5.U j ) w.c.N.N.F.G.F.C.e.G s O.j.Z.sXcXcXcXcXcXzXcX=Xs.c.W x ^ c.H.Z.Z.b.r._ ^ { =.e.j.a.a.a.e.e.0.0.0.9.8.5.<.,.=.{ ~ +.5.r.e.9.r.r.r.e.e.e.r.9.5.-.[ [ [ [ { @.@.{ { =.5.e.j.j.j.j.j.s.r.c.c.k.k.c.v.v.k.j.e.a.a.s.b.N.j.>.#.=.8.c.v.b.M.M.N.N.N.N.N.N.N.N.N.a.N.F.D.D.D.Z.Z.F.F.F.F.H.H.H.U.U.U.Y.U.U.Y.Y.^.^.!.!.",
"}.}.}.^.^.^.^.(.^.^.^.!.!.U.H.H.U.U.H.H.G.G.G.G.F.x.r.C.Z.Z.A.A.Z.C.Z.Z.B.B.N.N.M.M.v.8._ -.k.c.k.k.a.9.r.k.v.k.v.v.k.a.a.k.c.k.j.j.a.a.a.9.5.-.{ +.=.=.*.=.=.=.>.5.r.r.a.a.a.a.a.a.a.r.9.<.*._ [ @.,.5.9.9.0.e.e.e.e.e.p.a.f.f.k.8.5.k.A.B.B.B.A.G.A.s.J x +.a.A.=XaXyXsXjXkXkXcX5Xe.,.^ x ,.A.G.G.F.A.Z.M.a.-.Z m =.s.c.c.c.w.[ 9.x.b.N.b.x.c.N.Z.Z.Z.D.D.D.D.F.F.F.F.F.F.F.F.F.F.F.F.F.F.F.F.F.F.F.Z.D.G.H.H.H.H.G.G.G.G.G.G.H.H.H.H.H.H.H.H.H.H.H.H.H.H.G.G.H.H.H.H.H.H.H.H.H.H.H.H.H.H.H.H.H.U.H.H.H.H.G.G.J.J.J.J.J.H.F.F.G.G.G.G.G.G.G.G.H.H.H.H.H.H.H.H.U.U.U.U.U.U.U.U.U.U.U.U.U.U.U.U.H.H.H.H.H.H.H.H.H.H.H.H.H.H.H.H.H.H.H.H.H.H.G.G.G.G.F.F.F.F.F.G.F.Z.b.b.b.Z.F.F.F.F.F.F.D.D.D.D.D.D.D.D.D.F.Z.Z.x.r.s.c.b.b.<.c j.k.j.r.9.{ x A #.r.b.N.N.F.F.Z.b.=.j K 4.k.*XcXcXcXcXcXzXkXwXc.d.3.m N 8.Z.A.N.N.N.N.b.j.e.8.s.a.a.a.r.e.9.9.9.9.9.5.4.<.<.@.) ) @.5.8.r.r.r.r.r.e.e.e.e.9.<.-.+.+.+.+.+.+.{ [ @.5.e.a.j.j.j.j.x.j.r.s.c.k.k.c.v.c.j.a.e.a.j.k.A.x.>.=.=.e.c.b.M.M.N.N.N.N.N.N.N.N.N.N.Z.s.b.Z.D.D.D.Z.Z.F.F.F.G.H.H.H.U.U.U.Y.U.U.Y.Y.^.^.!.!.",
".X}.}.}.^.^.^.^.^.^.^.U.!.!.U.H.U.U.H.H.G.G.F.F.Z.t.c.Z.Z.Z.Z.Z.Z.Z.Z.Z.N.N.N.N.v.M.M.c.5.[ -.j.c.v.k.a.9.a.k.k.b.v.k.j.j.c.v.k.k.j.j.s.a.r.9.5.*.+.+.*.=.=.*.+.=.5.e.e.e.e.e.r.r.0.9.9.q.<.-.+.[ [ @.<.8.9.9.0.0.0.0.0.9.9.p.a.v.a.5.M.A.A.A.A.F.F.D.M.3.d B 3.j.^.wXuXgXkXvXcXzXcXZ.#.[ c W c.F.G.F.F.A.Z.k.5.E d ~ e.v.v.N.c.@.<.j.b.N.N.c.j.b.C.Z.Z.Z.Z.Z.Z.Z.Z.A.A.D.D.D.D.F.F.F.F.F.F.F.F.F.F.F.F.F.F.G.G.F.F.F.F.G.G.G.G.G.G.G.G.G.G.G.G.F.F.F.F.G.G.G.G.H.H.H.H.H.H.G.G.H.H.H.H.H.H.H.H.H.H.H.H.H.H.G.G.H.H.H.H.H.H.F.F.G.G.G.G.G.G.G.G.H.H.H.H.H.H.H.H.H.H.H.H.H.H.H.H.H.H.H.H.U.U.H.H.H.H.H.H.G.G.G.G.G.G.G.G.G.G.G.G.H.H.H.H.G.G.G.G.G.G.F.F.F.F.F.G.F.Z.b.c.b.Z.F.F.F.F.F.F.D.D.D.D.D.D.D.D.D.F.D.N.r.s.c.N.C.b.E ] M.v.s.r.5.U s W 5.s.b.N.N.A.Z.N.t.^ h ~ 9.I.hXcXcXcXcXcXcXcX}.e.j.R x ) N.G.N.Z.b.b.c.c.j.8.9.s.a.a.r.e.9.9.9.9.9.5.4.3.,.=.{ ^ +.-.5.5.8.9.9.e.e.e.e.e.9.5.,.@.+.+.+.+.{ { [ { ,.9.a.j.j.j.j.j.x.x.s.j.v.k.k.c.v.k.a.r.r.a.k.M.b.>.@.=.8.c.N.M.N.N.N.N.N.N.N.N.Z.Z.Z.Z.Z.c.s.A.D.D.D.D.Z.F.F.F.H.H.H.U.U.U.Y.Y.!.!.^.^.^.^.^.^.",
".X}.}.}.^.^.^.^.^.^.^.U.!.!.!.U.U.U.H.H.H.G.G.G.Z.r.b.F.Z.Z.Z.Z.Z.Z.Z.Z.N.N.N.N.N.M.M.v.v.5.[ <.c.v.k.k.9.9.a.k.M.v.k.c.k.v.v.k.k.k.j.j.j.a.e.9.<.=.+.+.+.+.{ ` +.>.5.5.9.9.9.9.9.8.q.5.<.4.<.-._ ) [ =.3.8.9.9.0.0.0.0.6.9.9.e.e.s.3.9.a.v.M.M.B.A.A.A.M.~ s _ e.M..X0XhXkXcXcXkXlXF.^ ^ H N 9.Z.F.F.A.A.Z.c.9.[ c N 8.x.v.Z.Z.e.=.e.c.N.N.b.x.c.N.Z.Z.Z.Z.Z.Z.Z.Z.Z.Z.Z.Z.D.D.D.F.F.F.F.F.G.G.F.F.F.F.F.F.F.F.F.F.F.F.G.G.G.G.F.F.F.F.F.F.F.F.F.F.F.F.F.F.F.F.G.G.G.G.F.F.G.F.D.Z.D.F.F.F.F.F.H.H.G.G.G.G.G.G.G.G.G.H.H.H.G.F.F.F.G.G.G.F.G.G.H.H.H.H.H.H.H.H.H.H.H.H.H.H.H.H.H.H.H.H.H.H.H.H.H.H.H.H.G.G.G.G.F.F.F.F.G.G.G.G.F.F.F.F.F.F.F.F.G.G.G.G.F.F.F.F.F.F.D.D.F.F.F.F.F.F.F.F.D.D.D.D.D.D.D.D.Z.F.D.N.r.x.N.Z.D.b.R e.b.j.a.r.-.j N { e.j.b.N.Z.A.N.b.<.Z H O.@.I.hXcXcXcXcXcXcXzXj.j.>.m A w.F.Z.N.c.c.j.j.k.a.3.r.k.a.r.e.e.9.9.9.9.8.5.4.4.-.{ ) [ <.5.5.5.<.5.5.5.8.e.e.e.9.5.=.+.[ [ [ [ _ ) [ @.5.e.a.j.j.j.j.j.j.x.j.c.c.k.k.c.k.s.r.9.r.j.M.c.<.=.#.<.c.b.M.N.N.N.N.N.N.N.N.N.Z.Z.Z.Z.N.N.e.A.D.Z.D.D.Z.F.F.F.H.H.H.U.U.U.Y.Y.!.^.^.^.^.^.^.^.",
".X.X}.}.}.}.}.^.^.^.^.^.!.U.!.!.U.U.H.H.H.G.H.G.x.s.D.F.F.F.A.A.Z.Z.Z.Z.Z.Z.Z.Z.Z.M.M.b.v.j.<.[ 9.c.k.v.k.e.9.j.v.M.M.v.v.c.v.c.k.k.j.j.j.a.r.9.8.<.*.{ +.+.+.{ { { *.-.>.<.5.5.4.5.5.8.9.9.9.9.,.) E ^ =.>.<.8.9.9.9.9.9.e.e.e.a.a.e.5.3.e.c.M.B.A.D.F.N.6.n m <.x.G.$X;X;X;X;X^.D.t.{ W E B [ v.G.F.Z.Z.N.b.a.,.G s [ s.M.N.A.j.{ 9.v.N.N.v.j.s.c.C.C.C.C.C.N.Z.Z.Z.Z.Z.Z.Z.D.D.D.F.F.F.F.F.F.F.F.F.F.F.F.F.F.F.F.F.F.F.F.F.F.F.F.F.F.F.F.F.F.F.F.F.F.F.F.F.F.F.F.G.G.F.F.F.G.F.Z.Z.F.G.F.F.F.G.F.G.G.G.G.G.G.G.G.G.G.G.G.G.G.F.F.G.G.G.G.G.G.H.H.H.H.H.H.H.H.H.H.H.G.H.H.H.G.H.H.H.F.F.F.H.H.H.H.F.F.F.F.G.G.F.F.G.G.G.G.G.G.F.F.F.F.F.F.F.F.F.F.F.F.F.F.F.F.F.F.D.Z.Z.F.F.F.F.D.D.D.Z.Z.Z.Z.Z.Z.Z.Z.Z.Z.C.t.r.Z.G.F.F.s.=.t.c.j.a.9.~ y U >.a.x.M.N.Z.Z.b.x.] c ^ ~ [ M..X*X*X*X;X;X,XH.<.9.H Z @.b.Z.N.b.c.d.d.s.a.e.e.r.r.e.e.e.e.9.8.8.5.9.4.4.=.{ ~ E +.<.5.8.8.5.5.<.<.<.<.5.5.-.{ _ _ [ [ [ [ ^ ) { 5.9.e.a.a.j.j.j.j.k.k.k.c.c.c.v.c.a.r.9.e.j.Z.N.8.-.#.<.j.c.b.M.M.N.N.N.N.N.N.Z.Z.Z.Z.Z.Z.Z.Z.e.N.F.Z.D.F.F.F.F.F.G.H.U.U.U.U.Y.Y.!.!.^.^.^.^.^.^.",
".X.X}.}.}.}.}.^.^.^.^.^.!.U.Y.U.U.U.H.H.H.H.H.D.s.n.F.F.F.F.A.A.A.Z.Z.Z.Z.Z.Z.Z.Z.N.M.M.v.v.j.,.{ a.M.k.v.j.e.e.k.v.M.M.b.v.c.c.k.k.k.j.j.a.a.e.9.q.;.*.{ { { { { [ [ { @.=.-.-.<.<.;.-.<.4.q.8.5.+.W U _ =.>.<.4.5.9.9.9.0.e.e.a.y.e.e.3.,.p.s.c.v.m.M.M.v.) x [ 3.e.s.b.b.b.b.C.Z.F.c.>.@.W G a.Z.A.Z.Z.N.v.j.5.~ d B 5.v.A.N.N.<.6.c.j.k.a.e.=.c.b.b.b.N.C.C.Z.Z.Z.Z.Z.Z.Z.Z.D.D.D.D.F.F.F.F.F.F.F.A.F.A.F.F.F.F.F.F.F.F.F.F.F.F.F.F.F.F.F.F.F.F.F.F.F.F.F.F.F.F.F.F.F.F.F.G.G.D.D.G.F.F.F.F.F.F.F.F.F.F.F.F.F.F.F.F.F.F.F.F.F.F.F.F.G.G.G.F.H.H.H.H.G.G.G.G.F.F.F.F.F.G.H.H.H.G.F.F.F.F.F.F.F.F.F.F.F.F.F.F.F.F.F.F.F.F.F.F.F.F.F.F.F.F.F.F.F.F.F.F.F.F.D.D.F.D.Z.Z.Z.Z.D.D.Z.Z.Z.Z.Z.Z.Z.Z.C.C.C.C.N.N.b.=.8.j.s.r.e.5.5.s.a.a.8.-.c j ^ <.a.c.N.N.N.N.c.e.H W [ ^ -.M.U.U.U.U.H.U.F.-.-.{ N W e.N.N.N.M.b.c.c.k.s.9.w.e.r.9.9.9.9.8.5.5.5.4.,.<.@.^ U ^ -.<.<.5.5.<.<.,.>.-.=.@.{ [ _ _ [ _ _ _ _ ) { >.9.e.r.a.a.j.j.j.j.j.j.x.c.c.c.x.s.e.9.r.j.N.Z.e.=.{ =.s.v.v.b.N.M.N.N.N.N.N.N.Z.Z.Z.Z.Z.Z.A.A.c.s.F.F.D.F.G.G.G.G.H.U.U.U.U.U.Y.Y.!.!.^.^.^.^.^.^.",
".X.X}.}.}.}.}.^.^.^.^.^.^.U.Y.U.U.U.H.H.H.H.H.Z.t.Z.G.F.F.F.F.F.D.Z.Z.Z.Z.Z.Z.Z.Z.Z.M.M.b.M.b.s.+.-.a.k.v.v.j.9.a.k.v.M.M.v.v.c.c.k.k.j.j.j.a.r.r.9.q.-.{ _ ` ` { ) ^ ~ ~ _ +.=.=.-.-.-.<.5.8.8.5.<._ H W _ =.>.<.5.5.8.8.9.9.e.y.y.e.e.9.3.4.e.a.a.s.k.c.c.5.G Z ) { =.8.w.e.r.b.N.F.N.y.6.{ H -.M.A.Z.Z.N.v.j.8.{ d t O.s.N.x.k.5.@.{ ^ ) W U G r.j.b.b.b.M.N.N.N.N.N.N.N.N.N.Z.Z.Z.Z.Z.Z.Z.Z.A.A.A.A.A.A.A.A.D.D.F.F.F.F.F.F.A.D.D.D.Z.Z.Z.Z.Z.Z.Z.Z.D.D.D.D.D.D.D.D.Z.Z.Z.D.F.D.D.F.F.D.D.D.F.F.F.F.F.F.F.F.F.F.F.F.A.A.F.A.F.F.F.F.F.F.F.F.F.F.F.F.D.D.D.D.D.D.A.A.A.F.F.F.F.F.F.F.F.F.F.F.F.F.F.F.F.F.F.F.F.F.F.F.F.F.F.F.A.A.A.D.D.D.D.D.D.D.F.D.A.A.Z.Z.D.Z.Z.C.Z.Z.Z.Z.Z.Z.Z.C.N.N.N.N.b.b.b.b.k.v.e.Z E ] { @.@.>.8.e.e.9.5.E < n +.5.a.c.N.Z.A.N.s.{ m @.@.@.4.v.c.k.k.j.a.a.,._ 4.H A #.M.Z.N.b.k.k.c.j.r.8.5.8.9.9.9.8.8.8.5.5.5.<.4.-.@.) Z ^ ,.5.5.<.<.<.,.>.-.=.-.@._ E W ^ ) _ ) ) ) ) _ -.8.9.r.a.a.a.j.j.j.j.k.k.c.x.b.x.a.e.8.e.j.v.N.a.=.@.=.a.k.M.M.M.N.N.N.N.N.N.Z.Z.Z.Z.A.A.A.Z.D.F.Z.a.Z.G.F.F.H.H.H.H.H.U.U.U.U.Y.Y.Y.!.!.^.^.^.^.^.^.",
".X.X}.}.}.}.}.^.^.^.^.^.^.!.U.Y.Y.U.U.H.H.H.G.b.s.F.F.F.F.F.F.F.F.Z.Z.Z.Z.Z.Z.Z.Z.Z.N.M.M.N.N.v.e.+.>.k.v.b.c.r.r.a.k.v.M.M.v.v.c.k.k.k.j.j.s.a.a.9.9.5.+._ ) ) ) ) E U Z Y [ =.+.=.-.<.q.8.9.9.9.5.=.W U W _ =.,.,.3.5.5.8.9.9.y.y.e.e.3.,._ ,.a.a.a.s.d.x.j.{ N { <.>.=.>.5.8.8.w.s.a.5.s.6._ [ a.M.Z.Z.N.v.j.s.-.z 4 c ^ #.{ ^ ) _ [ { { ) ^ R =.k.c.v.v.b.b.b.b.b.b.N.N.N.N.N.N.Z.Z.Z.Z.Z.Z.Z.Z.Z.Z.Z.Z.A.A.D.D.F.F.F.F.D.D.A.A.Z.Z.Z.Z.Z.Z.Z.Z.Z.Z.Z.Z.Z.Z.Z.Z.Z.Z.Z.Z.Z.Z.Z.Z.Z.Z.Z.Z.Z.Z.F.A.A.A.D.D.D.D.A.A.A.A.A.A.A.A.D.D.D.D.F.F.F.Z.Z.Z.Z.Z.Z.Z.Z.Z.Z.Z.Z.Z.Z.Z.Z.F.F.F.F.F.F.F.F.F.F.F.F.F.F.F.F.F.F.F.F.F.F.F.F.F.A.A.D.D.D.D.D.D.F.F.F.A.A.A.Z.Z.D.D.Z.C.C.C.Z.Z.C.C.C.N.b.b.b.b.b.b.b.b.k.9.) c Q { } =.>.<.<.<.5.9.@.t = A -.8.a.c.N.N.c.j.-.c E <.[ { 8.a.9.8.9.5.<.-.-.3.3.~ -.s.N.N.N.k.a.9.3.5.5.3.<.3.5.8.8.8.8.8.5.5.<.<.,.@._ G U @.5.9.8.5.5.<.-.=.=.@.{ ) U B Y ~ ^ ~ ^ ^ ^ ^ @.5.e.e.r.a.a.a.j.j.j.j.k.x.c.x.c.s.e.5.9.s.v.M.j.-.@.=.a.v.N.v.M.M.N.N.N.N.N.N.Z.Z.Z.Z.A.A.A.Z.Z.F.N.b.b.G.F.F.H.H.H.H.U.U.U.U.U.Y.Y.Y.^.^.^.^.^.^.^.^.",
".X.X.X|.}.}.}.}.}.{.{.{.^.^.].Y.Y.Y.U.H.H.G.G.j.b.G.G.F.F.F.D.D.A.A.A.Z.Z.Z.Z.Z.Z.Z.N.N.N.N.N.N.M.9.{ <.v.M.b.c.a.r.j.c.v.M.M.b.c.k.k.j.j.j.s.a.a.r.9.8.>.[ ) ^ ^ E S N h c N B A W { -.5.8.8.9.8.5.<.{ Y G W { -.,.<.4.3.3.5.5.9.9.8.<.+.+.[ _ ,.e.a.a.a.f.f.8.H [ e.9.8.w.e.e.w.w.6.6.5.c.x.5.+.8.c.Z.Z.N.M.k.a.5.s 1 y B E ^ ^ +.+.O.+.{ _ _ W A ,.a.c.x.c.c.c.v.b.b.b.b.N.N.N.N.N.N.Z.Z.Z.Z.Z.Z.Z.Z.Z.Z.A.A.A.A.A.A.A.A.A.A.Z.Z.Z.Z.A.Z.N.N.Z.Z.Z.Z.Z.Z.Z.Z.N.N.Z.Z.Z.Z.Z.Z.N.Z.Z.N.Z.Z.Z.Z.Z.Z.N.N.N.Z.Z.Z.Z.Z.A.A.Z.Z.Z.A.F.F.Z.Z.A.Z.Z.Z.Z.Z.Z.C.C.N.N.C.Z.Z.N.N.N.N.C.Z.Z.Z.Z.Z.Z.Z.A.A.A.A.A.A.A.A.A.A.Z.Z.Z.Z.Z.Z.Z.Z.N.N.N.B.N.N.C.C.C.C.N.N.Z.Z.Z.Z.B.N.N.N.N.N.N.N.N.b.b.v.M.b.c.b.M.c.k.k.r.{ B A ^ ) [ { { @.@.{ +.+.A = < B +.8.s.k.c.k.a.<.c A 8.-.{ -.s.r.8.<.5.5.5.5.5.a.8.5.r.v.Z.N.N.j.8.>.=.+.[ +.O.-.3.4.4.4.5.4.4.<.,.-.+._ U A [ ,.9.9.5.5.<.,.+.@.+._ ) U N c G W ) W ~ W ~ { <.9.e.e.r.a.a.s.j.j.j.j.k.k.k.k.k.e.5.9.r.b.N.s.#.+.>.a.c.b.b.b.b.b.b.N.Z.C.N.b.Z.Z.Z.Z.Z.Z.Z.Z.D.D.F.N.c.F.D.G.H.H.U.U.U.U.Y.Y.Y.Y.Y.^.^.^.^.^.}.}.}.}.",
".X.X.X}.}.}.}.}.}.{.{.{.^.^.].Y.Y.Y.U.U.H.G.D.t.Z.G.G.F.F.F.D.D.A.A.A.Z.Z.Z.Z.Z.Z.Z.N.N.N.N.N.N.b.k.5.+.5.k.M.b.j.a.a.a.k.v.M.M.k.k.k.j.j.j.s.a.a.r.e.9.5.=.) W Y G c q 4 t x N Z U [ ,.<.5.8.9.8.8.5.-.[ U G ~ O.=.-.-.,.,.3.3.<.5.5.5.-.<.<.=.+.-.8.e.r.a.a.a.+.@.j.k.d.d.d.d.j.d.s.a.w.s.d.w.-.<.e.x.k.k.s.r.a.~ w j N Y [ [ +.3.4.,.5.5.3.<.<.{ H >.s.j.j.c.b.v.v.c.v.b.M.N.M.M.N.N.N.N.N.N.N.N.Z.Z.C.C.Z.Z.Z.Z.Z.Z.Z.Z.Z.Z.N.N.N.N.N.N.N.M.M.M.M.M.N.N.N.M.M.M.N.N.Z.Z.Z.Z.N.Z.Z.N.N.N.N.Z.Z.Z.N.N.N.N.C.C.Z.N.Z.Z.N.N.N.N.Z.Z.N.N.N.N.N.Z.N.N.N.N.b.b.b.b.N.b.b.c.c.v.b.b.Z.Z.Z.Z.Z.Z.Z.Z.Z.Z.Z.Z.Z.Z.Z.Z.Z.Z.Z.Z.Z.Z.Z.Z.N.N.N.B.N.N.C.C.C.C.N.N.N.Z.C.C.N.N.N.N.M.M.M.M.b.b.v.c.N.v.v.M.k.k.k.s.>.+.@.<.5.<.<.<.{ [ ) Q ) U s w 9 s _ 5.r.a.a.e.<.G N 8.e.8.r.j.c.j.s.r.s.s.a.a.a.a.r.a.c.N.Z.M.k.9.-.@.+.=.-.4.8.9.9.5.4.4.4.4.4.<.-.+.) H G ~ =.4.5.5.5.<.=.+._ [ _ ^ G n j x Z Y ~ W W E ) -.8.9.e.r.r.a.a.s.j.j.j.j.k.k.k.k.r.8.5.e.k.N.k.,.{ =.e.v.b.b.b.b.b.b.N.N.N.b.b.b.Z.Z.Z.Z.Z.Z.Z.D.F.D.F.N.M.N.F.H.H.H.U.U.U.U.Y.Y.Y.Y.^.^.^.^.^.^.}.}.}.}.",
".X.X.X}.}.}.}.}.}.{.^.^.^.^.^.Y.Y.Y.^.U.!.H.c.x.G.G.F.F.G.F.F.F.F.F.A.A.A.A.A.A.Z.Z.Z.N.N.N.N.N.M.b.j.,.+.5.k.M.v.j.r.9.a.k.v.M.k.k.k.j.j.j.s.a.a.a.r.9.9.<.[ E H c 5 % - 9 j N A H ) -.>.5.8.8.9.8.5.<.=.^ G Z ~ [ +.=.@.#.-.,.>.<.5.8.5.8.9.8.3.-.<.5.9.e.r.a.w.,.e.c.c.k.j.s.j.s.r.w.a.,.<.<.{ [ [ { _ _ ^ ~ G s B _ ^ ^ _ _ @.5.9.0.e.e.9.9.e.s.<.^ =.5.,.<.9.p.j.j.k.k.v.v.v.v.v.v.v.v.v.v.c.c.v.v.v.v.v.v.v.v.v.v.v.v.v.v.v.v.v.v.b.v.c.x.k.k.k.k.k.k.k.k.j.k.c.v.v.v.v.v.v.v.v.v.k.k.k.k.c.x.j.j.s.s.j.j.j.j.j.j.c.c.c.c.c.x.k.j.j.k.c.b.k.k.k.k.k.k.k.k.k.k.j.j.j.j.k.v.v.v.v.v.v.v.v.v.v.v.v.v.v.v.v.v.M.M.M.M.b.b.b.b.v.v.v.v.v.v.v.v.b.b.b.v.v.c.c.c.k.k.k.k.k.k.k.k.k.k.j.l.j.a.k.e.e.<.@.{ U -.e.e.a.a.e.9.5.-.[ W { { H Y n w n W =.<.<.,.[ H ) >.5.r.k.v.N.c.x.b.M.b.b.v.k.e.e.a.b.N.M.k.8.=.@.=.3.9.e.e.a.w.3.3.4.4.<.<.-.@.{ ~ Z B T O.-.,.<.<.5.<.=.+.=.@.{ ^ U m s t x B H G G ~ @.5.9.9.e.e.r.a.a.s.j.j.j.j.k.k.k.s.8.5.9.k.N.k.3.+.=.e.k.v.b.b.b.b.b.N.N.N.N.b.b.b.Z.D.D.D.D.D.F.F.F.F.F.F.N.v.F.U.U.U.U.U.H.U.U.U.^.^.^.^.^.^.^.^.}.}.}.}.",
".X.X.X}.}.}.}.}.}.{.^.^.^.^.^.Y.Y.Y.^.!.!.H.t.N.G.G.G.F.G.F.F.F.F.F.A.A.Z.Z.A.A.Z.Z.Z.N.N.N.N.N.Z.M.M.a.=.+.5.v.b.v.a.9.r.s.k.v.k.k.k.j.j.j.s.a.a.a.r.e.5.5.@.^ v e < < 5 y N H U U W +.>.<.5.8.9.8.5.<.@.{ U n A E _ +.{ +.@.@.-.<.5.9.a.e.r.a.e.0.9.9.5.9.0.r.w.@.{ r.j.s.r.e.5.1.>.@.{ m m B N m x d 9 8 0 1 4 Z +.+.=.[ _ _ -.8.5.<.5.5.5.5.8.e.e.{ B G w < w A @.4.p.a.f.j.s.s.s.s.s.s.f.f.a.a.a.a.a.a.j.j.j.j.j.j.j.j.j.j.j.j.j.j.j.j.s.s.a.a.a.a.a.a.a.a.a.a.j.j.j.a.a.a.a.s.s.a.r.r.r.r.9.8.5.5.3.3.5.5.5.5.5.5.5.5.5.5.<.<.>.>.>.<.5.5.9.9.e.e.e.e.e.e.a.a.r.r.e.r.a.j.a.a.s.a.a.a.a.a.a.a.a.a.a.a.a.a.j.j.j.j.s.s.s.s.s.s.s.s.s.s.s.s.s.s.s.s.a.a.r.r.r.r.a.a.a.a.a.a.e.e.e.8.8.5.-.G q 5 q j B 5.a.e.9.9.8.8.q.<.+.Q W [ ^ ~ ~ A j y x N A G B x w t m E @.9.<.=.=.5.5.5.5.5.-._ =.8.e.a.r.5.<.-.5.r.a.s.s.s.9.,.@.@.=.=.=.=.O._ T Z n U _ -.,.,.<.<.5.5.<.,.<.-._ Y W H n t y n Z Z B ) <.8.9.9.e.r.r.a.a.s.j.j.j.j.k.k.k.e.8.9.j.Z.b.5.@.@.e.k.v.c.b.b.b.b.b.N.N.N.Z.C.N.b.Z.D.D.D.D.D.F.F.F.F.F.F.N.k.F.U.U.U.U.U.H.U.U.U.^.^.^.^.^.^.^.^.}.}.}.}.",
".X.X.X.X}.|.|.}.}.}.}.}.^.^.{.^.Y.^.^.^.^.Z.x.G.G.G.G.G.F.F.F.F.F.F.F.A.C.C.A.Z.A.A.Z.N.N.N.N.N.N.N.M.M.r.-.=.9.v.Z.M.a.8.a.j.a.b.c.k.j.j.j.s.a.a.a.r.9.9.8.<.@.n 4 e h j N A ) =.[ ^ ) =.-.5.<.<.-.-.=.=.{ ~ Z j G U ~ ^ _ ^ E ~ [ -.4.3.5.5.<.8.,.=.~ E ) ~ _ [ G 0 j [ @.[ ) { ) E U U U U U U A B Z A A A A J ^ @.-.=.@.) ~ =.+.{ { [ [ { { } } { U x n y @ + % j Y U U H T T T E W W U J T U U G A W ^ ) ^ ) ) _ _ [ [ [ [ [ [ [ [ { { [ [ [ { ^ ^ ^ ~ ~ ^ ~ E E ^ ^ ~ ~ W U H ~ Y G G U Y U c s d c m N m Z A G G U U J H Z Z B B B Z Z Z A G H G m j j Z U U W B G U W Y ^ ~ W E ~ W W ~ ~ ~ ~ ~ U Y ~ +.{ { { { { { [ [ [ [ [ [ [ [ [ [ ) ) ) ) Q E U T U Y W W ~ W ~ ' W U A V N c 0 + @ H U U J ^ [ _ ) ) ) ) _ ) ~ W Z A W [ { [ ^ U J G Z N c d s d Z ^ =.>.[ U U { ,.-.=.) m w x N H H R J A ) 5.5.9.6.,.,.+.[ ) ^ ^ ^ ^ ~ U A c y G _ @.=.-.-.,.<.>.=.=.<.<._ Y _ ^ U B c s c n y B -.8.8.9.9.e.r.r.a.a.s.k.j.j.c.M.j.9.5.8.j.N.M.5.@.#.e.v.v.v.v.b.b.b.b.N.N.Z.Z.Z.Z.Z.Z.Z.D.F.F.F.F.F.F.F.F.F.F.A.x.A.Y.Y.Y.U.U.U.U.U.^.^.^.^.^.}.}.}.}.}.}.}.}.",
".X.X.X.X}.}.|.}.}.}.}.}.^.^.{.{.Y.Y.^.^.U.c.Z.U.H.H.G.H.F.F.F.F.F.F.F.A.Z.A.A.Z.A.A.Z.N.N.N.N.N.N.N.M.M.v.9.=.{ e.v.M.c.e.8.e.j.v.v.k.j.j.j.s.a.a.a.r.9.9.9.q.<.) j h n v Z Y +.>.@._ W ^ -.-.-.-.=.+.{ { { ) U s 9 h G U E E U B Z H U U J G B Z G N 5 h Z A U U m = = E { +.{ { { _ _ ) ) ) ) _ _ +.-.-.-.-.-.-.<.3.4.,.=._ U ~ W ~ ) ^ ^ ) ) ) ) ^ Z j B y . + $ % : 5 < : 8 e e e e 4 y s 8 % + X = w y s s h h j j h h h h d d d d h h d d n n h j h s s h y 8 0 w s s y y t q d w 5 n G B J 8 % 4 t s h j x c m B H H G G Z N c x x x n m n m m c d 9 1 Z Z G U 9 t s s y y y y y s y t y y y y y y s y n x x x x x j h h h h h h d d d d h h y y 9 < 1 q 4 5 5 5 9 < 5 q 9 5 5 4 1 = $ . 1 A W Y H U W ~ ~ ~ W W ^ ~ E U B Z _ =.<.=.@.{ { { _ ) ^ _ U U { 5.3.-.@./ ) =.#.-.=.~ 1 w m B Z N m y 4 y B H W W E R R J G Z A A G H B d 5 y H ) O.O.@.@.=.=.@.+.{ +.^ E _ +._ ~ G n x n s q ^ <.8.9.9.9.e.r.r.a.a.s.j.j.k.v.j.9.5.5.r.N.N.e.@.@.8.x.b.b.b.b.b.b.b.b.N.N.Z.Z.Z.Z.Z.Z.Z.D.F.F.F.F.F.F.G.F.F.F.G.N.N.U.Y.Y.U.U.U.U.U.^.^.^.^.^.}.}.}.}.}.}.}.}.",
".X.X.X.X}.}.}.}.}.}.}.}.}.{.{.{.^.^.^.^.F.x.U.^.H.F.G.H.H.H.H.H.F.F.F.A.A.F.A.A.A.A.Z.Z.N.N.N.N.N.M.N.M.M.k.8.{ =.r.b.M.k.8.5.a.k.v.k.j.j.j.s.a.a.a.r.9.e.9.q.<.[ Q N Z Z V ~ 5.<.-.{ W U [ +.=.*.+.{ _ [ _ ~ H d % 4 N G H U U U U U U U J U U G U A w B ) [ { { ) m 5 Z ,.<.-.=.-.<.<.<.-.-.-.@._ =.=.4.4.4.4.9.9.9.9.-.@.^ W _ _ { @.@.} *.*.@.@.{ U N W N 9 8 y t d c j h B Z B B Z c m n j N N y w A U E E ~ ~ ~ ^ ~ ~ W W W W W W ^ ~ W E ^ W U W Y U U Y G j n A G A Z Z Z Z U N h ~ _ W { V 5 Y ) ) _ { [ +.=.>.5.5.5.5.9.5.<.>.#.@.{ { { { { ) ^ n y +.W ) _ s N B m c c N B B A A n B U U U U Y W G ^ ^ ^ ^ ^ ~ W W E Y Y Y Y Y Y Y Y T U S A c 4 c N m m n c N y x N N N N N c j y = 9 A E W T ~ _ { +.+.{ { { [ ) ^ Z Z +.>.8.5.<.=.@.@.@.@.{ W A ) ,.<.=.@.@.{ +.=.=.>.[ m > B ) { @.@.) B d m A U S H H R R U H S A B Z G n t < q N W _ [ +.+.+.@.{ { [ ) A W @.=.=.{ W N j v c N =.5.8.9.9.9.e.r.r.a.a.s.s.j.j.j.9.5.5.9.b.M.r.-.{ 5.k.b.M.M.M.M.b.b.b.b.N.C.Z.Z.Z.Z.Z.Z.D.F.F.F.F.F.G.G.H.G.F.H.H.F.N.F.U.U.U.H.U.!.!.^.^.^.^.^.}.}.}.}.}.}.}.}.",
".X.X.X.X}.}.}.}.}.}.}.}.}.{.{.{.^.^.^.^.b.Z.{.!.H.F.F.H.H.H.H.H.F.F.F.F.F.F.A.A.Z.Z.Z.N.N.N.N.N.N.N.N.N.v.M.k.8.+.>.a.v.N.a.5.8.j.c.k.j.j.j.a.a.a.a.r.9.e.9.q.<.[ T T U Z U =.5.5.-.+.[ Y U ) { { _ _ ' W G m j c N Z N A A G U W ~ ^ ) ^ E Y E U A Z j m { -.>.3.<.<.x w ^ <.5.5.5.8.8.5.5.5.5.-.+.5.<.4.4.4.4.e.0.9.5.5.-.J ~ -.=.=.,.>.>.<.<.>.>.=.W m U A V B Z S R T E W ) ) ^ ) ) U H U U ) ) Z n [ @.-.-.-.-.,.<.<.<.<.<.<.<.<.<.5.3.<.<.>.@.[ @.@.+.+.@.[ T { =._ _ ) ) _ [ +.W H @.=.@.<.Y h <.9.5.<.5.8.9.9.e.e.r.t.s.j.s.s.a.w.w.9.8.5.5.<.=.[ m j <.[ +.@.G { { _ W ) @.-.=.@.=.) { >.>.>.>.=.-._ >.>.>.>.>.,.>.-.-.-.-.-.-.-.-.-.-.-.>.>.>.A r U W ^ ^ W E ~ B W W E Y U U U A B 8 w U ~ U U _ -.-.<.<.,.,.>.=.@.{ G A =.-.5.5.5.,.,.<.<.<.=.E W >.,.<.>.#.-.>.>.>.<.,.Y 5 j { -.>.3.,.) x c U ~ ^ Q ^ [ { ] ] ) ^ ~ U U E G B j w t m U ~ ^ ^ ) ) ~ ^ W U A { =.=.<.-.) B n n U ^ -.<.8.5.9.9.e.r.r.r.a.s.j.k.j.e.5.5.8.c.Z.r.-.+.,.s.b.b.N.N.M.M.b.b.b.b.N.N.Z.Z.Z.Z.Z.Z.D.F.F.F.F.F.G.G.H.G.F.F.H.G.N.F.U.U.H.U.U.!.!.!.^.^.^.^.}.}.}.}.}.}.}.}.",
"$XXXXX.X X X X X}.}.}.}.}.}.{.{.^.^.}.H.b.H.}.^.U.H.H.H.J.H.H.H.G.G.F.F.G.G.F.Z.Z.Z.N.N.N.N.N.N.Z.Z.N.N.N.M.b.v.<.{ >.j.b.c.e.<.e.j.k.k.j.j.s.a.a.a.r.e.9.9.8.5.=.m v E n { 5.8.8.<.@.[ ) H U ) ) W U m q e y c A _ +.U U W ~ ' _ _ o.O._ _ _ ~ ' ~ Y U N *.9.9.r.j.e.W 5 c 5.e.r.r.r.r.a.a.j.j.e.,.5.e.9.9.e.r.r.r.r.r.6.#.Z U >.<.5.5.8.8.8.8.8.8.<.) v E Q W Q ) ) { @.@.{ =.=.-.=.+.^ =.-.<.<.=.E G =.5.9.9.w.w.e.e.e.e.e.e.e.e.e.e.a.a.e.e.a.3.@.7.3.,.,.3.=._ +.-.=.=.{ =.,.3.4.-.~ =.5.3.<.W h ,.a.5.5.q.e.w.r.r.s.s.s.s.s.s.r.r.j.j.a.r.<.<.a.<.@.B J f.5.e.<.{ 9.8.<.@.{ @.-.<.-.=.~ @.<.5.5.5.3.<.@.w.9.9.9.9.9.9.9.9.9.9.9.9.9.9.9.9.9.e.e.e.U B @.-.=.=.=.=.+.E { +.{ { { { [ ) W U J W ~ G T -.4.6.5.5.5.5.5.5.<.-.G G { 9.9.9.9.9.9.9.9.9.<.~ <.e.r.r.r.r.a.a.a.a.a.<.c 1 ^ 8.s.k.k.j.+.A U E W ^ ) _ { =.-.=.#.@.+.~ Y ^ U ~ T K n s h m A U W ~ W W Z B _ @.=.=.-.8.-.Y c n G ~ =.<.5.5.8.9.e.e.r.r.a.s.j.j.w.<.<.9.k.M.j.,.{ =.r.c.b.b.b.b.b.b.M.b.M.N.N.N.Z.Z.D.D.Z.Z.D.F.F.G.G.G.G.G.G.G.G.F.H.H.A.A.F.U.H.U.!.!.!.^.^.^.^.^.{.{.{.}. X X X X",
"$XXXXX.X X X X X}.}.}.|.}.}.{.{.^.^.^.Z.Z.U.}.^.^.!.U.U.H.H.H.H.G.G.G.H.G.G.F.Z.Z.Z.N.N.N.N.N.N.Z.Z.N.N.M.M.b.v.k.>.{ q.j.b.c.e.8.9.s.k.j.j.a.a.a.a.r.e.9.9.8.5.=.W E c Z =.e.9.8.5.-.{ _ W Z U E B t 5 e j A E ^ =.<.{ W ) { { @.=.-.-.-.@.-.=.=.{ _ ) U +.k.k.j.v.c.5.s t =.a.j.j.j.j.k.k.v.v.k.9.e.j.a.s.j.j.j.j.j.j.a.,.G B 3.8.e.9.e.e.e.e.e.e.w.{ m ^ @.@.{ @.-.,.-.>.=.<.<.5.3.>.{ <.8.9.9.5._ Y 5.9.a.a.a.a.a.a.a.r.r.r.a.a.a.a.s.f.a.a.d.6.,.e.e.6.9.e.,._ @.9.9.8.<.5.0.p.e.9.@.9.k.v.Z.8.E a.a.>.=.<.8.w.r.r.e.e.w.e.e.9.8.8.9.9.9.9.{ @.<.=.e.,._ N.s.k.5.@.r.r.8.>.=.>.3.8.9.8.{ <.8.9.e.e.w.8.,.a.a.a.a.a.a.a.a.a.a.a.a.a.a.a.a.a.a.a.a.a.Y W 5.<.5.5.5.5.-.) -.,.,.>.,.,.<.>.=.=.@.@._ Z ~ 4.9.0.9.9.9.9.9.9.5.<.G E [ e.a.a.a.a.a.a.a.a.5.=.e.j.k.k.k.k.x.x.k.k.a._ 5 d <.a.j.c.b.r.{ W ) [ { +.+.+.+.+.-.=.=.@.@.) W ) ~ _ U _ ^ K n s y j N G U G m W @.=.=.@.5.9.5.) V V A Y @.<.5.5.8.9.e.e.e.r.a.s.s.e.3.<.5.k.N.j.<.@.=.9.c.b.b.b.b.b.b.b.b.M.N.N.N.Z.A.A.Z.Z.Z.Z.D.F.G.G.G.G.G.G.G.H.G.H.H.!.G.Z.Z.H.U.U.!.!.!.^.^.^.^.{.}.}.{.}. X X X.X",
"$XXXXX.X.X.X.X.X.X}.}.}.}.}.}.(.^.}.H.N.H.}.}.^.^.^.^.U.H.H.H.H.H.H.H.H.G.G.F.A.F.A.Z.Z.Z.Z.N.N.Z.N.N.N.M.M.b.v.N.r.-.{ q.k.b.k.e.8.9.j.j.j.s.a.a.a.r.e.9.9.8.5.{ W ^ V E -.9.e.9.5.<.@.[ _ U Z c e 5 y N U ) { @.-.5.<.^ _ { { @.=.-.-.+.O.-.-.5.,.=.{ ~ Y a.b.v.v.Z.b.B 1 ~ j.v.v.v.v.v.v.M.M.N.r.a.j.j.k.c.v.v.v.v.v.s.,.W m 9.a.j.a.f.s.f.f.a.s.a.>.n W ,.=.=.-.4.4.<.<.-.5.w.e.e.5.=.9.r.a.a.9.-.W e.a.j.s.j.j.j.s.s.s.s.s.s.s.s.s.k.k.s.s.c.e.5.k.a.y.y.a.5.[ =.f.k.s.9.r.s.k.s.a.<.a.M.Z.'.j.{ M.x.-.=.5.U..X*X;X*X*X$X*X*X*X$X$X#X$X$X$Xk.{ ) j.N.a.@.U.M.N.5.>.j.j.a.9.5.8.e.a.a.e.+.5.9.e.r.a.r.e.5.j.j.j.k.k.j.j.j.j.s.s.s.s.s.s.s.s.j.j.j.j.E +.9.8.8.8.8.8.<.[ 5.8.8.8.8.8.5.<.<.<.=.@._ Z [ 9.e.e.a.a.r.r.a.r.9.4.A ^ [ r.a.s.j.k.k.k.k.k.9.e.v.c.c.c.c.c.c.c.c.c.r.G = G a.k.a.c.k.-.W _ @.=.-.<.<.>.@.) =.@.@.+.+._ ~ ~ _ _ ~ =.O._ E K s w 9 h n N G +.-.=.=.-.9.0.4._ Y A A Y { -.5.8.8.9.e.e.r.a.s.s.e.<.<.5.j.N.j.5.+.=.9.k.b.b.b.b.b.b.b.b.N.N.N.N.Z.Z.A.A.Z.Z.D.D.F.F.F.F.G.G.G.G.H.H.H.H.U.!.H.F.N.H.!.H.Y.Y.Y.^.^.^.'.'.}.}.}. X X.X.XXX",
"$XXXXX.X.X.X.X.X.X}.}.}.}.}.}.(.^.^.F.Z.^.}.^.^.^.!.!.U.U.H.H.H.G.H.H.H.G.F.F.A.F.F.A.Z.Z.Z.N.N.N.N.N.N.M.M.b.v.N.c.e.@.*.e.k.c.j.e.8.e.j.j.s.a.a.a.r.e.9.9.8.5.-.V V ) ) @.<.r.9.5.<.=.+.+._ B q 5 h N Y ) @.<.,.-.5.5._ _ _ _ O.+.@.=.[ [ -.,.<.<.<.=.[ U =.k.v.j.M.M.{ < c j.b.b.b.b.M.M.Z.Z.Z.a.a.k.k.c.v.b.b.b.b.b.8.=.{ Z a.k.k.k.k.k.k.k.j.j.d.1.Z ^ <.-.3.8.0.e.9.9.8.e.a.s.a.e.,.r.l.j.j.a.<.^ a.j.k.j.j.j.k.k.k.k.x.x.k.k.k.k.M.m.k.k.v.a.9.v.s.a.a.s.p.=.3.f.v.k.a.s.k.v.k.s.5.r.k.M.U.9.{ F.b.,.<.s.wXcXcXcXcXcXcXcXcXcXcXcXcXcXzXlXG.=.[ U.N.9.,.I.v.N.5.5.v.b.k.a.r.s.k.v.v.j.>.9.r.a.s.s.s.s.9.c.c.v.v.v.k.k.k.k.k.k.j.j.k.k.k.k.k.k.k.k.~ -.9.r.9.9.9.9.5.+.9.r.e.e.e.e.e.9.8.5.4.,.[ B @.e.a.a.s.s.a.a.s.s.p.9.G ^ @.e.r.a.k.c.c.c.c.c.8.k.Z.v.c.c.c.c.k.k.k.k.+.t t =.e.r.9.j.9._ W +.-.,.<.5.<.<.@.~ @.+.{ { +._ ~ ~ _ ~ +.=.=.+.) ~ G h q q s n ~ +.=.@.=.5.0.9.=.W _ Y I U [ -.5.8.8.9.e.e.r.a.s.a.3.,.5.a.M.k.5.+.=.8.j.v.b.b.b.b.b.b.b.b.N.N.N.Z.Z.Z.A.A.Z.Z.D.D.F.F.F.F.G.G.G.G.H.H.U.H.H.U.!.!.N.G.!.U.Y.Y.Y.^.^.^.'.'.}.}.}. X X.X.XXX",
"$X$XXXXX.X.X.X.X.X.X}.}.}.}.}.}.^.!.b.H.}.}.}.^.^.!.!.U.!.U.H.H.H.G.G.G.G.G.F.F.F.F.A.Z.Z.Z.Z.N.Z.N.N.N.M.M.v.v.b.N.c.e.{ =.r.k.c.a.5.<.9.j.k.a.a.a.r.e.9.8.5.>.{ h Z @.-.{ { -.9.9.5.-.[ { [ G 9 d N G ^ [ =.<.<.<.<.,.+.W [ [ _ ) ) [ ^ +.>.<.5.3.<.,.@.^ ^ a.v.M.v.v.j.N q 9.N.N.c.b.v.v.v.v.v.j.c.v.c.c.c.c.v.c.k.s.,.@.=.B 0.v.k.k.M.M.M.M.v.b.x.e.Z E e.9.e.a.f.s.k.s.e.a.j.j.k.j.<.a.k.k.k.j.9._ e.M.k.b.M.M.M.M.v.v.v.v.v.v.v.v.M.M.M.M.N.j.r.N.c.k.k.c.e.+.9.k.k.v.k.k.k.v.v.k.8.5.b.v.Y.9.=.H.N.<.<.j.wXcXcXcXcXcXcXcXcXcXcXcXcXcXcXsX^.#.,.^.G.a.3.A.k.M.5.9.N.M.M.k.s.x.b.N.M.j.5.j.a.s.j.j.v.j.e.N.M.M.M.M.M.v.v.v.v.v.c.c.c.c.c.c.b.k.v.k.E a.a.a.a.a.a.a.9.=.j.j.a.a.a.a.s.a.e.9.5.4._ B 4.s.j.s.k.k.k.k.k.k.j.4.B ^ @.5.e.e.j.j.v.v.k.a.9.a.a.a.j.j.j.j.j.j.k.a.~ 5 =.Z.v.k.c.a.,.H _ =.<.<.5.5.5.>.+.) _ { { +.O._ ~ _ _ _ 4.-.-.-.@.+.~ G s 1 q G _ +.=.@.-.9.r.-._ +.;.) G U W -.5.8.9.9.9.e.a.j.a.5.=.<.r.b.k.<.+.{ 5.a.k.v.b.b.b.b.b.b.b.b.N.N.Z.Z.A.A.Z.A.D.D.D.F.F.H.H.G.H.H.H.H.H.H.U.U.U.U.!.!.Z.Z.U.U.Y.^.^.^.'.'.^.}.}.}. X X.X.XXXXX",
"$X$XXXXX.X.X.X.X.X.X}.}.}.}.}.}.}.F.C.}.}.}.}.^.^.^.^.^.!.U.H.H.H.H.G.G.G.G.G.F.F.F.A.Z.Z.Z.Z.Z.Z.Z.N.N.M.M.v.v.b.b.b.c.5.{ -.r.k.k.e.5.<.e.j.s.a.a.r.e.e.5.5.<.U h W -.5.>.@.+.>.8.8.<.+.{ ^ G s j G ~ _ +.-.<.5.5.<.-.=.) _ @.{ [ [ [ [ { -.5.5.5.3.<.>.@.E @.k.v.v.v.F.9.x W =.5.<.8.5.5.8.8.r.5.9.9.5.5.5.5.w.9.8.5.>.-.5.G 9.v.M.M.M.M.M.M.N.N.v.s.G R e.r.a.j.k.k.v.k.f.j.v.v.v.v.8.k.v.M.M.c.a.+.e.Z.v.N.N.N.N.N.N.N.N.N.N.N.N.N.N.N.Z.Z.Z.x.s.N.N.b.b.N.k.3.a.N.M.N.v.c.v.N.N.v.a.9.N.N.].e.-.U.N.5.5.x.rXcXcXcXcXcXcXcXcXcXcXcXcXcXcXsX^.#.,.^.G.a.4.A.j.c.<.8.N.b.M.x.k.c.b.M.N.k.e.v.c.v.b.M.b.x.r.Z.Z.Z.Z.Z.Z.N.N.N.N.N.M.M.M.M.M.M.M.v.M.k._ k.k.k.k.k.k.k.r.<.v.c.k.k.k.k.k.j.j.a.p.9.~ N 4.j.k.j.k.k.k.k.v.v.k.4.Y =.5.9.5.-.5.e.9.8.<.=.,.5.5.<.<.<.<.<.-.@.+.W 0 s j.Z.Z.Z.A.M.@.U [ =.<.5.5.8.5.<.=.{ +.+.@.@.@._ ~ _ ~ @.4.4.4.,.=.@.+.E t : 9 G _ [ @.@.,.9.<.) +.8.<.` Y A U { 5.5.9.9.9.e.a.r.5.-.>.8.b.b.<.=.{ <.a.k.v.v.b.b.b.b.b.b.b.b.N.N.Z.Z.Z.A.A.F.D.D.D.F.F.H.H.H.H.H.H.H.H.U.U.U.U.U.!.!.H.N.U.^.Y.^.^.^.'.'.^.}.}.}. X X.X.XXXXX",
"$X$XXXXXXXXXXXXX.X.X.X}.}.}.}.}.}.N.H..X}.}.}.^.^.^.^.^.!.U.U.H.H.H.H.G.H.H.G.F.F.F.F.A.A.Z.Z.Z.Z.Z.Z.N.M.M.M.M.b.b.b.N.l.<.[ -.a.k.j.e.<.,.9.j.a.a.r.e.e.8.<.@.N G { >.9.8.5.-.{ =.5.8.-.[ E B G B G _ +.=.<.5.8.8.5.,.+.{ ) [ @.=.=.=.{ @.=.5.9.w.e.w.r.<.+.^ 9.v.v.v.Z.G.+.c ~ =.<.8.9.e.a.a.s.9.a.a.9.9.9.9.w.r.d.c.e.w.r.E 3.M.Z.N.A.A.A.A.F.F.B.c.R H a.j.c.b.M.M.Z.N.c.b.N.N.N.N.e.b.Z.Z.Z.N.v.<.e.F.Z.Z.A.A.A.A.A.A.A.A.A.A.A.A.A.A.A.A.F.b.j.D.F.Z.Z.F.Z.r.j.F.F.F.N.b.C.A.A.C.b.r.A.A.].a.<.U.Z.5.5.x.rXcXcXcXcXcXcXcXcXcXcXcXcXcXcXsX^.=.,.^.G.j.9.A.k.M.8.a.Z.N.A.N.N.N.Z.Z.F.v.k.Z.N.N.A.A.N.b.s.F.A.A.A.A.A.A.Z.Z.Z.Z.Z.Z.Z.Z.Z.Z.Z.Z.Z.k.<.Z.M.M.M.M.M.M.s.9.Z.M.M.M.M.M.M.b.b.v.k.e.U B 0.M.M.M.M.M.M.M.N.M.k.4.^ 9.k.k.v.9.9.e.<.5.<.-.r.a.a.9.8.8.8.8.5.>.@.m = [ v.b.k.v.M.r.^ ~ -.5.8.9.e.e.9.5.<.,.4.5.5.5.@._ _ _ ' 4.4.4.3.4.-.-.@.T m s w A ~ _ { +.,.<._ *.9.9.5.+.' A G _ <.8.9.9.9.e.a.<.=.-.8.v.v.8.+._ =.j.k.v.v.v.b.b.b.b.N.N.N.N.N.N.Z.Z.A.Z.A.F.D.D.F.G.H.H.H.H.H.H.H.H.H.U.H.U.U.U.U.U.H.N.F.^.Y.^.^.^.'.'.}.}.}.}..X.XXXXXXXXX",
"$X$X$XXXXXXXXXXX.X.X.X|.}..X}.}.Y.A.}.|.}.}.^.^.^.^.^.^.!.!.U.H.H.H.H.H.H.H.G.F.G.F.F.F.F.A.A.Z.Z.Z.Z.Z.M.M.b.M.b.b.b.b.c.r.-.[ 5.r.j.a.5.-.<.r.a.a.r.9.9.8.-.W U -.=.>.9.r.9.5.{ { =.5.<.[ J n =.~ Z _ =.-.<.5.9.9.8.<.@.=.#./ =.1.8.8.<.5.e.e.a.a.a.a.a.e.5.^ +.k.M.v.N.A.j.Y _ 8.j.M.M.Z.F.G.Z.b.Z.Z.Z.Z.Z.Z.N.N.N.N.c.j.v.[ <.M.A.A.F.F.F.F.H.U.G.M.^ H a.k.b.C.Z.A.F.A.b.C.F.F.F.F.a.Z.F.G.F.A.Z.8.e.G.A.F.F.F.F.F.G.G.G.F.G.G.G.G.F.F.F.G.H.b.c.G.H.H.H.H.F.j.k.H.U.U.A.N.A.G.G.A.F.j.F.F.Y.a.<.H.N.<.<.j.wXcXcXcXcXcXcXcXcXcXcXcXcXcXcXsX^.=.,.^.G.k.9.S.N.G.a.v.F.F.H.F.H.H.G.G.U.M.M.G.A.F.G.H.F.N.x.U.G.G.G.G.G.G.F.F.F.F.A.A.G.G.G.G.F.F.A.k.9.F.Z.Z.A.A.A.A.k.r.G.Z.Z.Z.Z.Z.Z.N.N.Z.M.e.K K s.S.G.F.F.A.A.S.Z.N.k.3._ j.Z.G.A.M.Z.M.a.k.b.v.N.Z.N.c.k.k.k.k.j.j.9.c x v.Z.N.N.Z.N.9.E @.e.r.r.a.a.s.a.r.r.r.r.e.9.8.+.` O._ @.4.4.4.4.3.,.-.O.U ) ~ y B Y [ { @.>.[ ` 9.r.r.9.*.` U Z ^ -.5.9.9.e.e.8.-.=.<.k.M.8.@.{ +.9.v.v.v.v.v.c.c.b.b.N.N.N.b.N.Z.Z.Z.Z.A.F.F.D.D.F.G.H.H.H.H.H.H.H.H.U.U.H.U.!.U.Y.U.U.H.Z.U.Y.'.^.'.'.'.}.}. X X|.XXXXXXXXXX",
"$X$X$X$X$XXXXXXXXX.X.X X X X|.Y.J.Y.|.|..X}.(.{.(.!.^.!.!.U.!.U.H.H.H.H.H.H.H.H.G.F.F.F.D.D.A.A.Z.Z.Z.N.N.N.N.N.b.b.b.b.v.b.r.*.{ 5.a.e.9.<.>.9.r.s.r.9.9.8.@.Z { ,.<.8.e.a.a.8.5.{ _ =.<.+.B m 4.3.U Y =.>.<.9.9.9.9.9.=.=.<.+.[ 8.9.9.a.a.a.a.a.a.a.a.j.a.9.=.Y 5.k.M.M.A.A.5.E 5.j.M.M.A.G.F.A.N.F.F.G.G.G.G.N.M.M.F.M.c.b.<._ c.A.G.G.H.U.Y.^.}.'.G.+.J r.b.Z.F.F.G.F.F.A.C.F.F.H.H.b.b.H.F.F.F.G.s.e.U.U.Y.R.Y.U.U.Y.Y.Y.Y.Y.Y.Y.Y.U.Y.U.Y.U.Z.k.H.H.U.U.Y.U.M.x.H.Y.U.F.H.G.G.G.G.F.j.Z.A..Xa.=.A.v.5.<.s.6XcXcXcXcXcXcXcXcXcXcXcXcXcXcXtXY.>.>.Y.H.a.9.G.F.A.F.b.F.F.F.F.G.G.G.G.U.k.Z.F.G.G.G.G.U.M.M.G.Y.Y.Y.Y.Y.Y.Y.Y.U.U.U.U.H.H.G.G.G.H.H.a.v.F.F.G.F.H.U.U.v.b.U.H.F.F.F.F.F.F.F.F.b.5.m W b.U.U.H.U.G.F.A.N.Z.N.=.,.M.U.I.F.N.A.x.k.v.b.v.M.M.v.v.b.v.v.k.c.v.@.9 -.Z.Z.N.Z.A.b.[ Y ,.s.k.k.j.j.j.j.a.a.r.a.9.e.=._ @.{ ~ 3.4.<.4.5.4.-.+.T W @.[ c c ~ _ [ [ { { 9.0.r.a.q.;.@._ G U +.5.4.0.9.0.@.@.-.j.k.5.@.[ +.e.v.x.v.v.v.b.b.b.b.b.b.b.b.N.Z.Z.Z.Z.Z.D.D.D.F.F.F.F.G.H.H.H.H.U.U.U.U.U.U.U.Y.Y.!.!.{.}.D.H.Y.{.{.}.}.}.}. X}..X.X.X.X.X.X.X",
"$X$X$X$X$XXXXXXXXX.X.XXX X X}.{.F.}.#X.X.X|.{.}.{.(.^.!.U.U.!.^.U.H.H.H.H.H.H.H.G.F.F.F.F.D.A.A.A.Z.Z.Z.N.N.N.N.b.b.b.b.v.b.c.8.) [ ,.9.8.5.-.@.e.a.r.9.9.-.G B >.5.5.9.a.j.a.8.5.-.[ _ =.{ B U 9.e.+.G ) ,.>.5.9.9.9.9.>.+.-.>.[ +.5.9.e.e.a.a.a.a.s.s.k.j.a.5.E { s.M.M.A.G.k.) =.a.M.N.Z.Z.Z.A.M.A.A.A.A.A.A.N.m.M.A.Z.M.b.r.~ e.A.F.H.U.Y.].|.|.^.G.<.G e.Z.F.G.H.H.H.G.F.A.G.H.H.U.Z.b.H.F.H.H.H.v.a.U.Y.T.Y.Y.Y.Y.Y.Y.Y.Y.].].].].].].].].Y.F.v.U.U.U.Y.Y.U.M.x.G.U.U.D.F.G.G.G.G.A.s.M.Z.].a.=.A.M.5.3.k.;XzXcXcXcXcXzXzXcXcXcXcXzXcXcXwXU.-.-.U.F.r.8.G.Z.Z.F.N.U.U.U.U.U.J.H.H.H.k.A.F.U.U.U.U.^.N.A.Y.Y.Y.Y.Y.Y.Y.Y.Y.U.U.U.U.H.H.H.H.F.G.F.r.M.A.S.G.F.H.U.U.v.N.Y.H.F.F.G.G.G.G.G.G.N.8.m ~ M.G.H.F.F.A.Z.Z.Z.Z.v._ e.N.F.D.A.N.N.s.k.v.v.v.M.v.v.v.v.v.c.k.M.e.m n v.Z.N.M.M.N.5.U { 9.j.k.j.j.s.a.a.r.e.e.e.9.5.[ { =._ +.5.3.<.4.4.,.<.^ J @.-.+.B x Y [ ) ) ) ,.9.9.p.a.9.4.-.5.E Z [ 5.9.8.4.-.O.-.9.k.5.+.@.[ 7.k.M.c.v.v.b.b.b.b.b.b.b.b.N.C.Z.Z.Z.Z.D.D.F.F.F.F.F.G.G.H.H.U.U.U.U.!.U.U.!.!.Y.Y.{.!.{.}.H.F.Y.{.{.}.}.}. X X.X.X.X.X.X.X.X.X",
"$X$X$X$XXX$X$XXXXXXXXXXX.X.X}.Y.U.|..X'.}.|..X}.|.{.(.^.^.U.^.^.U.H.H.H.H.H.H.H.G.F.G.F.F.F.A.A.F.Z.Z.Z.Z.C.Z.C.b.b.b.b.b.v.c.j.<.{ +.5.8.8.-.) 8.r.r.9.9._ j Y <.<.9.r.j.k.a.8.5.5.=.) W W N ~ 5.a.9._ U { >.<.q.8.9.9.5.=.+.>.@.) >.8.8.9.a.a.s.s.s.s.j.j.a.e.@.~ 5.j.b.N.H.F.-.^ 5.v.N.b.M.Z.Z.M.Z.A.Z.Z.Z.Z.B.v.v.M.A.M.b.c.) @.M.A.A.F.G.G.Y.U.U.F.r.J >.N.F.G.U.U.U.G.F.A.G.H.H.U.F.b.F.F.H.F.F.b.a.A.U.Y.U.U.U.U.U.U.U.U.U.U.U.U.U.U.U.U.U.F.b.G.H.H.U.U.G.M.x.A.G.F.N.Z.G.G.G.G.Z.r.v.M.U.a.=.Z.c.5.,.s.>XzXcXcXcXcXcXcXcXcXcXzXcXcXlX>XZ.=.-.H.Z.9.5.F.N.v.N.N.G.G.G.G.G.G.F.F.Z.j.A.A.H.H.J.J.U.v.A.U.U.U.U.U.U.U.U.U.G.H.G.G.G.G.G.G.A.A.A.9.N.N.Z.A.A.F.G.H.k.N.U.G.A.A.A.A.G.F.Z.N.N.5.N [ M.A.A.Z.Z.Z.Z.Z.N.M.9.^ v.N.D.N.N.Z.v.a.c.v.v.b.v.v.k.k.c.c.k.j.k.@.q +.N.N.v.M.M.j.) U 5.j.k.j.s.a.a.a.a.r.e.9.9.5.+.{ =.=._ 8.9.3.4.3.3.,.=.W _ -.-.,.U h G [ W E _ 8.9.9.r.a.0.4.-.<._ B T <.0.5.@.O.@.5.a.8.{ +._ 5.s.c.v.v.v.b.b.b.b.b.b.N.b.N.Z.Z.Z.Z.Z.D.D.D.D.F.F.G.H.G.G.H.H.U.!.H.H.!.!.!.!.^.^.^.{.H.H.^.U.G.H.^.}.}.}. X X X.X.X.X.X.X.X|.|.",
"$XXXXX$X$XXXXXXXXXXXXXXX.X.X}.Y.}.XX|.F.H.(..X.X|.|.}.^.^.!.^.^.U.H.H.H.H.H.H.H.G.F.G.F.F.F.F.F.F.Z.Z.Z.C.Z.Z.Z.C.N.b.b.v.c.c.k.j.<.{ =.9.8.=.) 5.9.r.e.5.U n [ +.>.9.r.k.c.s.8.,.5.<.+.U c k _ 0.f.9.4.U E -.<.5.q.9.9.8.5.+.{ >.{ { -.5.9.r.s.s.s.s.s.a.a.r.9.>.) { a.j.v.Z.A.r.W @.r.k.k.b.N.Z.v.Z.Z.N.N.Z.N.N.v.x.M.M.v.b.j.+.~ j.Z.M.M.Z.Z.A.B.A.F.s.E ) k.Z.A.F.G.F.A.Z.N.D.F.G.H.D.c.Z.A.F.Z.N.k.a.M.F.U.F.F.F.F.F.F.F.F.G.G.G.G.F.F.F.F.F.A.c.Z.F.F.G.H.F.M.x.Z.F.F.N.N.A.A.A.A.M.r.k.v.S.a.=.Z.j.>.=.r.{.>X6X0XwXrXyXyXuXtXwX9X<X<X>XQ.N.@.=.G.M.8.5.F.M.j.j.j.N.N.N.N.B.B.N.N.M.s.Z.Z.A.A.D.D.F.s.Z.G.F.F.F.F.F.F.F.F.F.F.F.D.D.D.F.F.N.N.Z.8.M.M.N.Z.Z.A.F.F.j.Z.U.F.B.B.B.B.A.N.M.b.c.<.Z -.v.Z.Z.N.Z.Z.Z.Z.M.v.@.O.M.N.N.N.M.M.c.s.c.c.v.v.c.c.k.k.k.k.k.j.8.N c s.M.v.j.k.v.5.E =.9.j.j.a.a.a.a.a.a.r.e.9.8.,.) =.<.+.=.e.9.3.3.<.4.-.~ ) =.-.-.-.~ d B [ U U =.5.9.9.r.a.0.4.O.~ _ U G O.5.5.) +.5.4.5.=.{ { =.a.k.k.v.v.b.b.b.b.b.N.N.N.N.C.Z.Z.Z.Z.D.D.D.D.F.G.G.G.H.H.H.H.H.U.H.F.F.U.!.!.!.^.^.{.{.H.Z.H.^.U.U.Y.}.}. X X XXX.X.X.X.X.X}.}.}.",
"*X^.Y.$X$X$X$X$X$XXXXXXXXX.XY.Y..X$X.XH.G.^..X}.}.}.}.}.^.^.^.^.U.U.U.U.H.H.H.H.G.H.G.F.F.F.F.F.F.Z.Z.C.C.Z.Z.Z.C.M.b.b.b.v.c.c.j.a.-.) <.5.5.,.e.e.a.9.-.m W [ ~ ^ @.a.j.j.a.9.5.<.5.=.) d x _ 9.e.p.0.=.G [ =.<.<.5.5.5.5.=.{ @.=.+.{ >.<.8.9.9.e.e.8.e.9.9.8.5.=.^ >.j.k.v.M.k.@.U <.r.j.k.M.M.M.M.M.M.M.M.M.M.v.v.v.N.b.c.k.<.Y 5.M.Z.N.Z.Z.F.Z.A.N.s.[ H e.M.N.M.N.N.N.N.N.N.C.Z.Z.Z.j.b.N.C.N.N.k.y.s.F.N.A.A.Z.Z.A.A.A.A.A.A.A.A.A.A.Z.Z.Z.N.N.N.G.N.F.F.Z.c.s.b.F.Z.M.c.v.v.v.M.j.5.k.M.A.a.+.v.k.<.) >.c.D.H.F.Z.Z.b.c.b.c.d.s.y.y.r.r.3._ -.G.Z.5.8.A.k.r.w.3.v.c.v.N.M.B.B.Z.v.e.Z.N.Z.Z.B.N.M.k.N.A.A.A.A.A.A.A.B.B.B.B.B.B.A.A.A.A.M.M.e.v.M.M.M.N.N.N.Z.F.r.N.N.M.M.M.M.M.N.b.x.j.j.^ U 9.M.Z.N.M.Z.N.M.k.k.6.Y 4.v.M.M.N.b.v.a.x.k.k.k.k.k.k.k.j.s.k.k.a.[ w ^ b.j.j.k.k.a.W W 5.a.a.r.r.r.r.e.9.e.9.8.8.,.) _ @.{ =.5.5.4.8.5.4.3._ ~ O.,.,.,.-._ j d U U +.<.5.9.r.r.0.p.+.~ ~ _ ~ m Y 9.6.@.5.e.,.{ { { <.e.k.k.k.c.v.b.b.b.b.N.N.N.N.C.C.Z.Z.Z.Z.D.D.Z.D.F.G.G.G.H.H.H.H.H.H.H.b.H.!.^.!.^.^.^.}.^.U.N.H.^.}.^.B.^.{. X XXXXX.X.X.X.X.X.X.X.X",
"$XXXXXXXXXXX$X$X$XXXXX$X$X}.J.Y.$X*XXX(.!.'.}.}.}.}.}.}.^.^.^.^.U.U.U.U.U.H.H.H.J.G.G.F.F.F.F.F.F.Z.Z.C.C.Z.Z.Z.C.M.b.b.b.b.c.c.k.k.e.+.-.5.8.9.e.r.s.9.) A ~ ^ Y ) @.<.9.a.j.r.5.<.5.-.Y h n ^ 3.9.e.9.5.[ U { -.<.5.5.5.5.>.+.{ { +.[ =.-.<.<.<.5.8.5.8.8.5.5.5.-.[ ) e.e.9.j.k.e.Y Y 8.a.k.v.v.v.v.v.v.v.v.v.v.k.k.k.c.x.j.a.9._ _ a.Z.N.Z.A.F.A.F.N.j.=.G 5.v.M.b.v.v.v.v.v.b.b.N.C.N.s.c.b.b.c.b.s.a.y.N.N.N.N.N.N.N.N.N.N.Z.Z.Z.Z.N.N.N.N.N.b.b.v.A.M.B.Z.N.k.a.c.N.M.c.k.j.r.r.j.e.>.a.k.M.e.) a.c.9.~ ,.C.H.^.^.^.^.!.H.J.J.J.J.G.F.Z.N.w.+.-.Z.k.=.<.N.k.5.5.3.s.a.s.x.c.c.v.M.j.9.M.M.N.N.b.v.M.x.M.Z.N.N.N.N.N.N.N.N.M.M.M.M.M.M.M.M.v.v.e.m.v.m.M.M.b.b.M.N.e.b.N.b.v.v.v.v.N.b.j.a.=.A _ j.M.M.M.M.N.b.v.k.a.+._ 9.k.x.c.v.c.j.r.j.k.k.k.k.k.j.j.s.r.j.9.-.c x 5.a.9.r.j.a.@.B @.e.r.r.e.e.9.9.9.8.5.5.<.<.{ ^ [ _ [ -.<.>.4.3.4.,.O._ O.+.,.,.-.-._ c y n =.5.,.,.9.0.9.8.4.-.` ~ [ ^ Z B -.9.9.f.r.-._ ^ =.e.j.k.c.v.m.m.v.v.b.b.N.N.N.N.C.C.C.C.Z.Z.D.D.D.F.G.G.G.G.G.H.H.H.H.H.F.F.!.U.^.!.^.^.^.^.^.!.U.^.}.}. XD.J.}. XXXXXXX.X.X.X.X.X.X.X.X",
"XX$X$X X X.X$X$X$X$X$X$XXXY.F. X$X$X$X|.}.|..X}.}.}.}.}.(.^.^.^.!.!.!.!.U.U.H.H.H.J.H.H.G.G.F.F.F.Z.Z.Z.Z.Z.Z.Z.C.M.M.b.b.b.v.c.k.k.s.5.=.>.5.9.9.r.r.,.A E ~ W ^ >.9.9.5.9.a.a.8.5.5.+.B N U ^ -.4.9.9.9.5.E Y { >.<.<.<.5.<.@.[ _ _ [ { { { +.+.-.>.-.-.>.<.,.-.@.{ W { 5.<.9.r.j.=.c { e.s.j.j.j.j.j.j.j.j.j.s.s.a.a.s.s.a.w.5.{ G 5.k.M.M.Z.Z.N.N.M.x.5.U [ k.v.c.k.k.k.k.j.j.j.x.c.x.r.j.j.j.s.j.e.a.5.k.v.v.v.c.c.v.v.v.v.v.v.v.v.v.v.v.v.c.k.j.j.b.k.v.v.x.r.8.a.k.j.s.a.e.5.5.9.5.@.9.j.v.9.E e.j.a.3.<.5.q.q.q.9.9.9.9.r.a.s.s.x.k.s.a.9.<.9.Z.j.{ =.Z.k.<.5.-.r.y.r.s.s.s.j.k.9.8.k.k.v.c.x.j.v.s.k.v.v.v.v.v.c.c.v.v.v.v.v.v.v.k.k.k.s.s.5.s.s.s.k.k.j.j.s.s.8.c.v.x.k.k.k.k.c.x.r.5.U N -.j.M.M.b.M.b.k.k.a.4.) #.a.s.s.j.j.j.e.r.s.s.s.s.s.a.r.r.e.r.9.8.E q W 8.<.8.9.a.@.m E =.<.<.<.<.<.<.<.-.-.@.=.@.{ ~ ) ) Y +.=.=.-.-.=.-.+.~ O.=.=.,.,.,.-.W N s d =.8.-.-.8.9.8.<.q.9.<._ _ ) U n ~ 9.j.s.r.-._ ^ <.a.k.c.v.v.v.v.b.b.b.b.N.N.N.N.Z.Z.Z.Z.Z.Z.D.D.F.G.F.F.G.G.H.H.H.H.H.H.H.U.^.!.!.^.^.^.(.(.'.(.}.}.}.}..XU.Z.{.XXXXXXXX.X.X.X.X.X.X.X.X",
"$X$X$XXX X XXX$X$XXX$X$X}.H.J.XX$XXX.X.X|.|..X.X}.}.}.}.(.^.^.^.!.!.!.!.U.U.U.H.J.J.H.H.G.F.F.F.F.D.Z.Z.Z.Z.Z.Z.C.M.M.b.b.b.v.c.k.k.j.e.=.@.-.5.e.e.5._ A ) ^ E _ 5.k.a.8.<.8.a.r.8.<.[ c Y O.~ @.<.8.8.9.q.*.H ^ *.-.,.-.<.<.=.[ ) ^ ) E E E E W ) _ _ [ { { +.{ _ [ E d [ { ) 5.a.9.W B >.9.r.a.a.a.a.a.a.a.a.a.a.y.e.e.a.r.5.<.+.G W 5.k.z.M.b.b.b.x.j.w.) U r.k.j.a.a.s.s.s.e.e.r.r.t.8.t.r.r.e.r.5.9.@.9.a.s.s.s.s.j.j.j.j.j.j.j.j.j.j.j.j.j.s.s.a.s.e.a.a.r.5.>.8.r.r.e.e.9.<.<.9.<.{ 9.s.a.<.B ,.a.a.s.s.e.e.r.r.9.e.e.e.e.e.w.9.9.9.9.9.a.j.k.v.9.U ~ c.8.=.8.>.e.w.e.a.r.a.s.s.>.<.s.s.j.s.s.a.k.e.a.s.j.j.j.j.s.s.s.s.d.d.j.j.s.s.s.s.r.e.-.5.e.e.r.a.r.e.w.9.3.s.j.s.s.s.s.s.r.r.5.@.x W <.k.v.v.v.v.v.l.a.,.[ _ 3.e.y.a.a.s.s.8.r.t.r.r.r.r.e.e.9.8.9.<.{ h N @.5.-.<.5.-.B c ) +.{ { { [ [ [ ] ) ) ^ _ ) W ~ W G E +.+.-.<.-.+.+.~ E O.,.3.,.,.,.,.Y H B y W -.-.-.8.8.4.=.p.f.8.O.^ ~ ~ B H 4.a.f.e.,.{ { 5.e.j.v.v.v.v.v.b.b.b.b.N.N.N.N.Z.Z.Z.Z.Z.Z.F.F.F.F.F.G.G.H.H.H.H.H.H.U.U.U.U.^.^.^.^.^.(.'.(.(.^.}.}.}..X.XZ.^..X.XXXXX.X.X.X.X.X.X.X.X",
"*X$X.X.X.X.X.X.XXXXXXX$XY.H. XXX.X.X.X.X.X.X.X}.}.}.}.}.^.^.^.^.^.^.!.!.!.U.U.H.H.H.H.H.H.G.F.F.F.F.D.Z.Z.Z.Z.Z.C.N.N.N.b.b.b.b.v.c.k.j.<.^ @.9.a.e.,.H E ^ ~ ~ -.9.a.j.a.5.<.9.r.e.5.E B _ @._ ~ =.<.8.8.8.<.{ H [ { >.,.>.-.=.+.~ U W W U U U U U Y E ~ ~ ~ ~ ~ ~ ~ W d j +.+.=.8.5.@.c E =.5.9.9.9.8.8.8.9.9.8.9.9.3.3.5.5.<.#.@.Y B ~ 8.9.j.j.k.j.j.j.e.+.H _ e.e.9.9.e.9.8.5.<.<.>.5.<.5.<.<.<.-.=.=.{ { 8.9.8.8.8.8.8.9.9.9.9.9.9.e.e.e.e.e.9.8.8.<.8.3.5.<.-.=.-.<.<.<.5.<.>.#.3.<.^ ,.9.5.=.c <.a.r.s.a.r.r.e.e.r.r.r.r.a.a.a.a.j.j.j.j.a.a.j.j.,.h B 9.[ =.4.=.3.3.<.3.5.5.5.5.{ ,.<.6.w.8.5.5.8.>.e.w.9.9.9.9.9.9.9.9.9.9.0.0.0.0.0.9.0.,.[ 5.5.5.3.5.5.5.<.=.<.e.e.9.9.9.e.9.8.<.=.B n ~ 4.s.k.k.j.s.j.r.5.[ J _ ,.3.5.9.9.9.<.8.9.8.8.8.8.8.5.5.<.<.<.+.A d { <.>.-.@.+.U d A W ) W ^ ~ ~ ~ W Q Q Q W ' Y Y Y A I _ +.+.+.+.+.+.~ I _ =.;.<.4.4.-._ ^ W W j m +.-.5.4.<.=.9.a.a.9.4.^ ~ ) Y B ~ e.a.r.@.[ <.=.e.j.v.v.v.v.b.b.b.b.b.N.N.N.N.Z.Z.Z.Z.Z.D.F.F.F.G.G.G.H.H.H.H.U.H.U.U.U.U.U.^.^.^.^.^.(.}.}.^.}.}.}.}..X.XG.C.}..X.X.X.X X X X.X.X.X}.",
"}..X.X.X.X.X.X.XXX$X$XXXD.{.$X$X.X.X.X.X.X.X.X}.}.}.}.}.(.^.^.^.^.^.!.!.!.U.U.H.U.H.H.H.H.G.F.F.F.F.D.Z.Z.Z.Z.Z.C.N.N.N.b.b.b.b.v.v.c.j.8.{ =.9.e.9.{ G ~ ~ W ) 5.r.a.a.s.r.5.<.a.r.-.N U [ =.@.~ ~ =.5.5.8.8.<.^ U { =.=.=.@.@.+.W B N U A B m N B A G G G G H U G G B y : U =.-.<.5.<.H x ^ +.-.-.-.-.-.,.<.4.,.4.4.-.,.3.5.<.=.@.^ A N { 5.a.a.j.k.j.j.r.>.W A +.,.8.5.5.5.<.[ [ [ { =.@.=.@.@.{ [ _ _ [ W =.-.-.>.,.,.,.,.,.>.>.>.>.,.,.<.<.>.-.=.=.[ >.#.{ @.{ { +.-.-.-.-.=.+.[ =.@.J @.<.@.{ t =.e.r.s.s.a.s.a.a.s.s.a.a.a.a.a.a.9.e.e.9.e.9.e.8.^ 8 n 9.~ ,.O._ @.+.+.@.@.@.=.=.[ #.#.=.=.#.@.@.[ [ =.>.>.>.>.>.>.>.>.>.>.,.,.-.<.,.-.-.<._ U @.-.-.-.=.=.-.@.{ +.,.-.-.-.<.5.5.-.@.Y d A +.9.f.j.j.s.a.9.-.^ G G _ -.3.5.8.5.<.<.<.5.<.<.<.<.<.2.>.>.=.@.Y y B =.5.<.,.+.Y y 9 x B G A H G G G G G G A Z B V B N B ' _ +.+.+.+.{ _ U W =.-.-.;.-.=._ _ @.^ _ B s _ <.8.<.=.0.e.f.f.e.4.[ ~ ^ ^ G Z =.a.9.-.=.8.-.9.j.c.v.v.v.b.b.b.b.b.N.N.N.N.Z.Z.Z.Z.Z.D.F.F.F.G.G.G.H.H.H.H.U.H.U.U.U.U.!.!.^.^.^.^.(.}.}.}.}.}.}.}.}..X^.F.Y. X.X.X.X X X X X X^.U.",
"U.^.}.}..X$X$X.XXX$X$X}.F.}.XX$X.X.X.X.X.X.X.X}.}.}.}.}.}.^.^.^.^.^.^.!.!.U.U.U.U.H.H.H.H.G.G.F.F.F.F.D.Z.Z.Z.Z.C.N.N.N.b.b.b.b.v.M.c.a.8.9.5.5.e.<.W Y ) W Y =.e.j.s.a.s.j.r.<.<.r._ m ) [ =.>.{ E ) -.<.5.8.8.=.U ~ { +.{ { [ { ^ A c h x c c x x x c h j j j h d s t 8 5 9 W +.=.,.5.[ d N ~ [ O.+.@.+.+.@.=.+.=.=.@.+.=.-.=.=.@._ U c N { 5.e.a.j.s.s.a.5.[ m A ) { +.=.=.=.W ~ ) ) { [ { [ ^ ~ W Y U ~ G ~ ^ ) _ [ [ { [ [ [ [ [ [ [ [ [ [ [ _ ) ) W [ ^ E Y U U W ^ ^ ^ ^ ~ E U ^ E B ~ ) { W : U 5.e.e.a.r.a.a.a.a.a.a.a.a.a.a.a.a.a.a.a.r.9.8.<.B 4 m 5._ +.Z G T Y Y Y E E ! W W ^ W W ^ ) ) ) E ^ [ { { { { { ] { ] { [ [ [ [ [ [ _ ) @.Z x R W W W W W ~ ~ W ~ ) ~ ^ ^ _ { { ^ G t d E ,.r.a.f.f.a.9.<.^ m c U ) =.=.<.<.=.{ @.=.@.{ } } } } { { [ [ ^ h q U -.<.-.=.W d s y s d h h j j k k j h d s s y y q j Y ~ { { { { { _ W G _ -.-.-.;.=._ W { 5.{ { ~ d U <.-.-.8.r.f.a.f.p.9.-.^ ~ [ Y n Y 9.9.5.8.a.5.5.j.v.c.c.c.v.b.b.b.b.N.N.N.N.Z.Z.Z.Z.D.D.F.F.F.G.G.G.H.H.H.H.U.U.U.U.U.U.!.!.^.^.^.^.^.}.}.}.}.}.}.}.}.}..XH.J..XXX X X.X X X}.{.U.H.",
"U.U.!.^..X$X$X$X$X$XXX}.{..XXXXX.X.X.X.X.X.X.X}.}.}.}.}.}.^.^.^.^.^.^.!.!.U.U.U.U.H.H.H.H.G.G.F.F.F.F.D.Z.Z.Z.Z.C.N.N.N.N.b.b.b.v.M.c.e.8.j.e.9.9.{ H ^ ^ Y ~ <.r.j.s.j.j.j.a.5.5.=.N A _ { =.<.-.) E { =.<.5.8.5.[ A ) [ _ ) ) ~ W A c m A H G G U Y W U Y Y Y Y Y E Y U U c G ^ { -.<.=.U y G ~ ~ _ _ _ [ { O._ O.+.+.~ _ { { @.+.[ W n h G +.5.e.r.a.r.r.9.@.B 9 h m N G Y W N c h y y y s y t w q 8 8 q 8 8 q t y d d d d d h h h h h j j j h d d d s d t w t w t s d d d d q 9 4 w 5 9 t y c n + 9 G E E ^ +.+.@.=.=.=.@.@.[ [ [ [ ) ) ) ) U G B n h 1 m =.~ N 1 e s s y s d d d d x v h d x x c c x m N m m m m m m m m m m m c c x h h h t 4 3 9 q q q q q t w q s s t y x B U Y U m 5 c _ 3.r.a.a.p.0.-.{ A j Z W _ { [ @.{ ) E ^ ) ^ W Q Q Q Q W W E E c t c Y { @.@.W c c ~ ) ) ~ Y U U U U U J H Z B B A B s q G W ) ) ) ) ) W I ~ { =.=.-.;.=.Y ' <.8.=.+.+.c x @.{ ,.r.s.p.f.f.a.e.5._ ^ [ ) G n { 9.a.j.k.a.8.a.c.c.c.c.v.b.b.b.b.N.N.N.N.Z.Z.Z.Z.D.D.F.F.F.G.G.G.H.H.H.H.U.U.U.U.U.U.!.!.^.^.^.^.^.(.}.}.}.}.}.}.}.}..X^.Y.{. X X.XXX X}.U.^.U.H.",
".X^.^.U.H..X*X$X$X$X.X}..XXXXXXX.X.X.X.X.X.X.X.X.X|.|.}.}.^.^.^.^.^.^.^.^.!.!.!.U.H.H.H.H.H.H.H.F.F.F.D.Z.Z.A.Z.Z.N.N.N.N.b.b.c.v.v.k.a.j.j.e.r.5.E Y ~ ~ Y +.9.j.j.j.j.j.a.e.9.j.^ 0 n ~ +.-.5.5.-.) U +.<.8.8.9.,.~ A ~ W W ~ W U j y A G G G G G U U U U U U Y U U Y W ) Y B W E [ =.>.{ Z s N B A n N B B U U U U U N Z U W ~ W Y A x w t E >.8.e.w.8.5.<.{ Z 0 d c y c N m c s 5 : : > < < < < : = % $ $ $ + + + @ % % % % * * % $ * * * * * * * * % * @ X X X X + @ @ @ @ @ @ $ % : = $ @ < , , , 5 t x Z Z Z Z Z Z A G A Z B N N B B m c c c j h t 1 8 q 5 % X + + + + @ & & & & * & & @ @ - > * > > > - - = = * * * * * & $ @ @ . . .   . + $ $ $ $ $ $ = = : : 5 9 0 0 y U ~ ^ ) B 8 Z +.4.4.9.9.8.,.^ x 8 c N B A G G G N j y n n c x x x x h t s x x y m Y ~ { { ) N A ^ { +.[ ^ W U U J U J H H G B N V B n 9 c Y ~ ~ W W W A E { *.-.<.<.*.T ) *.<.<.<.=.=.G y G +.4.e.a.r.a.s.s.a.r.=.Y ) [ ^ c H r.v.k.a.v.a.8.j.c.c.c.v.b.b.b.N.N.N.N.C.Z.Z.Z.D.D.F.F.F.G.G.F.G.H.H.H.H.U.U.!.!.!.!.^.^.^.^.^.^.(.}.}.}.|.|.|.|..X.X.X.X{.Y.}.XX.X.X{.F.J.{.U.F.",
".X}.}.!.U.U.^.$X$X$X X}..XXXXXXX.X.X.X.X.X.X.X.X.X|.|.}.}.^.^.^.^.^.^.^.^.!.!.!.U.H.H.H.H.H.H.H.F.F.F.D.Z.Z.A.Z.Z.N.N.N.b.b.n.c.v.k.j.a.k.r.9.r.{ U ~ [ W ~ -.r.j.j.j.j.s.a.r.e.9.Z 5 y ~ -.-.5.8.5.@.W ) @.<.9.5.,.{ U Z H U U U Z t n A G G G G G U U U U U U U G U U ^ [ _ U Y W W [ @.=.{ G x c m 4 1 1 5 d j h s y t w y j N N c h t 9 4 m #.=.=.>.=.#.+.^ H c m Z x N m c n c j x j c n n n c x h x x j x j j j x j j j x c x j j x x x x x x x x x c x d s s s s s s s d h d h x h d s t d d x c N Z U W ~ ~ ~ ~ ~ ^ ^ ^ ^ ^ ~ W ~ ~ W Y Y Y U U B h h h d s y y y y y y u u u u d d d z d x v x x x x x x x h h h h h h h h d d f f t t d f d h j j j j x x x h j c x x h G W W H d q Z [ +.@.-.=.=.~ h : q h j n m m c h 9 < > 5 5 0 0 9 5 9 0 0 q h d U ) =.<.<.=.G U ) @.=.@._ ^ W Y U U J J G G G Z B A A B j g N G U U U Z G ) *.*.=.-.-.{ T { <.<.<.<.<.<.U 5 x +.4.0.a.r.a.s.s.f.a.<.^ ^ +.{ B N 9.k.j.r.k.k.5.j.c.c.c.v.b.b.b.N.N.N.N.Z.Z.Z.Z.D.D.F.F.F.G.G.G.H.H.H.U.U.U.U.!.!.!.!.^.^.^.^.^.^.}.}.}.}.|.|.|.|..X.X.X.X X{. X$X.X^.J.J.^.}.}.^.",
"XX.X.X}.^.U.U.}.$X$X X X.XXX#X#X.X.X.X.X.X.X.X.X.X|.|.}.}.}.}.}.^.^.^.^.^.!.!.!.U.U.U.H.H.H.H.H.H.F.F.D.D.D.A.Z.Z.C.N.N.b.b.c.c.b.j.a.j.j.r.j.9.U U [ _ W [ 9.s.k.k.j.j.a.a.r.r.+.s j U A +.5.5.5.5.<.{ W [ =.5.<.-.+.^ B B A U A s d B A G G G G G U U Y Y Y Y U H U W [ @.=.{ G [ +.@.-.=.<.<.-.=.=.G x t j G ~ Y G Z h q w j G Y Y Y Z m Z Z { @.+.@.@.+.{ ^ H A B m A G G B Z B G G G E ~ W W W U U Y U U U Y Y Y Y Y Y Y Y Y T U U U U U U R U R R E W E U U U U U U U U U R R E E E U U U J J H H U H G A A A A A G G G H H H G G G G G A Z A A A Z B G Y U U U G U H H U H H H H H U R E E W E E ~ ^ ~ ~ ~ ~ W W W ~ ~ ~ ^ ^ ~ ~ ~ ~ W E W R R T J J J J G G Z n B Z B B Z U W ~ H c N W O.@.@.=.-.@.U w d B N B ^ ) ) Q G x y x v n m m m m n t J _ U ^ ,.,.4.8.q.) B _ @.=.@.+.) ~ W W Y U U U G G H H I U I G A s s N B Z Z B ~ { +.{ =.=.=.' _ -.5.4.<.5.5.) y 8 w W -.9.a.a.a.f.s.j.s.9.{ ~ +.@.E c [ e.a.r.a.v.9.r.c.c.n.n.b.b.N.N.b.N.N.Z.Z.Z.D.F.F.F.F.G.G.G.H.H.H.H.U.U.U.U.!.^.^.^.^.^.^.^.^.}.}.}.}.}.|.|.|.|..X.X.X.X.X}.XX X}.Y.Y.{.|.|..X.X",
"$XXX.X.X.X}.^.^.}..X.XXXXXXX#X#X.X.X.X.X.X.X.X.X.X|.|.}.}.}.}.}.^.^.^.^.^.!.!.!.U.U.U.H.H.H.H.H.H.F.F.D.D.D.A.Z.Z.C.N.N.b.b.c.c.b.a.r.j.e.r.9.~ Z ~ +._ W @.a.j.k.k.j.j.r.r.a.a.W q G <.W U +.5.<.5.5.-.) ^ [ -.>.>.@.[ A c c A d q c m A G G G G G U U Y Y Y Y U U W ) @.>.<.=.^ ^ +.@.@.=.-.=.=.[ _ ^ W m G _ @.+._ ) ~ Z B W _ _ ' W A G E Z [ =.>.-.#.#.#.[ ) [ =.) ) W U G Y W ^ ^ W [ +.{ { [ ) ^ [ _ _ _ { O.+.+.+.+.+.+.+.O.[ [ [ [ [ { { { { { [ { { [ { { { { { [ [ { [ [ { +.[ [ [ _ { [ _ ) _ ^ ^ ^ ) ) ) ) ) ) _ _ _ _ ) ) ^ ) ) ) ^ ) ) _ ) ) ) _ { [ [ { { { { { [ [ [ [ [ [ [ { { { [ [ { { { [ +.{ { ` { { { +.+.+.O.{ [ [ [ [ { [ _ _ _ _ _ _ _ [ ~ H W ^ ~ ~ W Y ^ ) ) ^ [ =.,.,.3.4.5.-.^ m Y ) U G { @.=.*.) G A ^ [ _ _ ^ E J H n _ -.+.-.4.,.=.=._ B Y @.+.{ [ _ ^ ~ W W E Y U U U U U U W W Y I G m q h N c m ~ _ +.+.{ *.+._ _ <.<.<.<.<.<.=.c y c 5 A =.8.e.a.a.f.s.j.j.r.=.) ) @.[ Z Z =.9.e.r.j.k.e.x.c.n.b.b.b.b.b.b.N.Z.Z.Z.Z.D.F.F.F.F.G.G.H.H.H.H.H.U.U.U.U.!.^.^.^.^.^.^.^.}.}.}.}.}.}.|.|.|.|..X.X.X.X X}. XY.Y.}. X}.|.XX$X$X",
"{.XX$X XXXXXXX X!.!.{..XXX#X#X#XXXXXXXXXXXXXXX.X.X.X.X}.}.'.'.'.^.^.^.^.^.^.^.^.Y.U.U.J.J.J.J.J.H.H.F.F.A.D.Z.Z.Z.Z.Z.b.b.x.c.b.M.9.e.v.r.8.W x Z { +.) W -.a.j.x.k.j.j.k.a.j.<.c y Y 9.8.E W -.<.q.8.5.*.' ~ { =.=.{ ) A x h h y d y A H H H H I U U U T ~ ~ T W W W W ) ) ) ) ~ ~ W Z U Y U U A N m B G A G _ { +.+.+.{ G ~ O.+.+.[ ) U U ^ U T -.<.5.5.5.5.5.5.5.5.5.-.-.-.-.-.<.5.@.[ 5.9.9.5.8.9.9.e.e.e.e.e.e.p.p.p.0.0.e.r.r.e.9.9.9.0.0.w.w.w.e.w.w.e.e.r.r.r.r.a.a.a.a.a.a.a.a.a.a.a.a.a.a.r.r.r.r.r.r.9.9.9.e.r.e.e.e.a.e.e.r.e.e.e.e.e.e.e.e.r.r.r.r.a.a.a.r.y.e.e.e.r.r.r.r.e.e.e.e.e.e.e.9.e.9.9.9.9.9.9.9.9.9.9.9.0.9.9.8.4.3.4.3.3.3.3.3.3.5.6.9.e.9.<.) <.<.=.-.-.-.-.-.-.<.5.5.5.8.9.9.9.-.U ~ =.[ E ^ @.-.,.>.+.U ^ -.-.-.=.O.O.W J W O.-._ @._ _ _ ~ ~ ~ _ [ ) ~ E U E ~ ~ ~ W W Y Y U U E ^ W E U H A n w t h c U ) ) +.{ +.@._ ) =.<.<.5.5.<.=.Y U ) E 1 j +.5.9.r.a.a.j.j.s.j.5.) _ @.+.^ n E e.p.9.a.c.5.k.v.b.b.M.M.N.M.b.C.Z.Z.Z.D.F.F.F.F.G.H.H.H.H.H.U.U.U.U.!.!.^.^.^.^.^.^.^.^.}.}.}.}.}. X X X X X.X.XXXXX.X|.}.}.}.|..X.X.X=X$XY.",
"c.H..XXXXXXXXXXX(.!.{..XXX#X#X#XXXXXXXXXXXXXXX.X.X X.X}.}.'.'.'.^.^.^.^.^.^.^.^.Y.U.U.J.J.J.J.J.H.H.F.F.A.A.Z.Z.Z.Z.Z.b.n.j.c.b.M.r.a.k.e.9.U y E { [ ~ ) 5.j.c.x.k.j.j.a.a.l.+.y n [ 9.a.<.U Y <.8.8.8.5.+.' ~ { +.{ ) B j c t B m t B U U U Y U U U I T T T T ) ) ) ) ~ W Y U E W ~ H H ~ W W U G G H Z B G [ =.=.-.+.{ Y ^ -.-.-.=.{ ~ T ) Q U =.8.9.e.e.e.e.e.e.r.r.r.r.p.p.e.r.r.5.=.a.j.j.j.j.k.k.k.k.k.k.k.k.k.k.k.k.k.k.k.k.j.j.j.k.k.j.j.j.j.j.k.k.x.x.x.x.c.c.v.v.c.c.c.c.c.c.v.v.v.v.c.c.v.v.v.v.v.v.c.c.c.v.b.b.b.C.N.M.b.M.M.M.M.M.c.c.v.v.v.v.v.v.b.b.b.b.v.v.v.v.v.z.v.v.v.v.v.v.b.v.v.v.v.c.c.c.v.v.v.v.v.v.v.v.M.v.k.k.k.k.k.k.k.k.k.c.s.s.k.k.j.j.9.+.9.e.9.9.9.9.9.9.9.9.9.9.0.0.e.e.e.+.~ =.,.+.U _ <.5.5.5.@.W @.5.5.5.-.O.~ U H Y E U m A E ~ ~ ~ T T T Y U H G Z U T ~ ~ ^ ~ W Y U E W ~ W U H A G m w q j B H G ^ { { [ _ ) { <.<.<.<.<.+.Y [ 5.=.[ j w W ,.9.r.a.s.j.j.j.k.9.{ _ +.+.) m Y 9.0.5.<.r.r.j.b.b.b.M.M.N.N.b.C.D.D.D.D.F.F.F.F.G.H.H.H.H.H.U.U.U.U.!.!.^.^.^.^.^.^.^.^.}.}.}.}.}. X X X}. X X X X X|.}.}.|..X.X.X.X$X$XH.s.",
"r.x.F.{.XX$X$X$X.X}.}..X.XXX#X#XXXXXXXXXXXXXXX|..X X X}.}.}.}.}.}.}.^.^.^.^.^.^.Y.Y.Y.U.U.U.J.J.H.H.F.F.F.F.Z.Z.Z.Z.C.b.b.t.b.b.v.j.k.j.e.8.U N [ +.) W @.a.c.c.c.x.j.j.r.a.r.Y t H >.e.a.s.>.A W =.8.8.8.<.` Y ~ { [ ) A n m q B B c E ^ ^ ' ' Y Y ~ A U ~ O.@.@.@.@.@.{ [ _ ) _ [ _ Y N ^ [ _ ~ ^ ^ ^ U J G T O.=.-.-.@.^ ~ -.,.<.,.=.[ W [ [ W @.8.r.r.r.r.r.a.a.a.a.a.a.a.a.a.a.a.5.=.r.s.a.a.s.j.j.j.j.j.j.j.j.j.j.j.j.j.j.k.k.j.l.l.j.j.l.d.d.j.j.j.j.j.j.j.j.j.k.j.j.j.j.j.j.j.j.k.k.k.k.k.k.k.k.k.k.k.k.k.k.k.k.k.c.v.k.M.M.v.k.k.x.c.c.k.k.c.c.c.c.c.c.v.v.v.v.c.c.c.c.k.k.k.k.k.k.k.k.k.k.k.k.k.k.k.k.k.j.j.j.j.j.j.j.k.k.j.s.k.k.s.s.s.s.s.k.k.k.s.s.s.a.8.{ 8.r.e.9.r.r.r.r.9.9.9.8.r.a.a.a.9._ @.5.5.{ Y =.9.9.9.5.@.) 5.9.9.<.+.~ G H U Y G c 9 h B U Y G ~ { [ [ [ _ _ _ _ O.@.@.@.+._ B U ^ ^ T W ) ) ) ^ U j y c G Y U W { _ ~ ) ) =.5.4.<.-.=.U _ 9.8.,.{ U 8 B =.8.r.a.s.j.j.j.k.a.-._ { { [ J J <.r.5.,.s.v.j.b.b.b.M.M.N.N.N.Z.Z.Z.D.D.F.F.F.F.G.G.H.H.H.H.U.U.U.U.U.!.^.^.{.{.^.^.^.{.}.}.}.}. X X X X X.X}.{.!.U.}.{. X.X.X.X.X.X}.G.j.5.",
"j.r.s.N.Y.}.$X$X.X$X.X}..X.X.XXXXXXXXXXXXXXXXX|..X X X}.}.}.}.}.}.}.^.^.^.^.^.^.!.Y.Y.U.U.J.J.J.H.H.F.F.F.F.Z.Z.Z.Z.Z.b.n.r.b.b.k.c.v.a.s.>.U E { { ) ^ 5.j.v.j.c.x.j.j.a.j.9.n n ^ <.r.a.s.r.+.N W ;.<.8.q.=.W H ) _ ) U B c s N m R _ { { { { Y ) ` N U O.=.@.-.-.-.-.-.=.=.=.-.<.5.=.N ) _ W Y ~ ^ ~ ~ ^ T H H [ ,.4.-.[ T =.,.4.<.>.+.E _ +.[ { 5.a.a.a.a.a.a.a.f.f.f.f.s.s.j.j.s.5.=.r.s.a.r.a.a.s.j.j.j.j.j.j.j.j.j.j.j.j.k.k.l.l.l.l.j.j.j.j.j.j.j.j.j.j.s.s.s.s.d.j.d.j.j.j.j.j.j.j.j.j.j.j.j.j.j.j.j.j.j.j.k.k.k.j.r.5.8.r.s.s.j.j.j.j.k.k.k.k.k.k.k.k.k.k.x.x.x.k.k.k.k.j.j.j.k.k.k.k.k.k.k.k.k.k.k.k.x.x.x.x.x.x.x.x.k.k.k.k.k.k.s.s.s.s.s.k.k.s.s.a.j.s.9.{ 9.a.a.r.a.a.a.a.a.a.r.r.a.a.a.f.<._ 8.e.<.{ ) <.9.9.9.5.{ ) e.e.5.=.^ G T ) [ [ ^ E A Z G G n w ~ +.@.=.-.-.-.-.,.,.<.-.-.,.@.n U _ _ U ^ +.=.[ [ ~ c y c B U ~ U [ ^ E ) +.-.-.5.<.-.W W <.5.5.<.+._ j h @.5.r.a.s.j.j.j.k.s.<.) [ { { ^ U @.9.e.9.c.b.j.v.M.M.b.M.N.N.C.Z.Z.Z.D.D.F.F.F.F.G.G.H.H.H.H.U.U.U.U.U.!.^.^.{.{.^.^.^.^.}.}.}.}. X X}. X X.X}.^.J.G.{. X.X.X.X.X.X.XN.s.9.e.",
"s.r.r.r.b.H.}..X$X*X*X$X.X.X.X.XXXXXXXXXXXXXXXXX.X.X.X.X.X}.}.}.}.}.}.^.(.^.^.^.{.!.Y.Y.U.J.H.J.H.H.G.F.F.F.D.Z.Z.C.N.C.c.s.N.b.v.v.k.s.a.[ U ) =.[ ~ [ r.c.c.k.c.c.j.s.s.s.<.g Y [ 9.a.a.a.a.9.' V ) <.8.8.<.+.B U { ) W A k n N N ~ { @.@.*.@.W _ +.m H @.-.<.,.,.,.,.<.<.5.5.5.5.9.5.U ^ <.=.-.-.-.-.-.-.-.-.U J @.3.4.+.U @.3.5.5.<.-.) @.<.<.@.-.e.a.a.a.a.a.a.s.s.s.s.j.l.j.j.a.8.-.a.k.j.j.j.k.k.k.k.k.k.k.k.k.k.k.k.k.k.k.k.k.k.k.k.k.k.c.c.c.x.x.k.k.k.x.x.x.x.x.x.x.x.k.k.k.k.k.k.k.k.k.k.k.k.k.k.k.k.k.k.k.k.c.v.j.@.>.s.c.k.k.k.x.x.k.k.k.k.k.k.k.k.c.c.c.c.c.c.c.c.c.c.c.k.k.k.k.k.k.k.k.k.k.k.k.k.x.x.x.x.k.k.k.k.k.k.k.k.k.k.k.k.j.j.j.j.j.s.j.c.j.k.a.=.<.j.s.a.a.a.a.a.a.a.a.a.a.a.j.9.) ,.r.e.5.W { 8.a.a.e.5.) ) 9.r.<.) N W =.<.<.<.>.-.-.-.<.-.c s +.-.>.<.3.3.3.3.,.,.,.,.-.,.=.H H _ ~ Y _ =.-.=.+.~ n j N N B A W ~ G Y +.-.;.<.4.;.T Y 5.5.8.9.5.-.{ U s ^ <.e.a.s.j.j.k.k.j.9._ ) +.+.O.~ _ r.j.s.k.N.c.x.N.N.b.b.N.Z.Z.Z.Z.Z.F.F.F.F.F.F.G.H.H.H.U.U.U.U.U.U.!.!.^.^.{.{.^.^.^.}.}.}.}.}. X X X X X X}.}.}.}.XX X X X.X.XU.k.e.w.8.5.",
"r.t.a.r.t.c.D.!..X$X$X*X$X.X.X.XXXXXXXXXXXXXXXXX.X.X.X.X.X}.}.}.}.}.}.^.^.^.^.^.{.!.Y.Y.U.J.H.J.H.H.G.F.F.F.D.Z.Z.Z.C.C.j.j.N.c.v.v.k.s.8.~ ~ @.=.) ~ =.j.v.k.k.c.c.j.s.a.a.W j ) -.r.r.a.a.a.a.q.T V _ 5.5.5.-.G U [ ) U G x B V N ~ +.@.=.=.@.~ _ O.N B @.-.4.<.<.<.<.5.5.5.8.9.9.e.8.=.W 5.5.3.3.3.3.9.9.9.9.<.J U 4.5.-.^ +.<.5.5.5.,.{ @.8.5.-.{ 5.a.a.a.a.a.a.s.s.s.s.j.j.j.k.j.=.5.s.k.j.j.j.k.k.k.k.k.k.k.k.k.k.k.k.k.k.k.k.k.k.k.k.k.k.c.c.c.x.x.k.k.k.x.x.x.x.x.x.x.x.k.k.k.k.k.k.k.k.k.k.k.k.k.k.k.k.k.k.k.k.k.v.k.<.6.x.v.c.c.c.c.c.c.c.c.c.c.c.c.c.v.v.v.v.v.v.v.v.v.v.v.c.c.k.k.k.c.c.c.c.c.c.c.c.c.c.c.c.x.x.x.x.k.k.k.k.k.k.k.k.x.x.x.x.k.s.s.x.j.k.j.5.=.a.j.k.j.j.j.j.j.j.j.j.s.j.a.@.{ 9.s.r.<.^ @.5.r.a.9.5.~ @.a.8.{ B Q <.8.8.e.9.8.8.8.8.9.8.Z ~ <.5.5.5.5.5.5.5.<.<.<.<.-.4.@.G H _ ~ E [ =.-.=.{ W n n A m m Z W U B W =.>.<.<.<.~ Z =.5.5.8.9.e.<.@.[ x A ,.e.a.s.j.j.k.j.k.r.+._ { +.+._ _ 5.s.a.j.v.b.x.M.N.M.b.N.Z.Z.Z.D.D.D.D.F.F.F.F.G.H.H.H.U.U.U.U.U.U.!.!.^.^.{.{.^.^.{.}.}.}.}.}. X X X X}.}. X X}.}. XXXXX.X(.G.x.w.<.1.8.8.",
"<.8.a.a.t.e.j.N.U..X#X.X$XXX.X.XXXXXXXXXXXXXXXXX.X.X.X.X.X|.}.}.}.}.}.(.^.^.^.^.{.Y.Y.Y.Y.Y.J.J.H.G.G.G.G.F.D.Z.Z.Z.Z.N.s.b.N.c.v.v.k.s.<.H ) =.@.^ ^ 5.v.v.c.c.c.c.j.s.a.9.n Y [ 5.a.a.a.a.a.a.a.-.I G =.5.8.<.W U ) ^ G Z m H B m E @.@.=.2.=.) ~ { G m O.4.4.5.5.5.5.5.5.8.8.9.9.r.8.5.A =.8.9.9.9.9.9.9.9.9.e.=.B [ 5.4.[ ) <.q.8.8.<.=.+.5.9.5.+.-.9.a.a.a.a.a.s.s.s.s.l.l.j.s.8.@.e.k.j.k.j.j.k.k.k.k.k.k.k.k.k.k.c.c.c.c.k.k.k.k.c.c.c.c.c.c.c.c.c.x.x.x.c.c.c.c.c.c.c.c.k.k.k.k.c.c.c.c.c.c.c.c.c.c.c.c.c.c.c.c.c.v.k.8.e.x.c.v.v.v.b.b.v.v.v.v.v.v.v.v.v.v.b.b.b.b.b.b.v.v.v.v.v.c.c.c.v.v.v.v.v.v.v.v.v.v.v.v.c.c.c.c.k.k.k.k.k.k.k.k.c.c.c.c.c.j.s.s.k.k.c.a.<.<.c.k.k.j.j.j.j.j.j.j.s.j.5.) 5.a.a.9.@.) ,.9.e.r.9.<.~ 5.9.=.H U 5.e.9.9.e.e.e.e.e.e.9.q.G -.q.q.8.q.5.5.5.5.<.<.<.<.<.<.@.Z H _ ) ~ +.>.-.@.` Y c A U B c m E U Z ^ -.<.<.<.{ B ' q.5.5.9.9.e.5.=.@.G h +.a.a.s.j.j.j.j.k.k.<.[ ) +.=.+.~ O.a.a.s.c.b.c.c.N.N.b.M.N.Z.Z.D.D.D.D.F.F.F.F.G.H.H.H.U.U.U.Y.!.!.!.!.^.^.{.{.^.^.^.}.}.}.}.}.}. X.X.X.X.X.X.X.X.X XXX{.J.D.j.u.1.1.u.u.2.",
"Y { 5.9.s.t.e.r.N.U.}..XXXXXXX.XXXXXXXXXXXXX|.XX.X.X.X.X.X|.}.}.}.}.}.(.(.^.^.^.{.!.Y.Y.Y.Y.J.J.H.G.G.G.G.F.D.Z.Z.Z.Z.b.r.C.b.c.v.v.k.s.) Z _ <.{ ^ _ 9.M.b.v.v.c.c.j.s.a.>.c _ [ 9.j.r.a.a.a.a.9.9.=.G ~ <.8.<.) W ) W A m G U L n T @.=.=.2.=._ ~ { U k O.4.4.5.5.5.5.5.5.8.9.9.9.r.9.5.A +.r.9.9.9.9.0.0.9.9.9.9._ U -.4.{ ^ <.q.8.9.8.-.[ 4.e.e.5.{ 5.a.a.a.a.a.s.s.s.s.l.l.s.8.{ ,.j.c.j.k.j.k.k.c.k.k.k.k.c.c.c.c.v.v.v.v.v.v.v.v.v.v.v.v.v.v.v.v.c.c.c.c.c.c.v.v.c.c.c.c.c.c.c.c.v.v.v.v.v.v.v.v.v.v.v.v.v.v.v.v.N.b.k.9.r.k.x.b.b.b.b.b.v.v.v.v.v.v.v.v.v.v.b.b.b.b.b.b.v.v.v.v.v.c.c.c.v.v.v.v.v.v.v.v.v.v.v.v.c.c.c.c.k.k.k.k.k.k.k.k.c.c.c.c.c.j.s.s.k.k.v.k.r.=.5.j.k.a.a.a.a.a.a.a.r.e.@.=.a.j.a.q.+._ 5.9.9.e.9.<._ 8.<.) G { 8.9.e.e.9.9.e.e.e.e.r.5.I 5.q.q.q.q.q.q.q.q.5.5.5.5.<.<.@.B H _ _ ^ =.<.>.@.` Y j H E A m x H E U ) ,.<.5.+.G Y <.8.5.5.9.9.9.9.-.@.~ d Y 9.a.s.j.j.a.j.k.c.8.+._ +.-.=.~ E 8.a.a.k.N.b.k.N.N.M.b.N.Z.Z.D.D.D.D.F.F.F.F.G.H.H.H.U.U.U.!.!.!.!.!.^.^.{.{.^.^.^.}.}.}.}.'. X}. X X.X.X.X.XXXXX X.XJ.c.t.w.8.8.1.1.{ E ",
"y K [ <.e.s.s.r.t.x.F.}.*X$XXXXX.X.X.X.X.X.X.X.X#X.X.X|.|.|.|.|.}.}.}.}.^.^.^.^.^.^.^.!.!.!.H.H.J.J.H.G.G.G.F.A.A.Z.Z.s.c.N.b.c.M.c.x.8.G G @.=._ ^ -.k.N.b.b.v.b.k.j.j.e.Y H { @.e.s.e.r.r.r.r.a.a.9.{ H { 5.@.) _ ^ U B n Y ~ U N H @.>.=.<.<.=.^ { ~ n ~ 4.4.5.5.5.5.5.8.9.9.r.r.r.r.8.) @.e.9.9.9.9.9.9.e.e.e.a.<.A W >.=.U -.w.w.e.9.5.+.<.e.r.8.=.@.=.@.{ @.@.*.@.@.@.*.*.+.{ -.r.k.k.k.k.k.k.k.k.c.c.c.c.c.c.c.c.v.v.v.v.b.b.b.b.b.b.b.b.b.b.b.v.b.c.b.b.v.v.b.b.b.b.b.b.b.b.b.b.b.v.b.b.b.b.M.M.M.M.M.M.M.M.M.M.c.N.j.9.w.c.n.c.b.b.n.n.b.b.b.c.n.n.b.b.b.b.b.b.b.b.b.b.b.b.b.v.b.v.v.b.c.c.v.c.b.b.n.n.v.v.v.v.v.v.v.v.c.c.c.c.c.c.c.c.c.c.c.c.c.c.c.c.k.c.k.k.l.9.-.{ =.=.=.=.=.@.@.@.=.-.=.a.s.j.a.5.) @.8.9.e.r.8.+.+.9.-.T T 5.r.9.e.e.e.e.e.e.e.e.e.[ W 9.9.8.8.8.8.8.8.5.5.5.5.5.5.5.{ h E { _ { <.<.=.{ _ Y j Y ~ U Z d B U W ~ -.5.-.Y Y =.9.9.9.9.9.9.9.9.<.+.[ n n ,.e.9.9.f.c.v.b.v.a.-._ { =.-._ U ,.j.r.j.b.b.j.b.C.b.b.N.Z.Z.Z.D.F.F.F.F.F.F.H.H.H.U.U.U.U.U.!.^.^.^.^.^.{.{.}.}.}.}.}.}.}.}..X{.{. X.X.X.X.X.X.X.XG.c.r.r.8.5.5.>.[ V 1 ",
"s y m E -.w.t.t.r.r.j.Z.!.}.XXXX.X.X.X.X.X.X.X^.'.|.|..X|.|.|.|.}.}.}.}.(.^.^.^.^.^.^.!.!.!.H.H.J.J.G.F.H.G.F.A.Z.N.N.s.M.M.b.v.N.c.j.<.m Y =.@.^ _ 5.v.N.M.b.v.M.k.j.j.5.m ^ =.<.r.s.r.r.r.r.r.a.a.e.<.~ W @.+.) [ ^ G m N W ~ U B G @.>.-.<.<.=.) { [ n U 4.9.5.5.5.5.8.8.9.9.r.r.r.r.9.@.) r.e.e.e.e.e.e.e.e.e.a.8.W ~ <.,.W =.e.e.9.9.8.*.=.e.e.9.q.<.8.e.r.a.a.a.a.a.r.r.r.r.a.j.c.c.c.v.v.v.v.v.v.b.v.v.v.b.b.b.b.b.b.b.b.b.b.b.b.b.b.b.b.b.b.b.b.b.b.b.b.b.b.b.b.b.b.b.b.b.b.b.b.b.b.b.b.M.M.M.M.M.M.M.M.M.M.M.M.M.Z.x.r.r.b.b.b.N.N.b.N.N.N.N.b.b.b.b.b.b.b.b.b.b.b.b.b.b.b.b.b.b.v.b.b.b.c.c.c.b.b.n.n.v.v.v.v.v.v.v.v.b.b.b.b.b.b.c.n.c.c.c.v.c.c.c.c.c.c.c.c.c.k.k.k.a.a.a.a.a.a.a.a.9.e.r.k.j.j.e.-.) -.8.9.r.r.8.+.=.9.{ A ` 9.r.9.r.r.r.r.r.r.r.r.r.W [ 8.8.8.8.8.8.8.8.8.8.8.8.8.8.<.~ n ^ { _ =.<.<.=.{ _ A c ~ ~ U Z h n U ~ ) -.,.~ Y -.5.9.9.9.9.9.9.9.9.5.-.,.J d +.8.9.0.k.c.v.b.v.j.5.{ { @.-.O.E { 9.r.r.c.b.x.b.N.N.b.N.Z.Z.Z.D.F.F.F.F.F.F.H.H.H.U.U.U.U.U.!.^.^.^.^.^.{.{.{.{.}.}.}.{.}.}.{.{.{.{.oXoXXXXX.X}.G.j.r.t.e.8.5.,.[ B 8 1 ",
"_ n y x U @.5.e.t.r.r.j.b.G.{.$X$X.X.X.X.X.X.XZ.^..X.X|.|.|.|.|.}.}.}.}.(.^.^.^.^.^.^.!.!.U.H.H.J.J.H.H.H.G.A.A.Z.N.v.j.Z.v.b.b.M.x.e.[ m [ >.^ ~ +.a.M.N.M.b.b.b.v.j.a.@.x _ =.e.l.l.a.r.r.r.r.r.a.e.5.=.Y ^ _ [ +.^ B n A ~ ) ~ Z m _ -.-.<.<.<.[ ) @.K Z -.0.9.9.8.8.9.9.e.e.r.r.r.r.8.8.~ r.r.r.r.r.r.r.r.r.a.a.r.+._ 8.5.^ [ e.r.8.9.9.-.{ 8.9.e.r.r.k.b.b.N.N.N.N.M.M.M.M.M.M.M.b.b.b.M.M.M.M.M.M.N.N.M.M.C.C.C.C.C.C.N.N.N.N.M.N.N.N.N.N.N.N.N.N.N.N.N.N.N.N.N.N.N.N.N.C.N.N.N.N.N.N.N.N.N.N.N.N.N.N.N.N.N.N.N.N.Z.Z.c.s.t.C.Z.N.Z.Z.Z.Z.Z.Z.Z.Z.C.C.C.C.N.N.N.N.N.N.N.N.N.N.N.N.N.N.N.N.C.N.b.b.b.N.b.b.N.N.N.N.N.N.N.N.N.N.b.b.b.b.b.b.v.v.v.v.b.b.b.b.b.b.b.b.b.N.C.N.N.N.N.N.N.M.M.M.k.v.k.j.s.a.5.{ { <.9.a.a.r.5.{ 5.0.{ A <.r.r.a.a.a.a.a.a.a.a.a.e.U <.0.9.9.9.9.9.9.9.9.9.9.9.9.9.-.A G [ _ [ <.<.<.=.{ ' n V ' ^ U A x d U ) { +.E Y =.q.8.9.r.9.9.9.9.e.e.9.5.,.[ d U 4.9.p.k.c.v.b.v.v.r.+.) +.-.=.^ Y <.s.a.c.b.c.c.b.N.N.b.C.Z.Z.D.F.F.F.F.H.H.H.H.H.H.!.!.U.!.^.^.^.^.^.^.{.{.{.{.}. X{.U.Y.}.}. X X{.oXoX.X}.!.Z.j.r.e.e.6.3.#.^ m 0 8 Y ",
"#.+.A s d A [ >.e.s.s.r.t.n.F.^..X$X.X.X}.}..Xc.Y..X.X|.|.|.|.|.}.}.}.}.(.^.^.^.^.^.^.!.U.U.H.H.J.J.H.H.H.F.A.A.Z.N.j.b.M.b.b.b.c.s.5.E W =.=.~ ^ ,.s.M.N.M.b.b.v.v.j.e.G Z [ ,.r.l.j.s.r.r.r.r.r.a.r.8.9.[ G Y { @.^ m c G ~ _ _ K x W -.-.<.<.<.@.) +.E B @.9.9.9.9.9.9.9.e.e.r.r.r.r.<.a.) e.r.r.r.r.a.a.a.a.a.a.a.>.[ 9.8.) W w.s.e.9.9.<._ ,.5.r.j.a.j.s.r.f.f.f.f.f.f.s.s.k.j.k.c.j.j.j.j.j.j.k.k.k.k.k.k.k.k.k.k.b.M.v.b.v.v.c.c.c.c.c.v.v.v.b.b.b.b.b.b.v.v.c.c.v.v.v.v.v.v.b.b.b.b.b.b.b.b.b.v.b.b.b.b.b.b.b.b.b.v.a.e.w.c.c.x.c.c.c.c.c.c.c.c.b.b.b.b.b.b.b.b.b.b.b.b.v.v.b.b.b.b.M.M.b.b.c.c.c.v.n.n.v.v.v.v.b.b.M.M.b.b.b.b.b.b.b.b.v.v.v.v.v.v.b.b.b.b.b.b.k.b.v.k.j.j.j.j.j.j.j.j.s.s.a.s.a.a.8.=.>.5.r.s.a.a.5.{ q.a.*.U q.a.r.a.a.a.a.a.a.a.a.a.q.U q.0.9.9.9.9.9.9.9.9.9.9.9.9.9.=.c Y [ [ { <.<.<.=.{ W k U ' ) Y G x t J [ @.H G { <.5.8.8.8.9.9.9.9.e.e.9.8.5.-.n x =.9.p.k.c.v.v.v.v.j.-.[ O.=.@._ G @.e.s.c.v.v.j.b.C.N.b.N.Z.Z.D.F.F.F.G.H.H.H.H.H.U.!.!.!.^.^.^.^.^.^.^.{.{.{.{.}. X}.H.b.}. X{.}.}. X X^.H.b.r.w.e.e.5.,.@.E B 4 d ~ @.",
"=.@.=.E x f m ^ <.r.s.r.s.s.j.b.^..X$X.X}.}.^.H..X$X.X|.|.|.|.|.|.|.}.^.^.^.^.^.^.^.^.!.Y.U.U.U.J.J.U.H.H.H.A.A.N.N.s.N.b.b.b.b.b.r.[ H @.-.{ ~ _ 9.M.B.N.N.b.b.c.k.k.@.h _ =.8.l.j.j.j.l.s.r.r.r.r.e.9.8.5.U c ^ { U x V U ~ _ O.T n H =.<.>.<.5.>.) @.[ Z ~ 9.0.0.9.e.9.9.e.e.r.a.9.-.-.e.^ -.a.r.r.a.a.a.a.a.j.j.a.9.~ 8.9.[ E e.a.r.e.9.5._ @.-.-.=.@.@.=.=.=.=.-.-.-.-.-.-.=.@.+.{ ) _ { { +.+.+.+.+.{ { { +.O._ _ _ _ _ [ { { { { +.+.+.+.+.+.+.+.+.+.+.+.+.+.+.+.{ { @.{ +.+.+.{ { { { { { { { { { { { { @.@.@.@.=.=.{ <.>.=.@.@.=.=.=.=.=.=.=.=.=.=.=.=.@.@.=.=.=.=.=.=.@.@.#.@.@.@.@.@.@.@.@.@.@.@.=.@.@.@.@.+.+.{ +.+.} } @.@.@.@.=.=.@.@.@.@.@.@.@.@.{ [ [ { { { { [ +.+.+.+.+.{ { { +.{ [ { { +.3.=.<.9.a.j.f.a.*.+.0.a.W W 0.r.r.a.a.a.a.a.j.j.a.l.{ { 9.e.e.e.e.e.9.9.9.9.9.9.9.9.8._ N ) _ _ =.<.<.,.=.+.A N ~ ) ^ W H m 9 c [ ) y ^ <.4.8.8.8.8.9.9.9.e.e.r.r.e.5.,.J w _ 0.p.M.c.v.v.v.v.c.9.+._ =.,.O.U ) 8.s.x.c.n.x.b.C.C.b.N.Z.D.D.F.F.F.G.H.H.H.H.H.H.U.!.!.!.^.^.^.^.^.^.{.{.{.}.}.}. XJ.N. X X{.}.|.}.{.C.x.e.8.e.8.5.-._ K s 8 B #.3.,.",
"aXt.] ,.[ B d h E ,.r.s.j.j.s.j.x.F.}..X.X}.}.^.}.|.}.'.|.|.|.|.|.}.}.^.^.^.^.^.^.^.^.!.U.U.U.U.J.J.U.H.H.H.F.A.Z.N.k.Z.b.b.b.b.v.5.^ U @.=._ ^ @.a.M.N.N.N.b.b.M.v.a.Y j @.-.e.l.j.j.j.l.s.r.r.r.r.e.9.8.9.@.B x H Z h A Y ) { O.^ N m { -.<.<.5.<.{ { { J U 8.0.0.9.e.e.e.e.e.e.e.e.9.9.9.+.{ r.r.r.a.a.a.a.a.s.j.s.r._ 8.9.-.) w.s.s.s.a.8._ U E ~ _ +.@.-.-.4.<.4.4.3.<.<.<.<.5.5.5.5.5.5.5.5.5.5.5.5.5.5.5.9.9.9.8.8.8.9.9.8.8.5.5.5.8.9.9.9.9.e.e.e.e.w.w.9.9.9.9.e.e.e.e.a.a.a.a.a.a.a.a.r.r.r.r.a.a.a.a.a.a.s.s.a.s.w.r.r.r.r.e.e.e.e.e.e.e.e.e.e.e.r.r.e.e.e.e.r.r.r.r.e.e.e.e.e.e.e.e.e.e.e.e.e.e.e.e.e.e.e.e.e.e.e.e.e.e.r.e.e.e.e.e.w.w.e.e.5.5.<.,.-.-.<.<.5.q.<.<.<.<.<.<.<.<.<.<.<.,.-.-.@.~ ^ [ <.9.a.j.j.r.+.=.r.r.T ) r.r.s.s.s.s.s.s.a.s.l.j.E <.e.e.e.e.e.e.e.e.e.e.e.9.9.9.8.W B { _ [ -.<.,.,.*._ N G ` _ ^ ~ U Z t w Y x B @.5.5.8.8.8.8.8.9.9.e.e.r.a.r.3.,.^ d A ,.p.k.c.v.v.v.v.c.e.+._ @.-.+.W U ,.a.j.c.c.n.b.N.C.N.C.D.D.D.F.F.F.G.H.H.H.H.H.H.!.!.!.!.^.^.^.^.^.^.{.{.}.}.}.Y. X}.}. X{.{.}.|.Y.B.s.e.w.r.e.5.=.) B t e T 4.5.a.$X",
"cXcXF.^ 3.@.H h y H -.e.k.k.k.k.s.j.N.}.#X.X.X}.|.}.^.Y.'.|.|.|..X}.}.{.^.^.^.^.^.^.^.^.U.U.U.U.U.J.H.H.H.G.F.A.F.v.N.Z.b.b.n.b.s.,.~ ^ +.O.^ _ 4.k.A.N.N.N.N.b.M.M.8.j A >.<.j.l.j.j.j.j.l.s.r.r.r.e.9.9.8.8.) d c c h G W _ +.O.O.J j ^ -.5.,.5.5.=.[ @.~ B -.0.0.e.e.e.e.e.e.r.9.r.j.s.9.5.) 9.r.a.a.a.a.a.a.j.j.j.a.=.=.8.9.#.3.j.j.j.s.r.+.T _ =.3.5.9.e.p.f.a.a.a.j.j.j.j.k.v.N.C.M.v.c.k.k.k.c.c.v.v.v.v.v.v.m.M.M.M.M.M.M.v.v.k.c.c.v.v.M.M.M.M.N.N.N.N.M.M.M.M.b.b.b.b.M.M.M.M.N.M.N.N.N.N.N.N.N.N.N.N.N.N.N.N.Z.F.N.j.b.Z.Z.C.C.C.Z.Z.Z.C.C.C.b.b.b.b.M.M.b.b.b.b.b.b.M.M.M.M.M.M.b.b.n.n.c.c.b.b.b.b.b.b.M.M.M.M.M.M.b.b.b.b.b.b.b.b.b.b.b.b.b.v.c.c.k.c.v.v.b.b.b.c.k.k.k.k.k.k.k.k.j.j.a.a.e.[ U O.3.9.a.j.j.9.O.4.l.0.U =.l.s.s.s.j.j.j.j.j.s.k.r.Y e.r.e.e.e.e.e.e.e.e.e.e.e.e.9.<.G H +._ { <.<.,.,.+.W n ' *._ ^ ^ W H n 9 j h _ ,.<.8.9.9.9.9.9.9.e.r.r.r.s.a.6.3.-.B t +.j.k.c.v.v.b.v.v.j.,._ +.-.=._ G [ a.j.c.j.b.b.b.Z.Z.Z.D.Z.D.F.F.F.G.G.G.G.H.H.H.U.U.!.!.^.^.^.^.^.^.{.}.}.Y.U.U.{..XXX X|.}.{.U.N.s.e.8.e.e.5.@.E N t k _ 8.e.N.6XcX",
"cXcXcX>X,.@.5.~ h t B [ q.r.k.k.j.s.x.N.^.#X.X.X.X|.'.'.^.'.|.|..X}.}.{.{.^.^.^.^.^.^.^.U.U.U.U.U.J.H.H.H.G.A.A.F.k.A.Z.b.b.b.b.w.[ ^ +.+._ ~ [ 9.v.B.N.N.N.N.b.c.M.<.q @.<.8.k.l.k.j.j.j.l.s.r.r.r.e.9.9.9.9.5.G B j c G W _ +.@.=.~ B Y =.<.-.5.5.=.{ @.O.G _ 0.0.e.r.r.r.r.r.a.a.s.s.j.a.r.) 8.r.s.a.a.a.a.a.j.j.j.s.<._ 5.8.>.=.a.j.f.s.f.-.~ -.e.a.j.j.k.k.k.k.k.k.v.v.v.v.v.b.b.b.b.j.5.>.5.5.5.<.3.4.4.4.3.4.5.9.e.e.e.e.9.9.9.8.8.8.5.5.9.9.9.9.9.9.w.w.9.9.9.9.8.8.8.8.8.8.9.9.9.9.9.9.8.8.6.5.6.5.5.5.5.5.5.5.3.5.,._ <.w.e.8.w.w.w.w.e.e.w.w.e.e.e.e.e.e.e.e.e.e.e.e.w.w.w.w.e.e.e.w.w.8.8.8.8.8.8.8.8.8.9.9.9.9.9.9.8.8.8.8.1.5.5.5.3.3.3.3.<.3.8.w.q.a.b.N.b.b.b.v.b.b.b.v.v.v.v.v.k.k.j.j.j.=.U +.3.9.a.j.j.8.{ 4.l.9.I <.l.j.j.j.j.j.j.j.k.j.k.8.[ r.r.l.r.r.r.r.a.r.r.r.e.e.r.e.=.Z W { _ +.5.<.>.,.{ U B { +.` ) ^ ~ U m d q ~ -.<.;.8.9.9.9.9.9.9.e.r.a.a.s.j.e.6.4.~ 9 E r.k.c.v.b.b.v.M.v.r._ O.-.-.+.T W 5.s.x.s.b.Z.b.N.Z.Z.Z.Z.D.F.F.F.G.G.G.G.H.H.H.U.U.!.!.^.^.^.^.^.^.}.}.{.J.F.{.$X$XXX X$X|.U.M.s.e.r.e.8.<.@.W n q G 5.9.i.G.wXcXcX",
"cXcXcXcXgXF.-.8.*.c e c E >.r.c.c.k.j.c.v.Y.$X$X.X.X|.}.^.^.'.}.|.|.|.}.}.}.}.}.'.'.'.^.Y.Y.Y.Y.U.U.U.U.H.F.A.A.A.v.F.Z.Z.b.b.j.8._ O.-.=.[ ~ { s.N.Z.Z.Z.Z.N.M.k.M.W h <.5.a.c.c.k.j.j.j.j.a.a.a.a.r.9.9.9.8.@.^ H x N U ~ { @.-.-.[ J B +.<.<.5.8.5.) [ +.~ W 9.e.r.a.a.a.a.a.a.s.s.s.a.j.r.+.=.a.a.r.a.a.a.s.j.j.j.j.r.) 5.a.<.=.a.k.j.s.r.<._ +.a.a.k.k.k.k.c.c.c.v.v.b.M.M.v.N.N.N.v.<.W [ >.-.=.#.=.=.=.=.=.=.=.=.#.#.#.#.=.=.@.@.@.@.@.@.@.@.@.@.@.@.@.@.@.@.{ { { @.@.@.#.#.-.#.#.@.@.@.@.@.@.@.=.=.=.=.>.>.=.=.=.=.+._ [ +.+.{ { { { { [ [ { [ +.@.#.=.>.>.>.,.-.=.=.=.=.=.=.=.=.=.=.=.#.@.@.@.+.+.@.@.@.#.#.#.#.#.#.#.=.=.=.@.@.} @.@.@.@.@.@.@.@.=.<.+.^ e.c.N.N.N.b.b.b.v.v.v.c.c.c.c.c.k.j.k.-.~ <.q.e.s.k.s.<.@.r.l.<.Y r.c.k.k.k.k.k.k.k.x.j.k.{ <.r.s.a.a.r.r.r.a.a.r.r.e.e.r.r.{ m [ +.+.@.5.5.-.=._ B W =.-.+.) ) ~ Y A c t ) >.<.<.8.9.9.9.9.9.9.e.r.a.a.j.j.j.9.>.@.j c 5.k.v.v.b.b.b.b.b.x.@.) O.#.+._ J ,.a.v.v.M.A.C.b.A.Z.A.F.F.F.F.G.H.H.H.H.H.H.U.!.!.^.^.^.^.^.^.}.}.|.'.Y.U.|.|..X.X#X$X.XH.v.s.r.r.e.9.<.+.A s l ~ 9.r.v.+XkXcXvXcX",
"cXcXcXcXcXzX,X9.<.-.N e y A { e.x.c.c.c.c.N.Y.*X#X.X.X|.}.^.'.'.|.|.|.|.}.}.}.}.'.'.'.^.Y.Y.Y.Y.U.U.U.U.H.F.A.A.N.N.D.B.b.Z.b.k._ ~ @.4.4.+._ -.v.Z.Z.Z.Z.Z.N.M.M.a.w Y 5.9.k.v.c.k.j.j.j.j.a.a.a.a.r.9.8.9.<.) / H c G Y ' [ [ +.@.+._ A ~ @.-.8.9.8.[ _ +._ U 8.a.a.a.a.a.a.a.s.s.s.s.a.j.a.5._ s.s.s.a.a.a.j.j.j.j.j.a._ 4.r.5.=.r.k.k.j.a.5.{ { e.s.k.k.k.k.c.c.v.b.v.b.M.M.b.N.N.M.e.{ @.w.e.e.w.9.8.8.8.5.5.5.5.5.5.5.5.8.8.8.5.5.5.5.8.8.8.8.8.8.9.9.9.9.w.9.8.8.8.8.8.8.9.9.9.6.8.5.8.8.8.8.8.8.5.5.5.5.5.5.5.5.5.<.5.e.5.,.<.5.5.5.5.5.5.5.5.5.9.w.e.e.e.e.e.9.8.8.8.8.5.5.5.5.8.8.8.8.8.8.8.8.5.5.5.5.5.5.8.8.5.5.8.8.8.8.8.8.8.8.8.8.8.8.8.8.8.5.8.w.s.<.@.c.M.N.N.M.b.b.b.v.v.v.v.v.c.c.c.k.j.-._ 5.0.f.k.v.k.,.-.a.l.*.W l.c.k.k.k.k.k.k.k.x.j.k.~ 8.r.s.a.a.r.r.r.a.a.a.r.r.r.r.9.W Z @.+.+.-.5.5.=.{ ~ G _ -.=.{ ) _ ) ~ G N d U ,.-.>.8.9.9.9.9.9.9.e.r.a.a.s.j.k.r.3.,.A q { k.c.v.b.b.b.b.b.v.5._ +.+.4.4._ ~ r.k.b.M.A.Z.b.Z.A.F.F.F.F.F.G.H.H.H.H.H.H.U.!.!.^.^.^.^.^.^.'.^.^.^.'.'.|..X.X$X$X}.D.c.r.a.a.a.9.-.~ m f M $.6.a.Z.qXcXcXcXxXcX",
"cXcXcXcXcXcXcXgXN.<.5.U t q m Q 5.j.v.v.v.c.N.'.$X$X.X.X|.}.'.'.}.}.|.|.}.}.}.}.'.^.^.^.Y.Y.Y.Y.Y.U.U.U.H.G.F.A.v.F.D.Z.D.N.N.8.N G @.-.<.+.@.a.M.Z.Z.Z.Z.Z.N.M.M.<.5 { 5.r.v.v.v.k.k.k.j.j.s.a.a.a.r.9.9.9.=.^ ) Z m U W ) ) W ~ +.@.@.+.T ~ @.<.9.5._ W +.+.U =.a.a.a.a.a.a.a.s.s.j.j.j.j.j.a.^ e.j.j.a.s.j.j.j.j.j.j.j.=.-.r.e.=.9.j.j.j.a.8.@.[ 8.j.k.k.k.v.c.c.v.v.M.M.M.M.M.N.N.k.,.{ <.e.8.8.w.9.w.w.e.w.w.9.9.9.9.9.w.e.e.e.e.e.e.e.e.e.y.e.r.r.r.r.r.a.t.t.r.r.r.r.r.r.r.r.r.e.e.e.e.e.e.e.r.r.r.r.r.r.t.t.r.a.s.s.a.r.+.<.j.j.a.a.a.a.s.s.s.s.s.a.a.a.r.r.r.y.e.e.e.e.w.w.w.w.e.e.e.r.r.a.a.a.r.r.r.e.w.w.w.w.w.w.w.w.e.e.e.e.e.e.r.r.r.r.r.r.e.e.e.e.r.e.=.8.c.N.N.N.b.b.b.b.b.v.v.v.v.c.v.c.s.=.+.9.f.j.k.v.y.+.3.j.j.) +.k.c.c.k.k.k.k.k.k.c.k.e.~ r.a.a.r.r.r.r.r.a.a.s.a.r.a.e.<.A G @.{ +.,.<.=.+.) ~ _ =.-.+.) W _ [ ^ U N x A -.-.>.5.9.9.9.9.e.e.r.a.a.a.a.j.k.s.5.5._ q Z s.c.c.b.b.b.b.b.N.p.+.@.-.<.=.^ B 5.j.M.M.A.F.N.b.F.F.F.F.F.F.H.H.H.H.H.H.H.U.!.!.^.^.^.^.^.'.^.Y.Y.'.|..X.X.X#X.X^.Z.j.r.r.s.e.5.{ A h w K #.a.s.(.gXcXcXcXcXcXvX",
"cXcXcXcXcXcXcXcXzX!.8.<.) x r z U <.s.c.c.b.b.N.^.$X$X.X.X|.}.'.}.}.|.|.}.}.}.}.'.^.^.^.Y.Y.Y.Y.Y.U.U.H.H.G.F.F.v.F.Z.Z.N.b.N.{ h B _ _ +.[ -.M.Z.Z.Z.Z.Z.Z.N.M.k.^ N <.9.a.v.M.v.k.k.k.j.j.s.a.a.a.r.9.e.8.@.{ ) m Z U W _ ) U H _ =.-.,.-.{ W W +.+.U U _ @.) ~ 9.a.a.a.a.a.a.s.s.j.j.j.s.j.k._ 5.j.s.a.s.j.j.j.j.j.j.j.5.{ a.a.=.9.a.a.a.a.5.-.[ 5.j.k.k.k.v.c.v.b.v.v.M.M.M.M.N.M.e.+.3.a.s.c.v.b.N.N.N.N.N.N.N.N.N.N.N.N.N.Z.Z.Z.C.Z.Z.Z.Z.Z.Z.Z.N.N.N.N.N.Z.Z.C.N.C.C.Z.Z.Z.Z.A.Z.Z.Z.Z.Z.C.C.C.C.Z.Z.Z.Z.Z.Z.Z.Z.Z.N.c.j.+.8.A.A.Z.Z.Z.Z.N.N.N.N.A.Z.N.N.N.N.N.N.N.N.Z.Z.Z.Z.C.C.Z.Z.Z.Z.N.N.Z.Z.Z.Z.Z.Z.Z.N.b.b.b.b.n.n.b.b.b.b.b.b.b.b.b.b.b.b.b.N.b.n.s.e.e.@.s.M.N.N.b.b.b.b.b.v.b.v.b.v.v.v.f.@.@.0.p.s.j.k.5.+.5.j.a.~ <.k.c.c.k.k.k.k.k.k.c.v.5.{ r.a.a.r.r.r.r.r.a.s.s.a.a.a.e.=.A G _ ) ) _ U U Y { =.-.-.=.{ W U ) _ ~ U c m ~ +.<.<.,.9.9.9.9.e.e.r.a.a.a.a.j.j.j.w.8.<.N y 5.x.c.b.b.N.b.b.N.m.9.@.{ ~ E ~ n { a.v.N.F.F.N.v.F.F.F.F.F.F.H.H.H.H.H.U.U.!.^.^.^.^.^.^.^.^.U.H.|.|.|.|..X$X#X^.M.j.s.s.r.r.<.) m 9 t J -.6.s..XkXcXcXcXcXcXvX<X",
"=.U.zXcXcXcXcXcXcXzX$Xt.w.@.C h h A =.s.c.c.b.M.N.U..X#X#X.X.X}.Y.}.}.Y.{.}.}.^.'.'.'.'.^.Y.Y.Y.U.U.U.H.H.H.G.Z.D.Z.Z.Z.N.N.j.S c U Q Y Y Z >.b.Z.N.N.Z.F.N.N.b.8.N ) 9.e.j.M.M.v.v.k.k.k.j.j.s.a.a.r.e.e.5.{ @.E z B G ~ _ +.+._ U J _ =.-.4.4.@.[ { =.{ [ =.{ U 5.a.j.s.s.s.a.j.j.j.j.j.j.j.k.<.+.k.j.j.j.k.k.c.c.c.c.k.e.{ a.j.<.>.5.5.5.5.<.-.) <.s.k.k.v.v.v.M.M.M.M.M.M.M.M.Z.k.>.,.v.j.c.M.M.M.M.M.M.N.N.N.N.N.N.N.N.N.N.N.N.N.N.C.C.C.C.N.N.N.N.N.N.N.N.Z.C.C.C.Z.Z.Z.Z.Z.Z.B.B.Z.N.N.N.N.C.Z.Z.Z.Z.Z.Z.B.B.Z.Z.N.M.a.j.=.9.A.Z.Z.Z.Z.Z.Z.Z.Z.Z.N.N.N.N.N.N.N.N.N.N.Z.Z.Z.Z.Z.Z.Z.Z.Z.Z.Z.Z.Z.Z.Z.Z.Z.Z.C.C.C.b.N.b.b.b.b.b.N.N.b.b.b.b.N.N.N.b.b.b.b.b.b.r.a.3.3.b.N.N.b.b.b.b.b.b.b.b.b.b.c.k.e._ @.4.r.0.9.6.@.@.a.v.a.) 9.M.v.c.v.v.c.c.c.c.c.k.*.8.l.l.l.l.l.l.j.l.a.a.a.s.a.a.8._ W _ _ [ { [ { -.<.<.<.<.=.{ ) ^ [ _ ) ~ H c n _ _ =.<.,.5.9.9.9.9.e.r.a.s.a.j.j.j.j.a.9.5._ w ~ r.v.b.b.D.N.M.N.M.5.~ U _ +.{ G N 5.c.v.F.H.F.C.Z.F.F.Z.F.G.H.H.H.H.H.U.U.U.!.^.!.}.}.!.Y.U.U.'.|.'.}.#X#X#XU.c.s.s.s.r.e.>.R t 4 t E 3.p.B.6XcXcXcXkXcXcXjXC.R ",
"U ^ 5.$XlXcXcXcXzXcXcX<Xx.r.5.R x r x ) r.c.x.x.x.M.G.^.$X$X#X.X}.|.{.U.G.Y.}.Y.'.'.'.'.^.Y.Y.U.U.U.U.H.H.H.F.Z.Z.Z.D.Z.D.D.<.V W { { ^ E E <.r.k.N.Z.Z.F.N.N.c.-.Z -.a.a.k.b.b.v.v.k.k.k.j.j.s.a.a.a.r.e.<.+.{ D z Z U W _ =.-.-.O.~ H J E ~ E W H ) r.e.+.{ { E -.r.a.s.s.s.s.j.j.j.j.j.j.j.k.9._ a.k.j.k.k.k.c.c.c.c.k.r.+.8.j.,.{ 5.e.r.a.a.5.{ @.a.k.k.c.v.c.v.M.M.M.M.M.M.N.b.e.{ j.b.j.M.N.N.N.N.N.N.N.N.N.N.N.N.N.N.N.N.N.N.N.N.C.Z.C.C.N.N.N.N.N.N.N.N.Z.C.C.C.Z.Z.Z.Z.Z.Z.B.B.Z.B.N.N.N.C.Z.Z.Z.Z.Z.Z.B.B.Z.Z.N.N.a.a.=.9.A.Z.Z.Z.Z.Z.Z.Z.Z.Z.N.N.N.N.A.A.Z.Z.Z.Z.Z.Z.Z.Z.Z.Z.Z.Z.Z.Z.Z.Z.Z.Z.Z.Z.Z.Z.C.C.C.b.N.b.b.b.b.b.N.N.N.N.b.b.N.N.N.b.b.b.b.b.b.j.r.a.=.r.Z.N.b.b.b.b.b.b.b.v.b.b.c.k.9.[ =.9.f.a.s.s.@.{ 8.k.8._ j.v.v.c.v.v.c.c.c.c.x.j._ a.l.l.l.l.j.l.l.l.a.a.a.s.s.a.<.E [ @.<.k.@.~ U U W W W W W ~ [ @.-.@.{ ) U c j W _ +.,.<.5.8.9.9.e.e.r.a.s.a.j.j.s.j.s.e.5.>.n m e.k.n.b.M.B.N.b.a.5.[ ~ +.,.-.) h _ c.M.Z.F.G.A.Z.F.F.Z.F.F.G.H.H.H.H.H.U.U.U.^.^.^.U.H.U.U.Y.'.}.}.|.#XY.A.c.j.j.j.s.8.=.S y 9 z #.6.x.XXlXcXcXcXvXcXcXyXw.N r ",
"c Z ) =.D.yXcXcXcXcXcXcXyXZ.j.w.] z 9 u W 5.t.s.s.j.v.A.^..X.X.X.X|.^.U.N.F.Y.}.'.'.'.'.^.Y.Y.U.Y.Y.U.U.H.G.Z.D.A.A.D.D.D.b.W S -.5.*.) Q =.c.k.8.k.A.G.A.Z.N.s.) W 8.9.l.v.b.v.v.v.k.k.k.j.j.s.s.a.a.r.e.<.+.) m x Z Y ' { -.,.4.4.3.@.Y U Y ^ _ @.5.8.5.+.@.@.) ) e.j.j.s.j.j.j.j.j.j.j.j.k.k.s._ 5.c.j.k.k.k.c.c.c.c.k.s.*.+.r.5.{ r.c.k.j.k.9.-.[ e.k.k.c.v.b.M.M.b.v.b.b.b.c.x.@.5.N.a.N.N.N.N.N.N.N.N.N.N.N.N.N.N.N.N.N.N.N.N.N.N.Z.Z.Z.C.N.N.B.B.Z.Z.C.C.Z.C.Z.Z.Z.Z.Z.Z.Z.Z.Z.Z.Z.Z.N.N.N.Z.Z.Z.Z.Z.Z.Z.A.A.Z.Z.Z.N.a.r.=.9.A.Z.A.A.Z.Z.Z.Z.Z.Z.N.N.Z.Z.A.A.A.A.Z.Z.Z.Z.Z.Z.Z.Z.Z.Z.Z.Z.A.A.Z.Z.Z.Z.Z.Z.Z.Z.Z.C.N.N.b.N.b.b.N.N.N.N.N.N.N.N.N.N.b.b.b.b.M.v.a.s.e.5.c.Z.Z.Z.Z.Z.b.b.v.v.N.b.c.k.4.[ 3.p.j.j.x.x.@.=.<.r.+.=.v.v.v.v.v.v.c.c.c.c.c.9.` k.j.j.j.s.j.j.l.l.j.j.j.j.a.9.@.Y @.@.@.r.5.@.{ { _ _ _ _ @.=.,.<.,.=.{ [ E m h Z ) { >.5.5.8.9.9.e.r.a.a.s.s.j.j.j.j.j.a.5.9.Y s e.c.N.C.Z.Z.c.s.r.a.,._ +.5.<.-.c B a.M.N.F.H.F.Z.F.F.Z.Z.F.G.H.H.H.H.H.U.U.U.!.Y.J.F.F.U.Y.}.|.}.}.'.Y.N.s.r.s.a.r.<.) Z q q G 3.x.N.6XzXcXcXcXxXcXkX;X<.S h t ",
"Y N c A { s.&XcXcXcXcXcXcXjX{.t.r.@.C r q S >.r.s.d.k.v.N.U.}.}..X|.}.Y.U.A.F.Y.'.'.'.'.^.Y.Y.U.Y.Y.U.U.H.F.Z.D.A.A.D.D.D.j.m Y 5.5.{ { Q 5.A.Z.k.a.k.Z.Z.Z.N.e.G =.r.9.k.c.v.c.v.v.k.k.k.j.j.s.s.a.a.r.e.<.@.^ z z G W ` *.-.>.3.3.5.5.5.5.9.r.r.a.r.e.-.) { +._ E 9.j.j.s.j.j.j.j.j.j.k.k.k.k.s.@.-.c.k.k.k.k.c.c.c.c.c.j.=.) 9.5._ 8.k.k.k.j.r.3.@.9.k.k.c.v.v.k.s.r.r.r.r.r.e.>.@.N.s.s.N.M.N.N.N.N.N.N.N.N.N.N.N.N.N.N.N.N.N.N.N.N.Z.Z.Z.C.N.N.N.B.Z.Z.C.C.Z.C.Z.Z.Z.Z.Z.Z.Z.Z.Z.Z.Z.C.N.N.N.Z.Z.Z.Z.Z.Z.Z.Z.Z.Z.Z.Z.Z.s.e.=.9.A.A.Z.A.Z.Z.Z.Z.Z.Z.N.N.Z.Z.A.A.A.A.Z.Z.Z.Z.Z.Z.Z.Z.Z.Z.Z.Z.Z.A.Z.Z.Z.Z.Z.Z.Z.Z.Z.C.N.N.b.b.b.b.N.N.N.N.N.N.N.N.N.N.b.b.b.b.N.b.j.r.x.5.<.e.0.0.9.9.j.k.b.v.N.b.k.k.-.[ 5.s.v.k.j.s.@.<.q.e.~ 5.v.M.v.v.v.v.c.c.c.c.c.,.<.j.j.j.j.s.j.j.l.l.j.j.j.j.j.8.W ~ ,.-.=.5.a.j.a.9.9.9.9.9.5.5.5.,.>.=.+.{ W G x c ~ [ =.<.5.8.9.9.e.r.a.a.s.s.j.j.j.j.j.s.5.5._ B r.b.D.G.Z.b.j.j.b.Z.9.) @.<.5.<.B y =.v.C.Z.F.G.Z.F.F.A.Z.F.G.G.H.H.H.H.H.U.U.U.J.D.F.J.G.^..X.X|.}.H.N.k.a.a.r.5.,.Q N w d ^ a.v.D.uXcXcXcXcXcXcXeXj.R S N v v ",
"<.[ Z h D { w.J.cXcXcXvXcXcXzXwXb.t.2.R y 9 m +.p.f.a.a.c.N.F.J.}..X|.^.'.U.F.F.U.^.{.{.^.!.U.U.U.H.H.H.G.Z.H.G.D.D.D.D.D.5.h U <.-.[ Q { a.A.F.F.N.k.s.Z.N.x.@.Y r.e.l.v.v.c.c.b.c.c.x.k.j.s.s.a.a.a.r.8.-.=.U z m U ~ +.-.<.<.5.5.5.8.5.8.9.e.r.a.r.9.-._ [ =.+.U <.j.j.j.j.k.j.j.j.j.k.k.k.k.k.9.+.k.c.k.k.k.c.c.c.c.c.j.9._ <.8.@.<.j.k.k.s.j.w.#.,.k.c.k.j.s.<.,.,.3.5.5.5.8.8.c.v.9.c.Z.Z.C.C.C.Z.C.C.C.N.N.N.N.N.N.N.N.N.N.N.N.N.Z.Z.Z.Z.Z.Z.Z.Z.C.C.Z.Z.Z.Z.Z.Z.Z.Z.Z.Z.Z.Z.Z.Z.Z.Z.Z.C.N.Z.Z.Z.A.Z.Z.Z.Z.Z.Z.Z.A.A.l.e.@.s.F.A.Z.Z.Z.Z.Z.Z.Z.Z.Z.Z.Z.A.F.D.D.A.F.A.A.A.Z.Z.Z.Z.Z.Z.Z.Z.Z.Z.Z.Z.Z.Z.Z.Z.Z.Z.Z.C.C.N.N.N.N.N.N.N.N.N.N.N.N.N.N.N.N.b.b.b.N.N.b.j.j.s.w.5.<.<.>.>.>.,.s.v.M.v.k.r.{ =.y.v.k.k.b.y.{ 3.j.9.^ r.b.b.v.v.b.b.v.v.v.v.c.[ 9.v.j.j.j.k.l.l.l.l.s.s.s.s.a.8.H +.8.<.,.[ r.r.e.9.8.5.8.w.5.5.<.<.<.-.@.{ ) U N h U _ @.<.5.8.9.e.e.r.a.a.s.j.j.j.j.j.k.k.r.<.<.+.5.b.N.Z.j.k.v.Z.N.Z.s.{ { -.5.5.U 1 ) a.Z.F.D.F.F.D.F.Z.Z.F.G.G.H.H.H.H.U.U.U.H.F.J.F.N.{..X.X}.}.H.b.j.s.e.w.8.{ R y t v { c.D. XsXcXcXcXcXzXcX:X] N N Z A V c ",
"5.<.@.E x c ^ <.N.uXcXcXcXcXcXzXjX{.x.w.^ u 6 c _ 9.f.a.s.c.M.F.Y.|.#X#X|.^.U.F.F.U.^.{.^.^.U.U.U.H.H.H.D.D.F.F.D.D.D.D.b.@.m m ^ *.[ H =.k.F.G.G.D.Z.M.s.M.8.J -.s.8.c.v.v.c.c.v.c.c.k.k.j.s.s.a.a.a.r.5.@.+.A x Z Y ' +.-.<.5.5.8.8.8.9.9.9.9.e.e.9.8._ Y <.a.5.W @.r.j.j.k.k.j.j.k.k.k.k.k.k.c.a.{ a.c.k.k.k.c.c.c.c.v.k.e._ -.9.-.@.s.k.k.j.j.y.,.-.s.x.k.k.<.8.x.b.b.M.M.M.Z.C.b.r.j.b.C.N.N.C.Z.Z.C.C.C.C.Z.Z.Z.Z.C.C.Z.C.Z.Z.Z.Z.Z.Z.Z.Z.Z.Z.Z.Z.C.C.Z.Z.Z.Z.Z.Z.Z.Z.Z.Z.Z.Z.Z.Z.D.D.Z.Z.Z.A.F.F.A.Z.Z.Z.Z.Z.Z.Z.A.F.j.r.@.s.F.A.Z.Z.Z.Z.Z.Z.Z.Z.Z.Z.Z.Z.F.F.D.A.F.A.A.A.Z.Z.Z.Z.Z.Z.Z.Z.Z.Z.Z.Z.Z.Z.Z.Z.Z.Z.Z.C.C.C.C.C.C.C.C.C.C.C.C.C.Z.N.N.N.N.N.b.b.b.N.N.b.s.j.b.c.v.v.c.x.j.s.@.r.M.M.k.e.} ,.a.c.c.c.v.w.[ 5.c.5.+.k.b.b.v.v.b.b.v.v.v.v.a.{ a.k.j.j.j.k.l.l.l.l.s.s.s.s.j.=.Y ,.5.5.<.R 5.9.r.s.w.e.w.9.8.5.5.<.<.-.@.{ _ E A j Z { { ,.5.8.9.r.e.r.a.a.s.j.j.j.j.j.k.k.a.5.e.9.{ <.j.a.j.b.A.H.F.H.N.>.^ @.5.<.B < U 9.N.A.Z.D.F.D.D.Z.Z.F.G.G.H.H.H.H.U.U.H.F.F.J.D.H.}.XX}.H.b.x.j.s.e.9.,.) N y y G >.j.F.>XzXcXcXcXcXcXkX!.S c N S U S Z N ",
"<.1.<.=.{ c y S >.j.0XcXcXvXxXcXcXcX>Xb.j.) d 5 j ' 4.9.f.j.c.N.F.U.}.#X.X}.].Y.G.G.U.^.^.^.!.U.U.H.H.H.N.F.G.F.D.D.D.D.x.^ [ J x G A A 8.N.H.F.H.F.A.Z.v.s.[ U j.a.e.b.c.c.c.c.v.c.c.k.k.j.s.s.a.a.a.r.<.{ ) m x G E _ *.;.5.5.8.8.8.8.5.5.<.=.=.[ { <.-.W 8.j.a.) ~ r.j.k.k.k.j.j.k.k.k.k.k.k.k.k.+.9.c.c.c.c.c.v.c.v.v.v.j.+.,.r.5.{ a.k.k.j.x.d.3.+.e.v.b.c.s.b.b.b.b.M.M.M.b.c.j.k.N.C.N.b.N.Z.Z.Z.C.C.C.C.Z.Z.Z.Z.Z.Z.Z.Z.Z.Z.Z.Z.Z.Z.Z.Z.Z.Z.Z.Z.Z.Z.Z.Z.Z.D.Z.Z.Z.Z.D.D.Z.Z.Z.Z.D.Z.Z.Z.Z.F.F.F.A.A.F.F.A.D.D.A.F.F.j.r.@.s.F.A.A.A.A.A.Z.Z.Z.Z.Z.Z.D.Z.F.D.D.D.F.F.F.F.F.A.F.F.F.F.F.F.D.D.D.D.Z.Z.Z.Z.Z.Z.Z.Z.Z.Z.Z.Z.Z.Z.Z.Z.Z.Z.Z.Z.Z.Z.Z.N.N.N.N.N.N.b.N.b.x.j.x.c.v.v.c.x.v.s.5.e.b.M.j.5.{ 6.j.c.b.b.c.<.{ r.b.#.<.b.b.b.v.v.c.c.v.v.v.v.5.=.k.j.k.k.k.k.j.j.j.j.j.j.j.j.s.) _ 8.8.5.=.@.-.^ E [ [ =.8.e.8.8.5.5.<.>.=.+.[ ~ U x c { { -.5.9.e.r.r.a.a.a.j.j.j.j.j.j.k.k.j.e.j.r.Y c >.j.N.A.H.U.F.F.A.w.W _ +.~ s m E -.c.A.Z.F.F.F.D.D.D.F.H.H.H.H.H.U.U.H.F.F.J.H.{.{..X^.Z.k.j.j.s.r.5.@.R h 9 h E 5.j.H.0XcXcXcXcXcXcXgXx.c g n U U U N W e.",
"e.5.<.<.=.{ H d x / 5. XkXcXvXcXcXcXcXwXn.x.-.v e s I @.0.f.j.k.M.A.H.U.|..X|.}.U.G.G.U.^.^.!.U.U.H.G.H.b.J.F.Z.D.D.D.D.3.~ -.,.~ t 4 Y s.Z.F.G.H.F.F.Z.F.j.G c 5.>.l.b.v.c.c.c.v.c.c.k.k.j.s.s.s.a.a.r.-._ ~ x m H W _ *.;.5.5.8.8.8.8.<.[ ^ { [ ) ~ ~ =.W <.j.a.+.W r.k.k.j.k.j.j.k.k.k.k.k.k.M.v.<.,.c.c.c.c.c.v.c.v.v.M.v.<.5.a.8.{ r.j.k.c.j.j.5.+.6.k.v.v.N.Z.c.c.j.j.j.j.j.c.k.b.Z.C.C.Z.Z.Z.Z.Z.C.C.C.C.Z.Z.Z.Z.Z.Z.Z.Z.Z.Z.Z.Z.Z.Z.Z.Z.Z.Z.C.C.Z.Z.Z.Z.D.D.Z.Z.Z.Z.Z.Z.Z.Z.Z.Z.D.Z.Z.Z.Z.F.F.F.F.A.F.F.A.A.D.A.F.G.j.r.@.s.F.A.A.A.A.A.Z.Z.Z.Z.Z.Z.D.Z.F.D.F.D.F.F.F.F.F.F.F.F.F.F.F.F.D.D.D.D.Z.Z.Z.Z.Z.Z.Z.Z.Z.Z.Z.Z.Z.Z.Z.Z.Z.Z.Z.Z.Z.Z.Z.C.C.N.N.N.N.b.b.N.b.b.x.j.j.s.s.s.s.x.M.s.v.M.j.<.#.w.x.x.v.b.k.>.@.j.b.) 9.b.b.b.v.v.c.c.v.v.v.v.=.5.k.k.k.k.k.k.j.j.j.j.j.j.j.j.r.~ =.9.8.9.) { =.=.-.<.@._ [ 5.8.8.8.5.<.,.=.+._ ^ Y n d U ~ ) 5.9.9.r.r.a.a.s.j.j.j.j.k.k.k.k.k.a.a.>.n y <.b.A.A.F.F.U.F.F.b.^ V B Y +.@.~ [ a.N.Z.D.F.F.D.Z.Z.F.H.H.H.H.H.U.H.F.F.J.J.^. X.XU.N.j.j.s.s.w.=.) S u 4 x { e.j.^.yXcXcXcXcXzXhX.X] d j n I U I A ` l.G.",
"Y.c.8.<.-.=.@./ x s J @.j.uXcXvXcXcXcXcXsXN.b.e.V e e m O.9.l.j.k.v.M.N.U.'.}.^.(.!.H.H.H.H.U.U.H.H.G.F.G.G.F.D.D.M.B.c.@.+.+.=.-.[ A W w.N.H.G.H.G.A.N.Z.w.c G =.>.c.b.c.c.c.v.b.c.c.x.k.j.s.s.j.a.r.5.` ' B x Z U ^ { -.<.5.5.5.8.9.5.[ { +.-.<.5.5.5.=.~ @.j.k.>.U -.c.j.j.k.k.k.c.c.c.c.v.v.b.b.e.{ c.k.v.v.k.v.M.v.v.v.M.5.,.r.r.+.,.k.c.j.x.x.a.@.,.k.M.v.N.b.j.k.c.v.v.v.c.b.N.b.C.C.Z.Z.Z.Z.Z.Z.C.C.A.Z.Z.Z.Z.Z.D.D.Z.Z.Z.Z.Z.Z.A.Z.Z.Z.Z.Z.C.C.Z.Z.D.F.D.D.D.D.D.Z.Z.Z.D.D.D.D.D.D.D.D.F.F.F.F.F.F.F.F.F.F.F.F.F.H.j.r.@.s.F.F.F.F.F.A.D.Z.Z.Z.Z.Z.D.F.F.F.F.F.F.F.F.F.F.F.F.F.F.F.A.A.D.D.D.D.D.D.D.D.A.A.A.A.Z.Z.A.A.Z.Z.D.D.D.D.D.D.Z.Z.Z.Z.Z.Z.C.C.N.C.C.C.N.N.b.c.M.b.v.c.v.b.M.N.e.k.a.=.>.y.d.x.v.v.s.} 5.b.a.[ j.b.b.v.b.b.v.c.v.b.N.x.[ a.k.k.k.k.k.k.k.k.k.j.j.j.x.c.5.Y 5.r.5.-.^ -.<.<.,.>.>.5.,.{ <.8.5.5.5.<.-.+.{ ) W Z j n U E >.8.8.r.r.a.a.a.j.j.j.j.k.k.k.k.j.k.=.H U Z 5.Z.Z.F.H.U.Y.U.F.e.G m ) -.-.@.[ ^ 5.N.H.G.N.G.H.Z.F.F.G.G.H.H.H.F.Z.Z.F.H.}..X}.H.b.c.l.a.r.<.=.W m 9 8 N *.e.c..XlXzXcXcXcXcX>X>.c s c Z T W A I =.v.G.G.",
",X$XH.M.e.5.,.-.[ G s x ) 8.*XcXcXcXcXcXcXzXZ.j.a.^ h e s T 4.p.j.j.k.x.c.D.Y. X}.^.!.H.G.G.H.H.J.H.G.F.G.H.F.D.F.B.D.d.@.@.@.=.@.=.<.5.[ 3.N.F.U.H.A.N.N.{ J N.Z.e.b.b.c.c.v.v.b.c.c.x.k.j.s.s.s.a.r.<.' U c n A E ) +.-.<.5.5.5.5.<.=.{ =.<.8.r.r.r.r.5.+.{ a.b.9.U [ k.k.j.k.k.k.c.c.c.c.v.v.v.M.v._ k.v.v.k.k.v.v.v.b.v.M.r.=.e.a.<.{ k.b.x.x.c.d.#.-.s.b.c.c.b.c.b.M.N.N.N.C.N.C.C.C.C.Z.Z.Z.Z.Z.Z.C.C.A.A.Z.Z.Z.Z.D.D.Z.Z.A.A.A.A.A.Z.Z.Z.Z.Z.Z.Z.Z.F.F.F.F.D.D.D.F.D.D.Z.D.D.D.D.D.D.D.D.F.F.F.F.F.F.F.F.F.F.F.F.F.H.j.r.@.j.F.F.F.F.F.F.D.D.D.D.Z.Z.D.F.F.F.F.F.F.F.F.F.F.F.F.F.F.A.A.A.D.D.D.D.D.D.D.D.A.A.A.A.A.Z.A.A.Z.Z.Z.Z.A.D.D.Z.Z.Z.Z.Z.Z.Z.Z.Z.N.C.C.C.C.C.N.N.N.N.N.M.b.M.N.N.j.k.9.+.>.a.x.x.v.v.a.} w.v.8.@.k.b.b.v.c.c.k.k.v.M.N.j.+.j.c.k.k.k.k.k.k.k.k.k.k.j.x.x.+.^ 9.a.5.[ { 8.3.<.<.>.,.3.<.@.{ <.8.8.8.5.>.@.{ _ W G n c Y E +.<.9.e.r.r.a.a.j.j.j.j.k.k.k.k.k.c.<.U <.=.@.v.Z.F.U.H.H.F.<.[ 5._ _ -.-.@.{ _ >.k.D.Z.C.G.H.F.F.F.G.G.H.G.A.Z.F.H.U.^..X}.H.b.s.r.e.e.<.[ U x 3 t S >.e.Z.wXcXcXcXcXcXzX;X} h h N Y Y T Z Q 9.A.].].|.",
"D.;X7X$X].M.e.3.+.+.W h y Z =.F.jXcXcXcXcXcXcXXXc.c.@.x 8 d Y =.9.p.j.j.s.c.D.{.}.{.!.H.G.G.G.G.U.U.H.H.G.H.G.D.D.D.B.6.@.@.=.=.+._ @.Z.Z.-.+.s.Z.F.F.Z.M.) [ M.N.s.b.N.n.b.n.b.v.c.c.x.k.j.s.s.a.r.9.*._ G h B H W [ =.<.<.5.8.8.<.=.@.<.8.e.a.s.j.s.a.a.5._ e.k.j.) W s.k.k.k.c.c.v.v.v.v.v.v.M.v.M.=.9.v.v.k.M.v.c.v.b.v.N.v.=.9.k.e.) j.b.c.c.v.x.3.+.y.c.k.c.C.N.N.N.N.N.N.Z.C.C.C.Z.Z.Z.Z.Z.Z.A.A.A.A.A.A.Z.Z.Z.Z.D.D.F.F.F.F.F.F.F.F.F.F.D.F.D.D.D.F.F.F.F.F.F.F.F.F.F.D.F.F.F.F.F.F.F.F.F.F.F.F.F.F.F.G.F.F.F.F.F.U.l.r.=.j.F.F.F.F.F.F.F.F.F.F.Z.Z.F.F.F.F.F.F.F.F.F.F.F.F.F.F.F.F.F.F.F.F.F.F.F.F.F.D.A.A.A.A.A.A.A.A.A.A.A.A.A.D.D.D.Z.Z.Z.Z.D.D.Z.Z.Z.Z.C.C.N.C.C.C.N.N.N.M.b.M.N.N.b.j.5.[ 1.d.x.k.v.c.w.@.s.c.-.5.b.b.b.b.k.k.j.l.c.N.M.e.=.c.v.c.c.c.c.c.k.k.k.k.x.c.k.j.~ { a.e.<.W 5.r.9.8.5.5.5.5.5.<.-.^ <.e.8.5.<.=.+.[ ~ U B x U W ^ ,.e.9.r.r.a.a.j.j.j.j.k.k.k.k.k.v.a.5.<.a.{ e.s.s.F.U.a.@.e.N.r.<.{ -.-.=.+.{ { r.D.F.Z.F.F.F.F.G.H.H.F.A.Z.A.H.U.^.}.^.G.c.a.r.r.9.<.) A d 9 y ^ 5.l.{.gXcXcXcXcXcXcX|.^ d j m U U I Z { c.H.'.^.'.*X",
"d w.>XqX7X$XH.k.5.<.{ ) V e t U r.wXcXcXcXcXcXcXyXF.j.w.G t s B _ <.e.s.s.s.x.V.U.{.^.U.H.H.G.G.!.U.H.H.G.J.G.D.N.B.M.,.#.-.,.=.+._ 8.A.U.F.9.[ w.N.F.H.s.U 3.b.b.M.N.b.b.b.n.n.c.c.c.x.k.j.s.s.r.r.9.{ { G c A U ^ { -.<.5.8.9.5.-.=.,.9.e.a.a.a.a.a.a.a.9._ <.k.k.=.Y a.k.c.k.c.c.v.v.v.v.v.v.v.v.b.8.<.v.M.v.M.v.k.v.b.b.N.b.<.9.k.r.[ a.c.b.b.v.x.5.[ w.k.k.b.Z.N.M.b.M.b.M.C.C.C.C.Z.Z.A.Z.Z.Z.A.A.A.A.A.A.Z.Z.D.D.D.D.F.F.F.F.F.F.F.F.F.F.F.F.F.F.F.F.F.F.F.F.F.F.F.F.F.F.F.F.F.F.F.F.F.D.Z.N.N.N.A.F.F.G.G.F.F.F.F.U.l.r.=.j.F.F.F.F.F.F.G.G.G.G.Z.Z.F.F.F.F.F.F.F.F.F.F.F.F.F.F.F.F.F.F.F.F.F.F.F.F.F.D.D.A.A.A.A.A.A.A.A.D.A.A.A.A.A.A.Z.Z.Z.Z.D.D.Z.Z.Z.Z.C.C.C.C.C.N.N.N.M.v.c.b.M.M.v.a.<.{ 5.j.x.k.c.c.5.@.c.k.{ e.b.b.b.b.c.k.k.j.k.b.x.<.,.b.b.v.c.c.c.c.c.c.c.c.c.c.j.s.W ,.r.e.{ Y a.e.a.a.r.e.8.8.8.w.3.#.[ <.9.5.<.-.+.[ ^ Y A c A ) ^ @.5.9.r.r.a.a.j.j.j.j.k.k.k.k.j.k.c.a.@.a.+.,.a.j.c.,.@.A.H.N.a.r.+.=.=.=.@.+._ 5.b.F.A.F.F.F.F.G.G.G.G.F.H.H.H.U.^.^.F.c.r.e.8.8.-.) Z s t N { w.x.;XcXcXcXcXzXcXjXb.A y x N B A N G <.M.^..X}.#X'.<.",
", 4 E Y.5X7X5X'.C.9.-.{ ) ~ c w s [ }.cXcXcXcXcXcXlXoXx.e.) j q c _ 8.w.t.j.s.s.N.H.^.^.U.H.H.G.H.Y.Y.H.Y.H.G.D.B.N.e.@.#.-.-.@.{ [ j.F.U.U.U.M.@.=.v.H.e.) e.M.j.M.Z.M.M.b.v.c.c.k.k.k.j.j.s.a.r.9.-.{ { n n A E _ +.-.<.5.8.5.-.-.<.5.9.e.e.r.a.a.a.j.k.r.-._ k.v.5.U 5.v.c.c.c.c.v.v.v.v.v.v.v.M.C.s.>.b.b.b.b.b.v.v.M.M.N.N.e.>.v.b.@.5.v.b.N.b.c.8.+.-.j.j.Z.A.Z.v.N.N.N.Z.Z.Z.Z.Z.Z.Z.Z.Z.Z.Z.Z.Z.Z.Z.Z.Z.D.D.D.D.F.F.F.F.G.G.G.G.G.G.F.F.F.F.F.F.F.F.F.F.F.F.F.F.F.F.F.F.G.G.G.G.G.F.F.D.N.b.n.c.F.F.F.G.G.G.F.F.F.U.j.r.-.j.G.F.F.F.F.F.F.F.G.G.b.N.F.D.Z.G.F.F.G.G.F.F.F.F.F.F.F.F.F.F.F.F.F.F.F.F.F.F.D.D.D.D.D.D.F.F.F.F.F.F.A.A.A.A.Z.Z.Z.Z.Z.Z.Z.Z.D.D.Z.Z.C.N.N.C.C.N.b.c.c.b.b.b.v.e.{ >.s.x.x.x.v.j.,.5.M.a.{ x.b.b.b.b.b.b.v.b.v.M.k.=.w.v.b.v.v.v.v.c.c.c.c.c.v.k.v.9.^ 9.a.9._ +.a.s.s.a.a.r.r.r.r.r.9.5.=.{ 5.8.5.,.@.{ ) W G B B ^ ~ ^ 5.e.9.r.a.a.j.j.j.j.k.k.k.k.k.k.c.c.=.9.9.>.F.k.E 5.H.H.H.H.b.a.5.{ =.-.-.=.{ >.c.Z.F.F.F.G.G.G.G.F.Z.F.H.^.}.^.H.N.j.r.w.5.<.{ Y x t x E -.y.F.uXcXcXcXcXcXzX>X=.z t x Z D m n Q 8.H.#X.X$X$Xb.J 4 ",
"t > = d a.*XqX0X=XU.k.8.{ { _ A t t Z r.wXcXcXzXzXzXcX;Xb.r.>.A n c H { q.s.j.j.j.b.G.J.Y.U.U.H.H.U.U.H.Y.U.G.D.B.x.5.@.-.-.=.O.) <.N.G.H.U.'.].Z.>.^ j.e.=.3.x.v.N.Z.M.M.b.v.c.c.k.k.k.j.j.s.a.a.8.-.=._ n N G E [ @.>.5.8.8.5.@.,.8.9.e.r.r.r.a.a.a.j.j.a.<.~ r.k.9.~ -.k.c.v.c.c.v.v.v.v.v.v.M.M.N.c.<.b.b.N.b.b.M.M.M.M.N.N.k.=.k.N.5.=.v.v.N.M.v.e.=.=.a.j.N.A.Z.b.N.N.Z.Z.Z.Z.Z.Z.Z.Z.Z.Z.Z.Z.Z.Z.Z.Z.Z.Z.D.D.F.F.F.F.F.F.G.G.G.G.G.G.F.F.F.F.F.F.F.F.F.F.F.F.F.F.F.F.F.F.G.G.G.G.G.F.G.G.F.N.n.c.F.F.G.G.G.G.F.F.F.U.j.r.-.j.F.F.F.F.F.F.F.F.G.G.v.v.N.b.N.H.G.G.F.F.G.G.F.F.F.F.F.F.F.F.F.F.F.F.F.F.F.F.D.F.F.F.D.D.F.F.F.F.F.F.A.A.A.A.Z.Z.Z.Z.Z.Z.D.D.D.D.D.Z.Z.C.C.C.C.Z.N.b.c.b.b.c.k.0.{ <.s.c.c.c.b.s.,.w.N.5.@.b.b.b.b.b.b.b.b.b.v.M.c.=.s.v.v.v.v.v.v.v.c.c.n.c.b.k.k.<._ 9.a.5.~ <.k.j.a.a.a.r.r.r.r.r.e.9.<.+.<.8.5.<.=.+._ ^ U A N Y W ~ <.9.9.e.a.a.j.j.j.j.k.k.k.k.k.k.c.c.5.5.k.{ s.E 5.U.H.H.H.H.F.c.9.{ @.-.-.=.[ @.t.D.F.F.F.G.G.G.F.F.H.H.^.}.^.U.C.j.e.8.<.=.[ Z d y n _ 3.a.}.cXcXcXcXcXcXsXD.S t d n n B D ~ -.c.F.'.$X;X.X5.t * * ",
"/ d , : 4 [ S.5X5X-X.XF.e.=.+.{ U d 9 u 1.,XzXcXcXzXcXcXyXb.x.r.) N q j E >.e.j.s.j.b.A.U.Y.Y.U.U.G.G.U.Y.U.G.D.D.a.#.#.-.-.@._ _ j.G.U.U.U.].'.^.Z.W Z #.-.<.N.N.N.N.M.M.b.c.c.c.k.k.k.j.j.s.a.a.5.` =.' m Z U ~ { =.<.5.8.5.-.+.<.9.e.r.a.a.r.a.a.a.j.k.l.9.~ <.k.j.+.[ j.v.b.v.v.b.b.v.v.b.v.M.N.N.b.5.t.b.C.N.N.N.N.N.N.N.N.M.-.e.N.a.[ j.M.M.M.b.s.<.+.9.k.b.Z.Z.N.N.Z.Z.Z.Z.Z.Z.Z.Z.Z.Z.Z.D.D.D.D.D.D.F.F.F.F.F.F.F.F.F.F.G.G.G.G.G.G.G.G.G.G.G.G.G.G.F.F.G.G.G.G.G.G.G.G.F.G.F.F.G.G.G.D.N.b.N.Z.F.F.H.G.G.G.G.G.G.U.k.a.<.x.H.F.F.F.G.F.F.F.G.F.Z.b.b.x.b.G.G.G.G.G.G.G.G.G.G.G.G.H.H.G.G.G.G.G.G.G.F.F.G.G.G.F.G.F.F.F.G.G.G.G.F.F.F.F.F.F.F.F.F.F.F.F.F.F.F.F.D.Z.Z.C.Z.C.N.b.b.b.b.c.l.8.{ 8.x.b.b.b.M.r.,.d.b.@.5.N.N.N.N.N.b.b.b.b.M.M.a.-.b.b.b.b.b.v.v.v.b.b.n.b.v.v.j.@.+.a.r.@.W a.k.j.a.a.a.r.r.r.r.r.e.e.8.-.@.5.8.5.>.@.{ ) Y G m A Y E -.8.9.e.r.a.j.j.j.j.k.k.k.k.k.k.v.v.e.>.M.H d { H.F.G.G.H.H.U.Z.j.=.@.=.-.-.{ [ 5.Z.F.F.F.F.F.F.F.G.H.U.!.^.H.N.s.w.8.<.{ E c 9 q Z O.-.a.$XcXcXcXcXcXcX<X<.h q x C x Z ) 5.b.F.H.I.|.$XF.^ 3 $ 3 t ",
"y.@.m 0 : = m r.*XqX5X#XY.v.5.-.@.W n 9 t ] {.sXcXcXcXcXcXcX}.k.9.) N 9 q Z { 0.k.k.j.v.A.U.Y.Y.H.F.F.U.Y.U.G.D.m.6.,.,.-.-.O._ =.Z.F.U.U.].].U.U.U.<.t t { s.Z.N.N.M.N.M.b.c.c.c.k.k.k.j.j.s.a.a.8.U { ~ N G E ^ +.-.5.q.8.5.=.=.5.9.e.r.a.a.r.a.a.a.j.j.k.l.*.@.j.v.,.^ a.v.M.v.v.b.b.v.v.v.v.M.N.N.b.e.<.b.C.N.N.N.N.Z.N.N.N.b.5.5.M.k.[ 9.M.N.M.b.j.8.{ 5.v.v.Z.Z.N.Z.Z.Z.Z.Z.Z.Z.Z.Z.Z.Z.Z.D.D.D.D.D.D.F.F.F.F.F.F.G.G.F.F.G.G.G.G.G.G.G.G.G.G.G.G.G.G.F.F.G.G.G.G.G.G.G.G.F.F.F.F.G.G.G.D.s.b.F.D.F.G.H.G.G.G.G.G.G.U.k.a.<.c.H.F.F.F.G.F.F.F.G.G.F.A.Z.c.b.H.H.G.G.G.G.G.G.G.G.G.G.G.H.H.H.H.H.H.H.G.F.F.G.G.H.G.G.F.F.F.G.G.G.G.F.F.F.F.F.F.F.F.F.F.F.F.F.F.F.F.D.D.Z.Z.Z.Z.N.b.b.b.b.k.j.q.{ e.c.N.N.N.M.e.,.v.k.{ r.M.N.N.N.N.b.b.b.b.Z.Z.5.8.b.b.M.M.b.v.v.v.b.b.b.b.v.v.s.[ -.j.e.[ _ a.j.s.a.a.a.r.r.r.r.r.9.e.9.<.+.<.8.5.<.=.+._ E U B A U Y =.5.9.e.r.a.j.j.j.j.k.k.k.k.k.k.v.v.r.+.5.1 , <.N.H.G.H.H.H.U.G.M.3.+.=.-.-.#.{ <.c.Z.F.F.F.F.F.F.H.H.H.H.H.b.t.8.5.2.{ H h 3 u U =.3.c.5XcXcXcXcXcXcX{.W 6 q v m x Z [ y.M.U.Y.F.].#Xe.n = * 9 c { ",
"Z.v.5.W j 1 % q { '.5X=X=X.XZ.8.#.[ / n 9 q S r.rXcXzXcXcXcXkX,Xb.r.-.A 9 5 n { 9.j.j.s.N.Z.F.U.Y.G.A.G.Y.F.G.G.x.,.,.,.-.+.~ T a.F.H.U.U.U.U.U.F.H.[ t m -.b.N.Z.N.N.Z.C.b.b.v.c.k.j.j.j.s.a.a.a.<.Y =.U B U E ) @.-.5.5.5.-.+.=.<.r.r.a.a.a.a.a.l.j.k.j.k.l.4.[ a.k.9.~ 5.v.v.M.M.N.N.M.M.N.M.M.N.N.C.s.[ b.Z.C.C.Z.Z.Z.Z.Z.Z.Z.j.-.k.N.>.<.v.N.N.N.x.e.-.-.j.b.N.Z.N.v.N.A.Z.D.D.Z.Z.Z.Z.D.D.Z.A.D.D.F.F.F.F.F.F.G.G.F.F.H.G.G.G.G.G.G.G.G.G.G.G.G.G.F.F.F.F.G.G.G.G.G.G.G.G.G.G.G.G.H.H.H.Z.t.H.G.G.H.H.H.H.H.G.H.F.G.U.j.a.<.c.J.H.G.H.H.G.G.G.H.H.H.H.H.c.b.H.H.G.G.G.G.G.G.G.G.G.H.H.H.H.H.H.H.H.G.G.H.H.G.H.H.H.F.F.F.F.G.G.G.G.F.F.F.F.F.F.F.F.F.F.F.F.F.F.F.F.D.D.D.Z.Z.Z.b.b.N.N.b.j.r.*.>.t.b.b.b.b.v.<.6.Z.a.{ c.Z.b.b.b.N.N.N.b.b.M.v.=.a.M.M.M.M.b.b.v.c.b.c.b.b.k.c.a.~ e.j.5.) <.j.j.j.s.a.s.s.a.r.r.r.9.e.,.O.+.=.5.9.5.-.+._ W U A B U U E 5.e.e.a.a.s.j.j.j.k.k.k.k.v.v.v.v.k.=.G s 5 ^ v.Z.A.F.G.H.J.J.A.a.[ [ ,.-.-.=.[ w.Z.G.F.F.C.F.H.H.H.G.Z.c.r.w.2.>.^ N q 4 h [ 5.w.U.aXcXcXcXcXcXuXt.m 6 u v n x D @.s.B.H.'.'.#X'.+., @ 1 d H <.b.",
"}.U.D.e.[ m 5 = % G v.*X$X>X=X].M.6.+._ Z 9 4 x [ $XcXcXcXcXcXkXrXF.r.=.Y y 5 s Y <.r.s.x.x.N.F.U.U.H.F.U.F.F.A.e.,.3.,.@.+.W _ v.G.U.U.U.U.U.U.G.b.G f >.a.b.N.N.N.Z.Z.C.b.b.v.c.c.c.k.j.s.a.a.e.-.` { n V H W _ =.-.5.8.5.{ { { =.9.a.a.a.a.a.a.l.j.k.k.j.j.9.[ 8.k.a.{ =.v.v.M.M.N.N.M.M.N.M.M.N.C.Z.c.@.c.Z.C.C.Z.Z.Z.Z.Z.Z.Z.v.-.a.A.8.=.j.N.N.N.c.a.,.-.a.b.N.Z.Z.b.N.Z.Z.D.D.Z.Z.Z.Z.D.D.D.D.F.F.F.F.F.F.F.F.G.G.F.F.H.H.G.G.G.G.G.G.G.G.G.G.G.G.F.F.F.F.G.G.G.G.G.G.G.G.G.G.G.G.H.H.H.Z.j.H.H.H.H.H.H.H.U.G.H.F.U.U.j.a.<.c.J.H.G.H.H.G.F.F.H.H.G.H.H.c.b.H.H.G.H.G.G.G.G.G.G.G.H.H.H.H.H.H.H.H.G.G.H.H.G.H.H.H.F.F.F.F.G.G.F.F.F.F.F.F.F.F.F.F.F.F.F.F.F.F.F.F.D.D.D.D.Z.Z.c.b.N.N.b.j.e.*.<.t.b.b.b.b.j.@.a.H.6.#.b.N.b.b.b.b.N.N.N.b.N.j.-.v.M.M.M.M.b.b.b.c.b.b.b.b.v.M.9.^ s.j.-.) 9.j.j.j.s.a.s.s.a.r.r.r.r.8._ ~ { +.<.9.8.,.=.{ ^ Y A B E ) _ 8.e.r.a.a.s.j.j.j.k.k.k.k.v.v.v.v.v.j.{ -.t m e.Z.A.F.G.H.J.J.F.v.@._ ,.-.=.-.] >.C.Z.Z.F.D.G.H.G.D.Z.x.e.5.2.=.E h 4 5 A } 5.c.$XcXcXcXcXcXcX;X] t r x C m n W 1.x.D.F.}.|..XH.U % = w x W e.N.b.",
"XX{.F.b.r.{ A e < @ s <.F.#X$X*X%XA.5.O.@.H t 5 9 E U.lXcXcXcXcXcXkX/.a.5.W s 1 q G =.8.t.r.s.N.D.U.Y.I.G.F.F.c.,.,.,.,.+._ T 4.G.U.U.U.U.U.U.U.U.r.d m a.j.b.N.Z.N.N.N.C.b.b.v.v.c.c.c.j.s.a.a.e.>.-.~ h B H W { -.-.<.9.<._ =.{ [ <.a.a.a.a.a.a.l.j.k.k.j.j.a.{ ,.k.c.<.[ k.v.M.M.N.N.M.M.N.M.N.N.C.Z.Z.5.r.Z.Z.N.Z.Z.Z.Z.Z.Z.A.Z.<.5.Z.s.+.a.M.N.N.b.j.5.=.8.c.N.Z.A.M.M.N.F.F.F.F.F.F.F.F.F.F.F.F.F.F.F.F.F.G.G.G.G.H.H.H.H.G.G.G.G.H.H.H.H.H.H.H.H.G.G.G.G.G.G.G.G.G.G.G.G.H.H.H.H.H.H.H.C.c.H.H.U.H.H.H.H.U.U.H.H.U.].k.a.<.c.J.H.H.H.H.G.H.H.H.H.H.H.H.b.b.H.H.H.H.H.H.H.H.H.H.H.H.H.H.H.H.H.H.H.H.H.H.H.H.H.H.H.H.H.H.H.H.H.H.H.H.H.H.H.G.G.G.G.F.F.F.F.G.F.F.F.D.Z.Z.Z.Z.C.j.b.C.N.c.j.q.*.8.x.b.N.b.b.9.+.M.G.>.5.N.Z.C.C.C.C.N.N.b.b.Z.8.8.Z.N.N.N.N.b.b.b.b.b.b.b.b.M.b.-.+.k.a.+.{ k.k.k.j.s.s.s.s.a.a.a.r.a.5.Y _ -.{ =.9.9.<.-.+.) E A n G { +.5.e.r.a.a.s.j.j.j.k.k.k.k.v.v.v.v.M.v.e.j.B t >.b.A.F.G.H.J.H.H.A.9._ O.-.@.=.@.{ r.C.F.F.F.F.Z.N.b.s.8.<.>.{ U 6 & r W >.w.D.yXcXcXcXcXcXjXF.S q r m A m Z / 9.c.Z.U.Y.$XZ.{ t X : t n ) r.A.Z.j.",
"$XXXU.D.b.j.5.Q Z 5 + < Z 9.Z..X%X%XU.c.,.&.E f 9 6 m t.rXcXcXcXcXcXcX0Xc.9._ c : 8 Z [ <.w.e.j.M.F.Y.U.D.A.B.a.@.3.,.#.+.^ ~ v.U.U.Y.U.U.U.U.U.N.@.q [ b.b.M.N.N.N.N.M.M.b.v.v.v.c.c.c.j.s.a.a.e.5.<.G c G Y ^ @.,.<.5.8.<.{ 9.=.{ ,.r.a.a.a.j.a.l.j.j.k.j.l.l.=.=.j.c.8._ a.M.M.M.N.N.M.M.N.M.N.N.N.Z.F.s.<.Z.Z.C.Z.Z.Z.Z.Z.Z.Z.Z.r.5.Z.v.=.e.b.N.N.b.k.8.=.<.x.N.Z.F.M.b.N.F.F.F.F.F.F.F.F.F.F.F.G.G.F.F.F.F.G.G.G.G.H.H.H.H.G.G.G.G.H.H.H.H.H.H.H.H.H.H.H.G.G.G.G.G.G.G.G.G.H.H.H.H.H.H.H.C.c.H.H.U.H.H.H.H.U.U.U.H.U.].k.a.<.c.H.H.H.H.H.G.H.H.H.H.H.H.H.b.b.H.H.H.H.H.H.H.H.H.H.H.H.H.H.H.H.H.H.H.H.H.H.H.H.H.H.H.H.H.H.H.H.H.H.H.H.H.H.H.G.G.G.G.F.F.F.F.G.F.F.F.D.Z.Z.Z.D.N.t.N.C.b.c.j.<.-.e.b.b.N.b.b.3.,.D.B.{ w.Z.N.C.C.C.C.N.N.b.b.N.-.a.Z.N.N.N.N.b.b.b.b.b.b.b.b.M.k.[ 5.k.e.[ =.k.k.k.j.s.s.s.s.a.a.a.r.a.5.W <.9.@.@.8.9.5.>.@.) W G n B [ { =.e.r.a.a.s.j.j.j.k.k.k.k.v.v.v.v.v.b.v.s.{ 5 E x.A.F.G.H.J.H.U.F.k.@.~ @.#.@.>.[ =.b.G.F.D.Z.b.c.r.5.>.@.Q x > = q [ <.e.J.lXcXcXcXcXcX0X=.u 6 u c N x D @.j.N.U.F.}.^.5.t @ @ > d H =.s.A.Z.k.8.",
"@.*X XY.H.Z.c.9.{ U y = + : n N.=X|.=X#Xv.<.,._ N d 9 f } XXzXcXcXzXcXcXsXF.9.{ G q 9 c W @.5.r.k.Z.U.'.].A.j.,.<.<.,.,.O.E =.Z.].].].].U.Y.U.G.b.Z y r.b.b.N.N.N.N.N.N.M.M.v.v.v.c.c.x.j.s.a.r.5.5.*.N N G E _ -.5.5.5.8.=.-.9.=.=.<.a.j.j.j.j.j.j.j.j.j.k.k.c.<.{ r.c.j.{ 5.b.M.M.M.M.M.M.N.N.N.N.Z.Z.A.k.-.C.Z.Z.Z.Z.Z.Z.Z.Z.F.Z.c.@.b.Z.-.<.M.N.M.M.c.a.>.<.l.N.Z.F.A.N.C.A.F.F.F.F.F.F.F.F.G.G.G.G.F.F.F.G.G.G.G.G.H.H.H.H.H.H.H.H.H.H.H.H.H.H.H.H.H.H.H.H.H.H.H.H.H.H.H.H.H.H.H.H.H.H.H.Z.c.H.H.U.H.H.H.H.U.U.U.U.U.U.k.a.5.b.H.H.H.H.H.H.H.H.H.H.U.U.Y.N.N.U.H.H.H.H.H.H.U.U.U.U.U.U.U.U.H.H.H.H.H.H.H.H.H.H.H.H.H.H.H.H.H.H.H.H.H.H.H.H.G.G.G.G.G.G.G.G.G.F.F.F.F.F.D.D.D.N.s.N.N.b.c.r.=.;.r.C.Z.N.C.k.*.5.F.s.] j.Z.Z.C.C.C.C.Z.Z.C.C.b.=.c.C.b.b.b.b.N.N.N.N.N.N.N.M.b.r.[ s.c.8.^ e.c.c.x.j.x.j.s.j.s.t.r.r.a.4.~ 4.r.,.{ 5.9.9.<.=.{ ~ H m c ~ { @.8.a.r.a.s.d.s.j.k.x.k.c.v.v.v.v.M.M.v.j.e.t x s.Z.F.F.H.H.H.H.U.N.5.^ ) =.=.=.@.{ k.F.F.A.N.k.l.9.{ [ U t & = v #.8.j.6XcXcXcXcXcXzXJ.D 7 6 h v h u U 5.l.Z.F.(.*Xb.E = . * 5 v E <.c.F.F.F.A.*.",
"& <. X X.X!.F.b.a.5.) v : . * ) G.U.|.'.'.F.e.,.{ H x q 9 R N.yXzXcXcXcXcXcX^.=.<.W d < y U { 5.0.j.Z.].U.Z.r.,.,.>.-.-.[ E 0.Y.].].].].U.Y.U.A.r.h H c.b.N.N.N.N.N.N.M.M.b.v.z.c.k.x.j.s.s.a.r.<.5.) N B U ~ { -.5.5.8.9.[ <.9.<.+.<.a.j.j.j.j.j.j.j.j.j.k.k.c.9.+.5.k.c.=.=.b.M.M.M.M.M.M.N.N.N.N.Z.Z.Z.v.<.c.Z.Z.Z.Z.Z.Z.Z.Z.A.Z.b.=.j.F.8.=.x.N.N.N.b.s.<.>.r.N.Z.A.A.N.C.A.F.F.F.F.F.F.F.F.G.G.G.G.F.F.G.G.G.G.G.G.H.H.H.H.H.H.H.H.H.H.H.H.H.H.H.H.H.H.H.H.H.H.H.H.H.H.H.H.H.H.H.H.H.H.H.Z.c.H.H.H.H.H.H.H.U.U.U.U.U.U.k.a.5.b.H.H.H.H.H.H.H.H.H.H.U.U.Y.N.C.U.H.H.H.H.H.H.U.U.U.U.U.U.U.U.H.H.H.H.H.H.H.H.H.H.H.H.H.H.H.H.H.H.H.H.H.H.H.H.G.G.G.G.G.G.G.G.G.F.F.F.F.F.D.D.D.Z.c.Z.N.N.c.e.*.u.k.Z.C.N.N.l.{ r.F.w.@.c.Z.D.C.C.C.C.Z.Z.Z.Z.j.>.N.N.b.b.b.b.N.N.M.N.N.N.N.N.M.3.{ k.k.-.) s.c.c.x.j.x.j.j.s.s.t.r.r.a.9._ <.r.<.+.,.9.9.5.=.{ ) U B x Y { { 5.9.r.a.s.s.s.j.k.x.k.c.v.v.v.v.M.v.v.k.k.G q #.C.Z.F.H.H.H.H.H.D.r.@.^ *.=.=.} { <.C.G.C.l.r.q.[ Q S d * 6 D 1.8.Z.sXcXcXcXcXcXpXw.h 3 r v v j c [ e.k.v.G..X(.e.u @ * = y U { r.b.F.(.*X=Xq.h ",
"O O Q F.$X*X.X(.Z.j.q.@.A 0 $ : h e.$X*X|.}.U.s.5.+.W m q 9 c w.<XcXcXcXcXcXzX<X1.<.] c 5 t A _ -.0.j.N.S.M.5.-.=.=.=.=.) { M.'.].Y.Y.].U.U.G.N.} q @.b.C.Z.Z.Z.Z.N.N.M.M.b.v.z.c.k.x.j.s.t.r.9.5.<.Y n A Y ) =.,.5.8.9.5.[ 9.8.<.{ 5.s.j.j.j.j.j.j.j.j.j.k.k.c.j.-.=.j.v.5.[ k.M.M.M.M.N.N.N.N.Z.Z.Z.Z.Z.N.8.r.Z.Z.Z.Z.Z.Z.Z.Z.Z.F.N.3.e.F.j.@.r.N.A.N.N.x.5.@.9.N.Z.A.F.C.A.A.F.F.F.F.F.F.G.G.H.G.G.G.H.H.G.G.H.H.H.H.H.H.H.H.H.H.H.H.H.H.H.H.H.H.H.H.H.H.H.H.H.H.H.H.H.H.H.H.H.H.H.H.H.H.U.Z.c.H.H.H.H.H.H.H.U.U.U.U.U.U.k.s.5.v.H.H.H.H.H.H.H.H.U.U.U.U.Y.B.Z.U.H.H.H.H.H.H.U.U.U.U.U.U.U.U.H.H.H.H.H.H.H.H.H.H.H.H.H.H.H.H.H.H.H.H.H.H.H.H.H.H.H.H.H.H.H.H.H.G.F.F.F.F.F.D.D.D.M.Z.Z.M.v.8.[ 0.b.Z.C.C.N.r.{ b.F.2.1.N.D.D.Z.Z.Z.Z.Z.Z.Z.Z.q.8.Z.N.b.b.N.N.N.N.N.N.N.N.N.N.b.@.,.c.a.[ @.c.c.c.x.j.j.j.s.s.s.s.r.a.p.r.+.=.0.q.@.=.9.9.5.-.@._ E A c A [ +.-.9.a.a.s.s.s.j.k.x.k.c.v.v.v.v.v.v.v.v.v.<.9 U c.Z.F.G.H.H.H.H.U.c.>.W @.*.*.{ [ { k.N.s.r.8.) S n t 5 x ] 5.t..XzXcXcXcXcXjX;X] 6 > q x m S ^ 5.j.k.M.H.^.b.E < @ * q A ) 8.r.b.!.*X3X*X4.i ; ",
"- o . r e.}.*X*X|.F.b.s.>.U h < > q B x.}.#X'.A.a.e.5.+.m 5 4 d )  XzXcXcXcXcXcXsXc.5.>.N 5 q N ' -.9.p.v.r.,.@.@.=.=.=.~ 5.F.].Y.Y.Y.Y.U.U.F.M.Z c e.Z.Z.Z.Z.Z.Z.N.N.M.M.b.v.v.c.k.x.j.t.r.e.<.8.=.Y n G W [ =.<.8.8.9.-.=.e.5.@.[ 9.j.j.j.j.j.j.j.j.j.j.k.k.c.k.5.@.e.c.s.) a.M.M.M.M.N.N.N.N.Z.Z.Z.Z.Z.N.r.q.Z.Z.N.Z.Z.Z.Z.Z.Z.F.F.9.3.G.b.#.w.b.Z.N.N.x.5.=.q.b.Z.Z.F.C.A.F.F.F.F.F.F.F.G.G.H.G.G.G.H.G.G.G.H.H.H.H.H.H.H.H.H.H.H.H.H.H.H.H.H.H.H.H.H.H.H.H.H.H.H.H.H.H.H.H.H.H.H.H.H.H.U.Z.c.H.H.H.H.H.H.H.U.U.U.U.U.Y.k.j.5.b.H.H.H.H.H.H.H.H.U.U.U.U.Y.N.Z.U.H.H.H.H.H.H.U.U.U.U.U.U.U.U.H.H.H.H.H.H.H.H.H.H.H.H.H.H.H.H.H.H.H.H.H.H.H.H.H.H.H.H.H.H.H.H.H.G.F.F.F.F.F.F.D.Z.N.G.Z.b.b.<.{ r.N.A.N.Z.N.e.*.C.N.>.w.N.D.N.Z.Z.Z.Z.Z.Z.Z.Z.=.j.N.C.b.b.N.N.N.N.N.N.N.N.N.N.j.[ e.c.w.) 3.v.c.c.x.x.j.j.s.s.s.s.r.a.0.p.-.@.9.9.=.+.5.9.5.>.@.[ ~ H m B ~ { -.5.r.a.s.s.s.j.k.x.k.c.v.v.v.v.v.v.v.v.k.s.h d 8.C.Z.F.H.H.H.H.U.N.8.[ { @.@.{ ) { q.q.5.5.{ U h 8 9 Z } 5.s.;XcXcXcXcXcXsXN.Z 6 7 q z c N @.k.M.k.v.G.A.*.y $ @ 8 N ) <.w.j.b.!.=X-XU.T $ O * ",
"h < $ . o C x.;X>X=X].Z.j.r.{ m w 9 > < H c..XH.F.k.r.8.=.A q 1 w m a.hXcXcXcXcXzXjXN.8.8.U 8 e V Y _ 4.8.-.-.=.@.,.-.[ ) k.U.'.].Y.Y.Y.U.G.A.,.u E c.F.Z.Z.Z.Z.N.N.M.M.M.b.v.v.c.k.x.j.t.r.9.-.5.{ B n H ~ { =.<.8.8.5.{ 5.e.<.=.=.a.j.j.j.j.j.j.j.k.k.k.k.c.v.v.9.) 8.v.v._ 5.Z.N.M.M.N.N.Z.Z.Z.Z.Z.Z.Z.Z.b.<.N.F.N.B.Z.Z.A.A.Z.F.Z.k.=.Z.F.<.=.c.N.N.N.b.r.@.<.s.Z.N.Z.F.Z.F.F.F.G.G.G.G.G.G.G.G.H.H.H.G.G.G.H.H.H.H.H.H.H.H.U.U.H.H.U.U.U.U.H.H.H.H.H.H.H.H.H.H.H.H.H.H.H.H.H.H.H.H.H.H.U.Z.b.U.H.H.U.U.U.H.U.U.U.U.U.Y.k.j.3.v.H.H.H.H.H.H.H.H.U.U.U.U.Y.N.Z.U.H.H.H.H.H.H.U.U.U.U.U.U.U.U.U.U.U.U.U.U.U.H.H.H.H.H.H.H.H.H.H.H.H.H.H.H.H.H.H.H.H.H.H.H.H.H.H.G.F.F.F.F.F.F.F.N.Z.H.Z.b.c.*.-.l.C.C.N.C.k.;.<.F.c.] j.Z.Z.A.Z.Z.Z.Z.F.F.Z.b.{ v.C.b.Z.Z.Z.Z.N.N.N.N.N.N.N.Z.a.@.c.j.5.) e.M.c.c.c.c.j.j.j.j.s.s.a.a.l.l.q.O.9.9.<.+.>.9.9.<.>.+.^ U m x W +.+.5.9.a.s.s.s.j.j.k.k.k.v.v.v.v.v.v.v.v.N.c.^ 5 [ c.Z.F.F.H.H.U.Y.F.a.[ ^ @.{ *._ ~ _ 8.<._ U h q e R =.w.b.6XcXcXcXcXcXsXr.n 5 > q Z Z B { j.k.A.S.I.j.A = @ : y W <.e.r.x.F.!.>X=X8.6 . O $ y ",
"] C 7 & & . > ) F.>X>X|.G.N.j.5.E d < : $ w +.A.].U.M.a.r.8.E d 4 5 t W $XcXcXcXcXcXsXZ.r.9.~ s s m W O.=._ [ @.+.-.-.~ =.N.Y.'.].Y.Y.Y.Y.G.M.Y h } b.F.Z.Z.D.Z.N.N.M.M.M.b.v.v.c.k.x.j.s.s.9.5.5.) B N U ) +.-.5.8.8.5.@.5.e.<.=.5.a.j.j.j.j.j.k.k.k.k.k.k.v.v.M.j.) <.k.v.=.,.N.N.M.N.N.N.Z.Z.Z.Z.Z.Z.Z.Z.N.5.c.F.Z.Z.Z.Z.A.A.F.F.Z.N.@.M.H.w.{ j.A.Z.Z.M.a.=.>.r.C.C.A.F.Z.F.F.F.G.G.G.G.G.G.G.G.H.H.H.G.G.G.H.H.H.U.H.H.H.H.U.U.U.U.U.U.U.U.H.H.H.H.H.H.H.H.H.H.H.H.H.H.H.H.H.H.H.H.H.H.U.Z.b.U.H.H.U.U.H.H.Y.Y.Y.Y.Y.^.x.x.5.b.H.H.H.H.H.H.H.H.U.U.U.U.Y.N.Z.U.H.H.H.H.H.H.U.U.U.U.U.U.U.U.U.U.U.U.U.U.U.U.H.H.H.H.H.H.H.H.H.H.H.H.H.H.H.H.H.H.H.H.H.H.H.H.H.G.F.F.F.F.F.F.F.b.F.G.N.b.j.*.<.c.Z.Z.b.b.k.` e.G.r.] b.D.D.A.Z.Z.Z.Z.D.F.D.s.-.N.Z.C.Z.Z.Z.Z.N.N.N.N.N.N.N.N.5.>.b.j.-._ x.M.c.c.c.c.x.j.j.j.s.s.a.a.a.p.4.O.8.9.5.=.=.5.9.5.,.@.) Y Z x G +.` -.9.a.a.s.s.s.j.k.k.k.c.v.v.v.v.b.v.v.x.b.e.q x r.A.F.F.H.H.U.Y.U.c.>.~ { @.{ { U U =.[ W E h 9 A { 1.n.wXcXcXzXcXcX>X) t 4 < h U A U 5.j.k.G.S.M._ e $ $ 1 x _ 9.j.c.k.F.!.XXG.S ;   X * g ( ",
"w.1.Q y 1 = @ . 0 @.'.0X,X.XF.M.a.) N t 5 = > G r.U.].Z.a.a.e.[ c q 5 9 d r.rXcXcXcXcX0Xv.r.9.` M l B W _ W ) [ +.>.[ ~ a.G.].'.^.].Y.Y.U.F.e.x m r.D.D.Z.D.D.Z.N.N.M.M.M.b.v.v.c.k.x.j.s.t.5.9.<.U c B W _ +.,.8.8.5.<.,.9.e.-.=.r.s.j.k.k.k.k.k.k.k.k.c.v.v.M.N.b.@.-.j.v.8.+.v.N.Z.N.Z.Z.Z.Z.Z.Z.Z.Z.A.Z.Z.e.r.F.A.F.A.A.A.A.A.F.D.Z.,.s.H.k.{ r.A.A.A.N.j.<.-.e.b.Z.Z.F.Z.F.F.F.G.G.G.G.G.G.H.H.H.H.H.H.H.H.U.U.U.U.U.U.U.U.U.U.U.U.U.U.U.U.U.U.U.U.U.U.U.U.U.U.U.U.H.H.U.U.H.H.U.U.U.U.!.D.b.!.U.U.Y.U.Y.Y.Y.Y.Y.Y.^.}.c.c.5.b.U.H.H.H.H.H.U.U.U.U.Y.U.Y.Z.Z.!.H.U.U.U.U.U.U.U.Y.Y.Y.Y.Y.Y.U.U.U.U.U.U.U.U.U.U.U.U.H.H.H.H.H.H.H.H.H.H.H.H.H.H.H.H.H.H.H.H.H.H.H.F.F.F.F.F.F.b.F.F.b.M.r.@.8.b.A.N.C.b.r.) b.H.1.>.D.F.F.F.Z.Z.Z.Z.A.D.D.5.8.A.Z.Z.Z.Z.Z.Z.N.N.N.N.N.Z.N.c.=.e.b.s.{ @.N.b.c.c.c.c.c.j.x.j.j.l.l.a.p.r.9.=.5.9.8.,.+.<.9.8.<.=._ W G c m [ ` =.9.a.a.s.s.s.j.j.k.k.k.v.v.v.v.v.b.v.b.x.M.G 9 @.N.F.Z.G.H.U.Y.U.Z.9.^ ^ { { _ Y U _ ~ E Y G A [ #.c.tXcXcXcXzXfXD.v 0 > 1 n T H ~ r.M.M.M.M.-.N 1 % < w Z { 8.s.c.A.XX,Xb.[ e . X $ < N ) <.",
"r.s.r.2.H w > = + @ n k.#X#X*X|.Z.v.5.W z t > = t =.Z.].G.v.9.9.@.A u q 4 q Q {.lXzXcXzX=Xk.p.q.o.B N T G E +.@.=.5.W _ M.'.'.'.'.].Y.Y.G.Z.=.d ) c.G.Z.Z.D.D.Z.N.N.M.M.M.v.v.v.c.k.x.j.t.e.<.9.+.G c A ~ { =.<.8.9.5.,.5.e.e.=.>.a.s.j.k.k.k.k.k.k.k.k.v.v.M.M.N.v.5.=.a.v.a._ k.N.Z.N.Z.Z.Z.Z.Z.Z.Z.Z.A.Z.A.l.8.G.F.F.A.A.A.A.A.F.G.A.8.e.Z.M.#.9.N.A.Z.N.x.5.=.8.b.A.Z.F.D.F.F.F.G.G.G.G.G.G.H.H.H.H.H.H.H.H.U.U.U.U.U.U.U.U.Y.Y.Y.U.U.U.U.U.U.U.U.U.U.U.U.U.U.U.U.U.H.H.U.U.H.H.U.U.U.U.!.D.b.!.U.U.Y.Y.Y.Y.Y.Y.Y.Y.'.'.v.v.5.b.U.U.H.H.H.H.H.H.U.U.Y.U.Y.Z.Z.!.H.U.U.U.U.U.U.U.Y.Y.Y.Y.Y.Y.U.U.U.U.U.U.U.U.U.U.U.U.U.H.H.H.H.H.H.H.H.H.H.H.H.H.H.H.H.H.H.H.H.H.G.F.F.F.F.F.F.b.F.F.b.N.e.*.r.C.A.C.Z.C.8.=.Z.H.>.5.F.F.F.F.Z.Z.Z.Z.Z.Z.D.>.r.F.A.A.Z.Z.Z.Z.N.N.N.N.N.Z.N.j.@.k.c.e.[ 5.N.c.b.c.n.n.c.c.x.j.j.j.j.s.a.a.0.;.4.9.9.5.=.-.5.8.5.=.[ ~ G N c ^ ` =.q.r.a.a.s.s.s.j.k.k.k.c.v.v.v.b.M.b.M.c.b.5.q U l.A.Z.F.H.U.^.U.F.s.@.E ) @.+.{ W U Y ) 5.-._ =.j.5XzXjXjXjX{.] r > = $ w K U _ 0.M.z.M.9.H e : : w B ~ >.r.j.k.F.#X$Xt.t . X $ < q N ) =.8.",
"Z.j.x.x.e.[ x 1 5 < X % J S.qX>X$XF.v.e.{ U d 1 > 4 G N.$X].k.a.9.@.U m x t 9 z 2.6XzXgX;XA.k.f.=.~ @.=.G A U ^ 4.[ B 4.G.^.^.^.^.^.!.U.H.b.A x 8.Z.G.D.Z.Z.Z.Z.B.N.N.b.b.b.v.v.c.k.x.j.a.5.-.e.) G n U ) +.>.5.9.8.<.,.8.e.a.@.9.j.j.j.k.k.k.k.k.k.c.c.v.j.j.b.N.M.a.@.r.v.c.+.9.M.Z.N.Z.Z.Z.Z.Z.Z.Z.Z.A.A.A.N.<.Z.F.D.D.A.F.A.A.A.A.F.j.5.A.F.3.>.M.Z.Z.Z.v.e.-.>.c.A.Z.G.D.D.F.F.F.G.H.H.H.H.H.H.H.H.H.H.H.H.H.H.H.H.U.U.U.U.!.!.!.!.U.H.H.H.U.U.U.U.U.U.H.H.U.U.U.U.U.U.U.U.!.!.!.!.U.U.!.D.N.Y.U.U.Y.Y.Y.Y.^.^.^.^.^.^.c.b.8.b.!.U.U.U.U.U.H.H.U.U.Y.U.Y.N.Z.!.U.!.U.U.!.!.Y.Y.Y.Y.Y.Y.Y.Y.!.!.!.!.!.!.^.^.Y.Y.Y.Y.Y.Y.U.U.U.U.U.U.U.U.U.U.H.H.H.H.H.H.H.H.U.U.H.H.H.G.H.G.D.Z.D.D.b.Z.5.>.k.Z.Z.Z.Z.v.<.9.H.Z.=.j.F.F.F.F.A.A.A.A.A.A.N.-.b.F.F.Z.Z.Z.Z.Z.Z.Z.C.C.Z.Z.Z.e.-.j.c.5.^ s.Z.N.b.c.k.c.c.c.k.k.c.k.j.j.j.s.r.r.9.9.8.5.=.@.8.r.9.<.+.) W B c A =.=.5.e.a.a.s.j.j.j.k.k.k.c.v.v.b.b.M.M.M.c.v.N.N s -.N.A.F.H.U.Y.Y.I.m.8.E ^ ,.#.) G N ) e.k.k.-.9.'.5X.XrX;X5.z 5 3 : q c U ~ -.9.k.M.v.@.k : : 8 c U [ 3.a.k.c.^.$Xs.D @ . @ = 1 s A ) 8.a.M.",
"H.H.N.N.Z.v.<.U j q % .   0 _ Y.5X,X}.A.v.5.[ G y < : y -.Z.'.Z.a.e.>.^ W G c u q N 8.Y.U.S.E.j.=.-.8.-.Z N G ~ O.m J k.U.^.^.^.^.^.!.U.H.8.d H j.F.F.F.Z.Z.Z.Z.N.N.N.M.M.b.v.v.c.k.x.j.e.,.5.5.W G n W _ @.<.8.9.5.<.<.9.a.a.<.r.j.j.k.k.k.k.c.c.c.c.c.k.a.a.k.N.N.j.-.8.k.v.,.=.M.A.A.Z.Z.Z.Z.Z.Z.Z.A.F.F.F.A.5.c.H.G.Z.Z.Z.A.A.F.F.G.M.-.N.G.e.-.c.Z.Z.Z.M.j.,.-.j.A.Z.G.G.D.F.F.G.G.H.H.H.H.H.H.H.H.H.H.H.H.H.H.H.H.U.U.U.U.Y.U.!.!.U.H.H.H.U.U.U.U.U.U.H.H.U.U.U.U.!.!.U.U.!.!.!.!.U.U.!.D.N.Y.U.U.Y.Y.^.^.^.^.^.^.^.}.c.N.9.b.^.!.U.U.!.!.!.!.Y.Y.Y.Y.^.Z.Z.^.Y.^.!.!.^.^.Y.Y.Y.Y.Y.Y.Y.Y.!.!.!.!.^.^.^.^.Y.Y.!.!.!.!.!.!.!.!.!.!.U.U.!.!.U.U.U.U.H.H.H.H.U.U.U.H.H.H.G.G.D.D.F.D.N.b.<.<.c.Z.A.Z.Z.k.-.k.H.b.@.b.F.F.F.F.F.F.F.F.F.G.x.>.Z.F.D.Z.Z.Z.Z.Z.Z.Z.Z.Z.Z.D.Z.8.3.x.x.<.{ v.N.N.C.k.l.l.v.c.k.k.c.x.k.k.j.j.a.a.r.r.e.9.,.=.5.e.e.5.=._ W Z x c -.-.,.e.a.a.s.j.j.j.k.k.k.c.v.v.b.b.M.M.N.v.M.Z.{ q E Z.A.F.G.U.Y.Y.R.B.s.W Z ^ U J Z N [ b.N.j.M.M.p.U.0X5.m < 1 1 w m ~ _ -.-.0.j.f.4.G 9 1 4 h Z ^ =.5.r.b.F..XY.[ : . . 4 d m E =.8.v.C.U.].",
"x s..X}.U.^.G.s.~ j q q $   + d a.=XqX.X].C.r.=.W j 5 1 1 c _ 8.a.r.9.=._ ^ W A c q q N 4.].].<.=.5.-.E Z Y _ +.J h @.S.^.'.(.^.^.^.!.U.Z.[ u { Z.G.F.F.Z.Z.Z.Z.B.N.N.M.M.b.v.v.c.k.x.j.8.-.9.@.Y B B ^ { -.5.9.9.5.<.8.9.r.e.8.j.j.k.k.k.k.k.c.c.c.v.v.v.c.c.v.M.Z.v.5.,.j.M.r.[ j.A.F.A.A.A.A.F.F.A.F.F.F.F.F.e.r.G.H.D.D.A.A.F.G.G.G.G.=.k.U.v.>.s.Z.A.A.N.k.q.=.a.A.Z.F.H.D.F.H.G.H.H.H.H.H.H.H.H.H.H.H.H.H.U.U.U.U.U.U.U.U.U.U.U.U.!.!.U.U.^.^.!.!.U.U.U.U.!.!.!.!.!.!.^.^.!.^.^.^.U.!.^.F.N.^.Y.Y.Y.Y.^.^.^.^.^.^.^.^.c.b.9.b.^.!.U.U.!.!.!.!.^.^.'.Y.'.A.Z.^.!.^.^.^.^.^.'.'.'.'.^.^.^.^.^.^.^.^.^.^.^.^.^.^.^.^.^.^.].].^.^.^.^.!.!.!.!.!.!.U.U.U.U.U.U.U.U.U.U.H.H.H.H.F.H.H.F.Z.x.>.e.C.A.Z.A.Z.a.=.Z.H.r.>.Z.F.F.F.F.F.F.F.F.F.H.e.9.G.F.D.Z.D.D.D.D.Z.Z.D.Z.D.F.C.>.r.v.j.,.#.N.N.N.N.b.c.b.b.c.k.k.c.x.k.k.j.j.j.a.a.a.r.e.5.=.,.9.e.5.-.{ ~ G c y { <.=.9.a.a.s.j.j.j.k.k.k.c.v.v.b.v.M.M.N.N.M.N.j.s h s.Z.F.F.U.R.Y.Y.I.c.=.m N E _ ~ B Z >.k.Z.I.N.k.5.U < * e h J ' ' @.$.;.4.r.0._ n , 1 d N Y _ >.a.b.U..X.Xj.Z X   + q c G e.c.F.H.Y.#XG.-.",
"  @ R Y.#X|.].F.a.[ T c d 5 $ .   N v.=X.XU.Z.k.5.[ A y q = $ 0 x W >.#.[ ) ) ~ W U c w m { @.` +.3.+.H G U T ~ G K p.Y.^.^.^.].^.^.!.U.c.Z N e.F.F.F.F.Z.Z.Z.Z.B.N.N.M.M.b.v.v.c.k.x.j.8.<.9.) U x U ) @.,.8.8.8.5.5.5.e.e.9.e.j.j.j.k.k.k.c.c.v.v.v.v.v.v.v.v.M.Z.M.9.@.a.M.k.{ 9.A.A.A.A.A.A.F.F.F.F.F.F.F.H.k.8.F.G.G.D.F.F.G.G.G.G.G.<.r.U.Z.-.r.Z.F.A.N.c.8.@.r.F.Z.F.H.D.F.H.G.H.H.H.H.H.H.H.H.H.H.H.H.H.U.U.U.U.U.U.U.U.U.U.U.U.!.!.U.U.^.^.!.!.U.U.U.U.!.!.!.!.^.^.^.^.^.^.^.^.U.!.^.F.N.^.Y.Y.Y.Y.^.^.^.^.}.}.^.^.c.b.8.b.^.!.U.U.!.!.!.!.^.^.^.Y.^.A.Z.^.!.^.^.^.^.^.^.^.'.'.^.^.^.^.^.^.^.^.^.^.^.^.^.^.^.^.^.^.].].^.^.^.^.!.!.!.!.!.!.U.U.U.U.U.U.U.U.U.U.H.H.G.G.F.H.U.F.D.s.=.t.A.A.Z.A.Z.9.5.U.F.8.e.C.F.F.F.F.G.G.G.G.G.F.<.k.G.F.F.D.D.D.D.D.D.D.Z.Z.F.G.N.=.j.b.s.-.8.N.N.N.C.N.b.b.b.c.k.k.c.x.j.j.j.j.a.a.a.a.r.r.9.=.<.9.e.8.<.+.) Y N y U <.=.5.a.a.a.j.j.j.k.k.k.c.v.v.b.v.b.M.N.N.N.M.Z.U 9 @.Z.A.G.U.U.Y.Y.R.N.e.G Z E E U G B ) a.s.k.9._ N 5 5 h A Y Y ~ ~ ` _ o.O.U d , , 9 c U _ @.5.s.G..X#Xc.^ <   . = 9 c B 5.b.b.U.=X.Xj.c + ",
"      6 r.;X>X(.A.N.a.) B n y 1 + . + Y ].>X'.A.v.e.{ G h 5 % @ = 5 h A ^ ) ) ~ ~ W G n x x Z U ) ^ ~ G G U ^ _ Z ) N.|.^.^.^.^.^.H.H.H.<.h E C.F.F.F.F.Z.Z.Z.Z.N.N.N.M.M.M.b.v.c.k.j.r.-.9.-.^ Z m Y [ @.<.8.9.5.,.8.e.r.r.a.s.j.j.j.j.k.k.c.c.c.c.v.v.M.M.M.M.M.Z.Z.a.{ 9.N.N.<.<.Z.F.A.A.A.A.D.D.F.F.F.F.F.H.M.5.B.J.G.D.F.F.G.G.G.G.G.a.=.F.F.5.3.A.F.F.Z.v.r.2.5.b.Z.F.H.H.F.G.H.H.U.U.U.U.H.H.H.H.H.H.H.H.U.U.U.U.!.!.!.!.!.!.!.!.U.U.U.U.^.^.^.^.^.^.!.!.!.!.^.^.^.^.^.^.^.^.^.^.!.^.^.F.N.'.Y.Y.^.^.^.^.^.}.}.}.}.^.c.b.8.b.^.^.!.!.!.!.!.!.^.^.^.^.^.F.D.^.^.^.^.^.^.^.^.'.'.'.^.^.^.^.^.^.^.^.^.^.^.^.{.{.^.^.^.^.].].^.^.^.^.^.^.^.^.!.!.!.!.U.U.!.!.U.U.U.U.U.H.G.G.H.H.H.F.Z.w.=.j.A.F.A.A.Z.-.r.].Z.=.x.F.G.G.G.G.F.G.G.G.H.b.,.Z.G.G.F.F.F.F.D.D.D.D.D.D.D.D.s.=.x.v.e.=.j.N.N.N.N.M.b.b.b.c.k.k.x.k.j.j.a.a.a.r.r.r.r.r.e.5.=.9.e.9.5.=.{ W Z d x =.+.=.r.s.a.j.j.j.k.k.k.c.v.v.v.b.b.M.N.N.N.N.Z.<.w A M.U.G.H.U.Y.T.Y.U.x.@.[ ~ E ^ ~ G H ^ @._ E k 8 y h N Z G Y ~ _ ~ ~ m 1 . . X 5 N _ +.=.9.Z..X=XM.W 4 X   $ : 0 s J 3.w.b..X;X}.! $     ",
"X . .   @ ^ Z.*X$X*XA.a.=.A c h 5 = . . s a.'.G.M.a.8.) n 1 % % 5 j U ) { @.=.+.=.@._ W m c N B Z U W U ~ { +._ U 4.I.|.^.^.^.^.!.U.^.Z.R z >.F.F.F.F.F.Z.Z.Z.Z.N.N.N.M.M.M.b.v.k.k.a.9.<.9.O.^ N Z W { -.5.9.9.5.,.9.r.a.a.j.j.j.j.j.j.k.k.c.c.c.c.v.v.M.M.M.M.M.Z.Z.j.=.8.v.Z.r.=.v.F.A.A.A.A.D.D.F.F.F.G.F.H.F.5.v.U.G.Z.F.F.G.G.G.G.Y.v.{ Z.Y.a.>.N.F.F.Z.b.k.,.-.b.Z.F.H.H.F.G.H.H.U.U.U.U.H.H.H.H.H.H.H.H.U.U.U.U.!.!.!.!.!.!.!.!.U.U.U.U.^.^.^.^.!.!.!.!.!.!.^.^.^.^.^.^.^.^.^.^.^.^.^.G.Z.}.^.^.'.'.'.'.^.}.}.}.}.}.c.b.8.M.}.^.^.^.^.^.^.^.^.^.^.^.^.G.G.}.}..X^.^.^.^.^.^.'.'.^.^.^.^.^.^.^.^.^.^.^.^.{.{.^.^.^.^.].].^.^.^.^.^.^.^.^.!.!.!.!.U.U.!.!.U.U.U.U.U.H.G.G.H.H.H.F.Z.<.>.b.A.F.A.A.M.=.v.U.b.>.n.G.G.G.G.G.F.G.G.G.U.s.5.F.H.H.F.F.F.F.F.F.D.D.D.D.F.F.5.5.M.c.5.>.b.N.N.N.b.M.b.b.b.c.c.k.c.x.j.j.a.a.a.r.r.r.r.r.r.8.=.<.e.9.5.>.+.^ G x s ) =.=.9.a.a.j.j.j.k.k.k.c.v.v.v.b.b.b.N.N.N.N.A.b.x d a.A.F.U.U.Y.Y.Y.Y.N.6.@.@.-.-.[ J m x K B d y w h n G W ` $.;.=.@.~ j 1 : * = 5 j m W <.'.=XU.) 9 @ . $ @ : 9 n _ 9.s.N.H.G.=.q .     . ",
"q o . . . . < ^ b.*X#XF.F.3.U z 9 4 5 4 * * Z k.Y.N.=.Y A s 9 y n U @.5.9.a.f.f.f.j.p.9.[ V d c G G U W =.-.@.^ ~ k.'.'.^.^.^.^.^.U.!.r.x H c.H.F.F.F.F.Z.Z.Z.Z.N.N.N.M.N.M.b.v.k.v.s.5.5.5._ U x U ) =.5.9.9.9.<.,.e.a.a.a.s.j.j.j.j.j.k.k.c.c.c.c.v.v.v.b.M.M.M.N.Z.v.5.<.k.Z.v.{ a.F.F.F.F.A.F.F.F.F.F.G.F.H.U.9.s.G.G.A.G.G.H.H.G.G.G.G.{ k.U.b.=.v.A.F.A.C.v.<.*.k.Z.F.I.I.F.F.H.U.U.U.U.U.H.H.H.H.U.U.U.U.Y.Y.Y.Y.Y.Y.Y.Y.!.!.!.!.!.!.!.!.^.^.^.^.!.!.!.!.^.^.^.^.^.^.^.^.^.^.^.^.^.^.}.H.Z.}.^.^.'.'.'.'.^.}.}.}..X}.b.b.8.N.}.^.^.^.^.^.^.^.^.^.^.Y.^.H.H..X}..X^.^.^.^.'.'.'.'.'.'.'.'.^.^.^.^.^.^.^.{.{.{.^.^.^.^.^.^.^.^.^.^.^.^.^.^.!.!.!.!.U.U.U.!.Y.Y.Y.Y.U.H.G.G.H.H.H.F.b.=.5.C.A.F.A.A.j.,.G.U.r.5.Z.H.G.G.H.G.G.G.G.G.H.5.t.G.H.H.H.F.F.F.F.F.F.F.F.F.H.Z.=.t.N.j.>.5.A.Z.N.N.b.M.N.b.b.v.v.c.c.c.k.j.j.a.a.a.a.a.a.a.a.e.-.=.9.e.9.<.=.) U N d U ,.@.<.a.a.a.j.j.k.k.k.c.v.v.v.v.b.b.M.N.N.N.N.F.U 8 +.S.G.G.U.U.Y.Y.'.U.x.,.-.,.+._ ~ K n B s t n G ) { ;.q.0.0.0.9.9.#.W G x u y y q U A.=XC.-.V < @ = % : t m { 9.M.A.N.H.j.v O     $ - 9 ",
"R v 5 @ . o . X q <.].*X^.N.8.] Z d j v h 4 * < H s.v.5.A N B A U ~ { -.5.e.a.p.j.k.j.a.r.q.W d w N Y [ <.=._ E @.M.'.'.^.^.^.^.^.U.H.=.y { Z.F.F.F.F.F.Z.Z.Z.Z.N.N.N.N.N.M.b.v.k.k.a.<.5.=.) B c Y [ >.8.9.9.9.<.<.r.a.a.a.s.j.j.j.j.j.k.k.c.c.c.c.v.v.b.v.M.M.M.M.Z.M.r.,.j.Z.N.@.9.F.F.F.F.A.F.F.F.F.F.G.F.F.U.k.w.F.H.F.G.H.H.G.G.G.U.'.>.e.Y.F.<.j.Z.A.A.C.v.8.X.r.A.A.I.I.F.G.H.U.U.U.U.U.H.H.H.H.U.U.U.U.Y.Y.Y.Y.Y.Y.Y.Y.!.^.!.!.!.!.!.!.^.^.^.^.!.!.!.!.^.^.^.^.^.^.^.^.^.^.^.^.^.}.}.H.D.}.'.'.'.'.'.'.^.}.}.}..X.Xb.N.9.N..X^.^.^.^.^.^.^.'.'.'.Y.Y.H.H..X}.}.^.^.^.^.'.'.'.'.'.'.'.'.^.^.^.^.^.^.{.{.{.{.^.^.^.^.^.^.^.^.^.^.^.^.^.^.!.!.!.!.U.U.U.Y.Y.Y.Y.Y.U.H.G.H.H.H.H.F.x.@.r.C.A.F.A.A.e.8.U.U.8.e.H.H.G.G.G.G.G.G.G.G.F.<.b.G.H.H.H.G.F.F.F.F.G.G.G.G.U.b.@.j.M.s.-.r.A.Z.N.N.N.M.N.M.b.b.b.v.v.c.k.k.j.j.a.a.a.a.a.a.a.e.>.=.5.9.9.5.-._ W Z j N +.,.>.r.r.r.j.j.k.k.k.c.v.v.v.v.b.b.b.N.N.N.b.B.>.q B z.G.U.U.H.U.Y.T.Y.M.e.-.-.^ ~ ~ A k h n W { -.5.8.r.a.r.e.9.e.8.1.@.] E V N j h G =.G < $ y c q q s G @.r.Z.U.F.H.b.) >     . O < t v ",
"w.<.] c q * X X . @ j a.}.U.s.r.b.w.^ m z n x 8 0 w h c N G E ) { +.=.>.5.9.e.a.a.r.r.9.8.5.=.[ A s A =.>.=.^ W 5.H.'.'.'.'.^.^.!.].F.S N e.H.F.F.F.F.F.A.Z.Z.N.N.N.N.N.N.M.b.v.c.j.8.<.<._ _ n B W { ,.5.9.9.5.>.5.a.j.a.a.j.j.j.j.j.j.k.k.c.c.v.v.v.b.M.M.M.M.M.N.Z.Z.j.>.a.N.N.8.@.Z.F.F.F.F.F.F.F.F.F.F.F.G.U.N.5.A.H.H.U.U.H.H.H.H.H.^.k.<.H.U.8.e.Z.D.Z.Z.Z.t.*.8.A.F.H.U.U.F.H.H.H.H.H.H.Y.Y.Y.Y.Y.Y.Y.Y.Y.Y.Y.Y.Y.Y.Y.Y.^.^.^.^.^.^.^.^.^.^.^.^.^.^.^.^.^.^.^.^.{.{.{.{.}.}.}.}.}.}.}.H.D.}.}.}.}.}.}.}.}.}.}.}..X.Xb.N.e.N.}.^.}.}.}.}.}.}.}.}.^.^.^.H.H.}.}.}.}.}.}.}.}.}.}.}.(.(.^.^.^.^.(.(.^.(.^.^.^.^.^.^.^.^.^.^.^.^.^.{.^.^.^.^.^.^.^.^.!.!.!.!.!.!.U.!.!.^.H.H.^.H.U.F.r.=.j.F.F.F.H.Z.<.s.U.G.>.c.H.U.H.H.H.H.H.H.H.G.M.<.F.H.G.G.H.H.G.F.F.F.G.G.G.F.H.s.5.c.c.e.{ k.Z.Z.Z.Z.Z.N.N.N.N.M.b.b.v.c.k.k.k.j.j.a.a.a.a.a.a.e.<.@.5.9.e.8.<.+.~ G c x ) >.*.8.r.r.s.j.j.k.x.c.c.c.v.v.b.b.M.N.N.N.C.N.c.c t <.H.A.U.U.U.Y.Y.Y.G.c.,.=.-.-.+.B n U { <.5.9.e.e.e.e.e.e.8.5.3.3.<.#.{ E A n y q 4 < * & < u A E ^ >.a.Z.'.^.c.{ u .     o * r v U ) ",
"!.Z.i.2.E x 9 > $ . . : U j.{.c.N.F.B.5._ U G N c n n n B H ~ [ >.<.5.8.5.8.9.e.e.9.9.9.8.5.9.r.j.@.Z A { #.E G s.Y.^.^.^.^.^.^.U.!.e.d ) k.F.F.F.F.F.F.A.Z.Z.N.N.N.N.N.N.M.b.v.c.s.q.<.<.^ E k G ) @.<.5.9.9.5.<.9.a.s.a.a.j.j.j.j.j.j.k.k.c.c.v.v.v.b.M.M.M.M.M.N.Z.Z.v.<.8.N.F.s.) b.F.F.F.F.F.F.F.F.F.F.F.F.H.G.8.M.H.H.U.U.H.H.H.H.U.U.b.-.F.Y.s.5.Z.F.Z.C.C.i.*.>.Z.A.H.U.U.F.H.H.H.H.H.H.Y.Y.Y.Y.Y.Y.Y.Y.^.Y.Y.Y.Y.Y.Y.Y.^.^.^.^.^.^.^.^.^.^.^.^.^.^.^.^.^.^.^.^.{.{.{.{.}.}.}.}.}.}.}.H.F.^.}.}.}.}.}.}.}.}.}.}..X.Xb.N.e.N.}.^.}.}.}.}.}.}.}.}.^.^.^.H.H.}.}.}.}.}.}.}.}.}.}.}.^.^.^.^.^.^.^.{.^.^.^.^.^.^.^.^.^.^.^.^.^.^.^.^.^.^.^.^.^.^.^.^.!.!.!.!.U.!.U.U.!.^.H.H.Y.G.U.A.8.,.c.F.F.F.G.N.=.c.^.Z.-.b.H.U.H.H.H.H.H.H.G.G.s.8.F.H.G.G.H.H.G.F.F.F.G.G.G.G.H.9.5.M.b.q.*.C.Z.C.Z.Z.Z.Z.N.N.N.b.b.v.v.c.k.k.k.j.j.s.a.a.a.a.a.e.5.=.<.9.9.8.5.=.) U n j T >.*.5.r.r.s.j.j.k.x.c.c.c.v.v.b.b.M.N.N.N.Z.Z.Z.{ e T A.F.U.U.U.Y.U.Y.U.Z.=.-.5.@.G U [ =.,.5.8.9.r.e.8.5.5.5.8.8.8.5.3.>.=.) G m N m m c h h N Q <.<.<.w.b.Y.A.[ q .     & > 6 z R ] -.<.",
",X}.Z.j.t.>.E h t 1 $ X   < ) Z.U.s.M.R.I.5.O.[ ~ E U G U U ^ { 5.a.x.x.j.j.j.k.c.v.v.b.A.N.Z.F.M.v.9.~ x d t ^ N.|.^.^.^.'.^.^.!.H.) h 8.A.F.F.F.F.F.F.Z.Z.Z.N.N.N.N.M.M.b.v.v.c.r.5.q.@.) Z n Y [ -.5.8.e.9.<.<.e.a.a.a.a.j.j.k.k.k.k.k.k.c.c.v.v.v.b.M.M.M.M.N.N.Z.Z.M.8.<.v.N.b.) s.F.F.F.F.F.F.F.F.F.G.F.F.G.U.a.a.H.H.U.U.H.H.H.H.U.U.U.=.M.Y.N.<.c.F.G.Z.Z.c.<.{ v.F.H.U.U.F.H.H.H.H.H.H.Y.Y.Y.Y.Y.Y.Y.Y.^.^.^.^.^.^.^.^.^.^.^.^.^.^.^.^.^.^.^.^.^.^.^.^.^.^.^.^.^.^.}.}.}.}.}.}.}.}..XH.F.^.}.}.}.}.}.}.}.}.}.}..X.Xb.N.e.N.}.^.{.{.}.}.}.}.}.}.^.^.^.H.H..X}.}.}.}.}.}.}.}.}.}.}.}.}.}.}.}.}.}.}.}.}.}.}.}.}.}.{.{.^.^.^.^.^.^.^.^.^.^.^.^.^.^.!.!.!.!.U.U.U.U.H.!.H.H.H.H.U.N.,.6.N.G.F.H.F.c.>.Z.^.j.<.F.U.U.H.H.H.H.H.H.H.H.9.a.G.H.G.G.H.H.G.G.G.G.G.G.G.G.A.>.y.N.v.<.q.F.C.C.Z.Z.N.N.N.N.N.b.b.b.v.c.k.k.k.k.j.j.a.a.a.a.r.r.9.>.-.5.9.9.5.-.[ W Z d v =.=.>.e.r.s.s.j.x.x.c.v.v.v.v.b.b.M.N.N.N.Z.Z.F.b.Z k j.H.H.H.U.U.U.].^.H.r.{ ~ B U +.-.4.r.k.b.Z.N.M.c.k.j.j.c.c.v.c.x.a.5.[ W U J U E E ) [ -.9.w.w.c.D.Z.@.d       o > t z H { 8.s.b.C.",
"j.}.}.N.b.c.8.{ U x < X + O . 3 E D.M.c.Y.U.a.-.-.@.[ ) ^ Y ~ { -.r.b.N.G.F.F.F.A.F.H.U.U.U.U.F.A.a.5.5.<.E 9 B F.}.^.^.^.^.^.^.].A.N S k.A.A.F.F.F.F.F.Z.Z.Z.N.N.N.N.M.M.v.v.c.j.e.<.9.~ _ x B ~ +.>.5.9.e.9.,.5.e.r.a.a.a.j.j.k.k.k.k.k.k.k.c.v.v.v.b.M.M.M.M.N.N.Z.Z.M.a.-.j.Z.F.=.5.F.F.F.F.F.F.F.F.G.G.F.F.H.U.v.5.H.U.U.U.H.H.H.H.U.^.^.8.a.Y.Z.5.t.Z.H.G.G.Z.8.[ k.F.F.U.Y.F.U.H.H.H.H.H.Y.Y.Y.Y.Y.Y.Y.Y.^.^.^.^.^.^.^.^.^.^.^.^.^.^.^.^.^.^.^.^.^.^.^.^.^.^.^.^.^.^.}.}.}.}.}.}.}.}..XH.F.}.}.}.}.}.}.}.}.}.}.}..X.Xb.N.e.b.}.^.{.{.}.}.}.}.}.}.^.^.^.H.H..X}.}.}.}.}.}.}.}.}.}.}.}.}.}.}.}.}.}.}.}.}.}.}.}.}.}.(.{.^.^.^.^.^.^.^.^.^.^.^.^.^.^.!.!.!.!.U.U.U.U.H.!.H.!.G.G.U.N.#.e.F.H.D.H.F.j.5.H.U.r.r.H.U.U.H.H.H.H.H.H.H.H.<.c.H.H.G.G.H.H.G.G.G.G.G.G.G.G.M.#.k.N.k.-.r.F.C.C.Z.Z.N.Z.N.N.N.M.b.c.v.c.k.k.k.k.j.j.s.a.a.a.e.e.9.<.=.5.9.9.5.<.+.~ G d h ) =.-.e.r.s.s.j.k.x.c.c.c.v.v.b.b.M.N.N.N.Z.F.Z.F.<.h =.S.H.H.H.U.U.].^.Y.+.q x { -.-.,.j.G.G.F.A.F.F.F.F.F.D.Z.N.Z.Z.N.c.<.) W W W / [ +.#.5.e.w.d.B.v.@.y .   X . @ 9 r m E >.r.b.H.!.F.",
"= R G.}.D.N.N.c.<.^ B 9 $ O   . . , 7.}.M.F.U.k.4.=.+.+.@.{ [ _ { #.8.c.N.U.Y.H.U.U.U.U.Y.U.F.F.b.8.5.e.s.8.E U N 8.Y.$X'.^.Y.Y..Xe.c =.N.A.A.F.F.F.A.A.A.Z.Z.N.N.N.N.b.M.v.v.c.j.q.e.<._ Y h J _ =.,.5.9.e.5.,.9.r.a.a.a.a.j.j.j.j.k.k.k.k.k.c.v.v.v.M.M.M.N.Z.M.Z.Z.Z.A.v.-.9.Z.H.r.>.Z.H.F.F.G.G.G.G.H.H.H.G.U.U.F.5.A.U.U.H.H.H.H.H.H.H.!.s.8.U.U.e.w.N.Z.D.G.Z.e.[ e.A.F.H.Y.U.H.H.!.!.!.!.Y.Y.Y.Y.Y.Y.Y.Y.^.^.^.^.^.^.'.'.^.^.^.^.^.^.^.^.^.(.(.(.^.^.^.^.^.^.}.}.}.}.}.}.}.}.}.}.}.}..XH.D.}.}.}.}.}.}.}.}.}.}.}..X.Xb.N.e.b..X}.}.}.}.}.}.}.}.}.^.^.^.H.!..X}.|.}.}.}.}.}.}.}.}.}.}.}.}.}.}.}.}.}.}.}.}.}.}.}.}.}.}.}.}.}.}.}.}.(.{.{.{.^.^.^.^.^.^.^.^.!.!.!.!.U.U.U.U.H.U.G.s.@.c.G.H.G.H.Z.<.e.!.H.8.j.U.U.Y.U.H.H.H.H.H.U.b.>.F.H.G.G.G.H.H.H.H.H.H.G.G.U.H.a.=.M.b.r.*.c.F.Z.Z.Z.Z.Z.N.N.N.N.N.b.c.k.k.k.k.k.j.j.j.j.s.a.a.r.e.9.5.=.>.8.e.9.5.@.~ H j r T =.-.e.s.s.j.k.x.x.x.c.c.c.v.v.v.M.M.N.N.F.Z.Z.F.A.E T N.F.H.H.].].].N.W j G { 9.8.4.4.j.U.U.F.F.H.H.G.G.H.D.Z.D.A.j.5.@.~ ~ ^ ) _ +.-.,.w.a.k.M.c.#.x .     .   @ 6 z S } r.Z.D.U.}.r.z ",
"$ o 9 >.U.!.U.M.k.8.=.R t $ O       + s -.M.I.M.k.4.-.-.>.=.=.@.@.@.=.<.s.Z.H.U.U.U.U.U.U.U.H.G.s.<.5.a.b.<.=.b.5.n E N.^.|.^.H.}.5.@.s.Z.A.F.F.F.F.A.A.A.Z.Z.N.N.N.N.b.M.v.c.k.r.8.r.*._ Z c U { -.<.9.e.9.5.<.9.r.a.a.a.a.j.j.j.k.k.j.j.k.v.v.v.v.v.M.M.M.N.N.M.Z.Z.Z.Z.M.<.8.N.Z.x.=.b.H.F.F.G.G.G.G.H.H.H.H.U.U.H.e.M.U.U.U.H.H.H.H.H.H.^.N.>.H.Y.k.<.b.G.F.F.Z.a.{ 5.Z.F.H.Y.U.H.H.!.!.!.^.Y.Y.Y.Y.Y.Y.Y.Y.^.^.^.^.^.^.'.'.^.^.^.^.^.^.^.^.^.^.{.(.^.^.^.^.^.^.}.}.}.}.}.}.}.}.}.}.}.}..XH.Z.}.^.^.}.}.}.}.}..X.X.X.X.Xb.C.r.b..X}.|..X.X|.}.}.}.}.^.^.}.H.!..X}.|.}.}.}.}.}.}.}.}.}.}.}.}.}.}.}.}.}.}.}.}.}.}.}.}.}.}.}.}.}.}.}.}.(.{.{.^.^.^.^.^.^.^.^.^.!.!.!.!.U.U.U.U.H.U.F.e.-.M.H.H.G.H.N.<.x.^.Z.<.N.U.U.U.U.U.H.H.H.H.U.j.5.G.H.G.G.G.H.H.H.H.H.H.H.H.U.Z.>.w.N.M.8.<.b.F.Z.Z.Z.Z.Z.N.N.N.N.N.b.c.k.k.k.k.k.k.k.j.j.s.a.a.a.r.e.8.-.>.5.e.9.5.=.) W v e N @.*.<.l.s.s.j.k.x.x.x.x.c.v.v.v.M.M.N.N.Z.N.N.Z.H.q.m l.F.H.U.!.Z.=.n ~ A.j.[ 8.e.9.3.e.F.H.F.F.H.H.G.G.G.H.F.N.w.,.{ [ ) _ [ { -.3.9.y.x.b.N.<.v :           + t m Q >.c.U.}.U.r.m *   ",
"h = @ @ c j.}.Y.N.s.a.3.) h - @ o X .   . m ,.M.N.j.9.9.8.5.<.,.>.>.>.>.<.a.B.Y.U.U.U.U.G.U.G.N.5.<.e.k.j.<.r.G.}.F.~ h ,.Y..X^.G.s.x.n.A.F.F.F.F.F.A.A.A.Z.Z.N.N.N.N.b.b.v.k.j.e.e.8.[ ) h B W +.-.5.e.r.8.<.5.r.a.a.a.a.s.j.j.j.k.s.9.5.a.k.c.v.v.M.M.M.N.N.Z.Z.Z.Z.Z.A.A.9.<.c.Z.D.@.s.F.G.G.G.G.H.H.H.H.H.H.H.U.U.k.a.U.U.U.H.H.H.H.U.U.^.H.,.b.^.N.<.j.G.H.F.F.k.<.-.M.F.H.U.Y.U.H.!.!.^.^.'.'.'.'.'.'.'.'.^.^.^.^.^.^.^.^.^.^.(.{.^.^.^.^.}.}.}.}.}.}.}.}.}.}.}.}.}.}.}.}.}.}.}.}.}..X.XU.Z.}.^.^.}.}.}.}..X.X.X.X.X.Xb.C.r.b..X}.|.|.|.|.}.}.}.}.^.}.|.H.U..X}.|..X}.|.}.|.|.|.|.}.}.}.}.}.}.}.}.}.}.}.}.}.}.}.}.}.}.}.}.}.}.}.}.}.}.}.}.^.^.^.^.^.^.^.^.^.^.^.^.!.!.U.U.G.U.N.<.5.Z.H.H.H.H.x.<.F.}.b.5.G.Y.U.H.U.U.H.H.H.H.G.r.e.U.H.H.G.G.H.H.H.H.H.H.H.U.H.b.{ j.N.c.-.e.Z.F.A.A.A.A.Z.Z.Z.Z.N.N.b.v.b.M.c.j.j.j.k.k.j.j.s.a.a.r.e.9.<.-.5.e.9.5.-.{ E N t j ) { -.l.a.s.s.j.x.x.x.x.c.v.v.v.M.M.N.N.N.b.b.Z.C.c.A 8.H.H.!.j.N G j.'..XG.{ 5.r.p.8.9.M.F.H.G.H.G.G.G.U.F.x.9.#.@.@.@.@.=.<.5.6.a.v.v.N.e.R 9 > < > . .   * t Z { s.H.#X=Xv.U $     @ ",
"E y * X   < E b.}..XY.r.=.R z 9 - .   @ o > y ^ r.M.N.M.c.a.e.8.5.5.5.5.e.6.y.x.U.U.U.U.D.G.N.a.=.8.c.v.a.<.b.^..X|.Y.>.q J s.'.Z.x.b.b.A.F.F.F.F.F.A.A.A.Z.N.N.N.N.N.b.v.c.k.s.8.r.=.{ Y j G ~ @.<.9.9.e.8.5.5.r.a.a.s.j.j.k.k.s.j.e.<.9.j.k.a.v.v.M.M.N.N.N.Z.Z.Z.Z.Z.A.F.a.-.s.N.F.5.r.F.G.H.G.G.H.H.H.H.H.H.H.U.Y.N.9.G.U.U.H.H.H.H.U.U.^.H.8.r.^.F.8.t.Z.H.F.F.c.5.+.v.F.G.U.Y.U.H.!.!.^.^.'.'.'.'.'.'.'.'.^.^.^.^.^.^.^.^.^.^.^.{.(.^.^.^.}.}.}.}.}.}.}.}.}.}.}.}.}.}.}.}.}.}.}.}.|..X.XU.Z.}.}.}.}.}.}.}..X.X.X.X.X.Xb.C.r.b..X}.|.|.|.|.}.}.}.}.}.}..XU.!..X.X.X.X}.}.}.|.|.|..X}.}.}.}.}.}.}.}.}.}.}.}.}.}.}.}.}.}.}.}.}.}.}.}.}.}.}.}.^.^.^.^.^.^.^.^.^.^.^.^.!.!.U.U.H.U.N.=.w.F.U.G.H.G.s.>.H.}.c.8.H.Y.H.H.U.U.H.H.H.U.F.8.s.U.H.H.G.G.H.H.H.H.H.H.U.U.H.k.=.M.N.a.>.k.F.A.A.A.A.A.Z.Z.Z.Z.N.N.b.c.M.b.a.5.>.5.9.r.j.j.s.a.a.a.e.9.5.-.<.9.9.5.>.{ Q Z j y E *.@.r.a.a.s.s.x.x.x.x.c.v.v.v.M.M.N.N.b.b.b.Z.r.A.<.8.H.H.{ w +.U.}.Y..XY.8.=.9.f.e.9.k.A.U.H.H.H.G.G.Z.j.5.>.<.<.<.3.5.8.r.j.v.A.N.s.} x 9 q q y t =   @ t J -.k.U.|.v.+.t     @ 4 m ",
"<.) c < @ . . r ) x.^.U.C.<.E c y d d y h d h v Y _ 9.k.F.G.A.v.x.s.r.r.r.e.e.r.a.M.U.U.U.H.c.,.<.j.M.j.5.9.F.^.}.}.{.{.t.m 5 [ r.v.r.k.N.Z.N.F.F.F.F.F.Z.N.N.N.M.M.M.b.v.k.j.s.9.5.=.{ m n U _ -.5.9.e.e.5.<.9.s.a.s.s.j.s.a.<.=.<.<.@.e.j.k.9.9.v.M.M.N.N.Z.Z.Z.Z.Z.Z.A.F.M.-.r.M.F.s.,.F.H.H.H.H.H.H.U.U.U.H.J.J.U.U.8.Z.].U.U.U.U.Y.Y.Y.^.Y.k.5.F.Y.s.9.N.H.G.H.A.8.{ j.H.F.U.Y.Y.H.Y.^.'.'.'.'.'.^.^.^.^.^.^.^.{.{.{.{.{.(.}.}.}.}.^.^.^.^.}.}.}.}.{.}.}.}.}.}.}.}.}.}..X.X}.}.}.}..X.X.X^.D.}.}.}..X.X.X.X X.X.X.X.X.Xb.Z.s.N.XX|.|.|.|.|..X.X.X.X}.}..X^.^..X.X.X.X.X.X}.}.}.}.}.}.}.}.}.}.}.}.}.}.}.}.|.|.|.|.|.}.}.}.}.}.}.}.}.}.}.}.}.^.^.(.(.^.^.^.^.'.'.^.^.Y.Y.Y.U.H.!.s.=.j.F.U.H.H.F.9.q..X(.e.a.^.^.Y.Y.U.U.U.U.H.^.N.<.Z.U.H.H.H.H.H.H.H.H.H.H.U.U.G.6.9.M.M.9.2.b.D.D.Z.Z.Z.Z.Z.Z.Z.Z.N.N.j.s.j.9.<.,.8.e.5.+.=.a.j.a.a.r.e.9.8.>.>.9.e.8.<.@.[ U c y G +.+.,.s.a.a.k.k.x.x.c.c.v.v.b.M.M.M.M.N.b.N.A.r.k.k.a.N.G 4 e.|.|.|.|.}.|.c.@.9.a.s.s.9.A.U.G.G.G.Z.M.8.5.3.9.w.e.e.r.a.k.Z.U.G.k.,.U c h d h y h w 8 e B { r.U.=XU.E :   . < t x N Z ",
"t.8.>.{ m < O O @ t ^ b..X^.c.>._ ^ W E U A V N B H W @.9.Z.|.'.U.Z.c.j.j.r.r.r.e.w.a.N.U.F.a.,.r.N.N.s.5.s.Y.'.}.}.}.}.^.N.A = 4 Z ~ M.k.M.F.F.F.F.F.F.Z.Z.N.N.M.M.M.b.v.k.j.a.9.-.{ ) c N E { ,.8.e.e.e.8.8.r.s.a.s.s.j.j.` ` 5.9.e.8.8.9.9.-.[ a.v.N.N.Z.Z.Z.Z.Z.Z.Z.F.A.Z.8.8.M.Z.M.@.F.H.H.H.H.H.H.U.U.U.U.J.J.U.U.r.b.!.U.U.U.U.Y.Y.Y.Y.Y.A.<.Z.].c.5.N.G.H.H.F.r.*.r.F.F.U.^.^.U.Y.^.'.'.'.'.^.^.^.'.^.^.^.^.{.{.{.{.(.(.}.}.}.}.^.^.^.^.}.}.}.}.{.}.}.}.}.}.}.}.}.}..X.X}.}.}.}..X.X.X}.G.}.}.}..X.X.X.X X.X.X.X.X.XN.Z.j.N.#X.X.X.XXXXX.X.X.X.X.X}..X^.}..X.X.X.X.X.X.X}.}.}.}..X.X}.|.}.}.}.}.}.}.|.|.|.|.|.|.}.}.}.}.}.}.}.}.}.}.}.}.^.^.^.^.^.^.^.^.'.'.^.^.Y.Y.Y.U.H.H.e.>.c.G.U.H.H.F.5.l..XH.q.b.^.^.Y.Y.U.U.U.U.U.^.k.8.F.U.U.H.H.H.H.H.H.H.H.H.U.U.G.#.s.N.k.<.<.b.Z.F.Z.Z.Z.Z.Z.Z.Z.Z.N.c.e.e.9.5.8.a.r.a.j.j.5.{ r.a.a.r.r.e.9.<.>.5.e.9.5.-.{ W N d N ) +.@.s.a.a.s.k.x.x.c.c.v.v.b.M.M.M.M.N.N.Z.F.N.r.+.U 8 4 k.'.|.|.|.}.}.|.F.5.8.r.s.s.9.k.G.F.A.v.a.8.5.w.a.s.j.s.j.M.F.Y.].U.5._ G Z N m m m n m m G [ 4.N.'.$XM.K . . % q c Z Z J ^ ",
"x.j.r.5.<.E c > @ . * N e.Z.H.N.s.<.) R Y Y U G G G U ) { 8.Z..X.X'.U.Z.N.k.s.s.s.s.a.a.N.k.5.5.b.F.N.r.5.N.}..X}.}.}.}..X}.F.E @ @ 9 9.s.F.U.G.F.F.F.A.A.A.N.N.N.M.M.b.v.k.j.a.f.,.+.Y h B ~ @.<.9.r.9.9.5.9.a.s.s.s.s.r.+.+.a.j.j.k.k.j.j.j.9.-.8.M.N.Z.Z.Z.A.Z.Z.Z.Z.F.A.F.j.<.b.B.D.>.v.H.U.G.G.H.H.U.U.U.U.J.J.U.U.c.t.^.H.U.U.U.Y.Y.Y.Y.^.].5.v.].Z.<.b.F.H.H.G.c.>.q.Z.H.H.Y.'.Y.Y.^.'.'.'.'.'.'.'.'.'.'.^.^.^.{.}.}.}.}.}.}.}.}.}.}.}.}.}.}.}.}.}.}.}.}.}.}.}.}.}.|.|.|..X.X.X.X.X.X.X.XU..X}.}..X.X.X.X.X.X.X.X.X$XZ.D.j.C.$XXXXXXXXXXX.X.X.X.X.X}..X}.}..X.X.X.X.X.X.X.X.X.X.X.X.X.X.X.X.X.X.X|.|.|.|.|.|.|.|.|.|.|.|.}.}.}.}.}.}.}.}.}.}.}.}.^.^.^.^.}.'.'.'.Y.Y.Y.Y.H.D.<.5.N.H.H.U.H.Z.<.A..XN.5.G.^.Y.Y.Y.Y.Y.Y.Y.^.U.a.a.Y.Y.U.H.H.H.H.H.H.H.H.H.Y.U.N.{ b.N.s.=.e.Z.F.F.D.D.D.D.Z.Z.Z.Z.b.r.<.e.j.a.a.j.j.s.a.s.a.5.[ 9.a.a.r.r.9.5.,.<.e.e.8.<.+.~ Z h h W =.+.r.a.a.a.k.x.x.c.c.v.v.b.M.M.M.M.N.F.F.H.A.~ 1 = x a.'.'.|.|.}.}.}.|.^.s.5.r.j.j.a.r.M.Z.v.r.9.j.j.c.b.b.c.b.G.^..X|.v.=.E G G U U E E E ~ ^ O.9.k.T.@XS.=.9 + . : w m Y ) #.8.9.",
"N.C.b.s.w.<.) A c 4 @ X < W N.^.U.j.-.[ _ [ ) W E E W ~ ) -.9.j.G.^.$X}.U.Z.v.k.k.c.c.x.s.e.8.M.Z.H.b.5.8.F.$X#X.X.X.X.X.X^.^.c.d < = 0 s.}.H.H.F.F.F.A.A.A.N.N.N.M.M.v.v.k.j.a.r.,.{ B x G ~ -.5.9.r.9.8.5.9.a.s.s.s.s.-.+.r.a.k.j.s.s.j.j.k.s.j.5.9.v.Z.Z.Z.A.A.Z.Z.Z.F.A.A.k.3.x.D.F.e.9.F.U.G.G.H.H.U.U.U.U.J.J.U.U.N.8.].U.U.U.U.Y.Y.Y.Y.Y.^.a.a.Y.A.5.s.G.H.H.H.v.<.<.N.H.G.Y.'.^.Y.Y.'.'.'.'.'.'.'.'.'.'.^.^.^.^.}.}.}.}.}.}.}.}.}.}.}.}.}.}.}.}.}.}.}.}.}.}.}.}.}.|.|.|..X.X.X.X.X.X.X}.}..X}..X.X.X.X.X.X.X.X.X$X$XZ.F.j.Z.$XXXXXXXXXXX.X.X.X.X.X.X$X.X.X.X.X.X.X.X.X.X.X.X.X.X.X.X.X.X.X.X.X.X|.|.|.|.|.|.|.|.|.|.|.|.}.}.}.}.}.}.}.}.}.}.}.}.^.^.^.^.}.'.'.'.Y.Y.Y.U.U.C.>.w.Z.H.H.U.U.c.<.U.|.k.9.H.^.Y.Y.Y.Y.Y.Y.Y.^.H.9.k.Y.Y.U.H.H.H.H.H.H.H.H.H.U.U.j.@.M.N.s.-.x.F.F.G.D.D.D.D.Z.Z.Z.Z.c.5.=.8.s.k.k.j.j.j.a.r.a.a.5.{ e.a.r.r.9.8.5.5.8.e.9.5.@.^ G c y H { =.5.r.s.s.k.x.x.c.c.v.v.b.M.M.M.N.N.F.H.N.W 4 = y e.M.F.'.|.|.|.|.|.}.^.N.3.e.j.x.c.a.r.k.j.k.b.N.Z.Z.Z.Z.H.}..X}.A.e.[ W Y ~ ) ) _ @.@.+.-.8.f.A.`.U.3.k = . : 5 y B ^ <.w.a.k.v.",
"N.N.Z.b.n.e.-.^ ^ H c 3 X X t e.U.G.r.5.<.,.=.+.=.=.@.+.@.=.<.5.r.k.F.'.'.^.U.Z.b.b.N.A.x.e.s.N.H.F.k.<.j.^..X|.}.}.}.}.^.^.^.r.d m H y n r.F.U.U.F.B.Z.Z.Z.B.N.N.M.M.v.k.k.j.a.9.-.^ n c J ) -.8.r.r.9.<.8.r.a.s.s.s.8.=.9.j.j.j.j.j.j.j.j.j.j.9.e.a.j.N.Z.M.A.A.A.Z.A.F.A.A.N.3.s.B.H.b.-.F.U.G.G.G.G.U.U.U.U.U.Y.U.U.H.w.A.].U.U.U.Y.Y.Y.Y.Y.].k.5.].H.a.a.H.H.H.F.b.e.=.c.H.H.Y.}.'.U.Y.^.'.}.}.}.}.}.}.'.'.}.}.}.}.}.}.}.}.}.}.}.}.}.}.}.}.}.}.}.}.}.}..X.X.X.X.X.X.X.X.X.X.X.X.X.X.X.X.X.X.X.X.X.X.X.X.X.XXXXX.X.X.X$XZ.D.s.Z.$XXXXX#XXXXX.X.X#X$X.X.X.X.X.X.X.X.X.X.X.X.X.X.X.X.X.X.X.X.X.X.X.X.X.X.X|.|..X.X.X.X.X.X.X.X.X.X.X.X}.}.}.}.}.}.}.}.}.}.}.}..X}.Y.U.'.'.Y.U.!.b.>.j.U.U.H.U.F.r.q.(.(.r.k.(.Y.Y.Y.Y.Y.Y.Y.Y.}.Z.5.Z.].Y.U.H.H.H.U.U.H.H.H.H.H.^.5.5.N.N.9.5.Z.H.H.G.F.F.F.F.F.Z.D.Z.r.<.>.5.r.k.k.k.j.j.j.s.9.a.9.W 5.e.e.r.9.9.5.5.5.9.9.5.=.) U m w N [ >.=.e.r.j.j.x.x.c.c.c.v.c.b.v.M.M.F.H.k.A y _ R 9 [ c.Z.Y.}.|.|.|.|.|.}.G.a.8.a.s.v.v.9.a.N.Z.Z.A.F.H.U.}.}.^.H.j.<.{ ~ _ _ { @.-.,.<.5.5.e.a.M.M.O.f # # 8 8 t m W +.9.a.k.N.F.}.",
"U.G.G.Z.N.t.5.=.{ ) W m 4 X + 9 Z +.5.9.9.9.e.5.9.9.8.8.5.5.<.<.5.w.a.x.F.U.}.}.F.Z.Z.A.v.a.c.N.H.F.a.3.Z.}..X|.}.|.}.}..X^.H.[ x W s.H.W d 5.H.H.F.A.Z.Z.Z.Z.N.N.M.M.v.k.j.j.r.5.@.E c m Y [ >.9.a.r.8.<.9.a.a.s.a.5.>.5.a.a.a.j.j.j.j.j.j.j.a.8.k.v.r.c.M.N.Z.Z.A.A.A.A.A.F.Z.e.e.c.H.Z.=.N.H.G.G.G.G.U.U.U.U.U.U.U.U.H.t.N.].U.U.U.Y.Y.Y.Y.Y.].Z.<.G.^.k.8.F.H.H.F.Z.r.>.s.H.H.Y.}.'.Y.Y.'.'.}.}.}.}.}.}.'.'.}.}.}.}.}.}.}.}.}.}.}.}.}.}.}.}.}.}.}.}.}.}..X.X.X.X.X.X.X.X.X.X.X.X.X.X.X.X.X.X.X.X.X.X.X.X.X.XXXXX.X.X.X$XZ.D.s.Z.$XXXXXXXXXXX.X.X#X#X.X.X.X.X.X.X.X.X.X.X.X.X.X.X.X.X.X.X.X.X.X.X.X.X.X.X.X.X.X.X.X.X.X.X.X.X.X.X.X.X}.}.}.}.}.}.}.}.}.}.}.}.|.}.'.Y.'.'.Y.U.^.s.>.b.U.U.U.U.F.5.a.}.!.8.A.}.Y.Y.Y.Y.Y.Y.Y.Y..Xc.9.H.].Y.Y.U.H.H.U.U.H.H.H.H.U.U.=.a.N.v.8.9.F.H.G.G.F.F.F.F.F.D.F.j.w.j.j.8.r.k.k.k.k.j.j.s.r.e.9.<.^ <.a.r.e.9.8.5.5.9.e.8.>.{ W B y c ) -.@.w.a.s.j.k.c.c.k.k.c.c.c.b.b.Z.A.8.m ^ v.G.<.y B a.c.U.'.}.|.|.|.|.|.U.c.w.e.s.v.v.a.k.Z.A.A.F.H.U.^.}.H.c.8.<.@.{ { @.-.<.5.5.9.9.8.q.8.<.Y 8 + + @ @ , j E +.<.<.8.a.Z.].$X#X",
"1.}.$X^.G.b.t.w.w.} Q Z c y q 4 % 1 8 x ~ =.9.r.j.j.k.k.s.r.9.5.8.8.8.e.j.N.G.Y.}.Y.H.N.c.a.k.v.A.N.w.y.^..X.X}.}.|.}.}..X^.j.Z Z 3.H.Y.U.<.h [ Z.H.F.F.Z.Z.Z.Z.Z.N.M.v.k.k.l.8.<.{ G k Z ~ +.<.e.r.r.5.5.e.a.a.e.3.@.r.a.a.a.a.j.j.j.j.j.j.j.9.5.c.M.a.5.M.Z.Z.A.A.F.F.F.F.F.F.k.5.s.D.H.<.k.H.H.H.H.G.U.U.U.U.U.U.Y.Y.^.b.k.].U.Y.Y.Y.Y.Y.Y.Y.].U.<.M.^.A.<.N.U.H.H.F.k.5.w.F.H.Y.}.'.Y.'.}.|.}.}.}.}.}.}.}.'.}.}.}.}.}.}.}.}.|.|.|.|.|.|.|.|..X.X.X}.}.}.|..X.X.X.X.X.X.X.X.X.X.X.X.X.X.X.X.X|.|.|.|..X.X.X.XXXXX.X.X.X$XZ.F.t.D.XXXXXXXXXXXX.X.X.X#X.X.X.X.X.X.X.X.X.X.X.X.X.X.X.X.X.X.X.X.X.X.X.X.X.X.X.X.X|.|.|.|.|.|.|.|..X.X.X.X}.}.}.}.}.}.}.}.}.}.}.}.|.|.|.}.^.'.^.U.!.5.<.Z.U.!.U.U.A.>.Z.|.F.5.H.!.Y.Y.Y.Y.Y.Y.Y.Y.}.s.k.^.^.Y.Y.Y.H.H.U.U.H.H.H.H.U.D.@.c.N.j.5.a.H.H.G.F.F.F.F.F.F.F.Z.5.N.Z.c.w.r.k.k.k.k.j.j.j.a.e.r.j.5.) =.9.r.e.9.5.5.9.9.8.<.+.~ G j d E @.+.5.s.s.j.j.c.c.k.k.c.c.v.M.Z.Z.[ m 5.Z.U.U.s.Z x <.j.A.Y.}.|.|.|.|.|.}.A.e.5.k.c.e.e.M.F.G.G.U.Y.^.H.b.s.8.<.5.<.<.5.9.r.a.r.r.e.9.<.{ U t = 1 w % . % j ~ 5.9.e.8.9.j.'.qX].Y ",
": m s..X.XG.N.n.r.1.=.E Z c c m c m x B N c @.s.v.b.M.N.M.v.j.s.a.e.8.8.r.s.j.N.F.H.Y.H.N.s.j.k.v.x.w.v.}..X.X}.|.|.|.}.}.!.<.c ^ j.Y.^.^.Y.s.Z E j.H.Z.Z.Z.Z.N.Z.N.M.v.k.k.a.5.-._ B j H ) @.<.e.r.e.5.5.r.s.a.5.>.e.w.a.a.a.j.j.j.j.j.j.j.a.r.r.b.A.A.r.5.M.A.A.A.F.F.F.F.F.F.v.5.a.B.H.r.a.F.H.H.H.G.U.U.U.U.Y.Y.Y.Y.^.Z.l.].U.Y.Y.Y.Y.Y.Y.Y.'.].8.j.'.].<.v.H.U.H.G.b.8.5.Z.H.Y.}.'.'.'.|.|.}.}.}.}.}.}.}.}.}.}.}.}.}.}.}.}.|.|.|.|.|.|.|.|..X.X.X}.}.}..X.X.X.X|.|..X.X.X.X.X.X.X.X.X.X.X.X|.|.|.|..X.X.X.X.XXX.X.X.X$XZ.F.t.D.XXXXXXXXXXXX.X.X#X#X.X.X.X.X.X.X.X.X.X.X.X.X.X.X.X.X.X.X.X.X.X.X.X.X.X.X.X.X|.|.|.|.|.|.|.|..X.X.X.X|.}.}.}.}.}.}.}.}.}.}.}.|.|.|..X^.'.^.U.G.<.5.D.H.!.U.U.b.<.!.|.v.q.H.^.^.Y.Y.Y.Y.Y.Y.Y.!.r.Z.^.^.Y.Y.Y.H.H.U.U.H.H.H.H.U.N.,.v.M.s.5.k.H.G.G.F.F.F.F.F.Z.D.j.w.F.N.s.e.r.k.k.j.k.j.j.a.a.r.r.s.r.-.) ,.e.e.9.5.5.9.e.9.8.=.) U c y U +.{ <.s.s.s.j.k.k.c.c.c.c.b.M.k.Y R j.Z.F.F.A.N.{ d ^ x.b.U.'.}.|.|.|.|.|.H.s.9.j.k.a.k.Z.Y.].].'.H.N.j.s.r.e.9.8.9.r.j.k.v.v.c.c.r.<.E h y c v h y e 8 j ^ #.9.0.v.N.G.].v.) 8   ",
"+ @ + y <.*X<XH.Z.j.r.=.R N n B U Y W ~ W ^ ^ +.e.k.N.A.F.F.F.Z.N.c.r.w.8.e.j.v.v.N.H.Y.Y.N.k.k.k.e.a.G..X.X.X.X}.}.'.^.'.N.G B <.F.^.Y.Y.Y.Y.F.^ Z <.C.F.C.N.N.N.N.v.c.j.k.a.<.@.^ h n R [ >.8.a.r.8.<.8.r.a.a.9.9.e.e.a.s.j.j.j.j.l.j.r.j.s.w.9.N.A.Z.c.=.Z.F.A.F.F.F.F.F.F.F.D.r.8.N.F.x.9.G.H.H.H.H.H.H.H.H.U.U.U.Y.Y.U.s.F.].Y.Y.Y.].].].].^.^.s.9.}.|.<.a.H.H.H.H.Z.r.=.c.U.Y.}.|.}.}.}.|.}.}.}.}.}.}.}.}.}.}.}.}.|..X.X.X|.|.|.|.|.|.|.|..X.X.X.X.X}. X}..X}..X.X.X.X.X.X.X.X.X.X.XXXXX$X.X.X.X.X.X.X.X.X.X.XXXXXXX$XZ.F.l.D.$XXXXXXXXXXXXX#X#X#X.X.X.X.X.X.X.X.X.X.X.XXX$X$X$X$X.X.X.X.X.X.X.X.X.X.X.X.X.X.X.X.X.X.X.X.X.X.X.X.X.X.X.X.X}.}.|.}..X}.}.}.}.}.}..X}.}.H.H.N.} t.D.J.Y.^.U.r.8.^.^.r.j.H.^.{.{.^.^.Y.U.].}.F.w.H.'.Y.Y.^.U.U.Y.!.!.U.U.U.U.U.j.5.Z.c.r.5.N.H.G.G.F.F.F.G.G.Z.F.a.5.B.N.c.e.9.k.k.j.k.k.j.s.a.a.a.a.e.9.9.r.e.e.9.5.5.8.r.9.8.-.{ W B s N _ { -.r.a.j.j.j.k.b.k.v.v.c.-.m @.N.C.Z.Z.Z.F.F.r.Z B e.M.A.U.^.}.}.}.|.|.Y.v.3.k.j.N.F.U.^.}.^.F.c.x.j.s.e.8.w.s.j.b.C.C.Z.C.N.b.5.Y H ) ) ) Y B B G E _ -.9.k.Z.]..XG.W : X . $ ",
"@ X @   $ S n.*X,X.XN.5.{ W U U ~ ) [ { { @.=.#.>.8.s.N.H.U.Y.^.J.D.b.j.s.a.r.j.x.c.b.N.U.U.A.k.v.a.x.Y..X.X.X.X}.}.'.^.^.e.d ^ e.H.^.Y.U.U.Y.Y.H.=.N ] b.Z.C.C.N.M.v.k.j.a.9.-.{ E h B W { <.9.a.r.8.<.9.r.a.a.9.<.r.j.a.s.j.j.j.j.l.j.j.k.r.8.w.N.A.A.j.>.Z.Z.F.F.F.F.F.F.F.F.G.d.5.v.F.M.5.G.H.H.H.H.H.H.H.H.U.U.U.U.U.'.j.A.].U.U.Y.].].].].^.^.v.<.U.}.s.e.H.H.H.H.Z.j.=.s.U.Y.'.|.}.}.}.}.}.}.}.}.}.}.}.}.}.}.}.}.|.|.|..X}.}.}.}.}.}.|.|..X.X.X.X.X.X.X.X.X.X.X.X.X.X.X.X.X.X.X.X.X.X#X$X.X.X.X.X.X.X.X.X.X.XXXXXXX$XZ.F.l.D.$XXXXXXXXX.X.X#X#X#X.X.X.X.X.X.X.X.X.X.X.X.X$X$X#X#X.X.X.X.X.X.X.X.X.X.X.X.X.X.X.X.X.X.X.X.X.X.X.X.X.X.X.X.X}.|.|.}..X}.}.}.^.}.}..X}.}.H.H.j.@.j.J.U.Y.Y.J.e.r.^.H.e.b.U.!.Y.Y.Y.Y.Y.U.Y.}.N.r.Y.'.Y.Y.^.U.U.!.!.!.U.U.U.U.U.e.e.Z.c.8.8.F.H.H.G.F.F.F.G.G.A.F.d.5.F.D.c.e.<.a.k.k.k.k.j.s.a.a.a.a.a.9.e.a.r.r.e.5.5.5.0.9.8.,.{ ~ A h c ~ +.=.8.r.s.j.j.k.k.c.k.j.) m =.b.C.Z.Z.D.Z.F.F.v.^ x ,.v.N.H.^.}.}.}.|.|.'.Z.8.a.b.D.H.!.U.G.C.c.c.c.c.c.j.s.x.N.b.Z.F.Z.Z.F.b.8.=.-.q.5.=.=.+.[ ) { -.,.8.k.G..XY.4.h % @ @ X   ",
"> @ X $ @ o 3 U b.,X$XZ.e.=.[ ) _ { =.,.,.5.r.e.8.5.6.s.N.H.'..X^.J.F.Z.N.b.c.c.c.c.v.b.v.U.].I.M.f.N.|..X.X.X.X}.}.'.^.F.E x =.N.^.Y.^.U.U.U.U.H.U.8.A U j.b.C.M.v.c.k.l.0.4.+.[ A h G _ =.5.e.a.r.8.<.e.r.a.e.<.5.j.a.a.s.j.j.j.j.j.j.x.j.r.8.j.Z.A.F.k.,.N.F.F.F.F.F.G.G.G.G.D.v.8.c.A.A.5.A.H.H.H.H.H.H.H.H.U.U.U.U.U.}.M.v.].Y.Y.].].].].].^.^.F.>.F.|.Z.5.H.H.H.H.F.b.>.5.F.U.^..X}.}.}.}.}.}.}.}.}.}.}.}.}.}.}.}..X.X.X.X.X X X X X.X.X.X.X.X.X.X.X.X.X.X.X.X.X.X.X.X.X.X.X.X.X.X.X.X.X.X.XXXXXXXXXXXXX.X.X.XXXXXXX$XZ.F.j.F.$XXXXXXXXX.X.X.X#X#X.X.X.X.X#X#X.X.X.X.X.X.XXXXXXXXXXXXXXXXXXXXXXXXXXXXXXXXX.X.X.X.X.X.X.X.X.X.X.X.X X X X X|.|.}.}.}.}.}.^.^.}.}..X}.}.H.H.8.>.b.J.Y.{.Y.H.5.b.}.D.8.D.U.U.Y.Y.Y.Y.U.U.U.^.k.x.}.^.Y.Y.!.^.!.!.!.!.!.!.U.U.H.<.j.C.s.<.t.H.H.G.G.F.F.F.F.F.F.F.c.5.D.G.M.a.<.a.k.k.k.k.j.s.a.a.a.a.a.e.e.e.e.r.r.9.5.5.9.r.9.<.@.^ U n h Y *.+.,.9.a.j.j.j.j.c.9.U A r.v.M.Z.Z.F.F.D.F.G.F.5.n ^ s.b.Z.U.^.}.}.}.|.|.U.s.j.G.H.H.H.Z.b.x.c.b.b.C.Z.Z.Z.D.G.F.G.F.N.Z.e.>.<.r.9.9.<.=.=.=.-.4.4.-.-.r.F.G.a.B < $ 1 < 8 q 5 ",
"/ H h 9 < = O . 6 2.XX;XH.r.<.{ { =.<.8.9.s.b.b.k.a.r.w.s.b.G.^.}.^.H.G.H.G.F.A.N.N.N.N.Z.Z.U.Y.A.M.F.'..X.X.X.X}.}.'.^.x.h ~ 5.U.}.U.}.U.U.U.H.H.U.U.c.U N >.b.b.v.k.j.a.9.-.{ ) N h U { >.8.r.a.r.8.<.e.r.r.e.<.9.a.a.a.s.j.j.j.j.j.j.j.s.r.r.N.F.Z.A.j.5.Z.A.F.F.F.F.G.G.G.G.G.D.e.s.N.G.e.v.H.H.H.H.H.H.H.H.U.U.U.U.U.Y.F.s.].Y.U.Y.].].].].Y.}.Y.9.b..XF.<.H.H.H.H.F.C.>.>.A.H.^..X}.}.}.}.}.}.}.}.}.}.}.}.}.}.}.}..X.X.X.X X X X X X.X.X.X.X.X.X.X.X.XXX.X.X.X.X.X.X.X.X.X.X.X.X.X.X.X.X.XXXXXXXXXXXXXXXXX.X.XXXXXXX$XZ.F.j.F.$XXXXXXX.X.X.X.X#X$X.X.X.X.X$XXXXX.X.X.X.X.XXXXXXXXXXXXXXXXXXXXXXXXXXXXXXXXX.X.X.X.X.X.X.X.X.X.X.X.X X X X X.X|.}.}.}.}.^.^.^.}.}..X}.}.H.H.2.1.D.{.^.{.U.F.<.D.}.N.w.D.U.U.Y.Y.Y.Y.U.H.U.^.j.Z.'.^.Y.Y.^.^.!.!.!.!.!.!.U.U.D.=.N.b.e.<.c.G.H.G.G.F.F.F.F.F.F.F.b.5.B.G.Z.j.5.j.k.k.k.k.j.s.a.a.a.a.a.a.9.5.e.r.r.e.5.<.9.r.r.5.=.) E B y U +.+.=.5.r.s.j.j.j.@.B Y a.M.Z.Z.Z.D.F.F.D.F.G.G.N.U Z e.c.N.H.^.}.}.}.|.}.^.Z.H.!.U.D.N.c.x.c.N.N.Z.H.!.U.U.H.H.G.G.Z.b.<.5.e.r.a.j.r.e.<.=.=.,.4.+.@.5.Z.v.) 9 = = < q n ~ +.,.",
"a.e.>.W h < & & O - R b.H.b.3.=.-.,.5.r.v.b.b.N.M.b.v.c.x.v.B.D.H.J.H.H.F.F.A.Z.A.F.G.H.U.U.G.S.Z.k.G.|..X.X.X.X.X}.Y.U.{ m @.c.Y.Y.Y.Y.Y.U.U.U.G.G.G.G.b.@.m W s.c.k.k.a.<.+.{ ~ x N W @.<.w.e.a.e.5.5.r.r.r.r.5.e.a.r.a.j.j.a.l.l.j.j.j.r.8.j.A.Z.A.N.5.s.F.F.F.F.F.F.G.G.G.G.H.G.s.9.M.U.j.9.].H.G.H.U.U.U.H.Y.U.U.U.U.'.Y.r.F.^.U.Y.^.'.^.^.Y.Y.Y.c.r.|.Y.5.c.G.H.U.G.D.8.[ c.U.H.|.'.'.'.'.^.^.^.^.}.}.}.^.^.^..X.X}.}.}..X X X X X X.X.X.X.X.X.X.X.X.X.X.X.X.X.X$X$X$X.X.X$X$X.X.X.X.X.X.X#X#X#X$X%X$X#XXX.X.X$X$X.X$XC.Z.s.Z..X X.X.X.X.X.X.X$X$X$X$X$X$X$X$X$X$X$X$X$X$X$XXXXXXXXXXXXXXXXXXXXXXXXXXXXX.X.X.X X X X X X X.X X X}.}.}. X X.X}.}.(.(.^.^.}.}.}.}.}..X^.G.Z.} r.H.!.^.U.}.c.<.H.!.j.x.{.}.U.Y.Y.Y.Y.Y.U.}.Y.a.Y.'.^.^.^.^.^.!.!.!.!.!.!.!.U.b.=.F.c.8.<.Z.H.H.H.G.H.F.F.F.F.G.F.B.5.d.J.F.M.s.s.c.k.k.k.j.j.a.a.a.a.a.a.8.<.e.a.a.r.8.<.9.r.r.5.>.[ W A y V _ +.=.5.9.r.j.9.W n +.k.N.Z.Z.Z.Z.Z.F.F.G.G.G.G.A.,.x #.b.b.Z.^.}.}.|.|.}.Y.U.^.^.H.Z.Z.Z.Z.Z.D.H.H.U.U.U.H.H.G.F.b.j.e.e.r.s.x.c.c.k.j.e.5.-.+.[ ^ @.r.a.Z * X = - q B _ 5.a.s.",
"k.v.j.5.^ 6 & & & & < d ~ { +.@.@.,.e.k.N.N.Z.Z.Z.N.N.M.M.N.B.D.F.F.F.F.F.F.F.F.U.Y.Y.^.^.Y.I.F.b.v.H..X.X.X.X}.}.^.Y.F.d E >.Z.Y.Y.Y.Y.Y.U.U.U.G.G.G.G.H.N.5.c m -.a.s.5.=.+.{ U x Z ^ @.<.w.e.a.e.5.9.a.a.a.a.9.8.j.a.e.a.l.l.l.l.l.s.r.e.r.b.Z.N.F.b.8.v.G.H.F.F.F.F.G.G.G.G.H.H.c.9.v.U.M.<.H.H.G.H.U.U.U.H.Y.U.U.U.Y.^.Y.c.M.].Y.Y.].].].].Y.Y.Y.F.8.Y.^.s.j.F.H.U.H.G.r.{ s.U.H.^.}.}.|.|.}.}..X.X.X.X.X.X.X}..X.X.X.X$X$X$X$X$XXX$X$X$X$X$X$X$X$X$X$X$X$X*X*X*X*X*X*X*X$X$X$X$X$X$X$X$X$X$X$X$X$X$X$X#X$X$X$X$X$XXX$XZ.Z.a.Z.$X$X$X$X$X$X$X$X*X*X*X*X*X*X*X*X*X*X*X*X*X*X$X$X*X*X$X$X$X$X$X$X$X$X$XXX$X$X$X$X$X$X$X$X$XXXXX X X}. X.XXX.X.X.X|.}.}.|..X.X.X.X.X.X}.U.H.c.@.j.U.!.^.U.^.s.8.^.U.r.b.!.^.^.Y.Y.Y.Y.Y.Y.'.A.k.Y.'.'.^.^.^.^.!.!.!.!.!.!.!.U.e.8.D.t.<.w.F.U.H.H.G.H.F.F.F.F.G.G.D.r.5.B.F.F.k.9.j.v.k.k.j.j.a.a.a.a.a.e.5.9.r.a.a.r.9.,.9.r.r.8.<.{ ^ U d c _ *.=.-.9.e.5.G B 5.v.v.N.Z.Z.Z.Z.Z.F.F.H.G.G.G.Y.y.n E j.c.N.H.^.}.}.}.^.H.Z.B.H.!.^.U.U.U.U.U.H.H.H.U.H.H.H.F.b.c.j.s.s.j.c.b.N.b.v.c.x.r.3.@.Y U G A B t < < 1 5 c ) 8.a.e.9.",
"-.s.b.s.] d r u u h t h x J ^ @.<.e.k.M.Z.A.F.G.G.F.F.A.D.D.D.F.F.Z.Z.F.H.H.H.U.^.^.}.|.(.Y.F.Z.Z.F.Y.$X.X.X.X}.^.^.U.<.j E a.Y.Y.Y.Y.Y.Y.U.U.U.G.G.G.F.F.D.Z.r.U h ) 9.-.=.{ [ N x J [ >.5.e.e.a.9.5.e.a.a.a.a.9.8.j.j.a.s.j.l.l.l.a.r.e.e.j.N.Z.Z.F.9.a.A.G.G.F.G.H.G.G.G.G.G.H.H.N.5.j.U.Z.<.Z.G.H.U.U.U.U.U.Y.Y.Y.Y.^.^.'.F.a.U.].U.].].].].U.Y.'.|.s.N.}.N.r.F.H.!.U.U.x.} 8.G.G.H.Y.^.^.^.^.^.^.}.^.^.^.^.H.Z.Z.Z.b.N.C.Z.Z.Z.N.N.N.N.N.N.C.C.C.C.C.C.C.C.Z.Z.Z.Z.Z.Z.F.F.F.F.F.F.F.D.Z.Z.Z.Z.Z.Z.C.C.Z.C.N.N.N.N.b.N.c.N.j.x.D.F.F.F.F.F.F.F.F.F.G.G.F.F.F.F.F.F.F.F.F.D.D.F.F.H.G.G.G.G.F.F.F.F.G.H.H.U.!.!.!.!.!.!.!.U.H.H.H.F.F.F.H.G.H.(.|.|.}.}.}.}.}.}..X.X!.H.^.e.{ b.^.^.].!.U.8.j.^.H.e.Z.Y.Y.!.Y.Y.Y.Y.Y.Y.].v.M.}.'.}.^.^.^.^.^.^.^.^.^.^.!.!.>.s.b.8.=.j.H.!.H.H.H.H.H.H.G.G.G.H.J.b.,.v.U.F.b.8.9.v.j.j.s.a.a.a.a.a.9.-.e.r.s.s.a.a.r.,.8.r.r.9.3.@.[ ~ c g ~ =.,.=.5.<.N G r.Z.M.M.N.Z.A.A.Z.Z.F.F.H.H.H.H.U.A.E m 8.c.N.D.^.^.^.^.'.U.A.b.G.U..X.X.X}.^.^.U.H.H.H.H.G.F.Z.b.b.b.b.N.N.Z.Z.N.N.M.b.v.c.k.s.3.E B J U S Z Z C V S ) 9.s.9.4.",
"* A w.x.Q D Q Q R R R ~ ^ +.-.e.M.A.A.Z.B.A.F.G.U.U.H.G.G.G.G.G.H.D.D.H.H.H.!.!.^.'.}.}.^.H.A.N.].}.}.$X.X.X}.^.^.^.s.@.c _ A.U.Y.Y.Y.Y.Y.U.U.U.G.G.G.F.N.Z.Z.N.j._ s U <.-.+.) x x E { <.8.e.e.r.9.5.9.s.s.s.s.r.5.-.-.9.a.e.8.r.e.9.q.e.e.c.N.Z.A.M.<.M.G.F.Z.G.G.H.H.G.G.G.G.G.U.Z.5.0.G.C.8.b.G.U.U.U.U.U.U.Y.Y.Y.Y.'.Y.'.U.8.H.'.U.F.F.F.F.A.F.U.Y.M.s.'.H.8.A.H.!.^.!.c.=.<.F.F.F.F.A.A.Z.Z.C.C.N.b.c.c.c.x.e.8.8.5.8.e.r.e.9.w.8.8.8.8.8.w.w.w.w.w.w.w.w.e.e.e.w.8.8.e.e.e.e.r.r.e.e.e.e.w.w.8.8.1.1.8.8.5.8.r.t.s.j.k.Z.C.e.w.r.w.w.e.e.e.e.e.e.8.8.8.8.q.q.5.5.5.5.5.5.5.5.w.w.w.w.e.e.e.e.e.e.e.r.t.s.a.r.r.r.r.r.r.r.r.e.9.8.8.e.r.r.a.b.G.H.N.N.N.C.C.C.Z.Z.Z.C.H.=.@.b.^.U.!.!.H.<.b.U.Z.s.U.{.U.Y.Y.Y.Y.Y.U.Y.U.s.Z.|.^.'.^.^.^.^.^.^.^.^.^.^.!.G.=.b.b.5.>.C.H.H.H.H.H.H.H.H.G.G.G.H.H.N.5.r.H.F.b.r.,.r.e.e.9.9.9.e.a.a.+.=.r.a.s.s.a.a.a.-.5.r.r.9.5.-.{ _ m y U +.,.-.[ n W j.v.M.M.Z.N.Z.A.A.Z.F.F.F.H.H.H.H.Y.Y.6.x { j.b.N.^.^.^.^.|.|.Y.F.Z.H.^.$X.X}.^.!.U.U.H.H.G.F.D.Z.Z.Z.Z.Z.F.F.F.F.A.Z.N.N.N.N.N.M.k.4._ H U Y W Q ] E U W <.s.3.) ",
"+ X 4 m W [ =.=.-.@.+.+.3.e.M.G.Y.Y.U.H.U.U.U.U.Y.Y.Y.Y.H.H.H.H.H.H.U.U.U.U.Y.^.^.'.}.^.U.F.F.U..X.X#X.X$X.X^.!..XF.e.[ y a.Y.Y.].].].U.U.H.H.H.G.F.F.F.Z.N.N.N.v.k.>.W <.<.=.W s N ^ @.3.5.e.r.a.8.5.r.a.l.j.k.s.r.<.+.@.-.,.[ _ 8.a.a.5.j.Z.Z.N.x.,.a.F.G.F.F.G.G.G.G.H.H.H.H.H.U.G.5.r.G.S.k.a.U.Y.U.Y.Y.Y.Y.].].].].^.^.].].r.F.}..XN.j.c.b.v.b.b.b.c.a.}.Y.8.M.U.U.Y.].N.,.>.Z.G.F.F.F.Z.Z.N.N.N.N.b.b.b.b.b.b.b.b.c.c.c.c.v.c.j.s.s.s.j.j.j.j.j.x.x.x.x.x.x.x.x.x.j.j.j.j.j.j.j.k.c.c.b.b.b.b.b.b.b.b.C.Z.N.N.N.N.Z.C.Z.b.C.b.N.N.N.N.N.N.N.N.N.N.b.b.b.b.b.b.b.c.c.c.c.c.c.c.c.c.M.M.M.M.b.b.b.b.b.b.b.b.N.N.N.N.N.N.C.C.C.C.Z.Z.C.C.C.C.Z.Z.Z.Z.Z.Z.A.A.N.N.N.N.N.D.F.@.5.Z.^.Y.Y.].Z.5.G.^.b.s.Z.C.b.b.Z.N.M.N.F.'.U.a.!.^.^.^.^.^.^.^.(.(.(.^.(.U.(.C.-.F.j.<.8.G.^.U.J.J.J.J.H.H.H.H.H.H.H.F.r.-.c.Z.N.b.8.=.8.8.8.e.5.5.8.>.{ 8.s.a.j.j.j.s.j.5.5.r.r.e.8.<.=._ G y G @.-.<.W [ k.b.M.M.M.M.N.B.A.F.G.F.F.G.G.H.H.U.U.Y.N.Y N a.v.N.A.U.U.U.}..X.X'.F.D.F.^.XXXX X}.^.U.H.H.H.H.H.H.H.H.H.H.H.H.U.U.H.F.F.D.Z.Z.Z.N.c.a.<.{ ) ^ ) [ ) S u q c H c 6 ",
"= & X X h ) @.@.3.3.3.9.M.D.Y.'.Y.Y.U.U.U.Y.Y.U.Y.Y.Y.Y.J.J.J.J.U.U.Y.Y.Y.Y.Y.Y.'.'.^.U.G.F.!..X#X$X#X.X}.!.U.}.H.c.s.x ^ A.^.U.].].].U.U.H.H.H.H.F.F.F.Z.N.N.N.b.c.e.-.8.5.+.U d G _ =.5.8.e.a.a.8.9.a.l.j.k.k.k.j.a.9.<.>.<.<.-.9.s.5.8.b.A.N.N.5.+.M.H.F.F.G.G.G.G.G.H.H.H.H.H.U.G.9.9.A.S.k.9.].Y.U.Y.Y.Y.Y.].].].].^.^.].].c.b.}.}.D.b.N.Z.Z.A.A.F.H.v.^.}.r.c.U.].].].Z.5.>.b.F.Z.Z.Z.C.N.N.N.N.N.N.N.b.N.Z.Z.Z.Z.Z.Z.Z.Z.A.Z.C.C.C.Z.Z.Z.C.C.C.C.Z.Z.Z.Z.Z.Z.Z.Z.Z.D.D.D.C.C.Z.Z.Z.Z.D.F.F.F.F.F.F.G.G.H.J.J.J.G.H.Z.A.A.F.C.F.F.F.F.F.F.F.F.F.F.D.D.D.D.D.D.D.D.D.D.D.D.A.A.A.A.A.A.A.A.D.D.D.D.Z.Z.Z.Z.Z.Z.Z.Z.Z.Z.Z.Z.Z.D.D.F.A.A.A.A.Z.Z.Z.Z.Z.Z.A.A.A.Z.D.D.D.H.b.{ e.G.{.Y.^.Y.M.9.U.U.b.c.c.c.c.c.M.b.M.N.H.Y.A.c.}.}.^.^.^.^.^.^.(.(.^.^.(.!.!.k.5.F.s.5.k.U.^.U.J.J.J.J.H.H.H.H.H.H.H.H.b.=.+.s.F.N.e.=.<.5.8.8.=.@.#.=.5.a.k.j.k.k.k.j.j.5.5.r.r.e.9.5.-.{ E c m { <.<.=.<.j.k.b.M.M.M.N.B.A.F.G.F.F.G.G.H.H.H.U.Y.F.<.d =.M.M.v.N.U.'.'.}..X.XY.F.D.F.^. X.X}.^.^.U.U.U.U.H.H.U.U.U.U.U.U.U.U.U.H.H.H.G.F.F.A.A.Z.N.N.M.k.r.8.>.2.! q . . O ; ",
"> = X $ s Y _ =.5.y.v.A.'.'.}.Y.U.Y.Y.Y.Y.Y.Y.Y.Y.Y.Y.U.U.J.J.J.U.Y.^.^.^.^.Y.^.^.^.U.F.H.^..X$X$X$X.X}.!.U.U.U.M.N.{ d s.^.^.^.^.^.].U.U.H.H.H.H.F.F.A.Z.N.N.N.v.a.=.-.9.5._ n h U { ,.5.9.r.s.s.8.8.l.j.k.c.c.c.c.v.v.k.9.<.9.a.e.a.r.a.M.Z.Z.v.5.s.A.F.F.G.H.H.H.H.H.H.H.H.H.H.U.].j.8.C.A.M.8.F.^.^.Y.Y.^.^.].].'.'.].].].].D.r.U.^.U.H.U.H.U.Y.Y.Y.|.F.F.|.v.s.U.'.].].A.r.<.c.^.U.^.^.}.}.}.}. X X}. X}.}. X X X X}..X}..X.X.X X X X X.X X.X}.}.}. X X.X.X X X.X.XXXXXXXXX.X.X.X.X.X.X.X#XXXXXXXXXXXXX$X$X$X$X$X$X*X$X.X^..X}.$X*X$X$X$X$X$X$X$X$X$X$X$X$X$X$X*X*X*X*X*X*X$X$X$X$X$X$X$X$X$X$X$X$X$X$X$X$XXXXXXXXXXXXXXXXXXXXXXXXX.X.X.X.X.X.X.X.X.X.X.X.X.X.XXXXXXXXXj.@.c.U.}.}.'.U.j.s.H.Z.Z.Y.H.G.D.Z.F.A.F.H.U.U.c.Z.}.}.}.^.^.^.^.^.^.^.^.^.(.(.H.9.a.G.s.8.G.Y.Y.Y.J.J.J.J.H.H.H.H.H.G.H.H.G.j.5.M.H.G.c.r.8.e.e.8.e.a.r.e.s.c.v.c.k.c.k.k.j.9.9.r.r.r.e.8.<.=._ B h ^ 5.5.-.[ ,.j.v.b.N.N.B.Z.F.F.G.F.G.G.G.H.H.H.Y.Y.].Z.B G k.v.j.b.A.^.|.'.}..X XY.F.D.F.Y. X X}.^.!.!.!.!.U.U.Y.Y.Y.Y.Y.Y.Y.Y.U.U.H.H.H.H.H.F.A.F.G.F.N.Z.N.c.w.} Q N - O O @ ",
"@ . = B W U T { 9.M.'.|.'.Y.R.U.U.Y.^.^.'.^.^.Y.Y.Y.Y.Y.U.Y.Y.Y.Y.^.'.'.'.}.^.^.U.H.F.Z.^..X$X*X$X$X.X'.U.^.U.Z.Z.8.x _ F.U.Y.'.^.^.!.U.U.H.H.H.H.F.F.A.Z.N.N.N.j.5.Y <.8.<.~ s m W +.<.8.w.a.s.j.8.9.j.k.k.c.v.b.c.b.N.b.j.9.s.a.k.k.v.M.v.M.b.k.N.U.U.F.H.H.H.H.H.H.H.H.H.H.H.U.U.].v.5.v.A.Z.9.v.^.}.Y.Y.^.^.].].'.'.].].].].H.e.Z.}.}.^.}..X|..X.X.X}.U.A.}.Z.r.U.}.].].F.j.5.j.^..X}.}..X.XXX.X.XXXXXXXXXXXXXXX#X#X.X.X.X.X.X.XXXXXXXXXXXXX.X.X.X.X.X.XXXXX#X#X$X$X$X$X$X$X$X$X$X$X$X$X*X*X$X$X$X$X$X$X*X;X*X*X*X$X;X;X.XA.}.^.$X;X$X$X*X*X*X*X*X*X$X$X$X$X$X$X$X$X$X$X$X$X$X$X$X$X$X$X$X$X$X$X$X$X$X$X$X$X$X$X$X$X$X$XXXXXXXXXXXXX.X.X.X.X.X.X.X.X.X.X.X.X.X.XXXXX XXXr.<.N.^.}.}.}.U.r.c.^.Z.Z.}.}.}.}.{.|.^.Y.^.Y.H.s.U.}.}.}.}.^.^.^.^.^.^.^.^.].}.H.<.x.H.a.8.Y.Y.U.Y.J.J.J.J.H.H.H.H.H.H.H.H.H.H.N.b.Z.Z.N.C.Z.Z.N.b.v.s.w.s.M.b.b.v.c.v.c.k.j.e.9.r.r.r.e.9.<.>.{ G d U <.9.<.~ @.a.c.b.N.Z.Z.Z.F.F.G.G.G.G.G.H.H.H.Y.].U.].+.h <.N.c.v.N.A.'.}.'.}. X XY.F.Z.F.Y. X}.}.^.^.^.^.^.!.^.Y.^.^.^.^.^.^.^.^.U.U.U.H.H.U.G.U.U.A.H.F.c.8.[ W U S h = . . ",
"+ 1 Z E ^ ~ ~ ~ +.9.N.H.Y.}.}.Y.^.^.^.Y.}.}.}.}.Y.Y.Y.Y.Y.Y.{.Y.^.}.|.}.}.|.}.^.H.F.G.^..X$X*X$X.X}.!.U.}.!.N.b.c.G m b.U.^.'.^.^.^.].!.U.H.H.G.G.F.F.A.Z.N.N.v.a.@.W 9.8.<.G j Z ^ -.8.e.e.r.t.a.e.r.k.k.c.v.v.v.v.v.v.v.v.r.,.<.5.<.-.-.-.=.=.b.F.H.G.G.G.G.G.H.H.H.H.H.H.H.H.Y.U.].M.,.M.G.Z.s.s.^.^.^.^.^.^.^.^.'.'.^.^.^.^.}.j.c.^.}.}.}.}.}.}.|.|.}.}.v.}.H.r.G.^.}.}.U.b.5.e.G.}..X.X.X.X|..XXX X X|..X.XXXXXXXXX.X.X.X.X.X.XXXXXXXXXXXXX.X.X.X.X.X.X.X.XXXXXXXXX$X$X$X$X$XXX$X$X$X$X$X$X$X$X$X$X$X$X*X;X*X*X*X*X;X;X*XF.}.}.*X*X*X*X*X*X*X*X*X*X$X$X$X$X$X$X$X$X$X$X$X$X$X$X$X$X$X$X$X$X$X$X$X$X$X$X$X$X$X$X$X$X$X$X$X$XXXXXXXXXXXXX.X.X.X.X.X.X.X.XXXXX.X.XXXXX$X}.<.q.Z.Y.}. XU.G.0.A.^.b.F..X}.}.|.}.}.}.}.}.|.N.s.^.}.}.}.}.^.^.^.^.(.(.(.(.].'.b.<.N.U.s.>.U.}.^.Y.U.U.J.J.H.H.H.H.H.H.H.H.H.U.F.j.{ =.8.5.r.r.8.8.{ ,.r.M.b.b.b.b.b.v.v.c.c.e.9.a.a.r.e.9.9.5.@.U c Z =.e.8.) ) 9.x.M.N.Z.N.Z.A.F.F.F.F.F.H.H.H.U.U.].Y.].M.Z Z j.b.s.b.N.A.Y.}..X.X.X X{.J.D.F.J..X$X.X}.}.}.}.^.^.^.^.^.^.^.^.^.{.{.^.Y.!.H.H.H.U.U.^.}.U.k.>.[ W ^ Q R A z 3 @ ",
"m U ~ ) O.@.@.O._ *.<.r.v.D.Y.#X#X.X}.'.}.}.}.}.Y.Y.Y.Y.Y.{.{.{.'.}.'.'.}.|.^.H.G.H.^..X$X*X$X^.H.!.}.}.^.Z.N.b.E x 9.Y.^.'.^.^.^.^.!.!.H.H.H.G.G.F.F.A.Z.N.b.k.r.) @.8.8.=.B x J [ <.8.w.e.r.r.r.9.r.c.c.v.v.v.v.v.v.b.M.M.k.e.8.9.e.9.a.a.r.r.N.G.H.G.G.G.H.H.H.H.H.H.H.H.H.H.U.^.Y.j.5.N.U.S.k.a.Y.'.^.^.^.^.^.'.'.'.^.^.^.^.}.n.r.H.}.}.}.}.}.}.|.|.}.|.b.U.^.a.M.}.}.|.].Z.5.8.Z..X.X.X.X.X.X|. X X.X X.X.XXXXXXXXX.X.X.X.X.X.XXXXXXXXXXXXX.X.X.X.X.X.X.X.XXXXXXXXX$X$XXXXX.X.X.X.X.X.X.X.XXXXXXXXXXX$X$X$X*X*X*X*X;X;X*XH.}.}.*X*X*X*X*X*X*X*X*X*X$X$X$X$X$X$X$X$X$X$X$X$X$X$X$X$X$X$X$X$X$X$X$X$X$X$X$X$X$X$X$X$X$X$X$XXXXXXXXXXX.X.X.X.X.X.X.X.X.X.X.X.X.X.X.X.X$XJ.<.e.D.{.}.}.^.Z.9.U.^.b.H..X}.}.}.}.}.}.}.}.^.v.c.}.}.}.}.}.^.^.^.^.(.(.(.(.].(.k.<.F.U.c.@.M.Y.Y.U.Y.U.U.J.H.H.H.H.H.H.H.H.U.^.U.Z.5.=.w.r.w.8.5.<.9.s.M.N.N.M.M.M.M.v.v.c.c.r.9.a.r.r.e.8.e.8.-.^ n m { r.e.[ W 8.j.v.N.Z.N.Z.A.F.F.F.F.F.G.H.H.U.U.Y.Y.Y.].5.c _ s.c.j.s.N.G.Y.^. X X X X!.F.Z.Z.^..X.X}..X}.}.}.}.'.'.^.^.^.^.^.{.{.{.{.^.!.^.^.U.U.Z.k.8.=._ ^ Q Q W E W Q Q E ",
"s.9.4.-.-.4.;.-.=.=.-.5.a.v.U. X$X#X#X.X}.}.}.}.Y.Y.Y.Y.Y.{.{.{.}.'.^.}.|.'.U.H.H.^..X$X$X$X'.H.F.!.}.^.N.c.s.[ d >.Y.^.'.'.^.^.^.!.!.!.H.H.G.F.G.F.F.A.Z.M.x.a.<._ <.8.8.[ n n W +.<.e.w.8.e.r.s.r.r.k.c.c.c.b.v.v.b.v.Z.N.M.v.M.M.M.Z.A.A.F.G.D.H.H.H.H.H.H.H.H.H.H.H.H.H.H.U.Y.'.F.r.s.F.U.S.b.r.H.}.^.^.'.'.^.^.'.'.'.'.^.^.^.G.e.U.}.}.}.}.}.}.|.|.|..XN.N..Xx.s.^.}..X'.G.r.<.b..X.X.X.X.X.X.XXXXX.X.X.X.XXXXXXXXX.X.X.X.X.X.XXXXXXXXXXXXX.X.X.X.XXX#X.X.XXXXXXXXX$X$XXXXX.X.X.X.X.X.X.X.XXXXX$XXXXX$X$X$X*X*X*X*X*X*X=XH.}.}.*X*X*X*X*X*X*X*X*X*X$X$X$X$X$X$X$X$X$X$X$X$X$X$X$X$XXXXXXXXX$X$X$X$XXXXX$X$X$X$X$X$X#X#X.X.X.X.X.X.X.X.X.X.X.X.X.X.X.X.X.X.X.X.X.X.X#XN.>.s.U.|.}.}.^.v.a.'.H.b.^..X}.}.}.}.}.}.}.}.'.k.N..X}.}.}.}.^.^.^.^.(.(.(.(.(.!.e.8.U.U.Z.3.8.F.'.^.Y.Y.U.U.H.H.H.H.H.H.H.H.U.U.U.H.F.D.H.Z.N.N.b.b.N.N.N.N.N.N.N.N.M.v.v.c.c.a.r.a.r.e.w.8.e.w.<.{ A x W 8.a.=.W -.r.x.M.N.N.Z.A.A.F.F.F.F.G.H.H.U.U.U.].Y.].U.{ x [ a.j.a.b.N.A.H.Y.}.}.}. X^.F.Z.Z.H.}..X.X.X.X}.}.}.}.'.^.^.^.^.{.{.}. X.X.X.X.X}.Y.N.r.=.{ ) ) ) ^ ) [ #.2.w.e.",
"M.k.a.0.4.4.4.4.9.e.s.s.Z.J.{.{.}..X$X*X$X}.}.}.Y.Y.Y.Y.Y.{.{.{.}.}.}.}.'.U.H.H.}.$X$X$X.XY.G.F.U.}.!.Z.j.8.^ x [ Z.H.}.^.^.^.^.!.!.!.U.H.H.G.G.F.F.F.A.N.b.j.e.[ <.>.9.8.^ j m ) =.3.r.e.5.5.s.v.l.a.k.c.c.v.b.M.v.b.b.M.N.N.Z.G.Z.Z.A.A.F.G.G.H.H.G.G.G.G.G.G.H.H.H.H.H.H.H.U.^.Y.M.e.N.U.U.Z.N.e.F.}.^.^.'.'.^.^.'.'.'.'.^.^.^.!.e.Z.}.}.}.}.}.}.|.}.|..XN.v..XN.r.U.}..X'.U.x.<.s.}..X.X.X.X.X.XXX.X.X.X.X.XXXXXXXXX.X.X.X.X.X.XXXXXXXXXXXXX.X.X.X.X$X#X.X.XXXXXXXXXXXXXXXXX.X.X.X.X.X.X.X.XXXXX$XXXXX$X$X$X*X*X*X*X*X*X=X!.}.}.*X*X*X*X*X*X*X*X*X*X$X$X$X$X$X$X$X$X$X$X$X$XXX$XXXXXXXXXXXXX$X$X$X$XXXXX$X$X$X$X$X$X.X#X.X.X.X.X.X.X.X.X.X.X.X.X.X.X.X.X.X.X.X.X.X.X#Xc.>.x.U.|. X}.Y.k.c.'.G.N.}.}.}.}.}.}.|.|.}.}.|.k.Z..X}.}.}.}.^.^.^.^.(.(.(.(.'.U.5.e.U.Y.G.b.>.j.^.|.{.Y.Y.Y.H.H.H.H.H.H.H.H.H.H.H.H.H.H.Z.D.D.D.D.D.A.Z.Z.N.N.N.N.N.M.v.v.c.k.a.a.j.r.e.8.5.e.e.5.+.E h G ,.r.5.W [ 8.j.v.N.N.Z.A.A.F.F.G.F.G.H.H.U.U.U.Y.Y.'.].F.{ x W <.a.s.k.M.A.F.Y.{.}.$XXX}.J.C.Z.U.}..X.X.X.X.X|.|.'.'.^.^.^.{.}. X X}.}.^.H.^.U.F.N.a.5.-.#.{ [ { =.r.e.e.e.",
"k.j.f.r.9.4.q.0.a.c.Z.H.!.!.Y.Y.Y.^.{. XXXXXXXXX^.Y.Y.Y.Y.^.}.}.}.}.}.^.U.H.H.^..X$X$X}.U.F.F.U.'.^.F.9.5.G B @.N.H.!.}.^.^.^.U.U.U.U.U.H.H.G.G.F.F.F.D.N.j.t.>.[ 8.>.9.<.U h A _ -.5.9.s.9.<.5.j.k.a.k.c.v.b.b.b.b.M.M.N.N.N.Z.Z.Z.Z.Z.G.G.G.G.G.G.G.G.G.G.H.H.H.H.H.H.H.H.H.U.^.Z.r.b.H.H.U.U.F.r.Z.|.^.^.^.^.^.^.(.(.(.}.}.U.'.#X5.N.|.}.|.|.}.}.}.}.}.}.!.e.|.H.r.F.|.}.'.^.N.5.5.Y..X.X.X.X.X.X.X.X.X.X.X.X.X.X.X.X.X.X.X.XXXXXXXXXXXXX.X.X.X.X.X.X.X.X.X.X.X.X#X$X$X#X#X#XXXXXXXXXXXXX$X$XXXXX$X$X$X$X$X*X$X$X$X$X*X*X;X{.}.}.*X*X$X$X$X$X$X*X*X*X$X$X$X$X$X$X$X$X$X$X$X$X$X$X$X$X$X$X$X$X$X$X$X$XXX$X$X$X$X$X$X$X.X.X.X.X.X.X.X.X.X.X.X.X.X.X.X.X.X.X.X.X.X.X.X.X.Xr.<.Z.}.}. X}.U.r.A.(.Z.F..X.X.X.X|.}.}.}.}.}.^.e.Z..X'.'.'.}.}.}.}.}.}.}.{.}.}.F.=.j.H.H.H.D.s.<.C.^.Y.U.H.U.U.U.U.U.U.U.U.U.U.U.H.G.G.F.F.F.Z.Z.Z.Z.A.Z.Z.N.N.M.b.v.b.b.c.s.a.x.c.j.e.e.e.e.r.e.8.@.E m c { e.e._ A { <.j.M.Z.Z.Z.A.F.F.G.H.H.H.G.F.H.U.Y.U.^.^.Y.U.5.Z N } 8.j.N.G.F.G.U.^.}.XXXX{.U.Z.Z.H.^..X.X.X.X}.}.}.^.^.^.^.^..X.X}.^.!.U.!.G.G.G.G.G.Z.k.w.1.>.2.6.r.r.w.w.",
"v.j.s.a.9.8.p.k.Z.F.H.U.U.U.U.U.Y.Y.Y.{.}.{.{.{.^.Y.Y.Y.Y.^.}.}.}.^.U.H.H.U.}.$X$X$X}.H.G.F.H.Y.^.G.x.=.-.<.a.N.U.^.^.^.^.^.U.H.H.G.H.G.G.G.F.F.F.F.F.D.b.r.@.Q 5.-.5.r.+.B j G { <.8.e.a.e.8.5.5.9.k.c.c.v.b.b.b.M.M.N.N.N.Z.A.A.A.A.A.F.A.F.F.F.G.G.J.G.G.H.H.H.H.H.H.H.H.H.U.H.t.r.F.H.H.U.U.A.9.M.'.^.^.^.^.^.^.(.(.^.}.^.^.^.N.3.A.}.}.}.}.}.}.}.}.}.}.^.r.^.U.s.N.}.}.'.^.Z.5.>.F..X.X|.|..X.X.X.X.X.X.X.X.X.X.X.X.X.X.X.XXXXXXXXXXXXX.X.X.X.X.X.X.X.X.X.X.X.X#X#X$X#X.X.XXXXXXXXXXXXX$X$XXXXX$X$X$X$X$X*X$X$X$X$X*X*X$XG.^.}.$X$X$X$X$X$X$X$X*X$X$X$X$X$X$X$X$X$X$X$X$X$X$X$X$X$X$X$X$X$X$X$X$X$XXX$X$X$X$X$X$X$X.X.X.X.X.X.X.X.X.X.X.X.X.X.X.X.X.X.X.X.X.X.X.X.X^.5.8.H.}.}. X}.G.r.F.^.Z.U..X.X.X|.|.}.}.}.}.}.^.=.N..X|.|.|.}.}.}.}.}.}.}.}.{.}.C.=.c.H.U.U.H.Z.e.8.H.^.^.U.U.Y.Y.Y.Y.Y.Y.Y.Y.Y.U.U.U.H.H.H.H.F.F.F.F.A.Z.Z.N.N.M.v.v.b.b.x.s.a.k.a.5.e.e.e.e.r.e.w.=.) Z j ~ e.r.=.G Y W <.v.Z.Z.Z.Z.D.F.F.F.G.F.F.D.F.G.U.U.Y.Y.U.U.F.b.8.m ) b.F.G.F.F.G.U.^..X$XXX$X{.F.N.D.!..X.X.X.X}.}.^.^.^.^.^.}.}.^.!.H.H.H.G.G.G.G.H.G.F.N.x.t.w.5.5.w.t.s.",
"Z.N.M.v.a.a.k.A.H.H.H.H.H.H.H.H.U.U.U.Y.{.{.!.!.^.Y.Y.Y.Y.'.}.}.^.U.H.H.U.}.$X$X$X|.U.F.H.U.U.U.N.c.v.c.M.F.U.Y.U.^.^.!.^.U.H.H.G.F.F.F.F.F.F.F.F.D.D.Z.x.@.C E e.=.9.9._ c N W =.5.9.r.e.9.r.a.s.9.<.j.v.v.b.v.v.b.b.M.N.N.N.Z.A.A.A.A.F.F.F.F.G.H.G.G.G.G.G.G.H.H.H.H.H.H.H.G.c.e.Z.F.U.U.U.U.Z.5.k.(.(.(.(.(.^.(.(.(.}.^.}.}.r.e.H.Y.|.}.}.}.}.}.}.}.}..X}.s.H.^.j.v.'.'.}.|.H.s.>.b..X.X|.|..X.X.X.X.X.X.X.X.X.X.X.X.X.X.X.XXXXXXXXXXX.X X X.X.X.X.X.X.X.X.X.X.X.X#X.X.X.X.X$XXXXXXXXXXX$X$XXX$X$X$X$X$X$X*X$X$X$X$X*X$X.XD.H..X$X$X$X$X$X$X$X$X$X$X$X$X$X$X$X$X$X$X$X$X$X$X$X$X$X$X$X$X$X$X$X$X$X$X$X$X$X$XXXXX$X$XXXXXXXXXXXXXXXXX.X.X.X.X.X.X.X.X.X.X.X.X.X.X.X.XZ.<.j.^. X}. X XZ.s.H.].b.{..X.X.X.X.X}.}.}.}.}..XC.*.F.}..X.X}.}.}.}.}.}.}.}.{.!.b.>.j.Z.H.U.U.H.Z.5.j.U.U.U.G.U.U.U.U.U.U.H.H.H.H.F.F.F.F.F.F.Z.Z.Z.Z.Z.Z.M.M.M.v.v.c.c.v.c.j.s.e.5.<.e.e.e.e.r.r.e.,.[ J x H 5.a.8.W U U +.k.N.N.N.Z.Z.Z.D.F.Z.Z.Z.D.F.F.F.G.U.U.U.U.H.H.H.j.e.b.Z.C.F.F.D.G.H.}.XXXX.X.X}.H.C.F.^.}..X.X.X}.}.^.^.!.^.^.^.!.H.H.H.H.F.G.G.F.F.F.F.A.D.N.v.t.s.x.b.N.",
"U.G.F.F.A.N.Z.U.G.G.F.F.H.H.H.H.U.U.J.J.Y.Y.Y.Y.^.Y.Y.Y.Y.'.}.'.U.H.U.^.}.$X$X$X|.U.F.H.Y.'.Y.F.j.v.N.s.v.G.U.H.H.!.^.U.U.H.H.H.F.F.F.F.F.F.F.F.D.D.D.B.j.2.W ] 5.5.8.<.Y k B ) -.8.e.r.e.9.a.k.c.j.9.-.v.v.b.v.j.k.x.c.b.b.b.N.N.N.N.N.M.M.M.M.b.C.b.C.Z.Z.Z.Z.Z.Z.A.A.b.b.N.r.5.b.H.H.U.U.U.U.Z.<.j.].(.(.(.(.^.(.(.(.}..X.Xr.5.^.'..X}.}.}.}.}.}.}.}.}..X}.j.A.'.x.j.^.'.}.|.^.N.1.j..X.X|.|..X.X.X.X.X.X.X.X.X.X.X.X.X.X.X.XXXXXXXXXXX X X X.X.X.X.X.X.X.X.X.X.X.X.X.X.X.X.X#XXXXXXXXXXX$X$X$X$X$X$X$X$X$X*X$X$X$X$X*X*X$XG.D..X$X$X$X$X$X$X$X$X$X$X$X$X$X$X$X$X$X$X$X$X$X$X$X$X$X$X$X$X$X$X$X$X$X$XXXXX$X$XXXXXXX$XXXXXXXXXXXXXXXXX.X.X.X.X.X.X.X.X.X.X.X.X.X.X.X.Xx.>.C.}. X X X XN.j.U.!.N.}.}..X.X.X.X.X}.}.}.}.^..XZ.@.Z.}..X|.}.}.}.}.}.^.}.}.^.e.s.w.b.Z.H.H.U.H.b.>.c.N.Z.A.N.A.F.F.A.A.A.A.A.Z.N.N.N.N.N.N.N.N.N.N.M.M.v.v.v.c.k.k.k.v.v.x.s.s.s.s.e.e.e.y.r.r.a.<.=.^ m m @.e.9.@.W { =.9.c.M.M.M.Z.Z.Z.Z.N.N.Z.D.F.A.F.F.G.H.H.H.F.F.Z.b.x.n.b.Z.Z.D.F.D.Z.H.}.}..X.X.X.XH.Z.Z.H.^..X.X.X}.^.^.!.U.!.!.U.H.F.F.F.G.G.G.G.Z.Z.Z.Z.N.F.H.N.D.B.N.N.",
"U.G.G.U.U.U.U.Y.}.^.U.H.H.H.H.H.U.J.J.J.J.J.J.J.H.U.Y.^.^.}.^.U.H.U.^..X.X$X.X!.G.H.U.^.^.^.Y.F.F.N.a.5.r.N.H.U.H.H.H.H.H.H.H.F.F.A.B.Z.Z.Z.A.A.Z.Z.N.b.b.j.=.<.e.8.9.-.V c G { 5.9.r.r.9.a.j.k.c.k.j.5.=.-.@.{ @.<.<.<.3.<.<.<.<.<.<.<.<.,.,.,.<.1.<.<.<.<.<.<.<.<.<.>.=.=.>.5.b.F.H.H.U.U.U.H.s.9.k.U.].(.}.}.^.U.Y.}.}.}.e.5.}.}.}.}.}.}.}.}.}.}.}.}.}.}..XF.v.}.c.c.Y.'.}.'.^.G.t.5.H..X|..X.X.X.X.X.X.X.X.X.X.X.X.X.X.X.X.XXX|..X X X X X X.X.X.X.X.X.X.X.XXXXX.X.X.X.XXX$X#X#X#XXXXXXXXXXX$X$X$X$X$X$X$X$X$X$X$X$X*X*X$XC.Z..X$X$X$X$X$X$X*X*X*X*X*X*X*X*X$X$X$X$X$X$X$X$X.X.X.X.X.X.X.X.X.X.X.X.XXX$X$X$X$X$X$X$XXXXXXXXXXXXXXXXX.X.X.X.X.X.X.X.X.X.X.X.X.X.X$X^.>.6.J..X X X X{.b.b.(.A.F..X.X}..X.X.X.X.X.X.X.X}..X.XF.>.N.|.^.}.}.'.'.}.^.^.}.U.s.b.j.c.D.H.Z.Z.Z.Z.x.9.9.9.9.8.9.e.9.8.8.8.5.5.5.5.5.5.5.5.5.>.>.>.>.<.-.=.+.@.+.+.@.#.<.<.5.j.c.c.k.d.s.a.a.y.a.e.3.>._ Z c ) 5.a.9.^ +.-.5.a.j.b.v.N.N.C.C.N.N.C.Z.Z.Z.Z.Z.F.G.G.H.G.b.j.s.t.j.x.b.C.Z.Z.C.D.D.F.U.}..X}.}.}.!.H.F.D.!..X}.}.}.^.!.U.H.H.H.G.F.F.F.H.G.D.Z.B.D.H.Y.}.{.J.D.B.D.F.G.",
"Z.G.U.G.U.U.].].}.}.^.!.U.J.H.H.H.U.J.J.J.J.J.J.U.Y.^.}.U.H.H.U.!.^..XXX.X}.H.Z.G.U.Y.Y.Y.U.F.N.N.x.s.s.a.j.N.F.G.G.G.G.F.F.F.F.F.A.B.N.N.N.N.N.N.N.b.b.b.e.@.r.r.r.9._ j n W =.8.9.r.e.r.j.k.k.k.r.9.<.-.+.{ =.-.5.5.9.r.r.e.r.r.r.r.r.a.a.a.s.s.j.j.j.j.j.j.j.j.s.s.s.c.c.b.N.F.H.F.F.F.A.N.N.j.A.b.M.].^.!.!.}.^.^.}.}.8.8.U.}.}.}.}.}.}.}.}.}.}.}.}.}.}.}.U.d.|.v.j.U.}.}.'.^.H.c.5.G.}..X.X.X.X.X.X.X.X.X.X.X.X.X.X$X$X$X$XXXXXXXXX$X$X$X$X.X.X$X$X$X$X$X$X$X$X.X.X.X.X$X$XXXXXXXXXXXXXXXXX$X$X$X$X$X$X$X$X$X$X$X$X$X*X$XZ.Z.}.$X$X*X*X*X*X*X*X*X*X*X*X$X$X$X$X$X$X$X$X$X$X$X$X$X$X$X$X$X$X.X.X.X.XXX$X$X$X$XXX$X$X$X$XXX$X$X$XXXXX.X.X.X.X.X.X$X$X$X$X$X$X.X$X$XH.>.x.U.}.}. X XY.x.C.'.N.H..X.X}..X.X.X.X.X.X.X.X}..XXX.XU.-.s.^.^.}.}.'.^.^.}..XU.b.b.H.F.D.Z.D.Z.Z.Z.N.Z.N.M.v.x.x.c.c.x.x.k.k.x.x.x.c.x.x.x.x.s.s.s.s.r.e.9.8.5.,.=.=.=.=.+.>.9.w.r.j.x.x.d.a.a.a.e.5.>.{ Y c U =.9.a.[ E 5.e.a.j.v.v.b.b.N.N.N.N.C.C.Z.Z.Z.A.Z.A.Z.Z.Z.x.s.s.e.r.t.j.C.Z.N.b.b.N.N.N.H.}.}.}.}.^.U.H.Z.Z.H.}.}.}.{.^.U.H.H.G.G.G.G.G.F.F.D.D.J.Y. XXX}.Y.F.B.D.U.J.D.",
"e.k.A.G.U.U.Y.Y.^.}.}.}.^.!.U.H.H.H.H.J.J.J.J.J.U.U.U.U.F.F.H.^.}..X.X.X}.H.Z.Z.U.Y.Y.Y.U.Z.c.s.k.s.s.j.j.a.j.Z.Z.Z.Z.Z.Z.Z.D.D.F.A.Z.N.N.M.b.v.c.b.b.b.c.<.8.s.a.r.9.Y w N ) <.9.r.r.e.s.j.a.9.5.=.=.5.8.e.a.a.5.a.s.x.s.s.s.s.j.j.j.j.j.j.j.j.j.k.j.j.c.c.c.c.c.b.b.b.b.C.Z.N.C.Z.N.N.N.Z.F.H.G.U.A.9.A.U.U.U.^.}.}.H.<.r.!.^.}.}.|.|.}.|.}.}.}.}.}.}.}.}. X.Xs.U.M.d.A.'.|.^.^.^.Z.5.c.H.^.U.Y.Y.Y.Y.Y.Y.Y.Y.H.H.H.H.H.H.H.H.U.U.U.U.U.Y.U.U.U.U.U.U.H.H.H.H.H.H.H.H.H.U.U.U.J.J.U.U.J.J.J.J.H.H.H.H.H.H.H.H.J.J.J.J.H.H.H.N.b.F.D.Z.D.D.D.D.H.H.H.G.G.F.F.F.F.F.D.D.J.J.J.J.H.H.H.H.H.H.H.H.H.G.F.F.F.F.F.F.D.F.G.H.G.G.G.G.J.J.U.U.U.U.Y.U.U.H.H.H.H.H.H.H.H.H.F.s.,.N.U.}.}..X}.F.s.G.'.k.^.$X.X}..X.X|.|..X.X.X.X.X.X.X.X.X'.<.a.F.^.}.}.^.}.}.^.F.N.Z.H.F.N.b.N.b.b.b.b.N.M.c.x.c.c.c.c.c.c.x.x.c.c.c.c.x.c.c.c.j.j.j.j.j.j.s.s.a.a.r.9.s.j.w.5.>.=.>.<.w.y.d.d.a.s.r.8.>.>.^ c B _ 8.a.5.W 8.s.a.a.j.b.b.b.N.N.N.N.C.C.Z.Z.Z.Z.Z.N.b.v.c.j.s.t.8.e.r.s.n.b.C.C.b.N.N.N.Z.H.!.^.}.}.^.!.H.Z.Z.G.U.^.^.^.!.U.G.F.F.G.G.G.H.H.H.H. X XXX XU.G.D.B.D.D.x.w.",
"Y ) 5.j.Z.F.U.U.!.^.}..X}.}.^.!.U.U.H.H.H.H.G.H.^.U.F.N.Z.H.^.}..X.X.X}.U.Z.Z.U.U.Y.Y.Y.G.N.b.v.M.c.a.e.a.a.j.Z.N.N.N.N.A.A.A.A.A.A.Z.N.M.b.v.c.k.c.b.C.r.<.j.s.a.r.<.B w A { 8.9.r.e.a.r.8.=._ +.9.a.k.N.N.M.v.a.b.N.A.F.A.Z.D.F.F.F.F.F.F.F.F.F.G.F.G.U.U.U.H.H.H.U.!.H.U.U.H.H.H.U.^.Y.Y.^.^.'.^.Y.v.r.A.U.^.^.^.b.>.j.!.U..X}.}.|.|.|.|.}.}.}.}.}.}.}.}.}. Xx.B.B.d.N.^.|.^.^.^.D.r.<.w.s.j.j.j.j.j.j.j.j.j.t.t.t.t.8.e.s.j.x.x.x.j.d.d.d.s.s.t.t.t.s.s.s.s.x.k.j.j.j.j.k.k.x.x.x.x.x.x.x.x.c.c.c.c.c.x.x.x.x.x.x.x.c.c.b.C.b.D.Z.D.N.N.N.N.b.b.b.b.c.c.c.c.c.c.x.x.c.c.c.c.c.c.c.c.c.n.b.b.c.c.x.j.j.s.s.s.r.t.j.j.j.j.j.j.s.s.s.s.t.t.r.r.r.r.t.t.s.s.s.s.s.j.r.@.-.F.^..X}..X{.D.r.H.'.a.^.$X.X}..X.X.X|.|.|..X.X.X.X}.}.|..X^.r.k.F.^.}.^.^.U.F.C.^.!.^.^.!.!.U.U.U.U.H.^.^.^.Y.Y.Y.Y.Y.Y.Y.U.U.U.U.U.U.H.H.H.H.H.H.H.H.G.G.G.G.F.F.N.k.M.M.j.c.b.c.s.9.#.1.e.d.s.s.a.8.<.,.[ N x G <.s.j.@.5.a.a.r.j.b.b.b.N.N.N.N.C.C.Z.Z.Z.Z.N.b.k.j.l.k.j.s.e.r.s.x.j.x.N.F.F.A.Z.Z.N.N.F.U..X}.}.}.^.H.D.Z.D.U.^.^.^.U.G.F.F.G.G.G.U.!.^.}..X X}.{.F.D.D.B.a.,.^ G ",
"-.) E W >.r.Z.Z.^.^.}.}.}.}.|.}.'.^.Y.U.H.H.H.!.U.Z.N.Z.F.U.^.^.'.$X|.F.Z.G.H.H.U.U.U.F.A.Z.A.F.Z.k.e.5.j.a.k.N.v.M.A.F.N.A.A.N.Z.Z.Z.N.N.N.N.N.M.b.N.b.@.9.k.j.a.a.@.h j W -.5.8.r.r.8.{ ) _ 5.j.k.v.M.M.M.M.M.r.b.A.A.A.A.A.F.F.G.G.G.G.G.G.G.H.H.H.H.H.H.U.U.U.U.U.U.!.!.^.^.^.^.^.^.^.^.^.^.^.^.{.^.D.j.Z.H.F.s.>.c.}.}.}.}.}.}.}.}.|.|.|.|.|.|.|.|.|..X.XXXb.j.b.j.b.!.}.^.^.U.H.j.s.M.H.U.Y.U.U.G.U.U.U.H.H.U.{. X|.}.#X.X#XXX|.|.|.|.|.|.}.}.}.}.}..X$X*X*X$X.X}..X.X.X.X.X}.}.}..X.X.X.X|.}.'.'.'.}.}.}.}.}.}.}.}.^.^.H.G..X}.^.}.}.}.}.}.}.}.}.}.|.|..X.X.X.X.X.X.X.X.X$X$X$X$X$X$X*X;X*X$X$X$X$X$X$X$XXXXXXXXX$X$X*X*X$XXX}.{.U.J.U.H.U.U.U.U.U.].^.'.#X$X.X>.8.Y.|.}..X.X^.Z.r.F.H.r.;X$X.X}..X.X.X.X.X.X.X.X X X X X}.}.}.}.j.e.Z.H.Z.C.c.F.}.}.}.}.}.}.}.'.^.^.^.{.^.^.^.^.^.^.!.!.^.^.U.U.U.H.H.H.U.U.U.U.G.G.G.G.F.F.F.F.F.F.b.t.c.c.c.c.M.b.b.c.s.5.@.>.a.s.j.8.<.=.+.G y N =.r.j.5.{ 8.e.j.k.c.v.b.M.M.M.M.N.N.N.N.M.b.v.k.j.j.j.r.s.e.9.s.v.b.b.c.c.b.Z.D.H.H.D.C.b.Z.H.^.}.}.}.'.Y.G.D.A.F.U.^.{.^.J.F.J.Y.{.Y.}. X}.{.{.Y.H.F.M.a.-.H D Z / ",
"r.e.<.{ E ^ @.e.N.F.U.Y.'.}..X.X.X}.}.'.H.U.H.G.b.b.Z.H.H.^.}.}..X'.U.F.H.Y.Y.U.U.H.F.A.F.F.A.Z.v.j.s.a.j.a.j.N.N.N.A.A.M.v.v.M.N.N.N.N.N.N.N.N.N.Z.k.5.-.r.j.s.a.r.^ t c ) <.9.e.5.-.+.+.5.j.b.k.k.v.M.N.N.N.N.a.b.Z.A.A.A.A.F.F.G.G.G.G.G.G.G.H.H.H.H.H.H.U.U.U.U.U.U.!.!.^.^.^.^.^.^.^.^.^.^.^.^.^.^.^.D.c.b.w.<.C.^.}.}.}.}.}.}.}.}.|.|.|.}.|.|.|.|..X.X.XXXb.8.c.c.C.^.}.^.^.^.!.c.M.H.^.Y.'.'.^.^.^.'.'.^.J.J.Y.Y.Y.Y.}.^.Y.Y.U.U.U.U.U.H.H.G.G.G.U.!.(.}.^.^.U.H.U.U.U.U.H.H.H.H.F.G.D.N.N.U.}.}.}.}.}.}.}.}.}.}.}.^.U.F.F.{.}.}.}.}.}.}.|.|.|.}.|.|.|.|.|.|.|.|.}.}.}.}.}.{.{.{.^.Y.Y.Y..X X X}.}.}.}.}.}.}.}.{..X.X.X.X^.{.{.{.Y.F.H.^.].].].!.].].^.'.'.|.^.=.r.Y.}.|..X.X^.Z.j.Z.b.8.$X*X.X$X.X.X.X.X.X.X.X.X X X X X|.|.}.}.^.s.e.8.5.b.H.^.}.}.}.}.}.}.}.'.^.^.^.^.^.^.^.^.^.^.!.!.!.!.U.U.U.H.H.H.U.U.U.U.G.G.G.G.F.F.F.F.F.F.N.j.b.b.b.b.N.M.b.b.v.k.w.+.) >.e.a.8.,.=.^ h x =.a.a.a.<.<.e.k.v.c.v.v.v.M.N.N.N.N.N.b.c.c.b.c.j.s.r.9.9.<.8.8.a.c.N.b.c.b.b.N.D.G.H.Z.N.N.b.H.}..X.X}.'.^.G.D.B.N.D.U.^.^.{.{..XXX XXX.X{.H.H.Z.x.r.+.U Z H / ,.w.",
"r.r.r.e.5.[ U W #.w.v.Z.U.^.|..X#X.X.X}..X^.F.b.N.F.U.U.^.}..X}.'.U.G.H.Y.^.^.U.F.F.Z.N.Z.N.M.v.j.l.a.@.) -.q.j.v.M.N.N.B.A.M.c.M.M.M.M.Z.Z.Z.Z.Z.N.r.{ 8.a.j.a.j.8.Z y Z { 5.8.5.=.@.,.k.N.Z.v.k.v.M.N.Z.Z.Z.Z.j.v.Z.A.A.A.A.F.F.F.G.G.G.G.G.G.H.H.H.H.H.H.U.U.U.U.Y.Y.!.!.^.^.^.^.^.^.^.^.^.^.^.^.^.^..X^.H.s.s.Z.^.^.}.}.}.}.}.}.}.}.|.|.|.|.|.|.|.|.$X.X}.^.c.8.b.N.H.^.}.^.^.}.!.s.e.s.s.M.F.F.G.G.G.G.G.G.D.D.B.N.v.D.G.H.D.D.B.B.B.B.B.B.N.N.Z.Z.Z.Z.A.D.F.F.F.F.F.F.F.F.G.G.G.G.Z.Z.C.b.s.N.F.F.F.F.F.F.F.F.F.F.H.D.Z.N.N.F.D.F.H.H.H.H.H.H.H.H.H.H.H.H.H.H.H.H.G.F.F.F.F.D.D.D.D.D.D.D.!.U.U.H.H.H.H.H.F.F.G.G.G.H.H.H.D.F.H.J.Z.n.C.A.Z.Z.Z.Z.N.N.Z.Z.x.j.,.U s.U.}..X.X.X^.Z.t.C.j.w.Z..X$X.X.X.X.X.X.X.X.X.X X X X X.X.X|.|..X^.G.j.x.!..X}.}.}.}.}.}.}.}.}.^.^.^.^.^.^.^.^.^.^.!.!.!.!.U.U.U.H.H.H.U.U.U.U.G.G.G.G.F.F.F.F.F.F.Z.c.N.N.N.N.N.N.N.M.c.k.s.y.>.E ^ 5.9.<.=.^ n s ^ e.r.j.9.-.,.r.v.b.v.v.v.b.v.v.v.v.v.c.k.k.c.j.r.9.<.=.] U W <.5.w.x.b.n.c.c.c.b.Z.H.H.F.Z.N.Z.H.}..X}.'.^.U.H.F.A.b.F.^.}. X X.X.X.X}.!.F.C.x.8.=.E U E _ ,.w.d.x.",
"r.s.t.e.r.8.<.[ E ) +.8.c.Z.Y.'..X.X#X.X}.U.G.G.U.}.}.U.^.}.}.^.F.H.Y.Y.Y.Y.U.F.A.Z.N.N.b.c.j.s.r.<.U : $ h U _ <.e.m.N.M.M.N.A.M.M.M.M.Z.Z.Z.Z.Z.j.>.@.r.a.a.a.9.[ y y E =.<.<.@.+.5.M.Z.Z.M.c.c.v.M.Z.A.A.A.A.k.c.M.A.A.A.A.F.F.F.G.G.G.G.G.G.H.H.H.H.H.H.U.U.U.U.U.U.!.!.^.^.^.^.^.^.^.^.^.^.^.^.^.^.(..X}.Z.Z.^.^.}.}.}.}.}.}.}.}.}.|.|.|.|.|.|.|.|..X!.Z.b.N.t.C.D.U.^.}.{.}.}.H.8.-.[ U [ { +.@.#.#.#.#.#.8.5.2.,.@.2.#.@.{ { ] [ [ [ [ [ { { { { { { { { { { { { { { } } } } @.@.@.=.=.@.=.=.@.@.+.+.+.+.{ { { { ] ) { [ ] [ ^ ) { { { { { { { { { { { { { { { { { { { { } } } } { { { } @.@.@.} } } } @.@.@.@.@.+.+.@.@.) ) ) ] [ { 5.8.q.q.q.q.<.5.5.8.>.U s E a.G.^.'..X.X}.Z.s.j.t.Z.t.b.(.$X.X.X.X.X.X.X.X.X X X X X.X|.|.|..X.X$XZ.N.^.}..X}.}.}.}.}.}.}.}.^.^.^.^.^.^.^.^.^.^.!.!.!.!.U.U.U.H.H.H.U.U.U.U.G.G.G.G.F.F.F.F.D.F.Z.b.A.Z.A.A.B.N.N.M.M.v.c.c.s.5.E ~ >.5.-.) N y A 5.e.9.e.<.) =.r.v.v.v.v.v.k.k.k.k.k.k.k.k.a.e.5.,.) U x 4 4 N =.<.5.s.c.c.j.x.c.b.Z.H.U.H.H.Z.N.F.Y.].'.'.'.^.^.U.N.Z.!.XX.X X X XU.H.Z.x.e.{ U H E { 3.6.a.d.x.d.",
"n.x.s.r.r.t.r.w.=._ R E { 5.c.N.U.Y.Y.Y.H.H.U.H.}..X}.}.^.H.A.N.A.Y.}.}.^.G.A.Z.N.N.N.b.j.j.t.r.-.x $ X $ < e x Z ^ ,.5.s.k.v.v.b.v.k.d.b.v.N.v.s.@.{ 9.a.a.r.e.9.n 1 c ~ +.=.^ { r.N.Z.M.M.M.M.v.M.N.Z.F.F.F.F.M.j.A.A.A.A.F.F.F.F.F.G.U.U.U.U.H.H.H.U.U.U.Y.Y.!.!.!.!.^.^.^.^.^.^.^.^.^.^.^.^.^.^.^.^.(.}.}.F.Z.}.}.}.}.}.}.}.|.|.|.|.|.|..X.X.X.X.X.X.Xb.b.U.C.t.C.F.H.}.^..X^.^.G.@.^ ) A R ^ { { ) ^ ^ #.<.e.r.e.=.=.=.=.=.#.#.#.=.>.>.,.,.>.>.<.<.>.>.>.<.<.<.<.<.5.5.5.5.8.8.8.8.8.8.8.8.5.5.5.5.3.3.3.3.8.8.8.8.8.8.8.5.5.5.5.5.5.5.5.5.6.6.6.6.3.3.3.3.<.<.<.<.<.<.<.<.5.5.q.5.5.<.<.>.>.=.>.>.<.<.<.<.<.<.<.<.>.>.>.>.>.@.[ ^ Q =.<.<.<.=.*.-.<.,.>.-.5.#.n R 5.x.Y..X}..X}.H.b.b.e.t.C.s.j.U.$X.X}..X X X X X X X X X.X.X.X.X{.^.}.C.G.}..X.X}.}.}.}.}.}.}.}.^.^.^.^.^.^.^.^.^.^.!.!.!.!.!.!.U.U.U.U.U.U.U.U.G.G.H.H.G.G.G.F.Z.F.b.N.F.A.Z.B.G.A.N.M.b.b.b.v.c.v.a.+.U +.-.{ A y h @.a.9.5.<.{ E =.k.v.c.k.k.j.j.j.c.v.j.9.5.-.@.Q H h 6 * & & & t Q >.<.e.x.b.x.s.s.b.Z.H.U.U.U.H.F.Z.U.^.^.^.^.}.'.^.H.H.}.}.^.U.U.F.k.8.{ H A U [ >.5.e.a.k.x.v.M.",
"b.b.b.b.x.s.r.t.r.5.>.{ U W [ 5.v.G.U.U.Y.Y.Y.Y.U.H.U.^.H.D.F.H.U.}.}.Y.A.N.M.N.N.M.v.k.s.s.5.[ e X X $ < 5 e t d m H ) #.3.e.a.s.j.b.N.c.s.a.e.{ [ <.e.a.r.e.9.-.y 5 N _ W Y @.k.N.F.A.M.M.M.M.b.N.Z.A.F.F.F.F.M.j.A.A.A.F.F.F.F.F.G.G.U.U.U.U.H.H.H.U.U.U.Y.Y.!.!.!.!.^.^.^.^.^.^.^.^.^.^.^.^.^.^.^.^.(.}.}.F.b.^.}.}.}.}.}.}.|.|.|.|.|.|.|.|..X.X.X^.b.N.H.N.e.r.C.N.F.^.^.^.U.U.N.{ { @.) >.5.<.<.,.5.e.N.N.N.b.8.=.8.w.e.r.s.s.a.s.s.a.a.s.j.j.j.j.s.s.l.j.j.j.j.j.j.j.j.j.c.c.c.c.c.c.c.c.c.c.c.c.x.x.x.x.c.c.c.c.s.t.s.s.s.s.s.s.x.x.x.x.v.v.c.x.x.k.k.k.j.j.k.x.x.x.c.c.x.x.x.x.x.x.j.j.x.x.c.c.c.c.c.c.c.c.v.v.c.c.c.x.s.s.r.8.=.<.v.v.v.k.r.r.r.e.9.9.a.w.Z U 5.s.F.^.'.|.}.H.b.G.r.} e.Z.n.t.H..X.X}. X X X X X X X X.X.X|..X}.{.^.b.U..X.X.X}.}.}.}.}.}.}.}.^.^.^.^.^.^.^.^.^.^.!.!.!.!.!.!.U.U.U.U.U.U.U.U.G.G.G.H.G.G.G.G.Z.F.c.N.F.A.A.Z.G.D.N.b.b.b.b.v.N.N.N.s.@.U ~ _ A q 9 ^ r.e.8.5.>.=.~ =.j.j.9.a.s.k.k.s.9.5.-.@.) Z d 9 7 5 3 3 = o o 7 H =.<.e.x.x.j.s.j.b.Z.F.U.U.U.U.A.Z.G.Y.Y.Y.^.^.}.Y.H.^.H.F.N.j.e.@.U N G ^ =.5.r.s.j.k.c.v.b.c.",
"c.b.N.Z.Z.b.c.s.j.s.s.w.=.) U ^ =.s.N.F.U.U.U.U.G.c.c.C.C.Z.H.(.^.^.U.Z.c.c.v.b.v.c.d.a.r.1.E : . @ = 7 t a b v c x h m U ~ _ { <.<.5.5.j.a.=.^ +.5.a.a.r.e.9.9._ 5 q Z H G -.k.Z.Z.Z.A.N.N.M.M.M.N.A.A.F.F.F.F.N.j.A.F.F.F.F.F.F.F.G.G.U.U.U.U.H.H.U.U.U.U.Y.Y.!.!.!.!.^.^.^.^.^.^.^.^.^.^.{.{.(.^.}.}.(.}.}.F.s.U.}.}.}.}.}.}.|.|..X|.|.}.}.|..X.X^.F.b.G.x.e.s.b.Z.c.b.H.H.G.H.F.b.5.e.x.s.s.s.r.s.c.Z.H.}.^.F.s.e.v.F.H.U.!.}.}.}.{.^.^.^.^.^.!.!.!.H.U.U.!.!.^.^.!.^.!.^.^.^.^.^.^.^.^.^.^.^.'.'.'.}.}.}.}.^.^.^.^.H.Z.F.H.U.U.U.U.U.U.!.!.^.'.T.^.^.^.^.^.^.^.^.^.^.^.^.^.^.].].!.U.H.U.U.!.!.!.!.!.!.!.!.!.!.].].U.U.U.U.!.{.^.U.b.q.c.!.}.(.U.F.A.Z.M.v.N.Z.+.B <.c.A.F.^.}.^.F.c.H.b.<.=.s.N.c.j.H..X.X X X X X X X X X.X.X.X.X.X.XH.x.^..X.X.X}.}.}.}.}.}.}.}.^.^.^.^.^.^.^.^.^.^.!.!.!.!.!.!.U.U.U.!.U.U.U.U.H.H.H.H.H.H.G.G.Z.D.x.b.Z.A.F.D.G.F.N.b.M.M.M.M.N.N.N.b.k.+.A U G t 1 U 5.r.e.9.9.5.=.^ _ <.9.9.a.r.8.-.*.{ Y N h w t d z z z u 6 - $ o > C { <.e.j.j.j.j.j.c.b.Z.G.U.U.U.F.A.U.F.B.D.U.Y.J.D.Z.b.j.5.@.U Z A ^ =.5.r.a.k.c.c.c.b.b.s.8.",
"{ <.s.b.Z.Z.Z.b.c.x.k.j.e.5.#.^ J [ 9.k.N.N.N.N.F.r.5.e.b.H.^.!.Y.U.B.k.k.v.b.k.x.s.r.y.5.Z @ . X > 6 t z v C S U H Z m x c Z U ) ) { { [ ^ E { 9.r.r.a.e.9.9.8.Y y h m G ,.k.M.Z.Z.N.b.N.N.M.M.N.Z.A.A.F.F.F.F.N.j.A.F.F.F.F.F.F.G.G.G.G.G.U.U.H.H.U.U.U.U.Y.Y.!.!.!.!.^.^.^.^.^.^.^.^.^.^.(.(.}.}.}.}.(.}.}.F.e.H.}.}.}.}.}.}.|.|..X|.|.}.|.|..X^.F.N.b.s.e.x.Z.H.U.F.s.Z.Z.b.Z.b.b.Z.Z.Z.c.j.s.c.G.}..X.X}.!.b.s.Z.].|.|.}.}.}.}.}. X}.}.}.}.}.}.}.}.(.{.}.}.}..X.X.X X}.}.}.}.}.}.}.}.}.}.}..X.X.X.X.X.X#X#X$X$X$X$X.XH.U.}..X.X.X.X.X.X.X.X.X.X.X.X.X.X#X#X.X.X$X.X.X.X.X.X.X.X.X|.|.|..XXX.X|..X.X.X|.|.|..X|..X.X|.|.|.|..X$X$X#X'.N.8.A.|.XX|.(.'.U.G.A.A.F.H.a.9.s.b.H.Y.'.^.F.Z.U.H.b.e.>.e.N.N.b.F.^. X X X X X X X X.X.X.X.X.X.XF.j.}..X.X.X}.}.}.}.}.}.}.}.{.(.^.^.^.^.^.^.^.^.!.!.!.!.!.!.U.U.U.!.U.U.U.U.H.H.H.H.H.H.G.G.Z.Z.x.b.Z.A.F.F.G.F.N.b.N.N.N.N.N.N.N.N.v.k.=.A n w < B -.e.e.r.e.r.e.=.E Y { @.+.{ _ { Y N s t d m N Z Z C v x r 6 < & . = z ! =.w.j.x.j.s.r.s.c.b.Z.G.Y.^.U.F.c.s.x.N.F.Z.c.s.8.+.U Z H ) =.>.8.a.j.j.v.v.v.v.s.e.=.W ",
"W J ^ 3.a.M.N.N.M.M.v.v.c.j.9.<.@.) E _ >.e.s.a.s.e.9.k.A.F.G.F.Z.N.v.j.c.v.j.e.r.e.8.@.h   O * < 9 t h N B A U E W ~ ~ G c s h H ^ _ ~ U W +.5.e.r.a.s.r.r.e.8.+.Z h G <.j.v.M.M.M.N.Z.N.N.Z.N.N.N.Z.F.G.G.G.G.Z.j.Z.F.F.F.F.F.G.G.H.H.H.H.H.H.U.U.Y.Y.Y.Y.Y.Y.!.!.!.!.^.^.^.^.^.^.{.{.(.(.}.}.}.}.}.}.}.}.}.U.r.C.}.}.}.}.}.}.{.{.{.{. X X X}.U.c.N.Z.e.e.x.Z.F.U.'.}.j.U.U.F.N.F.U.G.Z.N.s.s.Z.}.$X.X$X.X!.b.j.D.}.$X.X.X.X.X.X.X.X.X.X.X.X.X.X.X.X.X{.}.}.}.}..X.X.X|.|.|.|.|.|.|.|.|.|.|.XXXXXXXX$X$X$X$XXX#XXXXXXX.X{.}.$X$X$X$X$X$X$X$X$X.X.X.X.X.X.X.X.XXXXXXXXXXXXXXXXX.X.X.X.X.X.X.X.X.X.X.X.X.X.X.X.X.X.X.X.X.X.X.X.X.XXX.X.X.X(.Z.l.C.^..X.X}..X^.H.N.Z.H.U.U.F.Z.Z.H.^.H.b.^.^.^.^.F.t.<.e.b.Z.Z.Z.}..X.X.X.X.X.X.X|.|.}.}..X.XZ.j..X.X.X.X}.}.}.}.}.}.}.}.}.}.}.^.^.^.^.^.^.^.!.^.!.!.!.!.U.Y.Y.!.U.U.U.U.H.H.H.H.G.G.F.G.G.N.b.N.B.D.F.G.G.B.N.N.N.N.N.N.N.N.b.b.M.v.a.=.m y B ~ ) 5.e.r.a.a.e.9.=.) U ~ W U A Z h s s m G U E E H S Z V c y 9 < * X X 9 W } 8.t.s.s.r.8.s.c.N.D.U.Y.U.F.c.e.8.r.s.r.<.^ E R ~ { =.>.5.w.a.j.v.N.x.j.a.w.@._ ^ #.",
"x.3.) U ) -.e.c.M.M.M.v.k.j.s.e.a.5.-.{ ^ { @._ { r.v.Z.A.Z.N.M.M.M.v.j.k.k.a.8.<.@.E 4     * 4 9 y h c A H Y W ) ) _ [ _ W U A n G W ^ +.=.<.9.e.e.r.a.r.e.8.<.{ m Z 5.j.M.N.M.M.M.N.N.N.N.Z.N.N.N.Z.A.G.G.G.G.Z.k.Z.G.G.G.G.G.G.G.H.H.H.H.H.H.U.U.Y.Y.Y.Y.Y.Y.!.!.!.!.^.^.^.^.^.^.^.^.(.(.}.}.}.}.}.}.}.}.}.^.j.b.}.}.}.}.}.}.{.{.{. X X X}.J.c.C.Z.e.r.j.Z.U.^.'.}.}.N.M.H.G.H.U.F.M.N.s.9.N.^..X$X$X.XH.b.c.A.^..X.X.X.X.X.X.X.X.X.X.X.X.X.X.X.X.X.X.X.X.X.X.X.X.X.X.X.X.X.X.X.X.X#XXXXXXX#X$XXXXX$X$X$X$X$X#X#X#X#X.X}.|.$X$X$X$X$X$X$X$X$X$X$X$X$X$XXXXX$X$X$X$X$X$X$X$XXX.X.X.X.X.X.X.X.X.X.X.X.X.X.X.XXX.X.X.X.X.X.X.X.X.X.X.X.X.X$X.XA.k.N.U.^.}..X.XU.j.r.Z.U.^.U.G.F.Z.H.F.N.^.^.^.^.}.D.s.>.5.b.F.Z.D.^..X.X.X.X.X.X.X.X}.}..X}.b.c..X.X.X}.}.}.}.}.}.}.}.}.}.}.}.^.^.^.^.^.^.^.^.^.!.!.!.!.U.U.Y.!.H.U.U.U.H.H.H.H.G.G.G.G.G.N.b.Z.Z.D.F.G.G.B.N.N.N.N.N.N.N.N.b.b.N.M.v.a.+.N B ^ U =.a.r.a.a.9.9.5.=.=.+._ E N x n B U ~ ) ) ) ^ Q E U G B x y 9 3 = @ . > H >.5.5.w.r.e.r.j.N.F.U.H.F.M.k.8.-.~ E @.{ [ @.@.=.<.,.5.r.j.c.x.j.s.r.5.@.) [ =.8.s.",
"H.N.a.<.[ ^ / ,.9.a.k.k.k.k.j.a.c.j.s.w.,.+.W Z @.s.c.c.c.k.k.k.v.b.v.j.s.a.9.<.=.m *   X * > q s x N A Y W ) _ { +.@.=.+.{ { ^ U Y ) +.,.5.8.8.9.e.e.r.9.r.-.m h U 8.j.c.M.M.M.M.N.Z.Z.Z.Z.Z.Z.N.N.N.Z.G.G.G.G.A.k.A.G.H.G.H.H.H.H.U.U.H.H.H.H.Y.U.Y.Y.Y.Y.Y.Y.!.!.!.!.^.^.^.^.^.^.^.^.^.^.^.^.^.^.^.{.}.}.}.}.b.b.}..X}.}.}.}.oXoX X XXX}.F.b.N.F.r.e.b.A.U.^.'.'.}.|.U.b.U.U.U.F.Z.F.v.<.s.Y.$X*X$X}.H.b.b.U.}..X|.|..X.X.X.X.X.XXXXXXX.X.X.X.X.X.X.X.X.XXXXXXXXXXX$X.X.X.X.X#X#X#X$X#X#X#X$X$X$XXX#X$X$X$X$X$X$X$X$X|..X#X$X$X$X$X$X$X$X$X$X$X$X$X$X$X$X$X$X$X$X$X$X$X$X$X$X$X$X$X$XXXXX$X$X$X$X$X$X$X$X$X$X.X.X.X.X.X.X.X.X.X.X.X.X.X.X*XXXU.b.b.H.^..X.X(.b.r.t.b.H.U.U.H.U.Z.c.H.}.}.}.}..X^.H.c.>.8.b.F.Z.b.Z.^..X.X.X.X.X.X}.}..X^.j.b..X.X.X}.}.}.}.}.}.{.{.{.}.}.}.^.^.^.^.^.^.^.^.^.!.!.!.!.U.U.U.!.H.H.H.H.H.H.H.J.H.H.H.H.F.b.b.F.Z.D.G.G.G.B.N.N.N.N.b.b.N.N.N.N.N.N.M.v.9.+.G c Z _ 8.s.a.r.9.8.5.<.=.+._ Y U W W ^ [ { +.+.{ [ _ ) ~ E G B c s 9 < > @ O * N { =.<.w.s.c.b.D.H.F.Z.c.a.r.9.;.G G <.5.,.<.3.5.8.r.s.k.x.s.e.5.>.+._ [ =.e.x.Z.Z.",
"F.F.Z.N.x.<.{ W ^ =.8.a.k.k.k.k.j.j.j.s.w.8.#.[ =.<.<.r.s.j.k.k.k.k.k.a.e.e.8.,.x . O $ * 3 q d n Z U W ^ _ { +.=.-.>.,.<.<.,.+.+.) ) +.-.5.9.9.8.9.e.e.e.e.) d G 5.j.k.v.b.M.v.N.N.Z.Z.Z.Z.Z.Z.N.N.N.Z.G.G.G.G.A.c.A.U.U.U.U.U.H.U.U.U.U.H.H.H.Y.U.Y.Y.Y.Y.Y.Y.!.!.!.!.^.^.^.^.^.^.^.^.^.!.^.^.!.!.^.^.}.}.}.}.Z.c.}..X}.}.}.}.}.}. X X X^.H.Z.Z.s.s.N.F.Y.^.U.'.}.|..X^.F.Y.'.F.U.H.M.>.r.H.|.*X;X.XH.b.N.U..X$X|.|..X.X.X.X.X.X.XXXXXXX.X.X.X.X.X.X.X.XXXXXXXXXXXXXXX$X$X$X$X$X$X$X$X$X$X$X$X$X$X$X$X$X$X$X$X$X$X%X%X.X#X$X$X$X$X$X$X$X$X$X$X$X$X*X*X*X*X$X$X$X$X$X$X$X$X$X$X$X$X$X$X$X$X$X$X$X$X$X$X$X$X$X$X$X$X$X$X$X$XXXXX.X.X.X.X$X.X.X#X.X'.H.Z.H..X.X}.^.b.<.5.N.H.^.^..XH.c.H.}.}.}.}.}..XU.D.j.<.8.C.H.Z.b.G.^.^.}.}.}.}.}.}.}.U.s.Z..X.X}.}.}.}.}.}.}.}.{.{.}.}.}.^.^.^.^.^.^.^.^.^.!.!.!.!.U.U.U.!.H.H.H.H.H.H.H.J.H.H.J.H.G.v.v.H.Z.D.G.G.G.B.N.N.b.b.b.b.N.N.N.N.N.N.N.M.k.e.-.^ N A -.e.e.9.5.5.-.=.{ _ ) ) { { +.+.@.+.+.+.+.{ { { _ ) U G Z n h y 4 > @ . O h ) =.5.s.b.b.N.C.M.k.e.9.8.8.4.=.@.<.<.5.8.e.a.j.s.a.e.8.3.-.{ ^ [ <.s.v.N.F.H.H.",
"Z.F.F.Z.N.M.j.8.<.) ) @.8.a.v.k.j.j.s.r.r.e.9.3.=.^ ^ =.5.8.r.a.j.k.a.8.9.<.>.j .   $ = 5 y j V G Y ^ _ @.=.-.<.<.<.5.5.5.5.5.5.-.-.-.-.-.<.5.5.8.8.e.r.e.5.U m +.9.a.k.v.v.N.N.Z.Z.Z.Z.Z.Z.Z.Z.N.N.Z.Z.N.M.x.x.v.j.c.Z.A.Z.N.M.b.b.b.b.b.b.b.C.Z.Z.Z.Z.Z.Z.N.N.C.C.N.N.Z.Z.Z.D.D.Z.Z.D.D.Z.Z.N.N.b.b.b.c.c.n.b.s.8.H..X}.}.^.^.H.^.H.M.N.A.F.N.a.k.A.H.Y.Y.^.}.|..X.X.X'.U.^.U.H.U.b.9.e.Z.|.;X;X.XF.c.H.^..X$X$X$X$X.XXX.X.X.X.X.X.X.X.X.X.X.XXXXXXX.X.X{..XXXXXXX.X.X$X$X$X$X.XXX.X$X$X#X.X.X.X.X.X.X.X.X.X.X#X#X$X$X$X.X.X#X.X.X.X.X.X.X.X.X.X.X$X$X$X$X$X$X$X$X$X$X$XXX.X.X.X$X$X$X$X$XXXXX$X#X#X#X.X$X$X$X$X$X$X$X$X$X$X$X$X$XXX$X$X.X.X.X$X$X.X}.N.Z.^.$X.X^.c.<.8.N.U.!.}.^.U.{..X.X.X.X}.}.}.U.F.j.>.<.C.H.Z.G.Y.F.C.Z.Z.A.F.G.D.c.8.s.N.N.N.N.N.N.C.C.Z.Z.Z.Z.F.F.F.F.D.D.D.D.D.D.Z.Z.Z.Z.Z.Z.N.N.N.C.Z.Z.C.C.C.C.Z.Z.Z.Z.Z.Z.N.a.y.Z.B.B.M.N.N.N.N.Z.Z.Z.Z.Z.N.N.N.N.N.N.N.N.M.j.9.@.^ B E <.5.5.>.=.{ { _ @.,.5.<.=.=.=.@.@.=.=.=.-.-.=.=.@._ ^ U A N x q > $ $ X . t W >.e.t.s.r.e.3.<.5.=.~ ~ _ =.5.w.r.a.j.j.j.s.w.8.-.=.@.) [ 8.M.A.H.F.F.F.Y.^.",
"Z.A.A.A.Z.Z.A.Z.b.s.5.[ W { 8.v.v.M.c.r.a.a.e.8.-.+.~ A G G ) ,.9.e.5.<.5.=.g X . * < q d v Z T ~ _ +.=.<.5.8.9.8.8.8.5.8.8.8.8.5.8.9.9.5.5.<.>.,.,.3.8.5.E m E 8.a.j.k.v.v.N.N.Z.Z.Z.Z.Z.Z.Z.Z.N.N.N.b.9.<.8.w.9.5.5.9.e.r.a.j.0.0.9.8.e.r.r.a.s.s.s.s.j.j.j.j.j.j.j.j.x.x.x.x.c.c.c.c.c.c.x.j.r.r.r.r.e.8.8.5.<.5.s.x.t.r.r.r.e.5.@.^ 5.r.s.r.k.N.G.U.^.'.|.|.|.|..X.X.X^.'.U.U.M.e.e.c.U.*X=X}.D.b.H.}..X$X.X$X$X$X.XXX.X.X.X.X.X.X.X.X.X.X.X$X$X}.H.C.G.H.H.G.F.F.D.F.F.F.F.D.D.D.D.F.A.A.A.Z.Z.D.D.G.G.G.G.F.F.F.F.F.F.F.F.F.F.F.F.F.F.G.F.G.G.H.H.H.H.H.H.H.H.H.H.H.F.F.F.G.H.H.F.F.D.A.A.F.N.N.F.Y.}.#X.X$X$X$X$X$X$X$X$X$X$X$X$X.X.X$X$X$X$X$X$X^.s.c.$X*X$X^.b.5.e.N.U.}.}.}.^..X.X.X.X.X}.}.}.^.H.c.=.=.5.>.5.t.r.e.e.r.r.r.t.e.<.c.n.c.c.c.c.c.c.c.c.c.c.c.c.b.b.b.b.C.C.Z.C.b.b.b.c.c.c.c.c.c.c.c.c.x.x.j.j.j.j.j.j.j.j.j.j.t.<.{ @.@.@.,.s.N.N.Z.Z.C.Z.Z.Z.N.N.N.N.Z.Z.N.N.N.b.a.<.=.Y B [ ,.=.[ ) { =.<.9.r.r.9.<.,.>.-.=.>.,.<.<.<.<.<.,.=.{ _ ^ U Z x y 3 > = & . 4 E =.<.8.8.<.@.) H N A W *.5.9.r.j.j.s.a.e.5.,.@.+.[ @.8.M.H.Y.U.U.U.H.U.U.F.",
"e.v.F.G.G.G.H.H.G.A.N.k.5.=._ [ =.9.k.k.v.b.j.r.<.+.W U m j h B ^ { [ [ { w . + < q g c V U Q _ @.=.<.5.8.9.r.a.a.r.e.9.9.9.9.9.9.r.s.s.a.9.9.8.5.{ ^ { ^ Z H @.r.s.k.c.v.v.N.N.Z.Z.Z.Z.Z.Z.Z.Z.A.A.b.a.#.) ~ W Y U U Y G U Y W ~ ^ ^ Q ) ) ) ) [ [ [ [ [ _ _ _ ] ] ] ] ^ ^ ^ ^ ] ] ] ) ) ) ] ] ^ ^ ^ Q ) ) ] { { =.@.=.{ [ [ _ ) ^ ) _ 3.a.k.M.F.U.Y.Y.|.}.|.|..X.X.X.X.X^.Y.G.N.e.a.Z.Y.$X;X$XZ.Z..X.X$X.X.X.X$X$X$XXX$XXX.X.XXXXXXXXXXX.X.X|..XU.N.j.N.Z.b.r.8.8.8.5.5.5.5.5.5.5.5.5.>.-.<.<.5.5.5.5.q.q.q.q.5.5.5.5.5.3.<.5.5.1.1.<.5.<.5.5.5.5.5.5.5.5.5.5.5.5.5.5.5.<.<.<.<.<.<.<.5.5.5.5.8.8.r.s.b.F.^.}..X$X$X$X$X$X$X$X$X$X$X$X$X$X$X$X$X$X$X$X.X}.b.Z..X;X*X}.b.8.e.N.^.^.{.}..X.X.X.X.X.X}.}.}.^.U.b.5.{ W @.1.5.<.2.<.<.>.>.{ ] =.{ { { { { { { { { } @.@.@.@.@.@.@.@.} } } [ [ [ [ [ [ { { { { { { [ [ [ [ ^ ^ ^ ^ ^ ^ ^ ^ ^ ^ E W E E { 5.a.v.N.N.Z.Z.Z.Z.C.C.C.C.Z.Z.Z.Z.Z.M.j.<.<.[ Z U [ W U ^ 5.9.s.j.j.j.r.8.5.5.<.<.5.8.9.9.9.8.8.5.<.-.=.{ ) E A c d q 4 - = @ - N ] =.{ [ A c j B U _ ;.8.e.a.a.r.a.8.>.+.^ J { s.F.U.Y.U.U.U.H.H.N.b.r.<.",
"-.=.8.v.F.H.U.Y.Y.U.Z.N.N.N.j.<.^ ^ [ 5.a.c.b.s.5.-.[ ^ ~ Y m h t c j j 1 X $ < t c B S W ) { -.<.5.8.9.r.a.j.k.k.j.a.r.e.e.e.e.r.a.j.c.k.a.s.j.s.5.) G B A [ 8.a.j.k.k.v.v.N.N.Z.Z.Z.Z.Z.Z.Z.Z.A.N.a.=.^ ^ E W ) _ { { { +.+.=.=.-.-.=.*.=.-.<.<.<.<.<.<.<.3.3.<.<.5.5.5.5.8.5.5.5.5.5.8.8.e.e.e.e.e.e.t.r.r.r.s.s.r.s.r.e.e.w.8.5.9.k.k.M.A.U.Y.Y.^.'.|.|.|..X.X|..X.X}.U.H.N.r.a.A..X=X*X'.Z.H.$X*X$X$X$X.X.X.X$X$XXX$XXX.XXXXXXXXXXXXX.X.X|.b.v.Z.Y.^..X.X}.}.}.'.^.'.'.^.^.].].!.!.U.!.^.(.^.].].].H.H.U.U.Y.U.Y.Y.}.}.'.}.|.|.|.|.'.'.}.}.}.}.}.}.}.}.}.}.|.|.|.|.'.(.^.!.U.U.!.!.!.!.^.^.!.}.{.G.H.H.H.G.^..X$X$X$X$X$X$X$X$X$X$X$X$X$X$X$X$X$X$X*X$X$XF.F..X;X*X$Xb.5.w.b.H.^.}..X.X.X.X.X.X.X}.}..X^.H.F.b.c.j.b.b.x.t.s.t.r.e.t.s.t.s.s.a.r.r.r.r.e.e.e.e.e.e.5.5.5.5.1.1.1.1.>.>.>.>.>.>.>.>.-.-.-.>.>.>.>.>.+.+.+.@.{ { { { @.@.{ =.#.#.#.=.<.a.M.Z.Z.Z.Z.Z.C.C.C.C.Z.Z.Z.Z.Z.N.j.<.<.+.U A B W +.5.r.a.a.s.j.j.s.e.8.5.5.5.e.r.a.a.a.r.r.e.8.5.<.-.} ] Q U V c y 9 3 = @ $ u Z N c h h n G ' +.<.9.a.r.8.,.#.+.{ [ @.a.N.H.H.F.F.G.H.F.Z.N.8.=.) ~ ",
"F.s.>.} <.t.Z.H.Y.'.^.D.v.N.F.N.j.9.=.>.<.<.5.<.9.<.-.>.{ W G B h 5 * . . < i b V Y ) { +.=.<.5.9.9.r.a.j.k.c.v.c.k.k.j.r.9.9.a.s.k.c.c.k.k.c.c.v.c.s.^ N ~ -.5.j.j.k.N.M.N.Z.D.Z.Z.Z.N.N.Z.Z.Z.N.e.-.=.-.<.5.8.8.8.8.8.5.5.5.5.<.<.<.5.8.8.8.8.e.e.r.r.e.e.e.e.r.r.r.r.s.s.s.s.s.s.s.s.s.s.s.s.s.s.s.s.s.s.s.s.r.r.r.r.r.r.r.r.r.a.N.A.U.Y.Y.Y.Y.Y.{.}. X X.X.XXX XXX X{.D.j.5.s.H..X$X.XH.b.^.$X$X$X$X$X$X$XXXXXXX$X$X$X$XXXXX$X.X$X.X.X^.b.c.U.'.|..X#X#X|.#X$X=X=X%X$X$X$X$X$X$X$X$X*X*X*X*X;X;X;X*X*X*X*X*X*X*X*X*X*X*X;X;X;X;X;X;X;X;X;X;X;X;X,X,X,X,X,X,X,X,X,X,X5X5X5X5X,X;X;X;X;X;X;X;X;X;X*XXX.X.X{.!.H.G./.$XXX$X$X*X$X$X$X$X$X$X$X$X$X$X$X$X$X$X$X$XU.F.}.*X;X.XZ.5.t.N.^..X.X.X.X.X.X.X.X.X}.}.}.}.Y.U.G.B.M.c.M.c.c.x.j.j.c.b.c.c.c.k.k.j.j.j.j.j.j.j.j.j.j.j.j.j.j.j.j.j.j.j.j.j.j.j.s.s.j.s.s.t.a.a.t.t.e.e.e.e.e.9.8.6.8.8.8.8.8.8.8.8.5.5.r.M.C.Z.Z.Z.Z.Z.Z.Z.Z.Z.Z.Z.M.N.c.,.5.4.~ h U 8.a.e.a.r.r.k.v.v.k.a.9.9.e.e.j.j.j.j.j.j.j.a.e.9.5.<.>.-.@.{ ) E B c q 5 > $ * < q y d c A Y _ -.q.9.5.@.[ ) { >.e.s.M.Z.F.A.N.H.G.F.Z.x.5.{ ) ] w.N.",
".X.XG.j.} [ { e.b.U.|.^.b.k.H.^.Z.c.s.r.w.8.,.=.=.>.<.#.{ ^ G m d 9 * o 5 v A W ( ` +.=.<.5.8.r.a.a.j.k.c.v.M.N.M.v.c.k.j.a.a.j.j.c.M.b.b.j.s.x.M.N.r.W W +.<.9.f.j.k.N.N.N.Z.Z.Z.Z.Z.Z.Z.Z.Z.v.e.<.<.9.9.e.r.r.e.e.e.9.9.9.9.9.e.r.r.r.s.s.s.l.j.k.c.c.c.c.c.c.c.c.b.b.b.b.b.b.b.b.b.b.N.N.N.N.C.C.Z.Z.Z.Z.Z.Z.Z.Z.Z.Z.Z.Z.Z.Z.Z.N.G.}.^.}.'.^.{.}. X X.XXXXXXXXX X$X XU.s.>.s..X$X;X.XH.N.^..X$X$X$X$X$X$X#XXXXXXX$X$X$X$X$X#X.X$X$X}.U.c.F.^..X$X'.F.A.F.H.U.Y.`.`.`.|.|.|.|.}.}.}.}.}.}.}.|..X#X#X.X.X}.}.}.}.}.}.}..X.X$X$X$X$X$X$X.X.X.X.X.X.X.X.X.X.X.X.X.X.X.X.X.X.X.X.X.X.X}.}.}..X.X.X.X*XXX!.!.}.XX.X.XH.D.H.|.*X$X;X$X$X$X$X$X$X$X$X$X$X$X$X$X$X$X$X*X}.Z.H.$X,X*XF.r.e.c.U..X.X.X.X.X.X.X.X.X.X.X.XXX|.|.}.U.v.v.D.Z.Z.Z.C.F.G.F.F.F.F.Z.Z.b.b.b.b.N.N.N.N.b.b.N.N.N.N.N.N.b.b.b.b.n.b.c.c.c.k.j.j.j.j.j.j.s.s.s.j.j.j.s.s.j.j.j.j.k.j.j.k.s.e.9.9.x.b.Z.Z.Z.Z.Z.Z.Z.Z.Z.Z.N.k.j.5.e.0.[ k U 8.0.5.e.a.j.k.M.M.v.j.r.r.j.j.k.k.k.c.c.k.k.k.a.r.e.9.5.5.<.<.-.{ ~ U N h 9 > @ $ 4 q j B Y ) +.@.o.' ^ ) +.8.r.j.b.N.Z.F.I.A.N.U.H.x.<.] E E 1.N.{.{.",
".X.X.X.XH.t.[ E @.e.A.'.H.x.N.U.H.Z.B.b.v.j.e.5._ ^ [ { [ ^ H m h 9 $ < n U W ) *.;.5.q.e.r.a.j.j.k.c.v.N.N.N.N.N.M.M.v.c.j.j.j.c.M.N.N.c.9.5.e.r.a.-.E +.=.5.a.f.j.M.A.b.M.N.Z.Z.Z.Z.Z.Z.N.j.5.5.5.a.j.a.a.a.s.j.j.j.s.j.j.j.j.c.v.b.b.N.b.N.N.N.N.Z.A.A.A.F.F.F.F.G.G.H.H.H.H.H.H.H.H.H.H.U.U.U.U.!.!.!.!.^.^.^.^.^.^.^.^.!.^.U.N.Z.|.}..X|.|. X.XXXXXXXXXXXXX$XXX XF.x.>.t..X$X*X.XZ.Z.^.$X$X$X$X$X$X$X$X$X$X#X$X$X$X$X$X$X$X*X$X.XZ.Z.^..X.X$X!.b.c.b.N.C.C.N.N.N.N.N.N.Z.Z.Z.Z.A.A.N.N.N.N.N.N.N.N.N.N.N.N.N.N.N.N.N.N.N.N.C.Z.Z.F.F.F.F.F.F.F.F.F.F.F.F.F.F.F.F.F.F.F.F.G.G.G.F.D.Z.Z.Z.Z.D.H.G.b.c.Z.}..XXXXX}.F.Z.}.$X$X$X$X$X$X$X$X$X$X$X$X$X$X$X$X$X$X.X*X$XG.Z.$X;X*X^.r.8.b.H..X.X.X$X$X$X$X$X$X$X$X$X$X$X#X#XU.D.Y.H.H.H.U.^.}.^.{.}.}.{.{.J.J.J.H.H.H.H.H.H.H.H.H.H.H.H.H.F.F.F.F.F.D.D.D.Z.C.N.N.N.N.N.b.b.b.b.N.N.N.N.N.M.M.M.M.N.M.M.N.b.k.s.e.8.j.N.Z.Z.Z.Z.Z.Z.Z.Z.Z.k.a.k.k.a.a.,.B B -.<.+.-.8.a.k.Z.Z.v.j.a.j.k.c.v.v.v.v.M.M.b.v.k.j.a.r.r.e.9.8.5.,.+._ W H c 9 = @ % 4 h B Y W T K V V =.r.j.v.M.N.Z.A.Z.G.F.M.U.N.>.U A W 5.b.^.XX{. X",
".X.X.X.X*X.XH.s.@.{ =.N.U.b.j.F.U.F.F.N.N.N.M.s.[ m A W ~ ^ U B y = % c Y ~ { =.<.q.0.a.j.k.k.c.v.b.M.N.N.N.N.N.N.N.N.M.M.k.k.k.b.N.N.N.a.=.{ >.<.5.[ _ +.-.9.j.k.k.N.I.a.j.b.Z.Z.Z.Z.Z.N.b.a.5.9.a.k.j.a.s.j.j.v.v.v.v.v.b.b.b.b.b.N.C.A.A.A.A.A.A.F.G.H.H.U.U.H.H.U.U.U.U.U.U.^.^.^.^.^.^.^.^.^.^.^.^.^.^.^.^.^.^.^.^.!.^.!.!.'.Z.N..X.X.X.X.XXXXXXXXXXXXXXXXX$X.XJ.j.@.b.XX*X$X}.D.D.^.*X$X.XXX$X$X$X$X$X$X$X$X$X$X$X$X$X$X$X*X}.b.H.$X*X$X.XZ.x.D.}.|.}.{.}.}.}.}.|.|.|..X.X.X.X#X#X#X#X#X#X$X$X$X$X$X$X$X#X#XXXXXXXXXXX X}.}..X.X#X#X#X#X#X.X.X.X.X.X.X.X.X#X#X#X#X#X#X#X$X$X$X$X.X.X.X#X#X$X.X.X}.^.F.N.D.}.$X*X.XG.N.^.$X$X$X$X$X$X$X$X$X$X$X$X$X$X$X$X$X*X$X*X*XH.Z.$X*X;X.Xb.e.x.H..X*X*X*X*X*X*X*X*X*X$X#X$X$X.XXXU.U.H.H.U.!.}..X}.}.XX.X X}.}.}.{.{.^.^.^.^.^.^.^.^.H.H.H.H.H.H.H.H.H.H.H.H.H.G.F.F.F.F.F.F.Z.Z.Z.Z.Z.Z.N.N.N.N.N.N.N.N.N.N.N.M.v.j.5.w.c.C.Z.Z.Z.Z.Z.Z.Z.Z.k.j.v.c.f.0.4.U n @.<.+.^ { 8.v.N.N.b.j.j.k.v.M.M.M.M.M.Z.Z.N.M.v.k.k.j.j.s.s.a.e.8.<.=.+.[ R c 9 % + < s n Z B n s j H r.N.M.N.N.N.Z.Z.A.U.A.k.F.-.N W r.Z.}.}..X X{.{.",
"}.}.}.}..X.X.X.X^.s.^ <.G.Z.r.Z.U.H.F.A.A.F.N.v.#.d j c m n d q = X w U ) +.<.8.9.r.a.j.c.v.v.M.N.N.N.N.B.B.Z.B.Z.Z.Z.Z.Z.b.k.v.N.A.F.Z.a.{ ~ @.5.=._ +.{ -.r.v.k.M.Z.N.M.N.N.Z.Z.Z.Z.N.v.r.9.0.s.j.j.s.j.j.k.v.Z.N.N.M.v.k.v.N.C.Z.F.F.F.F.F.F.F.F.H.H.H.H.H.H.H.H.H.U.U.U.!.!.!.!.^.^.^.^.^.^.^.^.^.^.^.^.^.^.}. X.X}.^.^.^.^.!.H.Z.}.}..X.X.X.XXXXXXXXX$X$XXXXXJ.8.@.Z.XX;X*XU.D.H..X$X$X$X$XXXXX$X$X$X$X$X$X$X$X$X$X$X*X$X$XH.H..X$X*X*XU.s.x.XX*X*X*X$XXX$X*X*X*X*X=X=X;X;X;X=X=X=X=X=X=X=X=X=X>X>X>X;X=X=X;X;X;X;X;X*X*X*X=X=X=X=X=X=X=X=X=X=X=X=X=X=X=X=X=X=X=X=X;X;X;X;X;X;X;X;X*X*X*X*X*X*X*X*X$X*X}.F.Z.}.*X;X*XU.b.c.$X$X*X$X*X$X$X$X$X$X$X$X*X*X*X*X*X*X*X*X;X.XZ.}.*X,X*XH.r.r.G.}..XXX$X$X$X$X$X*X$X$X$X$X X X{.^.^.^.(.(.}..X}.}. X X X X X}.}.}.}.}.^.^.!.!.!.!.!.!.!.!.H.H.H.H.H.H.H.H.H.H.G.G.G.F.F.D.D.Z.Z.Z.N.N.N.N.N.N.N.N.M.M.M.M.b.b.b.b.j.e.e.c.Z.F.F.Z.Z.Z.A.A.Z.Z.M.M.a.e.8.[ N ) -.-.E m ,.b.Z.Z.N.v.v.j.v.M.N.N.N.Z.Z.Z.N.M.M.v.v.k.k.k.j.j.a.a.9.8.<.-._ U n 0 % + < d n h d s c U j.Z.N.Z.Z.A.F.F.F.Y.p.0.N.J @.H..X.X.X.X}.}.}.}.",
"}.}.}.}.}.}..X.X*X|.r.{ N.A.s.b.U.H.F.A.F.F.Z.b.-.B B c d w 1 * . > N ) { >.q.r.a.j.k.v.b.N.N.N.A.A.A.A.D.D.A.A.A.A.A.A.Z.M.k.v.Z.F.F.Z.j.5.@.{ +.^ -.+.{ <.a.v.M.N.M.M.N.N.Z.Z.A.A.Z.b.a.e.r.l.k.j.j.j.c.v.M.M.A.Z.Z.Z.k.k.k.v.b.b.C.Z.Z.Z.Z.Z.Z.A.F.F.H.H.H.H.G.H.H.U.U.U.!.!.!.!.^.^.^.^.^.^.^.^.^.^.!.!.!.!.^.^.^.^.!.!.!.!.^.{.^.}.}.}.}..XXX$X$X$X XXX.XY.Z.5.>.J.$X;XXX{.C.U..X.X$X$X$X$XXXXX$X$X#X$X$X$X$X$X$X$X$X$X}.b.N.$X*X;X.Xb.t.F.XX*XXXXX$X$X$X$X*X*X*X*X*X=X=X=X=X=X=X%X=X=X=X=X=X=X=X=X=X=X=X=X;X;X;X*X*X*X*X*X=X=X=X=X=X=X=X=X=X=X=X=X=X=X=X=X=X=X=X=X;X;X;X;X;X;X;X;X*X*X*X*X*X*X*X*X*X*X*X$XY.Z.H.$X*X*X{.b.x.U.$X*X;X*X$X$X$X$X$X$X*X*X*X*X*X*X*X*X*X;X.XC.U.;X;X;X^.j.e.N.!..X.X.X.X.X.X.X$X$XXXXX X X}.{.}.}.}.}.}..X}.}.}. X X}.}.}.{.^.^.^.^.^.^.!.!.!.U.U.!.U.U.H.H.H.H.H.H.U.H.H.F.G.H.G.F.F.F.F.D.Z.A.Z.N.N.N.N.N.N.M.M.M.M.b.b.b.b.N.j.w.e.x.Z.F.Z.A.A.A.A.Z.Z.M.M.a.a.9.=.A U +.W U W ,.k.Z.A.N.v.b.k.M.N.Z.Z.Z.Z.Z.Z.Z.N.N.N.N.M.b.v.c.k.k.j.a.a.9.4.-.[ H h 1 . + = 0 q y h B ) j.Z.N.Z.Z.A.F.F.I.U.9.e.j.+.D..X}.}.}.}.}.}.}.}.",
".X.X.X}.}.}.}.}..X.XU.) e.F.j.s.U.H.F.A.G.H.F.N.<.H H x 9 , @ . @ h Q [ >.q.r.j.k.c.M.N.B.D.Z.F.H.H.H.H.F.F.F.F.F.F.F.F.Z.N.v.M.F.H.F.N.s.a.a.e.W ~ >.^ { 8.j.v.N.M.M.N.N.Z.D.D.F.A.M.j.9.a.k.k.k.j.k.k.M.N.Z.Z.M.M.v.c.j.k.v.v.c.v.b.N.Z.Z.Z.Z.A.F.F.F.F.F.F.F.F.F.H.H.H.H.H.H.H.H.U.H.H.H.H.H.H.H.H.H.H.H.H.H.!.!.!.!.U.U.U.U.!.!.!.U.H.U.U.!.^.{.{.{.{.J.N.x.>.e.{.;X$XXXH.c.{..X.X.X$X$X$X$X$X$X$X$XXXXX$X$X$X$X$X$XXXU.Z.J.}.*X.XH.s.c.^.*X$X*X$X$X$X$X$X$X*X*X*X*X*X*X*X*X*X*X*X*X*X*X*X*X*X*X*X*X*X*X*X*X;X%X;X*X*X;X*X*X=X=X=X=X*X*X*X*X*X*X*X*X=X=X=X=X=X=X=X=X;X;X;X;X;X;X;X;X*X*X*X*X*X*X*X*X*X*X;X;X;X^.N.Z.}.*X;X.XU.N.D.XX*X;X*X$X*X*X*X*X*X*X*X*X*X*X*X*X.X.X;X.XZ.D..X;X*X.Xc.r.c.H.^.^..X.X|..X.X.X X{.{.{.}.}.}..X.X|.}.|.}.^.^.^.^.^.^.!.U.U.Y.!.U.U.U.U.U.U.H.H.H.H.D.D.F.F.F.F.F.G.F.F.Z.Z.Z.Z.Z.C.C.N.b.b.b.c.c.x.N.N.N.N.M.M.M.M.b.b.b.b.b.b.j.w.r.n.F.F.A.A.A.A.Z.Z.M.M.l.r.e.<.W H [ Q @.3.<.j.A.A.Z.M.M.k.N.Z.Z.Z.Z.A.A.A.Z.Z.Z.Z.Z.Z.Z.N.M.M.v.k.k.j.0.0.8.=.' Z y *     = 9 d c A ) j.A.N.Z.A.F.F.G.U.A.-.f.e.5.^..X}.}.}.}.}.}.}.}.",
".X.X.X}.}.}.}.}.}..X^.=.-.M.j.t.U.H.F.A.H.H.F.N.5.J H x 0 > $ @ 5 T { <.q.e.j.v.v.N.Z.F.D.G.G.J.U.U.U.U.F.F.G.G.F.F.F.F.A.M.v.M.H.U.G.N.s.s.j.s.,.-._ W +.9.k.M.M.v.M.Z.Z.Z.D.F.F.N.k.e.a.v.v.j.k.k.c.v.M.N.M.N.c.r.-.{ { =.-.=.@.*.-.-.<.<.<.<.5.5.8.8.9.9.9.9.8.w.e.r.r.r.r.r.r.r.r.r.e.e.e.e.8.8.8.8.s.s.s.s.j.j.j.j.s.j.j.j.x.t.x.j.l.j.j.j.s.s.s.s.e.2.@.>.x.XX$X;XXXF.Z.{..X$X$X$X$X$X#XXX$X$X$X$XXXXX$X$X$X$X$X$XZ.F..X*X*X.XN.s.F.$X=XXX$X$X*X*X$X$X$X$X*X*X*X*X*X*X*X*X*X*X*X*X*X*X*X*X*X*X*X*X*X*X*X*X%X%X;X*X*X*X*X*X=X=X=X=X*X*X*X*X*X*X*X*X=X=X=X=X=X=X=X=X;X;X;X;X;X;X;X;X*X*X*X*X*X*X*X*X;X*X$X=X;X;X$XF.b.H.XX*X;X$XJ.b. X*X;X*X*X*X*X*X*X*X*X*X*X*X*X*X.X.X$X*X$XF.b.!.*X,X$XD.e.r.j.j.b.b.b.b.c.x.x.j.j.x.c.c.c.b.b.b.k.c.j.j.l.l.l.l.l.a.r.r.t.t.r.r.t.t.t.t.e.e.e.e.1.1.5.5.5.1.q.8.8.8.1.1.<.<.<.2.=.=.@.@.{ { [ [ =.5.s.s.M.M.M.M.b.b.b.b.x.b.N.j.e.s.N.F.A.A.A.A.Z.Z.M.M.l.s.e.5.[ U { <.w.5.>.c.F.F.A.M.M.c.N.Z.A.A.A.A.F.A.A.Z.F.F.A.A.Z.Z.N.N.M.b.v.k.a.p.r.5.=.~ N q X   : q w x G [ j.A.N.N.A.F.F.G.F.M.@.k.5.s..X}.}.}.{.}.}.}.}.}.",
".X.X X X X X X X.X.X}.e._ v.c.t.G.U.U.U.G.U.F.v.9.U A B h 8 = 5 Z { 5.8.a.j.x.v.N.Z.A.F.H.H.U.Y.!.U.H.J.F.F.G.H.H.G.G.G.G.M.c.A.Y.Y.G.M.a.k.e.9.k.r.~ E =.r.v.v.v.v.N.Z.Z.D.F.Z.N.j.r.a.M.b.v.k.k.k.v.v.N.v.c.e.#.U A E ) [ [ [ } @.@.=.@.} { { } } } } =.>.<.<.1.5.5.5.8.8.8.8.8.8.8.8.8.8.9.9.e.e.e.e.t.t.t.t.r.r.r.e.e.e.e.e.r.r.t.r.r.r.e.e.5.1.<.<.<.8.b.}.*X;X$X^.D.D. X$X$X$X$X$XXXXXXXXX$X$X$X$X*X*X*X*X$XXXY.b.Y.XX;X;X}.b.s.U.*X*X*X*X$X$X$X$X$X$X$X$X*X*X*X*X*X*X*X*X*X*X*X*X;X;X$X$X*X*X*X*X$X$X*X*X;X;X*X=X*X*X*X*X*X*X*X*X*X*X*X*X*X*X*X*X=X=X=X=X*X*X*X*X*X*X*X*X=X=X=X=X=X=X=X=X*X*X*X*X*X*X*X*X*X*X*X*XU.N.D..X*X*X$X^.c.G.*X;X;X;X;X;X%X%X$X$X*X*X*X*X$X$X$X$X*X*X!.b.H..X;X*XH.c.5.<.5.5.<.<.>.>.<.<.,.<.5.8.e.e.e.w.e.e.e.e.8.8.8.8.e.e.e.w.w.8.8.q.1.1.1.1.1.<.<.<.<.<.<.<.<.<.<.<.<.<.2.2.=.=.=.=.@.@.@.@.@.} [ Q U H H ) 5.j.v.M.M.b.b.b.c.c.b.b.c.r.t.b.G.G.F.A.Z.Z.N.M.c.j.r.8.=.U +.8.s.y.<.j.D.G.G.A.A.c.M.A.F.F.F.F.F.F.F.F.H.H.G.F.F.D.Z.Z.N.N.N.b.k.f.a.e.4.=.^ Z w + . w d N U ^ a.A.Z.N.Z.A.F.G.U.x.=.b.>.b.}.^.}.}.}.}.}.}.}.}.",
".X.X X X X XoX X.X}..XM.^ s.N.s.Z.U.U.U.G.U.F.v.e.@.) N q : = c _ <.9.0.j.k.v.b.Z.A.F.G.U.U.Y.Y.^.!.U.H.H.H.H.H.H.H.G.G.G.M.c.G.Y.Y.H.N.j.a.e.a.M.9.E T 5.j.v.v.v.M.Z.Z.D.F.Z.b.j.a.j.M.b.v.v.c.v.v.M.M.N.k.5.{ G U ,.s.b.N.N.N.Z.D.F.F.D.A.Z.Z.D.D.D.D.H.H.H.U.U.U.U.U.U.U.U.U.U.U.!.!.!.!.^.^.^.^.^.^.^.^.^.^.^.^.^.^.}.}.}.}. X X.X}.}.}.{.{.^.}..X.X*X;X;X;X;X$XU.Z.F.$X$X$X$X$X$X$X$X$XXXXX$X$X$X$X$X*X*X$X XD.N.XX$X;X$XJ.j.b..X$X*X*X*X*X$X$X$X*X$X$X$X$X*X*X*X*X*X*X*X*X*X*X*X*X;X;X$X$X*X*X*X*X$X$X*X*X;X;X*X*X*X*X*X*X*X*X*X*X*X*X*X*X*X*X*X*X=X=X=X=X*X*X*X*X*X*X*X*X=X=X=X=X=X=X=X=X*X*X*X*X*X*X*X*X*X*X*X*X*X^.b.b.!.$X;X$X|.c.b.;X*X%X;X;X;X%X$X$X*X*X*X*X$X$X$X$X$X*X*X}.b.Z..X*X;X*X*X.X.X.X.X.X|.|.#X#X.X.X.X|.|.}.}.^.}..X}.}.}.}.}.}.}.}.}.}.}.{.!.!.H.Y.H.H.H.H.J.H.H.H.H.H.H.H.H.H.H.H.G.G.D.D.F.F.F.F.F.F.F.Z.Z.b.c.e.[ Z U -.a.b.M.M.b.v.c.c.c.b.b.j.r.s.Z.A.F.A.Z.Z.Z.N.v.j.r.9.=.U ) e.r.d.r.s.Z.F.G.A.F.M.N.F.F.F.F.F.G.G.G.G.H.H.G.G.G.F.F.D.A.Z.N.N.v.k.s.a.0.4.=.~ M 0 . 4 y n U [ a.A.Z.Z.A.F.F.G.U.w.<.b.<.Z.}.}.}.}.}.}.}.}.}.}.",
".X.X.X X X}.oX{.{.}..XY._ 3.C.j.b.H.U.G.G.U.F.v.9.-.{ E q % 1 U =.5.0.a.k.v.M.B.F.G.U.U.U.Y.^.'.^.^.!.U.H.H.H.H.H.H.H.G.G.N.v.U.^.^.U.N.c.r.a.k.M.-.T _ r.v.v.v.v.N.Z.Z.F.Z.b.j.j.a.M.F.c.v.v.v.M.M.b.v.a.5.) G [ j.F.Y.U.U.U.U.U.!.^.^.^.^.^.}.(.^.{.{.}.}..X.X.X}.}.}.}.}.}.}.}. X.X.X X X.X.X.X.X.X.X}.}.}.}.}.}.}.}.$X$X$X$X$X$X*X$X$X$XXXXX.X$X*X*X*X;X*X$X}.H.Z.Z.XX$X.X;XXX$X$X$X$X$X$X$X$X$X$X$X$X$X.X^.c.J.;X;X;X$XD.r.H..X*X*X*X*X*X*X$X$X*X*X*X$X$X$X*X*X*X*X*X*X*X*X;X*X*X*X%X;X&X$X*X*X*X*X$X$X*X*X;X;X*X*X*X*X*X*X*X*X*X*X*X*X*X*X*X*X*X*X=X=X=X=X*X*X*X*X*X*X*X*X=X=X=X=X=X=X=X=X*X*X*X*X*X*X*X*X*X*X*X*X;X*X.XF.x.G.}..X*X.XM.j.XX>X;X;X%X%X%X%X*X*X*X*X$X$X$X$X$X*X;X;X.XC.N.!.*X*X;X;X*X*X;X;X$X%X=X;X=X=X>X>X;X=X*X$X#X$X#X#X.X.X.X.X.X.X.X.XXX.X X}.XXXXXX X.X}. X X}.|.|.|..X.X.X.X|.|.'.^.^.^.^.Y.Y.Y.Y.U.U.H.U.U.Y.Y.A.8.U U -.a.c.M.M.b.b.b.b.c.b.b.j.e.j.M.A.G.A.Z.Z.Z.b.j.r.9.<.^ E 8.r.v.c.r.C.F.H.G.G.Z.b.F.F.F.G.G.H.H.H.H.U.H.H.H.H.G.G.F.F.Z.Z.N.M.v.k.s.9.5.-.[ U x % % y B ^ -.r.A.A.A.A.F.F.H.F.=.e.j.5.H.}.}.}.}.}.}.}.}.}.}.",
".X.X.X X X}.{.{.(.}..X'.@.@.b.x.k.H.Y.G.G.U.F.v.5.,._ G 0 = x ) <.9.j.k.v.b.B.B.G.H.U.Y.Y.Y.^.'.^.^.^.!.H.H.H.U.U.U.H.H.G.N.b.].'.'.U.Z.c.s.k.k.f.[ E -.j.v.v.N.M.Z.Z.F.Z.b.j.r.j.b.Y.v.k.c.v.M.v.v.k.k.5.^ U @.b.H.H.N.c.c.k.k.x.c.n.b.c.n.b.N.b.b.b.b.b.b.N.N.N.N.N.N.N.N.N.N.D.D.D.D.D.D.D.D.Z.Z.Z.Z.Z.Z.Z.Z.C.C.C.C.Z.D.D.D.F.F.F.D.D.D.Z.Z.F.F.Z.Z.Z.Z.Z.Z.Z.b.D..X$X X$X$XXX$X$X$X$X$X$X$X$X$X$X$X.X.X!.C..X;X*X$X{.c.x.Y.$X$X$X$X*X*X*X*X$X$X$X*X$X$X$X$X*X*X*X*X*X*X*X*X*X*X*X*X%X%X&X%X*X*X*X*X$X$X*X*X;X;X*X*X*X*X*X*X*X*X*X*X*X*X*X*X*X*X*X*X=X=X=X=X*X*X*X*X*X*X*X*X=X=X=X=X=X=X=X=X*X*X*X*X*X*X*X*X*X*X*X*X$X*X*X*XH.b.c.!..X=X*XU.x.U.%X;X%X%X%X%X*X*X*X*X$X$X$X$X$X$X$X$X;X$XG.N.Z.F.H.H.U.^.^.}.'.'.|.|.|.|.'.U.U.H.H.G.F.H.F.F.F.F.F.F.F.F.F.F.F.D.Z.Z.D.D.D.B.Z.C.Z.Z.Z.Z.Z.Z.A.A.A.A.Z.N.N.N.M.N.N.M.M.b.b.b.c.k.v.N.Z.U.'.H.r.W Y { 9.c.M.M.Z.C.N.b.b.b.b.s.a.j.N.G.A.A.Z.Z.b.k.a.9.3.{ U >.a.b.b.r.N.F.H.H.H.Z.v.F.F.F.F.F.H.H.H.H.U.U.H.H.H.H.H.G.F.D.Z.C.N.M.v.k.j.r.8.>._ B 8 + 8 Z [ -.e.Z.Z.F.F.F.F.H.N.{ k.r.8.U.}..X}.}.}.}.}.}.}.}.",
".X.X.X.X X X.X.X{.}..X#Xe.[ b.c.l.U.Y.G.H.F.Z.v.5.,.E j * 8 U -.9.j.v.N.Z.A.G.U.H.U.Y.^.^.^.^.'.^.^.^.!.!.^.^.^.U.U.H.H.F.c.H.H.'.^.A.G.r.c.v.v.e.~ ~ 9.c.v.b.M.N.Z.Z.Z.b.j.t.s.k.U.M.j.v.v.v.v.b.N.k.<.W W >.c.U.H.N.c.b.M.M.M.b.N.N.N.Z.Z.Z.Z.F.F.F.F.F.F.F.F.D.D.D.D.H.H.H.H.H.H.J.J.H.H.H.H.H.H.G.G.H.H.H.H.H.H.H.H.H.H.H.H.F.F.H.F.F.F.F.F.H.H.F.F.Z.Z.Z.D.U.^..X.X$X$X$X$XXXXX$X$X$X$X$X$XXX*X$X$X.XU.Z..X>X$X$XJ.s.b.XX$X$X$X$X$X$X$X$X$X=X$X$X*X*X$X$X*X*X*X*X*X*X*X*X*X;X;X;X;X*X*X*X;X*X*X*X*X*X*X*X*X*X*X*X;X;X;X=X*X*X*X*X*X*X*X;X;X;X;X;X;X=X=X=X;X;X;X;X*X;X;X;X;X;X;X=X*X*X=X;X;X;X;X*X*X$X*X*X;X*X*X*X*X*X*X*X*X*X}.F.b.U.|.*X*X|.G.G.|.XX;X%X%X*X*X*X*X*X*X*X*X$X$X*X*X*X*X*X.XU.H.F.Z.F.F.F.G.G.G.H.G.H.U.U.H.D.D.F.F.F.H.F.F.U.U.U.U.U.U.U.U.U.J.H.G.G.G.G.F.H.H.H.H.F.F.F.F.D.F.F.F.Z.A.A.F.F.F.F.F.Z.N.N.N.N.b.k.a.r.b.U.G.F.e.) U @.a.v.v.b.b.Z.Z.b.b.b.c.k.j.k.N.A.F.A.Z.Z.b.j.a.5.=.U { r.x.b.s.j.H.H.H.U.F.c.Z.H.G.G.H.H.H.H.H.U.U.U.U.H.H.H.H.Z.Z.Z.H.F.Z.M.v.k.j.r.8.@.T g $ % n ^ -.j.A.Z.A.F.F.H.H.b.] N.8.s.}.}.^.}.}.}.}.}.}.}.}.",
".X.X.X.X X X.X.X{.}..X#Xk.) l.b.l.G.U.H.G.F.Z.k.=.[ G t = n _ <.s.k.M.Z.F.F.U.U.U.Y.^.'.'.'.'.}.}.}.^.^.^.^.}.}.U.U.H.H.A.N.H.U.'.Y.A.N.e.M.z.v.-.~ O.p.c.v.b.M.Z.Z.Z.M.j.s.s.c.Z.N.k.v.M.M.M.M.v.c.8.) W -.v.G.A.b.v.N.H.H.H.F.H.H.H.H.H.H.U.U.^.^.^.^.^.^.^.^.}.}.}.}.}.}.}.}.}. X X X.X.X.X.X.X.X.X.X.X.X.X.X.X.X.XXX.X.X.X.XXXXX$XXX$X$XXXXX$X$X.X.X.X.X.X.X.X.X.X.X$X$X$X$XXXXX$X$X$X$X$X$XXXXX$X}.D.^.$X*X;XXXZ.s.J.$X$X$X$X$X$X$X$X$X$X$X$X$X$X*X*X*X*X*X*X*X*X*X*X*X*X*X;X;X;X;X;X;X;X;X;X*X*X*X*X*X*X;X;X;X;X;X;X;X=X=X*X*X*X;X;X;X;X;X;X;X;X;X=X=X=X;X;X;X*X*X*X*X*X*X;X;X=X=X*X=X;X;X;X;X;X*X*X*X*X*X*X*X*X*X*X*X*X*X*X*X.XH.b.F.}.*X;X%XG.B.Y.%X#X$X*X*X*X*X*X*X*X*X$X$X$X$X*X*X$X$X$X*X*X*X.X.X.X.X$X#X$X.X.X.X.X.X.X.X.X.X.X.X.X.X#X#X#X#X#X#X#X#X#XXXXX|.XXXXXX|..X.X.X.X}.}.(.(.^.^.^.^.^.^.^.^.'.'.}.}.Y.Y.Y.Y.Y.U.H.A.r.r.b.H.U.Z.8.~ Y =.s.v.b.b.C.Z.Z.b.b.b.M.j.a.j.M.A.A.A.Z.M.k.s.8.,.~ ) 9.s.N.c.s.Z.H.H.U.F.c.k.H.H.H.U.!.U.H.H.U.U.U.U.U.H.H.H.F.Z.D.H.U.F.Z.N.v.k.j.r.<._ Z 8 X y T @.r.Z.Z.Z.F.F.H.H.j.{ N.<.c.}..X}.}.}.}.}.}.}.}.}.",
"XXXXXX.X.X X.X.X}.}..X#XF.) w.N.a.M.U.U.G.G.N.a.+.H h % 5 Y -.r.k.b.Z.F.F.H.U.U.U.^.'.}.}.}.}.|..X.X}.}.}.}.}.}.U.U.H.H.b.G.U.].}.U.A.k.j.N.v.a.~ ~ ,.j.c.v.b.M.Z.Z.M.j.s.s.k.Z.Z.a.N.Z.N.M.M.M.b.c.+.Y =.c.F.Z.c.c.N.F.H.H.G.G.H.H.H.H.H.H.H.H.U.U.U.U.^.^.(.(.}.}.}.}.}.}.}.}.}.}.}.}..X.X.X.X.X.X.X.X.X.X.X.X.X.X.X.X.X.X.X.X$X$X$X$X$X$X$X$X*X*X$X$X$X$X$X$X$X.X$X$X$X$X$X$XXX$X$X$X$XXXXX#X$X XF.b.D.;X*X$XJ.x.x.XX;X>X;X$X*X*X$X$X$X$X$X$X$X$X$X.X^..X$X$X$X$X$X$X$X$X$X$X$X$X*X*X$X$X$X*X;X*X*X*X*X*X=X;X;X;X*X$X$X$X#X#X.X.X.X.X*X*X=X;X;X;X;X;X;X;X;X;X;X;X;X*X*X*X;X;X;X;X>X>X;X;X;X=X*X*X$X.X$X$X*X*X*X*X*X*X*X*X*X*X*X;X;X*XY.N.N.U.$X;X;X|.y.B.*X;X*X*X*X*X*X*X*X*X$X$X$X$X*X$X$X$X$X$X=X;X$X$X$X$X$X$X$X$X#X$X$X$X$X$X$X$X$X$X#X#X$X$X$X$X$X$X$X$X#X#XXX|.|.@X|.|..X|.}.}.'.'.'.'.^.^.^.^.].].^.^.^.!.!.Y.Y.U.U.U.U.U.!.H.A.s.r.c.F.G.M.8.E E 3.k.c.b.N.C.Z.Z.b.b.M.k.r.8.j.N.A.F.A.Z.b.j.r.5.{ Y <.j.Z.N.s.N.G.J.Y.H.C.r.F.H.H.!.^.!.!.U.U.!.!.!.^.U.H.H.F.A.F.H.U.G.G.A.N.v.k.j.9.=.Y h X : N ) 5.M.Z.Z.F.F.H.H.e.<.b.>.Z..X.X}.|.|.}.}.}.}.}.}.",
"XXXXXX.X.X X.X.X}..X.X.XU.[ 5.N.r.c.U.U.F.G.N.e._ d : + h ^ <.j.v.N.A.F.G.H.U.U.Y.^.}.|.|.|.|..X.X.X}.}.}.}.}.}.!.!.!.H.b.!.!.^.}.U.Z.a.M.M.M.5.~ [ 5.j.c.v.M.M.Z.M.j.a.s.j.c.Z.k.v.N.A.N.N.N.N.M.a.W { j.F.N.x.d.N.H.G.H.H.H.H.H.H.U.U.H.H.H.U.!.!.!.!.}.}.}.}.{.{.^.^..X.X.X.X|.|.|.|.|.|.|.|..X.X.X.X.X.X.X.X.X X X X.X.X.X.XXXXX$XXXXXXX.X.X$X$X.X.X.X.X.X.X.X.X$X$X$X$X$X$XXX#X$X$X$XXXXX#X$XJ.x. X.X.XU.D.x.Z.XX$X$X$X$X*X*X*X$X*X$X$X$X$X*X*X.X^.Z.H.^.^.H.H.H.H.H.H.H.H.J.J.J.J.H.H.H.H.H.H.G.F.G.G.H.H.H.F.A.N.M.M.M.c.x.j.j.c.N.Z.F.U.U.U.U.U.U.U.U.U.U.H.H.H.H.H.H.H.U.Y.Y.Y.Y.U.H.G.H.!.}..XH.^.$X*X*X*X*X*X*X*X*X*X*X$X$X;X*X'.Z.c.J. X;X%XU.s.|.*X*X*X*X*X*X*X*X*X$X$X$X$X$X$X$X$X$X$X*X*X$X$X$X$X#X.X#X#X.X$X$X#X.X#X$X$X$X*X$X$X$X$X$X$X$X$X$X$X$X#X#XXX|.|.}.}.|.|.}.}.'.'.'.'.^.^.^.^.].].^.^.U.U.Y.!.U.U.U.U.H.H.!.U.U.F.s.r.v.A.F.N.=.Y +.e.c.c.b.C.C.Z.Z.b.M.c.a.8.9.j.N.F.F.Z.M.k.a.5.=.W =.a.N.b.c.N.Z.H.Y.U.G.k.C.H.U.].{.^.^.!.!.!.!.!.^.!.U.H.H.F.H.U.Y.U.G.F.A.N.v.k.f.4._ N < X e G >.v.Z.Z.F.F.H.H.5.j.c.<.H..X}.^.|.}.}.}.}.}.}.}.",
"XXXXXXXX X X|..X.X.X X X.X=.>.b.k.a.F.U.G.F.c.-.^ < + : U =.r.k.M.N.Z.F.H.H.U.U.^.}..X.X.X.X.X.XXXXX.X X X}.}.}.^.^.U.F.C.(.!.(.#XU.c.k.A.v.v.=.~ =.9.j.v.v.N.Z.A.v.j.a.a.c.A.k.j.v.Z.A.Z.Z.Z.Z.M.5.G 8.N.F.b.r.N.G.G.G.H.H.H.H.U.U.U.U.Y.Y.^.^.^.!.^.^.^.^.^.(.}.}.}.}.}.}.}.}.|.|.|.|.|.|.|.|..X.X.X.X.X.X.X.X.X.X.X.X.X.X.X.X.X.X.X.X$X$X$X$X$X$X$X$X$X$X$X$X$X$X$X$X$X$X$X$X$X$X$X$X$X$X$XXXD.Y.}..X}.F.t.w.Y.$X$X$X*X;X;X;X*X*X*X*XXX$X*X$X$XU.F..X*X$X^.D.Z.Z.Z.Z.Z.Z.Z.N.N.N.N.N.N.N.N.b.b.c.x.j.j.j.j.s.s.s.s.s.s.s.s.s.s.j.j.j.x.r.5.8.t.t.t.t.a.s.j.c.b.b.b.c.b.b.b.b.b.M.M.M.M.N.Z.D.G.^.$X*XXXD.H..X*X;X;X*X=X$X$X=X*X*X*X*X;X*X}.F.r.b.}.$X;X#XH.U..X$X$X$X*X*X*X*X*X*X*X*X*X*X*X*X$X$X$X$X$X$X$X$X$X$X$X$X#X#X#X#X$X$X$X$X*X.X$X.XXX#X$XXXXXXXXXXXXXXXXX|.|.|.|.|.|.|.|.|.}.}.}.}.'.'.(.(.^.^.^.^.].].].!.Y.U.U.U.U.U.U.U.Y.H.Z.j.r.b.Z.A.j.@.^ 9.k.v.M.Z.N.N.Z.A.v.v.v.s.5.9.k.A.F.Z.M.k.j.e.5.^ ^ e.b.G.N.N.F.H.!.U.H.C.c.H.H.U.U.^.^.^.^.^.^.^.^.^.^.^.U.H.H.U.U.F.A.N.M.N.N.v.j.e.=.W y $ = N { s.C.M.C.Z.D.F.8.b.r.8.}..X}.}. X X X X X X X X",
"XXXXXXXX X X|..X.X.X.X.X}.e.{ v.c.a.A.G.F.Z.a.+.Z @ $ j @.9.k.M.N.Z.Z.A.F.F.H.U.}..X.X$X$X$X$X$X$X$XXXXX X}.}.^.^.!.H.Z.F.(.].(.|.A.v.M.N.N.k.{ ) ,.e.s.c.v.N.Z.N.k.j.a.k.M.b.r.k.M.Z.Z.Z.Z.Z.Z.M.{ ) a.A.M.j.k.G.H.G.G.H.H.H.H.U.U.U.U.Y.Y.^.^.!.!.^.^.^.^.^.^.}.}.}.}.}.}.}.}.|.|.|.|.|.|.|.|..X.X.X.X.X^.^..X.X.X.X.X.X.X.X.X.X.X.X.X$X$X$X$X$X$X$X$X$X$X$X$X$X$X$X$X$X$X$X$X$X$X$X$X.X$X}.Z.{.$X>X$XN.r.j.J.$X;X$X$X*X*X;X;X*X*X*X*X$X.X;X$XZ.N.^.;X*X*X*X$X$X$X$X$X$X$X$X$X$X$X*X*X*X*X;X;X;X*X$X$X$X$X$X$X*X*X=X=X=X;X;X=X;X;X;X;X;X$XXX$X$X$X$X$X$X$X#X.X$X;X;X*X*X*X*X$X%X$X%X$X$X%X;X;X*X;X;X*X;X.XG.U.XX*X;X*X;X*X*X;X*X*X*X*X=X*X$X.XF.r.j.N.|.;X#X^.G..X*X*X$X*X*X*X*X*X*X*X*X*X*X*X$X$X$X$X$X$X$X$X$X$X$X$X$X$X$X$X$X$X$X$X$X.X$X.X.XXXXX#X$X$X$X$X$XXXXX|.|.|.|.|.|.|.|.|.}.}.}.}.}.}.(.^.^.(.^.^.].].].!.Y.U.U.U.U.U.U.U.!.!.H.Z.s.s.Z.N.M.e._ 9.k.v.M.N.Z.N.N.Z.M.v.v.k.9.r.k.Z.A.Z.M.k.j.r.9.=.~ 8.b.Z.A.N.Z.G.!.U.H.D.n.H.H.F.U.Y.^.^.^.^.^.^.^.^.^.^.^.U.U.^.Y.U.F.A.Z.A.Z.M.k.s.8.{ B 1 + t ) 9.c.v.C.C.b.b.e.Z.5.j.}.|.}.}. X X X X X X X X",
"XXXXXXXXXX.X.X.X.X.X.X.X|.v.^ s.b.e.M.A.Z.k.5._ x . < ~ 8.s.v.A.G.H.U.U.H.H.U.U.}..X$X$X$X$X$X$X$X$X$XXX X X}.{.!.H.F.Z.U.^.^.^.^.M.v.F.b.Z.9.^ { 5.r.a.k.c.M.M.M.j.a.j.v.N.j.e.c.N.Z.Z.Z.Z.Z.Z.v.Y <.M.F.x.a.N.H.G.G.H.H.H.U.U.H.H.U.U.U.Y.!.^.!.!.^.^.^.^.^.^.}.}.}.}.}.}.}.}.}.|..X.X.X.X.X.X.X.X.X.X.XZ.}.}..X.X.X.X.X.X.X.X.X.X.X.X$X$XXX$X$X$X$X$X$X$X$X$X$X$X$X$X$X$X$X$X$X$X$X$X$XF.D. X>X>XXXF.r.b. XXX$X$X$X$X*X;X;X;X*X*X*X*X*X$X}.F.F.$X$X$X;X*X$X$X$X$X$X$X$X$X$X$XXXXXXXXXXXXX$X$X$X$X$X$X$X$X$XXX.X.X.X.X.X.X.X.X.X.X.XXXXX|. X|. X X X X X X}.}..X*X*X$X$X$X$X.XXXXXXXXXXX$X$XXX$X*X*X$X;X*XXXH.^..X*X;X=X$X$X=X*X*X*X*X=X*X*X*X*X'.x.r.b.^.*X*X}.G.!.*X*X$X*X*X*X*X*X*X*X*X*X*X$X$X$X$X$X$X$X$X$X$X$X$X$X$X$X$X$X$X$XXXXXXXXX{.Y.}.XX#X$X$X$X$X$XXXXX|. X X X X}.}.}.}.}.}.}.}.}.}.{.{.{.^.^.^.^.^.].].].U.U.U.U.U.!.!.!.!.!.H.Z.s.b.N.M.s.-.a.k.k.b.N.Z.M.M.b.Z.v.M.N.k.r.j.b.N.Z.M.c.s.e.w.,.W @.x.Z.G.N.N.F.U.U.U.H.N.Z.U.H.Y.^.^.^.^.^.^.^.^.^.^.^.}.^.^.}.}.Y.U.G.A.F.F.N.M.c.a.<.^ d X 1 U <.k.b.Z.N.x.j.x.F.>.Z..X}.}..X}.}. X X X X}.}.",
"XXXXXXXXXX.X.X.X.X.X.X.X|.N.^ r.M.9.v.A.Z.a.>.~ 8 $ m -.r.k.Z.G.F.U.U.H.U.Y.^.^..XXX$X*X*X*X*X*X$X$X$XXX.X X}.}.^.H.D.Z.^.^.^.^.G.M.Z.Z.M.N.<.~ =.8.e.a.k.k.v.M.v.j.j.v.c.v.e.a.v.N.Z.Z.Z.Z.Z.Z.a._ j.M.N.j.j.G.H.H.H.H.H.H.U.U.H.H.U.U.U.U.!.^.!.!.^.^.^.^.^.(.}.}.}.}.}.}.}.}.}.}.}.}.}.}..X.X.X.X.X.X.XN.^..X.X.X.X.X.X.X.X.X.X.X$X$X$X$XXXXX$X$X$X$X$X$X$X$X$X$X$X$X$X$X$X$XXX$X$X$XZ.Y.$X;X;X.XZ.r.D. X$X$X$X$X$X;X%X*X;X$X*X*X*X*XXX^.b.H.$X.X$X.X$X}.^.}..X.X.X.X X X X X X X X X X X X X X X X X X X X X}.}.}.}.}..X.X.X.XXXXX#XXXXX X X{.{.}.}.}.}.}.}.}..X}.{.}.}.}.}.}. X X X X X X}.{.{.(.U.XX;X;X=X}.^..X*X$X.X.X$X*X*X*X*X*X*X=X;X$X;X$X^.s.s.H.$X*X}.H.D..X*X$X*X*X*X*X*X*X*X*X*X$X$X$X$X$X$X$X$X$X$XXXXXXXXXXXXXXXXXXXXX.XXXXX!.b.Y.XXXXXXXXXXXXXXXXXX X X X X X|.}.}.}.}.}.}.}.}.{.{.{.{.{.^.^.^.^.].].].U.U.U.U.!.!.!.!.!.!.!.U.c.c.Z.M.M.9.,.j.k.v.M.Z.M.v.k.Z.v.M.Z.M.r.e.j.b.N.M.c.s.9.5.=.~ W e.N.G.A.N.Z.H.U.U.H.Z.b.H.!.Y.^.^.^.^.^.^.^.^.^.^.^..X}.}..X|.^.Y.U.F.H.F.Z.Z.v.k.9.-.G : % c +.r.v.Z.b.s.w.N.Z.>.H.}.}..X.X X X X X X}.}.}.",
"XXXXXXXXXXXXXXXX.X.X.X.X|.H.^ <.Z.9.r.N.b.e._ h $ q ) 5.k.b.Z.A.H.U.U.Y.^.^.^.^.|..X$X$X$X$X$X$X$X$X$XXX X X}.{.Y.F.N.Y.}.}.}.^.N.Z.Z.N.N.k.^ Z [ -.5.9.r.s.k.M.k.a.s.k.k.9.9.k.M.M.N.Z.Z.N.Z.M.5.{ v.N.M.x.B.U.H.J.U.U.U.U.U.U.H.U.U.!.U.U.!.^.^.^.^.^.^.^.(.(.}.}.}.}.}.}.}.}.|.|.|.|..X.X.X.X.X.X.X.X.X^.^..X.X.X.X.X.X.X.X.X.X.X$X$X$X$X$X$X$X$X$X$X$X$X$X$X$X$X$X$X$XXX$X$XXX XF.F. X$X;X.XJ.b.j.Z.*X*X;X;X*X*X;X;X;X;X$X$X*X$X$X.XC.N.}.,X*X$XF.s.}.$X;X;X;X;X;X;X;X;X;X;X;X;X;X;X;X;X;X;X;X;X;X;X;X;X;X;X;X;X;X;X;X;X;X;X;X;X;X;X;X;X;X;X;X;X;X>X;X;X;X;X;X;X;X;X=X;X;X;X;X;X;X;X;X;X;X*X;X*XXXZ.8.!.;X;X;X.XU.H.Y.*X*X#X$X*X*X=X=X=X;X=X=X*X*X*X$Xb.s.G.$X;X.XH.Z.^.$X;X*X*X*X*X*X*X*X*X$X*X*X*X$X$X*X*X$X$X*X*X$X$X$X$XXXXXXXXXXXXXXX{.J.}.XXXXXXXXXXXX$XXXXX X X.X.XXX.X}.}.}.}.}.{.}.}.^.Y.{.^.^.^.^.^.^.].].].].].Y.Y.!.!.!.Y.Y.Y.Y.!.F.s.N.N.M.e.+.s.a.a.k.M.v.9.j.N.v.v.A.M.s.r.e.j.c.c.s.w.3.=.E ) G <.N.H.H.Z.N.D.U.^.H.H.b.F.^.Y.^.^.^.'.^.'.'.^.^.^.}..X}.^.}.|..X|.Y.U.H.F.Z.Z.N.c.a.5.{ h @ y ^ 9.k.Z.b.1.1.Z.b.5.^.}.}.}.}.}.}. X X X X}.}.",
"XXXXXXXXXXXXXXXX.X.X.X.X.XY.{ @.F.r.5.M.b.5.U 9 $ c =.9.c.M.Z.G.U.U.Y.Y.^.^.^.^.|..X$X*X$X$X$X$X$X$XXX.X X}.}.{.U.N.N.}.}.}..X!.N.Z.Z.N.A.9.H Z ~ [ @.,.5.9.a.k.k.a.a.a.r.9.a.c.M.N.Z.N.M.c.N.M.@.@.v.N.c.v.D.J.J.J.U.U.U.U.U.U.H.H.!.!.U.!.^.^.^.^.^.^.{.{.}.}.}.}.}.}..X.X.X.X.X.X.X.X.X.X.X.X.X.X.X$X$X.X.X.X.X.X.X.X.X.X.X.X.X.X$X$X$X$X$XXX$X$X$X$X$X$X$X$X$X$X$X$X;X$X;X$X{.N.U.XX;X;XXXJ.x.b.^.XX$X$X$X$X%X;X;X;X;X;X$X$X$X*X^.b.F.*X;X*X$Xs.s.$X;X;X*X*X;X;X;X;X;X;X;X;X;X;X;X;X;X;X;X;X;X;X;X;X;X;X;X;X;X;X;X;X;X;X;X;X;X;X;X;X;X;X;X;X;X;X;X;X;X;X;X;X;X;X;X;X;X;X;X;X;X;X;X;X;X;X;X*X*X*X;X;XZ.1.b.XX;X;X.XU.N.U.$X;X$X$X*X*X;X;X;X=X=X*X*X*X*X.XN.r.F.$X;X*X!.Z.U..X;X=X*X*X*X*X%X%X$X$X*X*X$X$X*X*X*X*X*X*X$X$X%X$X$X$X$X$X$X$X$X.XXX$X$X$X$X$X$X$X$X$XXX.X.XXXXXXX.X.X}.}.}.}.}.^.^.^.^.^.^.!.!.!.^.^.].].].].].Y.Y.Y.!.!.Y.Y.Y.Y.^.F.j.N.A.N.y.@.=.e.5.k.v.k.9.j.v.c.M.Z.N.j.j.a.j.s.a.e.3.[ R m ^ N E b.F.G.F.N.N.^.}.H.H.Z.N.^.'.^.^.'.^.^.'.'.^.(.}.}..X}.}.}..X.X}.Y.U.H.G.F.A.Z.M.k.9.<.T = < U <.k.b.c.1.2.F.r.r..X}.}.}.}.}.}. X X X X}.}.",
"XXXXXXXXXXXXXXXX.X.X.X.X#X}.>.) Y.r.<.c.k.+.n = : W 9.s.v.M.F.G.U.Y.^.'.^.^.^.^.}..X$X$X$X$X$X$X$XXXXX X X}.{.U.H.b.F.XX}. X|.H.M.Z.Z.M.Z.=.B W +.{ =.5.5.5.5.8.a.a.r.r.8.r.j.k.M.Z.Z.v.<.5.b.b.5.a.N.N.d.M.G.G.J.J.U.U.H.H.H.H.U.!.U.U.!.!.!.!.^.^.^.^.{.{.}.}.}.}.}.}.}.}..X.X.X.X.X.X.X.X.X.X.X.X.X.X.X.X.X.X$X$X$X$X$X$X$X$X$X$X*X*X*X*X*X*X*X*X$X$X*X;X$X$X*X*X$X$X$X*XXXY.Z.^.$X$X$X}.N.x.D.XX$X;X$X$X$X$X%X%X*X;X;X;X$X$X.XH.H.}.*X,X,X}.8.j..X*X*X*X*X*X;X;X;X;X;X;X;X;X;X;X;X;X;X;X*X*X;X;X;X;X;X;X;X;X;X;X;X;X;X;X;X;X;X;X;X;X;X;X;X;X;X;X;X;X;X;X;X;X;X;X;X;X;X;X;X;X;X;X;X;X;X;X*X*X*X*X*X;X$X!.w.r.}.;X;X#X^.F.U.$X*X$X$X*X;X;X;X=X=X*X*X*X;X*X;XG.t.N..X*X;X}.D.F..X=X;X=X*X*X*X*X$X$X*X$X*X*X*X*X*X*X*X*X$X$X$X$X$X$X$X$X$X$X$X$X$X$X$X$X$X$X$X$X$X$X$XXXXX#X#X#XXX.X.X}.}.}.}.'.}.}.}.}.^.^.^.^.].].].].Y.Y.].].Y.Y.U.U.Y.Y.Y.Y.U.H.b.x.A.A.s.,.W a.a.5.c.v.9.9.c.k.c.M.M.j.j.j.r.5.>.=._ W E H ^ U m r.Z.G.F.N.b.!.}.U.U.H.b.H.'.'.'.'.'.'.'.'.^.}.}.}..X}.}..X$X|.^.Y.Y.U.U.U.F.F.Z.M.s.5.O.t % N +.e.j.j.2.} Z.=.N.}.}.}.}.}.}.}.}. X X X}.}.",
"XXXXXXXXXXXXXXXX.X.X.X.X.X.X5.W j.{ =.k.e.^ h $ x =.a.c.v.Z.F.U.Y.Y.'.'.'.^.^.Y.}..X$X$X$X$X$X$X$X.X.X X}.}.{.J.Z.b.Y.XX}. X(.b.M.Z.Z.M.v.) B -.a.5.5.r.r.5.@.{ { =.5.8.9.a.j.k.N.A.Z.c.) +.s.9.8.Z.Z.N.c.B.G.G.J.J.U.U.H.H.U.U.U.U.U.!.!.!.!.!.^.^.^.^.{.{.^.^.^.^.^.^.^.^.(.(.}.}.|.}.}.}.}.}.}.}.}.}.^.^.^.^.^.^.}.}.}.}.}.}.}.}..X.X.X.X.X.X.X.X|. X.X.XXXXXXXXXXXXXXX XZ.G. X.XXXXX{.c.x.^.;X$X*X$X$X$X$X$X;X%X*X;X;X;X$X$XH.^.$X;X,X,XD.5.N..X$X;X*X*X*X;X;X;X;X;X;X;X;X;X;X;X;X;X;X;X*X*X;X;X;X;X;X;X;X;X;X;X;X;X;X;X;X;X;X;X;X;X;X;X;X;X;X;X;X;X;X;X;X;X;X;X;X;X;X;X;X;X;X;X;X;X;X;X*X*X*X,X*X;X;X*X.Xk.<.Z.*X*X*X$X^.Y.#X*X$X$X*X=X;X=X=X*X*X*X$X;X*X*X.Xj.x.}.$X*X*XH.b.H..X$X$X$X$X$X$X$X$X#X.X.X.X.X.X.X.X.X.X.X.X.X|.|.|.|.|..X.X.X.XXX.X X}.{.{.{.{.{.^.Y.Y.Y.^.Y.!.U.U.H.H.H.G.F.H.].(.!.U.H.U.U.Y.].].].].Y.Y.Y.Y.U.U.U.Y.Y.Y.Y.H.H.F.k.N.N.v.9.[ 8.r.U 8.b.j.a.k.k.j.k.k.a.a.s.5.#.) ^ @.>.8.>.) @.Z -.M.D.F.Z.N.H.^.^.^.G.N.F.'.^.'.'.'.'.}.}.}.}.}.}..X}..X$X*X|.Y.Y.Y.Y.^.^.U.F.F.N.a.9.-.G = t W <.s.j.2.] r.@.U..X.X}.}.}.}.}.}. X X X}.}.",
"XXXXXXXXXXXXXXXX.X.X.X.X.X.Xa.W ^ W 8.j.<.U 8 = Y 8.k.M.Z.A.U.U.^.^.^.^.^.^.^.!.'.|..X#X$X#X$X$X$X.X.X}.^.^.U.H.M.B..X.X X}.H.b.N.M.M.M.j.G W r.a.9.a.j.a.a.e.8.-.[ @.j.M.j.j.v.A.Z.M.r.^ @.8.-.s.N.Z.b.b.F.H.H.H.H.U.U.U.U.U.U.U.U.U.H.Z.b.b.N.N.N.b.b.b.c.c.x.j.l.l.l.t.t.r.r.t.s.s.j.j.x.x.x.x.j.j.j.x.x.x.x.x.x.x.x.x.x.x.x.x.x.c.n.n.n.c.x.n.N.G.D.G.F.D.D.H.J.G.F.D.J.{.XX$X.X}.D.j.Z..X*X$X$X%X%X*X*X*X*X;X;X*X*X*X$X!.U..X;X;X,X$Xj.>.H.*X*X*X*X*X*X;X;X;X;X;X;X;X;X;X;X;X;X;X;X;X;X;X;X;X;X;X;X;X;X;X;X;X;X;X;X;X;X;X;X;X;X;X;X;X;X;X;X;X;X;X;X;X;X;X;X;X;X;X;X;X;X;X;X;X;X;X;X;X;X;X*X*X*X*X*X*X*X*X*XJ.5.e..X*XXX$X{.F. X$X$X%X;X;X;X;X;X;X;X%X*X*X*X;X.XN.s.G.$X*X*X^.J.Z.D.G.G.G.D.Z.Z.D.F.H.N.b.Z.B.N.N.b.c.x.x.x.c.c.c.c.x.c.x.k.c.c.x.x.c.x.x.x.x.x.x.x.x.x.x.x.x.j.j.j.j.x.c.b.b.N.C.C.C.C.C.Z.D.D.G.H.Y.Y.Y.Y.Y.Y.Y.Y.Y.Y.Y.Y.U.G.U.M.x.N.M.s.,.<.=.h ) b.F.N.b.N.a.6.r.w.<.=.[ _ @.5.s.j.r.8.[ 5.+.W k.Z.H.U.N.A.^.}.^.U.A.A.^.^.U.^.^.^.}.}.}.}.}.|..X.X#X#X#X}.^.^.^.^.{.}.!.H.Z.N.j.a.5.O.8 4 A { 8.r.<.] =.<.}.^.}.}.|.|. X X X X}.}.}.}.",
"XXXXXXXXXXXXXXXX.X.X.X.X.X.Xs.{ Y { r.8.{ N = 8 { r.v.A.A.Y.'.^.}.}.}.}.}.^.U.U.'.|..X#X*X$X$X$X*X$X.X}.^.^.H.H.M.U.#X.X}.}.F.b.Z.N.N.M.{ c -.j.a.9.j.k.k.k.k.j.j.e.<.a.b.j.j.M.Z.A.F.c.<.5.5.-.b.Z.C.c.Z.F.H.H.H.H.U.U.U.U.U.U.U.H.H.H.H.G.F.F.F.D.F.F.F.D.D.D.D.D.D.D.F.F.D.D.F.F.G.H.J.J.J.U.Y.Y.Y.Y.Y.Y.Y.Y.!.!.!.!.!.!.!.!.!.!.!.!.!.U.U.H.D.H..XXX.X.XXXXXXX$XXX.X$X$XXXXX^.U.b.t.F.$X$X*X$X$X%X*X*X*X*X*X*X;X;X;X}.G.H.*X,X<X;XH.<.e.}.*X*X*X*X*X*X*X;X;X;X;X;X;X;X;X;X;X;X;X;X;X;X;X;X;X;X;X;X;X;X;X;X;X;X;X;X;X;X;X;X;X;X;X;X;X;X;X;X;X;X;X;X;X;X;X;X;X;X;X;X;X;X;X;X;X;X;X;X;X;X;X;X*X*X*X*X*X*X*X*X*X>X}.w.>.J.;X$XXX{.H. X$X;X*X$X$X$X;X;X;X%X*X*X*X*X*X$XH.c.b.^..X*XXXXX XXX.X.X|.}.}..XXX#X{.Y.}. X}.}.}.}.}.|..X|.|.}.}.}.}.}.(.{.{.{.{.{.{.{.{.^.^.{.^.{.{.{.Y.Y.J.J.J.H.H.Y.{.^.^.^.].!.!.!.!.H.D.C.Z.F.U.Y.U.Y.Y.Y.Y.Y.Y.Y.Y.U.H.U.Z.s.N.A.k.5.,.{ n <.Z.U.H.Z.N.s.r.5.W ^ @.<.5.9.r.a.s.a.9.,.j.a.) e.M.G.G.Z.Z.U.'.'.Y.G.A.H.U.!.^.^.^.}.}.|.|..X|.}.}.}.}.^.U.U.^.}.}. X X}.^.U.U.M.s.9.3.m , x ~ =.r.r.=.=.s.}.'.}.}.|.|.}. X X X}.}.}.}.",
"XXXXXXXXXXXXXXXX.X.X.X.X.X.Xf.4.{ <.e.,.U t $ m -.r.k.M.G.|..X|..X.X.X.X.X^.H.U.^.}..X.X$X|.^.}..X$X.X}.^.^.H.F.N. XXX.X.X^.N.N.A.Z.Z.N.{ Y e.j.a.a.c.b.c.k.c.k.M.v.r.e.r.r.j.M.N.A.F.b.r.a.<.5.Z.Z.N.b.F.H.H.H.U.U.U.U.U.U.U.U.H.G.H.U.H.F.Z.Z.Z.G.U.^.}.}.}.}.}.^.^.^.^.{.}.}..X.X.XXX.X.X$X$X$X$X$X$X$X$X$X$X$XXXXXXX$X$X$X$X$X$X$X$X*X*X*X*X$X.X$X$X$X$X$X*X;X$X#X#XXX}.Y.J.b.j.c.^.*X*X;X*X$X$X*X*X;X;X*X*X*X*X$X$XF.Z.$X;X*X$Xc.=.b..X;X*X*X*X*X*X*X*X;X;X;X;X;X;X;X;X;X;X;X;X;X;X;X;X;X;X;X;X;X;X;X;X;X;X;X;X;X;X;X;X;X;X;X;X;X;X;X;X;X;X;X;X;X;X;X;X;X;X;X;X;X;X;X;X;X;X;X;X;X;X;X;X=X=X*X*X*X*X*X*X*X*X;X$X$XD.>.Z.>X;X$X!.N.F.XX$X$X$X$X$X;X;X*X%X*X*X;X$X*X$X}.C.j.Z.J.Y.XXXXXXXXXXXX$X$X;X;X;XXX XXX$X$X$XXXXX$X$X*X=X*X*X*X*X*X*X*XXXXXXXXX$X$X$X$X#X#X#X#X#X#X$XXX.X|. X XoX X.XXXXX.X.X}.}.}.}.(.^.!.^.}.'.Y.U.Y.Y.Y.Y.Y.Y.Y.Y.Y.U.H.U.U.s.c.Z.c.e.>.[ R r.Z.U.H.D.b.s.9.{ [ 3.v.j.a.e.9.r.a.a.e.<.a.b.8.5.j.A.U.F.N.F.^.}.^.U.A.Z.H.^.^.}.}.}.}.XX.X}.}.^.Y.Y.U.H.H.U.^.}..XXXXX$X$X.X}.T.M.0.5.~ 1 t U ) e.c.e.r.b.H..X}.}.}.}.}.}. X X}. X X X",
"XXXXXXXXXXXXXXXX.X.X.X.X}.}.a.9.+.8.<.W B : 5 ) e.j.j.M.G.'.|.#X$X$X$X$X$X!.H.U.^.}..X.X'.H.Z.N.^..X.X}.}.U.G.Z.F. X X}..XU.b.C.A.A.Z.Z.9.>.a.r.a.s.M.N.k.k.k.k.k.j.e.<.,.5.a.v.b.N.N.s.e.a.<.r.Z.Z.C.N.F.H.H.H.U.U.U.U.U.U.U.U.H.F.G.^.N.c.j.j.j.j.c.c.b.b.N.Z.Z.Z.Z.Z.Z.Z.D.F.F.F.G.G.F.F.H.H.J.J.J.J.Y.Y.J.J.J.H.F.F.F.F.F.F.F.F.F.D.D.D.F.F.D.N.F.J.J.H.F.F.D.Z.B.B.v.v.c.c.H.^.*X$X*X*X*X*X;X$X*X;X;X;X*X*X*X.X{.U..X.XU.$XH.5.5.H.$X$X*X*X*X*X*X*X*X*X;X;X;X;X;X;X;X;X;X;X;X;X;X;X;X;X;X;X;X;X;X;X;X;X;X;X;X;X;X;X;X;X;X;X;X;X;X;X;X;X;X;X;X;X;X;X;X;X;X;X;X;X;X;X;X;X;X;X;X;X;X;X;X;X=X=X*X*X*X*X*X*X*X*X$X$X$X*X{.e.r.XX*X$X}.H.F. X*X;X$X$X;X;X;X*X*X*X*X;X*X;X*X$X}.H.N.D.D.D.F.F.F.F.F.F.F.F.D.N.b.b.b.b.b.n.b.N.D.F.H.H.H.H.H.H.H.G.G.H.H.H.J.J.U.U.U.U.U.U.U.U.U.U.U.U.J.J.G.F.J.J.H.G.D.Z.N.N.N.N.N.N.D.U.}.'.^.Y.Y.Y.Y.Y.Y.Y.Y.Y.U.H.Y.U.b.j.Z.N.e.8.#.^ -.a.x.d.5.5.w.,.[ j.k.s.r.8.5.r.e.a.a.r.9.e.k.M.=.5.j.G.G.Z.A.U.'.'.Y.G.b.H.^.^.}.}.}.}.|.}.{.{.Y.U.U.H.Z.A.H.^..X.X$X$X$X}.U.H.F.N.v.k.,.d 0 N E <.s.x.c.e.Z.}.}.}.}.}.}.}. X X X X X X",
"XXXXXXXXXXXXXX.X.X.X.X.X.XY.0.=.+.9.-.B t + N <.v.A.U.^.Y.H.H.Y.}.}..X.X.XU.j.].U.Y.|.'.U.F.G.H.!.}..X}.^.H.F.C.{.XX}.}.}.D.v.A.A.Z.M.a.r.8.a.a.j.v.Z.Z.N.k.a.e.r.a.e.=.+.5.a.v.k.c.e.>.s.8.-.k.N.N.c.Z.G.H.G.G.Y.H.H.Y.Y.F.F.F.F.F.N.c.k.x.c.c.b.b.b.b.b.b.b.b.c.k.j.s.s.s.j.x.c.c.x.c.x.j.s.s.r.y.y.e.w.w.r.y.y.r.a.a.a.r.r.r.e.e.8.5.5.5.8.8.w.e.r.a.s.s.a.a.d.b.b.M.M.D.Y.|.*X*X*X*X*X*X*X*X;X;X*X*X*X*X*X$X$XH.G.$X*X.XH.j.<.c..X*X*X*X*X*X*X*X*X*X;X;X;X;X;X;X;X;X;X;X;X;X;X;X;X;X;X;X;X;X;X;X;X;X;X;X;X;X;X;X;X;X;X;X;X;X;X;X;X;X;X;X;X;X>X>X>X>X>X>X>X;X;X;X>X>X;X;X;X;X;X;X;X;X;X;X;X;X;X;X;X;X*X*X*X*X;X;X;X;X;XXXF.r.Y. X$X.X}.F.Y.$X;X;X;X;X;X;X*X*X*X*X*X*X*X*X*X*XXXXXXXXXF.H.D.N.b.c.x.c.x.x.x.x.j.j.s.t.t.t.r.r.e.e.e.e.e.e.t.s.s.s.s.x.v.M.v.c.v.c.k.d.h.d.d.x.v.v.v.v.c.c.s.x.c.c.c.c.c.b.b.b.b.b.b.b.N.F.U.U.^.^.U.^.'.^.Y.Y.U.U.Y.U.N.s.Z.Z.s.5.8.=.{ @.,.5.5.s.j.#.,.e.e.r.-.<.5.e.j.j.j.j.e.9.e.j.+.+.5.F.F.Z.M.A..X}.U.H.F.F.^.}.^.}.}.^.U.B.N.Y.U.B.H.F.b.Z.H.}..X|.Y.U.H.F.Z.D.^.Y.Y.F.f.U 4 m E +.9.j.j.=.c.^.}.}.}.}.}.}. X X X X X X",
"XXXXXXXXXXXXXXXX.X.X.X}..XZ.0.I +.5.^ s < 4 ) j.v.G.U.'.^.Y.Y.^.!.!.^.^.Y.H.<.F.B.I.'.Y.N.F.U.^.^.}..X^.U.H.F.D. X X.X.XU.N.N.A.j.a.r.-.9.9.j.a.k.N.Z.Z.Z.k.a.e.j.c.k.9.r.M.A.U.H.U.M.s.c.5.<.N.N.b.b.F.H.H.H.H.H.H.U.Y.U.F.Z.A.C.b.N.G.H.H.!.!.!.!.^.^.^.^.^.!.U.U.H.H.H.H.U.U.!.!.U.U.U.!.Y.J.H.G.G.G.G.G.G.H.J.H.H.F.G.H.F.F.F.F.H.G.G.G.H.U.U.U.U.U.U.U.U.H.Y..X.X.X.X#X%X;X*X*X*X*X*X*X*X*X;X;X*X*X,X;X$XXXF.!.;X$X*X$Xx.8.F.$X;X$X*X*X*X*X*X*X*X*X;X;X;X;X;X;X;X;X;X;X;X;X;X;X;X;X;X;X;X;X;X;X;X;X;X;X;X;X;X;X;X;X;X;X;X;X;X;X;X;X>X;X;X;X>X>X>X>X>X>X;X;X;X;X>X>X;X;X;X;X;X;X;X;X;X;X;X;X;X;X;X;X*X*X*X*X;X;X;X;X;X*X$X Xe.c.$X>X;X XF.J.XX;X;X;X;X;X;X;X=X*X*X*X*X*X*X*X$X$X$X$X$X*X*X$XXX X{.Y.Y.W.{.{.{.{.{.{.{.!.Y.Y.U.H.H.F.F.G.H.H.U.H.F.F.J.Y.}.}.}.}.}.{.Y.U.J.U.Y.Y.Y.Y.J.F.N.Z.!.U.U.U.U.U.U.U.H.H.H.H.Z.Z.Z.H.F.U.U.H.Y.Y.Y.U.U.U.U.U.F.c.N.Z.s.<.3.9.8.s.N.G.H.A.F.M.b.b.j.s.a.j.j.j.k.k.k.k.r.e.e.r.-.<.@.5.Z.Z.v.v.}.}.^.U.H.F.H.^.^.}.}.^.D.B.B.Y.U.N.F.H.c.c.Z.H.'.^.U.U.Y.^.{.}.Y.U.U.A.v.-.h h G [ q.l.a.[ r.Y.'.}.}.}.}.}. X X X X X X",
"XXXXXXXXXXXXXX.XXX.X{.^.].Z.O.K ,.,.W 8 % c >.j.M.H.].|.|..X.X|.^.^.^.!.H.b.@.M.M.F.U.A.c.H.^.}.^..X.X}.!.H.F.^.XX XXX.XF.M.A.Z.9.9.) ) 8.a.k.j.M.A.A.N.Z.v.k.k.j.j.s.9.j.N.Z.G.U.U.N.b.c.<.w.Z.b.c.Z.H.H.H.H.H.U.U.U.H.F.Z.A.F.F.H.!.^.^.(.}.}.}.}.|.|.|.}.'.'.}.^.Y.}..X}.}.}..X.X}.}..X.X.X^.U.U.U.H.G.G.F.F.Z.N.N.M.M.N.N.Z.N.Z.A.A.A.F.F.G.H.U.H.H.H.H.H.H.^..X.X$X$X$X$X$X*X*X*X*X*X*X*X*X$X*X*X*X*X$X{.F..X,X$X.XU.j.b..X$X;X*X*X*X*X*X*X*X*X*X*X;X;X;X;X;X;X;X;X;X;X;X;X;X;X;X;X;X;X;X;X>X>X>X>X,X,X,X>X;X;X>X;X>X>X>X>X>X>X>X>X>X>X;X;X;X;X>X>X>X>X>X>X;X>X>X>X;X;X;X;X;X;X;X;X;X;X;X;X;X;X;X;X;X;X;X;X;X;X;X;X;X;X*X%X.Xb.j.XX<X$X XF.Y.XX*X;X;X;X;X;X=X=X=X*X*X*X*X*X$X$X$X$X$X;X;X$XXX X{.Y.J.Y.{.^.{.{.^.^.^.{.^.^.Y.U.H.H.G.H.H.H.U.U.G.F.F.H.^.}..X.X.X.X|.}.Q.}..X.X.X.X|.{.F.D..X.X.X.X}.}.}.}.}.}.}.}.}.U.G.G.Z.F.H.G.F.H.U.U.U.U.U.Y.U.N.c.Z.c.>.#.s.N.Z.H.Y.^.F.H.A.j.s.k.b.A.Z.M.c.k.k.k.k.a.a.e.8.<.<.-.=.b.Z.M.x.U..X|.Y.U.F.F.^.}..X.X}.G.G.D.U.U.F.F.U.s.<.b.F.G.U.}.|.$X$X*X$X'.U.G.N.k.q.B w N ~ <.r.r.[ 5.A.^.}.}.}. X X X X X X.X.X",
"XXXXXXXXXXXXXX.XXX X^.U.U.v.T ~ =.=.G : 1 W <.a.N.U.]..X#X*X*X#X.X}.^.^.Z.9.-.k.v.N.Z.j.N.^..X^.}..X.X}.^.G.F..X.X XXX^.Z.Z.A.k.{ ~ N U e.k.k.j.Z.A.Z.N.Z.N.Z.A.A.Z.v.s.k.Z.Z.F.U.H.N.M.s.-.r.N.n.n.G.U.H.U.H.H.Y.Y.H.N.Z.A.F.U.U.^.^.^.^.}.}.}.|.}.|.|.}.'.(.(.'.U.U.}..X.X}.}.}.}.}.}..X.X^.F.B.B.B.B.B.B.N.N.N.N.Z.Z.N.Z.Z.A.A.A.A.A.F.G.G.H.H.H.F.F.D.F.H.H.U..X.X.XXXXXXX$X*X*X*X*X*X*X*X*X$X;X*X*X.XH.U.$X;X,X.Xb.5.Z.;X;X;X*X*X*X*X*X*X*X*X*X*X*X;X;X;X;X;X;X;X;X;X;X;X;X;X;X;X;X;X;X;X;X>X>X>X>X,X,X,X;X;X;X>X>X>X>X>X>X>X>X,X>X>X>X;X;X;X;X>X>X>X>X>X>X>X>X>X>X;X;X;X;X;X;X;X;X;X;X;X;X;X;X;X;X;X;X;X;X;X;X;X;X;X;X;X;X>X$XD.s.{.>X;X*XU.Y.XX$X*X*X;X;X=X=X=X*X*X*X*X*X$X$X$X$X$X$XXX{.}..X X!.H.Y.{.}.^.Y.U.U.^.^.!.!.Y.U.U.H.H.G.G.F.D.G.G.F.N.N.A.Y.'.'.}.|..X|.|..X#X.X.X.XXX#XJ.N..X.X.X}.}.}.}.}..X.X.X.X.X}.^.H.H.Z.H.H.D.F.U.U.Y.Y.Y.Y.U.A.b.N.N.>.{ s.b.N.Z.F.G.H.U.b.d.N.F.H.F.Z.N.v.v.v.v.v.s.s.e.<.5.~ w S j.F.A.M.Z.|..X^.^.H.F.H.}..X.X}.}.Y.G.G.Y.U.M.a.) S <.r.M.U.#X>X>X;X;X;X.X^.U.Z.j.-.U y j Y -.r.a.+.3.v.U.}.}.}. X X X X X X.X.X",
"XXXXXXXXXXXX.X.XXX X^.^.G.9.Y ` -.{ m = d [ >.a.b.A.H.|.$X;X6X,X>X;X$X.XG.@.W +.3.A.B.6.D. XXX X^.$X$X^.!.H.H.$X X.XXXG.N.H.Z.e.G U U [ a.v.k.k.A.A.Z.N.N.N.M.M.G.G.F.A.Z.Z.Z.Z.F.F.b.M.w.,.v.Z.c.N.H.H.H.H.U.U.^.Y.F.M.Z.F.H.Y.^.^.}.}.}.}.}.}.}.}.}.}.|.}.^.U.Z.F.#X.X}.}.}.|..X{.}..X XY.D.b.D.H.Y.{.}.}.}.}.}.}.}.}.|.|..X|..X.X.X.X.X}..X.X.X.X#X#X#X#X#X#X$X$XXXXX$X$X$X$X$X$X*X*X$X;X;X$X;X%X%X}.H.}.,X*X;X{.s.5.H.$X;X;X=X=X=X*X=X=X=X=X;X;X;X;X;X;X;X;X;X;X;X;X>X>X>X>X>X>X>X>X;X;X;X;X;X;X;X;X>X>X>X>X>X>X;X;X;X>X>X>X>X>X>X>X>X>X>X>X>X>X>X>X>X>X>X>X;X>X>X>X;X;X;X;X;X;X;X;X>X>X;X;X;X;X;X;X;X;X;X;X;X;X;X;X;X;X;X;X;X;X*X!.5.F.;X;X=XY.U.^.$X*X;X=X=X=X=X*X*X*X*X*X$X$X$X*X*X$X#X.X$X*X*X*X*X*X*X*X*X$X$X$X$X$X$X$X$X$XXXXXXX.XXXXX.X.X.X.X.X^.F.D.F.U.|.}..X.X}.}..X.X.X.X.X XJ.b.H..X.X#X.X.X.X.X.X.X.X|.}.}.(.!.H.F.G.H.H.G.H.^.U.U.U.Y.U.F.N.N.N.8.-.e.M.M.v.Z.G.F.H.F.U.G.A.N.N.N.N.M.b.b.M.M.k.a.a.3.,.=.H c >.Z.N.C.Z.}.}.}.^.U.H.H.}..X.X.X.X!.H.Z.H.^.N.h * t ) <.k.'.=X$X;X;X;X$X.X}.U.A.j.q.' c s A @.e.a.>.-.r.F.^.}.}. X X X X.X.XXXXX",
"XXXXXXXXXXXX.X.X.X X^.!.N.[ ~ +.[ { y % H =.5.j.A.G.F.Y.U..X;X,X<X<X;X*X].^ s 4 @.A.e.6.U..XXX X}..X.X^.H.H..X$XXXXX{.D.N.H.k.f.E h =.<.a.v.k.v.A.A.Z.N.N.N.Z.Z.Z.Z.A.A.F.F.F.F.H.B.c.b.6.6.M.N.b.F.U.H.U.U.U.!.Y.U.A.N.F.U.Y.^.^.}.}.}.}.}.}.}.}.}.}.}.}.|.U.Z.M.Y..X.X}.}.}.|..X.X.X^.H.b.b.D.^.}..X.X.X.X.X.XXXXXXXXX.XXX#X#X$X$X$X$X$X$X$X$X$X$X*X*X%X%X%X%X*X*X*X*X$X$X$X$X*X*X*X*X$X$X%X;X;X;X^.U.*X=X;X#XN.2.t.}.;X>X;X;X=X=X=X*X=X=X=X=X;X;X;X;X;X;X;X;X;X;X;X;X>X>X>X>X>X>X>X>X;X;X;X;X;X;X;X;X>X;X>X>X>X>X;X;X;X>X>X>X>X>X>X>X>X>X>X>X>X>X>X>X>X>X>X>X;X>X>X>X;X;X;X;X;X;X;X>X>X>X;X;X;X;X;X;X;X;X;X;X;X;X;X;X;X;X;X;X*X;X,X*XH.<.j.*X,X=XY.F.}..X*X;X;X=X=X=X*X*X*X*X*X*X*X*X*X*X*X*X*X*X*X*X*X*X*X*X*X*X*X*X*X*X*X*X*X*X*X*X$X$X$X$X$X$X$X$X$X.X}.!.F.A.F.(..X.X.X.X.X.X.X.X X XY.N.F.Y.|..X.X.X.X.X.X.X.X|.}.}.}.^.H.H.G.H.!.H.H.U.Y.U.U.U.U.H.Z.N.k.a.<.5.c.b.v.Z.F.G.H.H.G.G.F.A.Z.Z.N.N.v.b.M.M.v.s.s.5.=.8.e.=.{ j.C.b.D.H.}..X}.^.H.H.}.}..X$X$X}.U.N.v.F.N.B * q ^ <.c.|.,X5X6X>X$XXX{.U.H.Z.C.l.<.W j B [ 9.r.<.@.<.Z.Y.}.}. X X X.XXXXXXXXX",
"XXXXXXXXXXXX.X.X X}.!.U.e.W { =.) Y 1 5 ^ <.k.H.^.#X;X0X;XU.H.}.$X;X;X$XN.J 8 4 e.M.,.k. XXX X.XXX.X}.^.D.U.*X$X*XXX!.C.G.F.j.=.{ 8.{ =.a.c.c.N.F.Z.N.M.M.Z.A.A.N.M.Z.A.F.F.F.F.F.M.c.s.,.r.Z.M.C.H.H.U.U.!.!.!.^.F.A.F.U.Y.^.^.}.}..X}.}.}.}.}.}.}.}.}.}.^.F.b.Z..X.X.X}.}.}.}..X XY.F.b.b.J.}.XXXXXXXX.X.X.X#X$X$X$X.X.X.X$X$X$X$X$X$X$X$X*X*X*X*X*X*X%X%X%X%X*X*X*X*X*X*X*X*X*X;X*X*X%X;X>X;X#XJ.'.=X=X=X.Xd.@.b.$X;X;X;X;X;X=X=X=X=X;X;X;X;X;X;X;X;X;X;X;X;X;X;X;X;X>X;X>X>X>X>X>X>X>X>X>X;X>X>X>X>X>X>X>X>X>X>X>X>X>X>X>X>X>X>X>X>X>X>X>X>X>X>X>X>X>X>X>X>X;X;X>X>X,X,X;X;X>X>X>X>X>X>X;X;X;X;X;X;X;X;X;X;X;X;X;X;X;X;X;X;X;X;X;X;X;X^.<.5.'.5X>X.XH.F.U.$X;X;X=X=X;X;X;X;X*X*X*X*X*X*X;X;X*X*X*X*X*X*X*X*X*X*X*X*X$X$X$X$X$X$X$X$X$X$X$X$X$X$X$X$X$X$X$X.X.XH.A.Z.!.}..X.XXX.X.X.X X.X{.D.Z.G.'.|..X.X.X.X.X.X.X.X}.}.}.}.!.H.F.F.!.H.Z.D.U.Y.U.U.H.H.A.M.k.j.9.-.a.c.c.M.A.H.U.Y.H.G.H.G.H.F.Z.N.c.v.M.M.M.s.d.e.,.5.j.l.=.8.N.c.D.Z.}.*X.X}.^.U.^.}..X*X*X.X}.N.j.v.N.<.s 5 W 8.k.Y.=X,X;X$X X X}.{.Y.G.G.A.k.<.N x Y 5.9.9.{ ) v.U.}.|. X}. X.XXXXXXXXX",
"XXXXXXXXXXXX.X.X}.{.U.H.<.[ { { { c % j =.9.N.Y..X;X7XsXsXwX$Xb.Z.J.H.Z.5.B 0 B a.,.,.R..XXX.X}.*X.X}.^.D..X$X$X;X.XH.b.F.F.k.a.Z.r.=.9.s.k.c.A.F.A.N.N.M.Z.A.G.A.M.M.A.G.G.G.G.Z.M.v.w.<.x.F.Z.F.H.H.U.U.!.!.!.Y.A.F.U.Y.^.'.^.^.}.}.}.}.}.}.}..X.X}.}.(.G.N.Z.!.}.}.^.}.}.}.}. XH.D.Z.F.^. X{.XXXXXXXX.X.XXX#X$X$X$X.X.X.X.X.X.X.X.X$X$X$X$X$X$X$X$X$X%X%X%X%X*X*X*X*X*X*X*X*X;X;X*X*X;X,X#XF.D.XX;X;X>X}.5.,.U.$X;X;X$X;X;X;X=X=X=X=X;X;X;X;X;X;X;X;X;X;X;X;X;X;X;X;X;X;X>X>X>X>X;X;X>X>X>X>X>X>X>X>X>X>X>X>X>X>X>X>X>X>X>X>X>X>X>X>X>X>X>X>X>X>X>X>X>X>X>X>X;X;X,X,X,X,X;X;X>X>X>X>X>X>X;X;X;X;X;X;X;X;X;X;X;X;X;X;X;X;X;X;X;X;X*X;X,X,X.Xj.-.v.#X;X$XU.H.Y.$X;X;X;X;X;X;X;X;X;X;X*X*X*X*X*X*X*X*X*X*X*X*X*X*X*X*X$X$X$X$X$X$X$X$X$X$X$X$X$X$X$X$X$X$X$XXX.X}.}.^.F.Z.H.(.}..X.X.X.X XXX}.F.A.N.H.}..X.X.X.X.X.X.X.X}.}.}.}.(.H.H.F.G.F.b.b.Z.U.Y.U.F.F.F.N.v.a.r.@.e.k.c.v.Z.U.Y.U.H.H.H.U.Y.H.A.N.x.v.M.N.A.d.k.r.<.<.s.n.8.>.b.s.Z.Z.^.$X*X.X}.^.U.}.$X*X.X.X.XF.s.c.N.9.~ 9 s =.j.A.^..X X}.{.{.$X#X$X}.U.U.A.s.U s N { =.5.W N a.G.^.}. X X.XXX.X.XXXXX",
"XXXXXXXXXX.X.XoX X^.H.j.) +._ _ ^ 8 @ G 5.j.B.{.}.=X7XyXaXsXrX*XXXU.c.5.E x n ,.a.@.a. X|..X.XXX$X.X}.H.H.$X.X*X$X}.F.Z.Z.N.r.M.M.9.5.9.v.j.v.A.F.A.A.Z.Z.Z.Z.Z.M.N.Z.A.F.G.H.F.N.N.B.5.5.M.A.N.H.H.H.U.U.!.!.!.U.F.H.Y.^.^.'.'.}.}.}.}.}.|.|.|..X.X.X.XU.Z.N.H.}.}.}..X^.}..X.XZ.b.N.J.XXXXXXXXXXXX.X.X.XXXXXXX$X$X$X$X.X.X.X.X.X.X$X$X$X$X$X$X%X%X%X%X$X$X$X$X.X$X*X;X;X;X*X*X=X;X=X*X}.D.M.H.|.%X*X}.x.+.a..X*X;X;X;X;X;X;X;X=X;X;X;X;X;X;X;X;X;X;X;X>X>X>X>X>X>X>X>X>X>X>X>X>X>X>X>X>X>X,X,X,X,X>X>X>X>X>X>X>X>X>X,X>X>X>X>X>X>X>X,X,X>X>X>X>X>X>X,X,X,X>X>X,X,X,X,X>X>X;X;X>X>X>X>X>X>X>X>X;X;X;X;X;X;X>X>X;X;X;X;X;X;X;X;X;X;X;X;X;X;X;X;XF.3.[ Z.,X>X;X}.G.A.H..X*X;X,X;X;X>X;X*X*X;X*X*X*X*X*X*X*X*X*X*X*X*X*X*X$X$X$X$X$X$X$X$X$X$X$X$X$X$X$X$X$X$X$X$X.X.X}.}.H.Z.Z.H. XXX#X$XXX.X X}.G.N.Z.Y..X.X|.{..X.X.X.X X X X X}.^.G.G.Z.N.b.c.x.N.H.Y.U.H.Z.F.Z.r.e.<.5.c.v.v.A.U.Y.U.U.H.H.H.U.H.F.N.v.b.N.B.A.M.j.a.9.<.r.N.j.{ j.s.A.D.H.XX$X.X.X}.G.^..X$X*X$X$X^.N.c.N.k.{ q @ G s.c.M.N.H.|.*X=X;X<X;X.XU.G.N.s.+.t 4 B ~ E H R <.Z.}.|.}. X.X.XXXXXXXXX",
"XXXXXXXXXX.X.XoX{.{.G.<._ <.;.O.x : $ N #.5.d.H.Y..X;X6XrXrX0X<X6X6X^.#.w d @.e.e.7.B.#X X X.XXX$X.X.XZ.^.$X$X*X$XY.Z.Z.Z.c.e.A.M.r.9.a.v.k.M.A.A.A.N.Z.Z.Z.Z.Z.M.Z.A.F.F.H.G.F.Z.N.c.,.6.c.b.A.H.H.H.U.U.!.!.U.H.F.U.Y.^.'.}.}.}.}.}.}.|.|.|.}.}..X.X.XF.C.F.^.{..X.X.X*X}.U.A.b.F.{.XXXXXXXXXXXX.X.X.XXXXXXXXX$X$X$X$X.X.X.X.X.X$X$X$X$X$X$X$X%X%X%X%X$X$X$X$X*X*X*X*X;X;X*X*X*X.XU.Z.c.D.^..X$X#X=X#Xw.b.%X;X;X;X;X;X;X;X;X;X;X;X;X;X;X;X;X;X;X;X;X;X>X>X>X>X>X>X>X>X>X>X>X>X>X>X>X>X>X>X,X,X,X,X>X>X>X>X,X,X>X>X>X,X>X>X>X>X>X>X>X,X,X>X>X>X>X>X>X>X,X,X>X>X,X,X,X,X>X>X;X;X>X>X>X>X>X>X>X>X;X;X;X;X;X;X>X>X>X>X;X;X;X;X;X;X;X;X;X;X;X;X;X;X>X.XN.'.5X5X#X.X#XU.N.N.D.!..XXX;X>X>X;X;X;X*X*X*X*X*X*X*X*X*X*X*X*X*X*X$X$X$X$X$X$X$X$X$X$X$X$X$XXXXXXX$X$X$X$X$X.X.X.X}.U.F.Z.F.Y.}.XX$X$X$X$X^.F.N.Z.!.}..X|..X.X.X.X}. X X X}.}.U.N.N.b.c.c.r.s.M.F.Z.F.A.H.G.j.9.8.<.j.M.k.Z.G.Y.^.U.U.H.H.U.G.A.N.b.b.M.N.A.N.x.s.e.5.8.c.x.{ t.b.b.D.G.}.$X.X.X}.H.U.}..X*X$X$X.XF.b.b.v.-.j % h 5.s.a.b.'.*X5X,X<X;XXX^.N.x.w.@.Z 5 * m ,.{ { -.@.v.'.|.}. X X.XXXXXXXXX",
"XXXXXXXXXX.X.XoXY. XM.[ -.0.r.=.s $ % d W +.2.t.G.^..X$X;X;X;X;X>X<X$X-.1 n 5.e.7.a.}.#X X X.XXX$X$X!.F.$X$X$X;X$XH.Z.A.N.a.k.G.b.r.e.k.M.k.M.G.A.Z.N.N.Z.Z.Z.Z.N.Z.A.G.H.U.F.Z.F.Z.x.1.a.c.M.F.H.H.U.U.U.!.^.H.F.U.Y.^.}.}.}.}.}.}.}.}.|.|.|.}.}..X.X^.Z.Z.!.}.}..X.X^.H.A.N.M.J.}.XX|.XXXXXXXX.X.X.X.X.X.X.X.X$X$X$X$XXX$XXXXX$X$X$X$X$X$X$X$X%X$X%X%X$X$X$X$X*X;X*X}.'.!.F.D.n.x.n.D.!.$X;X$X*X}..X*X$X$X%X;X;X;X;X;X;X;X;X;X;X;X;X;X;X;X;X;X;X;X;X;X;X;X>X>X;X;X>X>X>X>X>X>X>X>X>X>X>X>X>X>X,X,X>X>X>X>X,X,X>X>X,X,X,X>X>X>X>X>X>X>X,X,X>X>X>X>X>X>X,X>X>X>X,X,X,X,X,X,X,X,X>X>X,X,X>X>X>X>X;X;X;X;X>X>X>X>X>X>X>X>X;X;X;X;X;X;X;X;X;X;X;X;X>X;X;X>X>X|.Y.*X,X*X.X}.D.b.c.D.H.H.(..XXX*X;X;X*X*X*X*X*X*X*X*X*X*X;X*X$X$X$X$X$X$X$X$X$X$X$X$X$X.X XXX$XXX$X$X$X$X$X.X.X.X}.H.b.N.F.U.{. X$X;X.XU.Z.N.D.{.XXXX|.|.|.|.}.}..X.X^.}.H.N.c.j.a.e.5.8.a.M.b.5.5.H.U.M.9.e.5.9.N.v.b.Z.U.^.Y.U.U.U.H.F.Z.N.M.b.b.b.Z.Z.b.s.a.9.5.s.b.<.<.N.b.G.F.!.$X.X.X}.^.F.}..X*X*X$X$X'.N.c.N.a.~ 0 q W 5.N.^.$X*X;X*X$XY.D.b.y.6.,./ Z d < x 8.8.5.5.@.9.F.^.}. X X.XXXXXXXXX",
"XXXXXXXXXX.X.XoXY.Y.e.{ 0.0.4.~ w t A ~ <.j.b.b.Z.H.!.}.}.^.{. X.X;X$X>., x 9.a.e.N.|. X X XXXXX*X$XF.^.$X$X*X.X XD.D.C.c.8.A.F.k.9.e.c.N.c.Z.G.A.N.N.N.Z.Z.Z.Z.Z.A.G.G.U.U.F.Z.N.b.j.5.x.c.F.G.H.H.U.U.U.^.U.G.F.U.Y.'.}.}.}.}.}.}.}.}.|.|.|.|.}..X}.H.D.G.!.{..X.X!.Z.x.M.F.U.}.|. X XXXXXXXXX.X.X.XXX$X$X$X$X$X$X$X$X$X$X$X$X$X$X$X$X$X$X$X$X$X$X%X%X*X$X$X$X$X*X.XU.v.b.b.b.D.{.XXXX$X*X*X*X$X{.G.*X*X*X;X*X;X;X;X;X;X;X;X;X;X;X;X;X;X;X;X;X;X;X;X;X;X;X>X>X;X;X;X>X>X>X>X>X>X>X>X>X>X>X>X>X,X,X>X>X>X>X,X,X>X>X,X,X,X>X>X>X>X>X>X>X>X,X>X>X>X>X>X>X,X,X>X>X>X,X,X,X,X,X,X,X>X>X>X>X>X>X>X>X>X>X;X>X>X>X>X>X>X>X>X>X;X;X;X;X;X;X;X;X;X;X;X;X;X;X=X;X*X.X*X>X;X;X;X;X*X.XH.F.b.x.j.j.H.$X*X;X*X*X*X*X*X*X*X*X*X*X;X;X$X$X$X$X$X$X$X$X$X$X$X$X$X X XXX$X$X$X$X$X$X$X$X.X$X*XXXY.Z.c.s.c.D.}.XX.X^.G.N.N.U..X.X|.|.|.|.}.}..X.X!.U.e.e.s.j.c.v.5.3.e.b.j.G Z N.U.G.r.9.8.<.v.N.j.v.Z.U.Y.Y.U.U.H.F.Z.N.N.M.b.v.N.Z.N.k.s.e.8.r.N.c.<.j.N.G.A.H.$X.X.X}..XF.}.|.$X*X$X$X.XF.v.b.k.@.w @ x s.Y.}.$X.X}.^.D.Z.Z.B.B.B.M.d.w.} h 6 _ a.w.5.,.<.v.Y.}. X X.XXXXXXXXX",
"XXXXXXXX$X.X}.{.H.c.[ =.a.f.4.H 8 B ,.r.b.}.>X;X$X.XY.J.J.F.Z.D.F.^.Z.^ t [ e.y.d.U.#X#XXXXXXXXX.X.XZ..X$X#X*X$XY.D.Z.C.s.0.U.G.j.9.a.c.b.M.Z.M.M.v.M.N.N.N.Z.Z.Z.F.H.U.U.U.G.Z.N.b.>.w.x.b.H.Y.H.U.U.U.U.^.U.F.G.U.^.}.}.}.}.}.}.}.|.|..X.X.X.X X}.H.N.Z.H.|.(.!.H.F.N.Z.H.^.}.XXXXXXXXXXXXXXXX.X.X^..X$X$X$X$XXXXXXXXXXXXXXXXXXX$X$X$X$X$X$X$X$X$X$X$X$X$X$X$X*X*X$X.X.X$X$X$X$X*X*X*X*X*X*X*X$XXX.X*X*X*X%X;X;X;X;X;X;X;X;X;X;X;X;X;X>X>X;X;X;X;X;X;X;X;X;X;X;X;X>X>X>X>X>X>X>X>X>X;X,X,X,X,X,X,X>X>X>X>X>X>X>X>X>X>X>X>X>X>X>X>X>X>X>X>X>X>X>X>X>X>X,X>X>X>X>X>X>X,X>X>X>X>X>X>X>X>X>X>X>X>X>X>X>X>X>X>X>X;X;X;X;X;X>X>X>X>X;X;X;X;X;X;X;X;X;X;X;X;X;X;X;X;X;X;X;X;X;X;X;X;X=X*X.X{.{.$X;X;X;X;X;X;X;X;X%X%X*X*X*X$X$X$X$X$X$X$X$X$X$X$X$X$X$XXX.XXX$X$X$X$X$X$X$XXXXXXX$X$X$X}.G.b.s.j.b.!.$X.XY.N.b.F..X{. X X X X|.|.|.XXY.s.y ) @.[ { ,.H x ^ ^ e.R c N.U.U.k.8.9.=.8.N.c.a.N.U.U.Y.U.U.H.G.F.Z.N.b.c.c.M.Z.N.k.s.e.5.6.N.b.e.8.b.F.F.A..X$X$X.X.XG.!..X.X*X*X$X$XU.b.x.b.<.y c m a.A.G.J.D.N.Z.Z.Y.}.Y.R.R.F.B.M.e.! 5 m e.a.9.9.4.r.G.}..X}.}..X.X.X.X",
"XXXXXXXXXX X}.^.H.e.[ 5.a.r.*.m = A 5.k.B.^. X>X<X:X*XXX}.J.N.c.s.a.8.E { k.s.j.N.{.#X#X$X$X$X$X$XH.H.$X$X#X*XXXJ.D.Z.b.0.k.Y.A.e.8.j.M.b.Z.Z.M.v.n.M.N.N.N.Z.Z.Z.A.H.U.H.U.F.C.v.i.] r.x.Z.U.Y.H.U.U.U.!.!.H.G.H.!.^.}.}.}.}.}.}.}.|.|..X.X.X.X}.}.Z.Z.N.^.#X(.G.H.U.^.}.}..X.X.XXXXXXXXXXXXXXX.X}.U.^.}..X.X.X.X.X.XXXXXXXXXXX$X$X$X$X$X$X$X$X$X$X$X$X$X$X$X*X*X*X*X*X*X*X*X*X*X*X*X*X*X*X*X*X$X$X$X*X*X*X;X;X;X;X;X;X;X;X;X;X;X;X;X;X>X>X;X;X;X;X;X;X;X;X;X;X;X;X>X>X>X>X>X>X>X>X>X>X,X,X,X,X,X,X>X>X>X>X>X>X>X>X>X>X>X>X>X>X>X>X>X>X,X,X>X>X>X>X>X>X,X>X>X>X>X>X>X>X>X>X>X>X>X>X>X>X>X>X>X>X>X>X>X>X>X>X;X;X;X;X;X;X>X>X>X>X;X;X;X;X;X;X;X;X;X;X;X;X;X;X;X;X;X;X;X;X;X;X;X;X;X;X;X*X;X;X;X*X*X;X;X;X*X;X%X$X$X$X$X$X$X$X$X$X$X$X$X$X$X$X$X$X$X$XXXXX$X$X$X$X$X$X$XXXXXXX$X$X*X$X.X}.^.U.F.H..X$X}.F.n.Z..XXX.X X X X|.|.|..XH.s.x #.3.m w j d 9 9 9 U [ ^ b.U.U.Z.r.e.<.=.v.b.s.b.H.U.Y.U.H.H.G.F.Z.N.b.c.c.M.A.Z.c.d.a.9.5.c.Z.k.<.j.A.F.A.^..X$X.X}.}.H..X.X$X*X$X$X'.D.c.b.j.=.8.) <.j.a.j.c.D.U. X XXX%X%XQ.R.F.N.s.>.d 9 ,.a.p.9.4.9.v.].}.}.}..X.X.X.X",
"XXXXXXXX.X}.{.Y.Z.>.>.a.r.9.` j 1 ~ 6.c.G.^.XXyXkXuXwX<X*X}.F.N.x.<.>.-.e.e.e.s.U.$X$X$X$X$X$X$X.XF.}.$X$X$X$X}.D.D.Z.j.0.Z.U.x.5.9.c.M.c.A.A.b.v.n.N.N.N.N.Z.Z.Z.A.H.U.G.H.A.M.c.1.{ r.n.J.U.U.U.U.U.U.!.U.H.H.U.^.}.}.}.}.}.}.}.}.}.}..X.X.X.X.X^.N.Z.D..X$XU.F.U.}..X.X.X.X.XXXXXXXXXXXXXXXXX.X.X}..X.X.X.X.X.X.XXX$X$X$X$X$X$X$X$X$X*X*X*X*X*X*X*X*X*X$X$X$X$X$X$X*X;X;X;X;X*X*X*X*X*X*X*X*X*X;X*X*X*X*X;X;X;X;X;X;X;X;X;X;X;X;X;X;X>X>X>X>X;X;X;X;X;X;X;X;X;X;X>X>X>X>X>X>X>X>X>X>X,X,X,X,X,X,X,X>X>X>X>X>X>X,X,X>X,X,X>X>X>X>X,X,X,X,X,X>X>X>X>X>X,X,X>X>X>X>X>X>X>X>X>X>X>X>X>X>X>X>X>X>X>X>X>X>X>X>X>X>X>X>X;X;X;X;X;X;X>X>X;X;X;X;X;X;X;X;X;X;X;X;X;X;X;X;X;X;X;X;X;X;X*X;X;X;X;X;X>X;X>X;X;X;X;X;X;X;X*X*X*X*X*X*X*X*X*X*X*X*X$X*X$X*X;X*X$X$X$X$X$X$X$X$X$X$XXX$X$X$X*X*X$X$X$X}.}.^.|.;X$XY.n.b.(.XX.X X X X|.|.|.|.H.8.H ) j.^ Z U c U ~ ,.<.~ [ N.U.Y.H.j.e.9.@.r.N.j.v.G.U.Y.U.U.H.G.F.Z.N.b.c.c.b.F.A.b.k.s.e.5.e.A.A.q.q.C.H.A.H..X$X$X}..XF.}..X.X*X*X$X.XH.b.b.N.r.>.<.=.<.<.j.N.Y. X*X;X6XsXsX&XU.Y.D.x.e.S : ^ s.e.0.4.<.r.G.^.}.}..X.X.X.X",
"XXXXXXXX X}.^.U.j.=.8.j.p.4.H 1 k =.a.N.H. XwXcXcXcXcXcXuX;XU.Z.a.@.e.H.M.5.5.v. X$X$X;X$X$X$X$XU.H..X$X.X$X$XY.N.D.Z.a.s.I.D.a.<.e.v.v.b.A.A.b.c.b.N.N.N.N.Z.Z.Z.A.H.U.F.G.A.b.n.=.2.r.Z.H.H.].U.U.!.U.U.U.G.H.!.^.}.}.}.}.}.}.}.}.|.|..X.X.X.XXXG.N.Z.!.*X|.H.F.^..X.X.X.X.X.XXXXXXXXXXXXXXXXX.X.X^.}.}.}.}.^.U.U.{.}. X}.{.{.^.}.}.}.}.}.}.}.}.}..X.X.X.X.X.X X.XXX$X;X;X;X;X*X*X*X*X*X*X*X*X*X;X;X*X*X*X;X;X;X;X;X;X;X;X;X;X;X;X;X;X>X>X>X>X;X;X;X;X;X;X;X;X;X;X>X>X>X>X>X>X>X>X;X,X,X,X,X,X,X,X,X,X,X,X>X>X>X,X,X,X,X,X,X,X>X>X>X,X,X,X,X>X>X>X,X,X,X,X>X>X>X>X>X>X>X>X>X>X>X>X>X>X>X>X>X>X>X>X>X>X>X>X>X>X>X>X>X>X;X;X;X;X>X>X;X;X;X;X;X;X;X;X;X;X;X;X;X;X;X;X;X;X;X;X;X;X;X;X;X;X*X.X|..X.X.X.X.X X X X X.X.X.X.X.X.X.X.X.X.X}.}.}.}.}.}.{.}. X$X$X$X$X$X$X$X$X$X.X$X.X$X$X$X$X$X$X}..XU.|.*X*X}.N.N.U..X X X X X|.|.|.|.^.=.[ m k.~ h d 0 E U N >.^ { N.U.U.G.v.e.a.=.=.M.c.b.F.U.Y.U.U.H.G.F.Z.N.b.c.c.b.F.F.N.c.s.r.8.<.b.G.l.<.c.F.A.F.^..X$X.X.XU.}..X.X$X$X*X.X^.Z.b.D.N.<.5.5.{ 5.r.N. X*XyXsXlXcXcXzXXXY.U.M.e.@.< N 8.a.0.9.5.q.b.!.^.'..X.X.X.X",
"XXXX X}..X}.^.Z.5.<.r.a.e.-.m 8 ~ 9.x.N.J.,XcXcXcXcXcXcXcXlXhXZ.{ #.N.}.F.r.<.F. X$X;X;X$X$X$X$XZ.}.XX$X.X.X|.H.D.D.N.9.N.U.m.4.e.k.N.N.N.F.Z.b.N.N.N.N.N.N.Z.A.F.H.U.U.H.F.N.b.t.{ 8.c.H.H.U.Y.!.!.U.U.U.H.D.H.^.^.{.^.}.}.}.}.}.}.|.|.|.|.|.|..XZ.Z.F..X*X^.A.H.}..X.X.X.X.X.XXXXXXXXXXXXX.X.X.X.XF.e.t.b.Z.N.B.Z.N.M.M.B.B.B.C.C.Z.Z.Z.Z.D.D.D.D.F.D.Z.Z.N.b.b.b.J.$X$X*X;X;X;X*X*X*X*X*X*X*X*X;X;X*X;X;X;X;X;X;X;X;X;X;X;X;X;X;X>X>X>X;X>X>X;X;X;X;X;X;X;X;X>X>X>X>X>X>X>X>X>X>X>X>X,X,X,X,X,X,X>X>X,X,X,X>X>X>X,X,X,X>X>X>X>X>X>X,X,X,X,X>X>X,X,X,X,X>X>X>X>X>X>X,X>X>X>X>X>X>X>X,X>X>X>X>X>X>X>X>X>X>X>X>X>X>X>X>X>X>X;X;X>X>X;X;X;X;X>X>X;X;X;X;X;X;X;X;X;X;X;X;X;X;X;X;X;X;X;X;X.X^.U.U.J.H.F.F.F.F.F.F.G.G.F.D.D.A.A.A.F.F.F.D.D.D.D.D.D.F.F.D.J. X$X$X$X$X$X$XXX$XXX}.XXXXXXXXXX.X{.H.U.}.$X}.D.b.Z..X.X.X.X.X|.|. X|..X@.5.m s.[ B R =.>.^ E 8.[ +.k.U.U.U.A.a.a.<.+.j.N.b.Z.U.Y.U.U.H.H.F.D.Z.N.b.c.b.N.F.Z.b.c.s.w.<.A.F.c.8.r.F.F.Z.!.$X$X$X^.!.}.U.*X$X$X*X*X.XU.Z.F.G.t.8.N.>.8.r.J.rXzXcXcXcXcXcXzX6XU.U.B.a.5.j w +.a.a.9.<.<.k.H.'.}..X.X.X.X",
"XX.X X}.}.^.H.c.>.w.a.j.9.[ s n 9.k.N.G.{.jXcXcXcXcXcXcXcXcXcXM._ 9.U.}.A.j.s.Y.XX$X;X;X$X$X$X XF. XXX$X.X.X^.F.D.D.c.a.F.F.a.3.a.v.N.N.Z.F.N.b.N.N.N.M.N.N.Z.A.F.U.U.H.G.F.N.b.w.=.e.v.H.H.Y.Y.!.!.!.!.^.F.Z.!.^.^.(.{.}.}.}.}.}.}.|.|.|.|.|.|.}.N.Z.H.$X$XH.Z.!.}..X.X.X.X.X.X.X.X.X.X|.|..X.X.X^.G.F.H.}..X}.XX#X.X|.|..X.X|.}..X.X$X$X$X$X$X$X$X$X$X*X*X*X$X;X;X$X.X$X$X$X*X*X*X*X*X*X*X*X*X*X;X;X*X;X;X;X;X;X;X;X;X;X;X;X;X;X;X>X>X;X;X;X;X;X;X;X;X;X;X;X;X>X>X>X>X>X>X>X>X>X>X>X>X>X,X,X,X,X,X>X>X,X,X,X>X>X>X>X,X,X>X>X>X>X>X>X,X,X,X,X>X>X,X>X,X,X,X>X>X>X>X>X,X>X>X>X>X>X>X>X>X>X>X>X>X>X>X>X>X>X>X>X>X>X>X>X>X>X>X;X;X>X>X;X;X;X;X>X>X;X;X;X;X;X;X;X*X*X;X;X;X;X;X;X;X;X;X;X;X;X*X*X*X*X$X$X$X$X$X$X$X$X$X*X*X*X*X$X$X$X$XXXXXXXXXXXXX$X$XXX XZ.J. X$X$X$X$X$XXX$XXX XXXXXXXXXXX.X}.J.F.Y.$X$XH.N.N.(..X.X.X.X|.|. X X.X3.8.A ,.w.,.B W s.r.<.s.{ ^ s.H.U.U.A.j.a.8.=.e.N.b.N.U.U.U.U.H.H.F.A.Z.N.b.b.v.b.Z.Z.b.v.j.e.<.l.H.A.8.@.v.F.D.U..X*X$X.X^.H.}.^.$X$X*X*X$X^.Z.D.G.b.5.U.c.8.r.Y.zXzXcXcXcXcXcXcXaX|.Y.D.d.9.W 4 Y a.f.9.q.q.e.F.Y.}.}..X.X.X",
"XX.X X}.}.!.Z.8.<.t.a.a.4.G w { k.N.Z.Y.;XcXcXcXcXcXcXcXcXcXhXe._ b.$XU.b.v.F..X$X*X;X;X*X;XXXJ.U. XXX*X$X.XU.G.G.B.e.N.Y.N.3.3.s.N.N.N.A.Z.M.b.N.N.M.M.N.Z.A.A.H.U.U.H.F.A.N.v.>.<.j.A.H.U.Y.Y.!.Y.!.!.U.Z.G.^.^.^.^.^.}.}.}.}.}.}.|.|.|.|..X|.U.N.D.^.*X'.F.F.}..X.X.X.X.X.X.X|.|..X.X.X.X.X.X^.G.F.!.}..X$X$X$X*X*X$X$X$X$X$X$X$X$X$X$X$X$X$X$X$X$X*X*X;X;X;X;X;X$X}.$X$X%X*X*X*X*X*X*X*X*X*X;X;X;X;X;X;X;X;X;X;X;X;X;X;X;X;X>X>X>X>X;X;X;X;X;X;X;X;X;X;X;X;X>X;X>X>X>X>X>X>X>X>X;X;X>X>X,X,X,X,X>X>X,X,X>X>X>X>X,X,X>X>X>X>X>X>X>X>X,X,X>X>X>X>X>X>X,X,X>X>X>X>X,X,X,X>X>X>X>X>X>X>X>X>X>X>X>X>X>X>X>X>X>X>X>X>X>X>X>X>X>X;X>X>X>X;X;X>X>X>X;X;X;X;X;X;X;X;X;X;X;X;X;X;X;X;X;X;X;X;X;X;X;X;X;X;X;X;X;X;X*X*X$X$X*X*X*X*X*X*X*X*X*X*X*X;X;X;X;X&X$X$X{.H.U..X$X$X$X$X$X*X$X.X.X.X.X.X.X.X.X^.F.F..X;X^.Z.b.H..X.X.X.X|.|. X X.Xj.,.[ { @.E B ^ e.a.5.5.E m 8.G.U.U.G.M.a.r.<.<.b.N.N.F.U.U.U.H.H.F.F.D.Z.N.b.c.c.N.F.M.b.j.e.<.<.A.H.8.{ r.Z.Z.F.^.$X.X$X}.G.}.!..X*X*X*X*X.XH.Z.G.H.r.N.}.e.t.c.cXcXcXcXcXcXcXcXcX<XY.G.c.a.5.y j 9.k.a.0.8.5.b.Y.|.}..X.X.X",
"XX.X X}.^.U.b.>.w.r.a.r.=.x k r.N.G.Y.^.yXcXcXcXcXcXcXcXcXcX;X#.<.G..XH.M.Z.U.}.$X;X;X;X;X;X.XF.{. XXX;X$X^.H.F.F.v.9.F.Y.v.-.9.j.N.Z.M.Z.N.M.N.N.M.M.M.N.Z.A.A.U.U.H.F.A.N.v.k.@.w.b.H.U.U.{.{.!.Y.!.!.H.F.U.^.^.^.^.^.}.}.}.}.}.}.|.|.|.}..X XF.b.F..XXXH.Z.H.}..X.X.X.X.X.X.X.X.XXXXXXX.X.X.XG.H.}.$X$X.X$X$X$X$X*X$X#X#X#X$X$X.X}.}.}..X$X*X*X*X*X*X$X*X;X;X;X;X*X$X$X*X;X;X;X*X*X*X*X*X*X*X;X;X;X;X;X;X;X;X;X;X;X;X;X;X;X;X>X>X>X>X;X;X;X;X;X;X;X;X;X;X;X;X;X;X>X>X>X>X>X>X>X>X;X;X>X>X,X,X,X,X>X>X>X>X>X>X>X>X>X>X>X>X>X>X>X>X>X>X>X>X>X>X>X>X>X>X>X>X>X>X>X>X,X,X,X>X>X>X>X>X>X>X>X>X>X>X>X>X>X>X>X>X>X>X>X>X>X>X>X>X>X>X>X>X;X;X;X>X>X>X;X;X;X;X;X;X;X;X;X;X;X;X;X;X;X;X;X;X;X;X;X*X*X;X;X;X;X*X*X*X*X*X*X*X*X$X$X*X*X*X*X*X*X*X*X*X$X$X$X$X$X$X$X}.!.^.$X$X$X$X$X*X$X.X.X.X.X.X.X.X.X}.U.F.^.=X.XD.b.D.}..X.X X|.|. X X#XZ.[ 8.~ 5.J G Z ^ @.W W W m ,.F.U.U.G.N.j.j.8.=.v.N.M.A.H.U.U.H.H.F.F.D.Z.N.b.c.x.b.N.N.b.x.r.<.<.k.b.k.5.-.N.N.Z.U..X.X.X}.^.H.}.}.$X*X*X*X$XU.F.G.H.b.s.}.b.t.2.lXcXcXcXcXcXzXcXcXhXY.H.b.j.j.E t @.k.j.r.e.e.e.H.'.}.}..X.X",
"XX X|.}.'.H.r.=.j.j.k.8.W s ^ M.Z.U.^.}.kXcXcXcXcXcXcXcXcXcXk.O.k.#X|.b.c.U.^.'.;X*X;X*X;X*XH.J.$XXXXX;XXXY.G.F.F.e.k.U.U.5.-.0.c.N.N.N.N.N.N.N.N.N.N.N.N.Z.A.F.U.U.U.F.F.v.b.8.>.t.Z.H.U.U.^.^.Y.U.^.!.A.G.^.^.'.'.}.}.|.|.|.|.|.|.}..X{.{..X{.D.Z.H.XX|.F.G.!..X.X.XXXXXXXXXXXXXXX.X.X.X.XH.G.{. XXXXXXXXX$X$X$X$X$X$X$X$X$X$X$X$X$X$X$X*X*X*X*X*X*X*X*X*X=X=X*X*X*X*X*X*X;X*X;X;X;X;X;X;X;X;X;X;X;X;X;X;X;X;X;X;X;X;X>X>X>X>X>X>X>X>X>X>X>X>X>X>X>X>X>X>X>X>X>X>X>X>X>X>X>X>X,X,X,X,X>X>X>X>X,X,X,X>X>X>X>X>X<X<X,X,X,X,X,X,X,X,X,X,X,X,X,X,X,X,X,X,X,X,X,X,X,X,X,X,X,X,X,X,X>X>X>X>X>X>X,X,X>X>X>X>X,X,X>X>X>X>X>X>X>X>X>X>X>X>X>X>X>X;X>X>X>X>X>X>X;X;X;X;X;X;X;X;X;X;X;X;X;X;X;X;X;X;X;X;X;X;X;X;X;X;X;X;X*X*X*X*X*X*X*X*X*X*X*X*X*X*X*X$X$X$X$X$X$XXX}.{.^.$X*X$XH.H.*X$XXXXXXXXXXXXXXX.XY.G.J.$X$XJ.N.D.Y.|.XX XXX X.X.X.X}.{ r.@.k.+.E B E k.[ 3.E c 5.A.U.U.U.H.b.j.r.#.s.Z.b.N.G.Y.^.H.H.H.F.A.Z.b.c.k.k.c.N.N.N.c.s.e.<.<.M.U.j.@.s.F.Z.G..X$X$X#X.XU.}.!..X*X*X*X$X$XZ.G.G.D.e.H.^.d.[ %XcXcXcXcXcXcXcXcXcX;XY.Z.b.N.3.j H s.k.k.j.e.9.Z.'.|.|..XXX",
"#X X|.}.^.Z.<.<.k.c.s.8.B j ,.M.A.'.^.,XcXcXcXcXcXcXcXcXcX0X=.-.H.$XU.s.N.Y.'..X>X;X;X*X*X|.F.Y.$XXX$X;X}.U.H.F.N.r.G.Y.M.,.3.f.v.N.Z.D.N.N.N.N.N.N.N.N.N.Z.A.F.Y.U.U.F.N.b.v.<.5.x.F.H.U.U.Y.Y.Y.Y.^.H.F.H.^.^.'.}.}.}.|.|.|.|.}.|.|.}.oX{..X!.V.F.!..X!.Z.G..X.X.X.X.XXXXXXXXX.XXX.X.X}.^.H.!. X$X$XXXXX$X$X$X$X$X$X$X$X$X$X$X*X*X*X*X$X*X*X*X*X*X*X*X*X*X=X=X*X*X*X*X*X*X*X*X;X;X;X;X;X;X;X;X;X;X;X;X;X;X;X;X;X;X;X;X>X>X>X>X>X>X>X>X>X>X>X>X>X>X>X>X>X>X>X>X>X>X>X>X>X>X>X>X,X,X,X,X>X>X>X>X,X,X>X>X>X>X>X>X<X<X,X<X,X,X,X,X,X,X,X,X,X,X,X,X,X,X,X,X,X,X,X,X,X,X,X,X,X,X,X,X,X,X>X>X>X>X,X,X,X>X>X>X,X,X,X>X>X>X>X>X>X>X>X>X>X>X>X,X>X;X>X>X>X>X>X>X;X;X;X;X;X;X;X;X;X;X;X;X;X;X;X;X;X;X;X;X;X;X;X;X;X;X;X;X*X*X*X*X*X*X*X*X*X*X*X*X*X*X*X*X$X$X$X$X$X$XXX{.!.{.$X$X}.H.}.*XXXXXXXXXXXXXXXXX{.J.F.XX;X}.F.Z.G. XXX XXX|..X.X.X|.@.a.[ -._ ~ ^ E ^ ~ ,.=.Z 9.A.U.U.U.H.C.x.t.,.8.A.N.M.A.U.Y.U.H.H.F.Z.b.c.x.j.j.j.b.N.N.v.j.e.5.<.v.Y.N.<.8.F.A.F.^.$X$X#X.X^.U.^.}.$X*X*X$X*XH.F.G.H.e.b.#Xv.#.x.cXcXcXcXcXcXcXcXcXrX}.H.N.A.k.U j 5.M.j.a.s.9.j.H.|..X.XXX",
"#X X|.}.U.s.#.r.k.j.x.@.j H k.Z.G.|..XhXcXcXcXcXcXcXcXcXzXG.^ a.$X.XN.s.F.Y.'.*X>X;X;X*X*X!.F.}.XX$X$X$XY.U.U.Z.s.s.|.U.0.@.9.v.M.N.F.G.N.N.N.N.N.N.N.N.Z.Z.F.F.Y.Y.U.F.v.c.s.>.r.N.H.U.U.U.Y.Y.Y.Y.^.F.F.!.}.^.}.}.}.}.|.|.|.|.}.|.{.{.oXoX.XH.N.J.{..XH.D.H..X.X.X.XXXXXXXXX|..XXX.X}.^.^.!..X$X$X$X$X$X$X$X$X$X$X$X$X$X$X$X$X$X$X$X$X$X$X*X;X*X*X*X*X*X*X*X*X*X*X*X*X*X*X*X*X;X;X;X;X;X;X;X;X;X;X;X;X;X;X;X;X>X>X;X;X>X;X>X>X>X>X>X>X>X>X>X>X>X>X>X>X>X>X>X>X>X>X>X>X>X>X>X>X>X>X>X>X>X>X>X>X>X>X>X>X>X>X>X>X<X<X<X<X,X,X,X,X,X,X,X,X,X,X,X,X,X,X,X,X,X,X,X,X,X,X,X,X,X,X,X,X,X,X>X>X>X>X>X,X,X,X>X>X>X>X>X>X>X>X>X>X>X>X>X>X>X>X>X,X>X>X>X>X>X>X>X>X;X;X;X;X;X;X;X;X;X;X;X;X;X;X;X;X;X;X;X;X;X;X;X;X;X;X;X;X*X*X*X*X*X*X*X*X*X*X*X*X*X*X*X*X$X$X$X$X$X$X$XXX}.U.Y.}.$X$X$X$X$X$X$X$X$X$XXXXX|.Y.F.{.;X$XU.Z.D.{.$XXXXXXX.X.X|.|.5.,.+.n E ^ [ ~ ~ U R [ ^ <.A.U.U.U.H.D.c.s.e.<.N.N.b.N.H.Y.U.H.F.Z.b.c.c.c.x.k.j.v.N.N.b.c.r.8.,.r.Y.U.e.,.Z.F.Z.H.#X$X$X#X}.H.}.}..X$X*X*X*X}.D.H.J.x.a.|.J.w.[ rXcXcXcXcXcXcXcXcXzX$XJ.D.A.M.-.x ^ Z.v.j.j.a.e.M.'.|. XXX",
"#X|.|.}.N.<.3.c.v.k.s.U s { M.G.Y.#X,XzXcXcXcXcXcXcXcXcXyX>.=.S..XY.M.M.Y.^.'.>X>X;X;X*X.XU.J.XX X$X;X$XU.U.U.B.a.A.].A.4.-.r.M.M.N.G.H.N.N.N.N.N.N.N.Z.Z.Z.F.G.Y.Y.U.F.v.s.e.>.x.D.H.^.U.U.Y.Y.Y.^.U.A.H.].}.^.'.}.}.}.|.|.|.|.|..XoX{.|..X{.D.N.U..X.XG.!..X.X.X.X.XXXXXXXXXXXXX$X.X!.^..X.X.XXXXXXX$X$X$X$X$X$X$X$X$X$X$X$X$X$X$X$X$X$X$X*X;X*X*X*X*X*X*X=X*X*X*X*X*X*X*X*X*X;X;X;X;X;X;X;X;X;X;X;X;X;X;X;X;X>X>X;X;X;X;X>X>X>X>X>X>X>X>X>X>X>X>X>X>X>X>X>X>X>X>X>X>X,X>X>X>X>X>X>X>X>X>X>X>X>X>X>X>X>X>X>X,X<X<X<X<X,X,X,X,X,X,X,X,X,X,X,X,X,X,X,X,X,X,X,X,X,X,X,X,X,X,X,X,X,X,X>X>X>X>X>X,X,X,X>X>X>X>X>X>X>X>X>X>X>X>X>X>X;X>X>X>X>X>X>X>X>X>X>X>X;X;X;X;X;X;X;X;X;X;X;X;X;X;X;X;X;X;X;X;X;X;X;X;X;X;X;X;X*X*X*X*X*X*X*X*X*X*X*X*X*X*X*X*X$X$X$X$X$X$X$X$X*X^.F.F.}.$X$X*X$X$X$X$X$X$XXXXX#X{.F.J.$X$X}.H.F.Y.XX$X XXX.X.X|.}.a.E ,._ @.@.^ e.s.-.E <.>.<.A.U.U.U.H.F.b.s.k.<.s.N.N.N.F.U.H.F.C.b.n.c.c.v.v.x.x.c.M.N.N.c.a.8.,.>.A.^.c.9.c.F.Z.F.|.$X$X#X}.U.^.}.}.$X*X*X;X$XD.U.J.F.y.H.}.c./ G.cXcXcXcXcXcXcXcXcX0XY.J.A.A.a.Z Z f.N.M.s.k.a.a.U.|. X.X",
"#X X|.Y.s.=.e.b.k.N.w.x x 8.G.F.^.}.sXcXcXcXcXcXcXcXcXcXY._ 0.'.$XG.k.F.^.|.=X>X;X,X;X$XG.H.}.XXXX;X>X XU.D.H.N.v.U.U.M.-.5.a.v.N.F.F.Z.M.M.M.M.M.M.N.Z.Z.A.G.U.Y.U.G.N.c.j.3.w.M.G.Y.Y.U.Y.Y.Y.!.^.H.A.U.(.^.}.}.}.}.|.}.}.}.|.|..X.X(.XX.XH.n.Z.^..X.XF.{..X{.XXXXXXXXXXXXXXXXXX$X.X^.^..X$X.XXX.X$X$X$X$X$X$X$X$X$X$X*X$X*X*X$X$X$X%X$X*X*X*X;X;X*X*X*X*X*X*X;X;X;X;X;X;X;X;X;X;X;X;X;X;X;X;X>X;X;X;X>X>X;X;X>X>X>X>X>X>X>X>X>X>X>X>X>X>X>X>X>X>X>X>X>X>X>X>X>X>X>X>X,X,X,X,X>X>X>X>X>X>X>X>X>X>X>X>X>X>X,X,X,X,X,X,X,X,X,X,X,X,X,X,X,X,X,X,X,X,X,X,X,X,X,X,X,X,X,X,X,X,X,X,X>X>X>X>X>X>X>X>X,X>X>X>X>X>X>X>X>X>X>X>X>X>X>X>X;X;X>X>X>X>X>X>X>X>X>X>X>X>X,X,X;X;X;X;X;X;X;X;X>X>X;X;X;X;X;X;X;X;X;X;X;X;X;X;X;X;X;X;X*X*X*X*X*X*X*X*X*X*X*X*X$X$X$X$X$X$X$X$X*X$X}.^.}.$X*X$X$X$X$X$X$X$XXXXX$X XH.F. X$XXXJ.H.H. X$X.X.X.X.X'..XA.~ U J J J Z c Z J Z A 3.s.N.U.U.Y.H.H.Z.c.c.e.5.N.N.M.Z.U.H.F.C.b.b.b.b.b.v.c.c.c.N.N.N.b.s.e.<.-.s.U.A.9.s.N.F.H.^.$X*X$X^.U.H..X.X$X*X*X;X*X^.F.J.J.j.c.}.H.#.,.jXcXcXcXcXcXcXcXcXhX XF.G.B.b.,.n +.N.M.k.j.f.e.N..XXX X",
"#X XXXU.5.-.r.v.k.k.[ x ^ s.G.U..X;XlXcXcXcXcXcXcXcXcXlX8._ F.|.^.Z.M.U.Y.#X;X>X;X,X;X$XH.G..X$X$X;X;XY.U.G.H.x.N.Y.G.a.,.9.j.M.Z.F.A.N.M.M.M.M.N.N.N.N.Z.A.G.U.U.U.F.M.k.a.,.a.Z.U.Y.Y.U.Y.Y.Y.!.^.F.F.(.(.}.}.}.}.|.|.}.}.}.|.|..X.X{.XX XD.c.G.}.}.!.F.{..X.XXXXXXXXXXXXXXXXXXXXX$X.X.X.X.X.XXX.X$X$X$X$X$X$X$X$X$X$X$X*X*X*X$X$X$X$X$X*X*X*X;X;X*X*X*X*X*X*X;X;X;X;X;X;X;X;X;X;X;X;X;X;X;X;X;X;X;X;X>X>X;X;X>X>X>X>X>X>X>X>X>X>X>X>X>X>X>X>X>X>X>X>X>X>X>X>X>X>X>X>X,X,X>X,X>X,X>X>X>X>X>X>X>X>X>X>X>X>X,X,X,X,X,X,X,X,X,X,X,X,X,X,X,X,X,X,X,X,X,X,X,X,X,X,X,X,X,X,X,X,X,X,X>X>X>X>X>X>X>X>X,X,X>X>X>X>X>X>X>X>X>X>X>X>X>X>X;X;X>X>X>X>X>X>X>X>X>X>X>X>X,X,X;X;X;X;X;X;X;X;X>X>X;X;X;X;X;X;X;X;X;X;X;X;X;X;X;X;X;X;X*X*X*X*X*X*X*X*X*X*X*X*X$X$X$X$X$X$X$X$X$X*X*X.X.X$X$X$X$X$X$X$X$X$XXXXX$XXXU.F.Y.$X$XY.J.F.^.XX.X.X.X.X|.}.Y.a.~ B j n n s j #.+.[ s.N.b.Y.U.Y.H.U.G.b.k.j.5.v.N.M.N.G.H.H.Z.N.b.b.b.b.v.c.c.c.b.N.N.N.k.a.5.,.>.N.Y.v.a.N.G.G.H.|.*X%X}.}.U.}..X$X*X*X;X*X XH.J.{.B.a.}.|.e./  XcXcXcXcXcXcXcXcXzX<XY.Y.B.c.r.G Z a.A.M.k.f.e.c.Y.XX.X",
"$X$X}.M.@.8.j.k.e.<.x x =.v.F.^..XwXcXcXcXcXcXcXcXcXcX$X) <.'.#XF.v.A.Y.U.$X5X>X;X;X;X$XU.H.$X$X*X;X$XF.J.J.Z.<.c.G.M.<.<.a.v.M.Z.F.N.c.M.M.M.M.N.N.N.Z.Z.A.G.U.U.H.A.c.k.5.-.k.G.Y.Y.Y.Y.Y.Y.Y.!.H.F.U.(.'.}.}.}.|.}.}.}.}.}.}.}.}.|..XXX!.b.b.'..X!.F.J.}..XXXXXXXXX$X$X$X$X$XXXXX$X$X$X.X.X$XXX.X$X$X$X$X$X$X*X*X$X$X$X$X*X*X$X$X;X;X;X;X*X*X;X;X*X*X*X*X*X*X;X;X;X;X;X;X;X;X;X;X;X;X;X;X;X;X>X>X>X>X>X>X>X>X>X>X>X>X>X>X>X>X>X>X>X>X>X>X>X>X>X>X>X>X>X>X>X>X>X>X>X>X>X>X>X>X,X,X>X>X>X>X,X,X,X,X,X,X>X>X>X>X,X,X,X,X,X,X,X,X,X,X,X,X,X,X,X,X,X,X,X,X,X,X,X,X,X,X,X,X,X,X,X,X>X>X,X,X>X,X>X>X>X>X>X>X,X>X,X,X>X>X>X>X>X>X>X>X>X>X>X>X>X>X>X>X>X>X>X>X>X>X;X;X;X;X;X;X;X;X;X;X>X>X>X>X;X;X;X;X;X;X;X;X;X;X;X;X;X;X;X;X*X*X*X*X*X*X*X*X*X*X*X*X$X$X$X$X$X;X$X X.X*X*X$X$X*X$X$X$X$X$X$X$X$XXXXX#X#X{.F.D.XX;X}.J.D.G..X.X.X.X.X.X}..X^.N.s.e.y.e.y.v.A.F.F.F.j.c.!.!.U.U.U.H.C.k.M.8.a.B.b.v.F.!.U.G.C.b.b.b.b.v.c.c.c.b.M.Z.Z.v.s.e.<.+.k.Y.j.9.j.F.H.Z.^.*X=X$X$X^.^..X$X*X*X;X;X$XY.J.^.J.a.D.XXB.{ s.kXcXcXcXcXcXcXcXcXsX}.}.D.x.v.<.c ^ N.A.k.f.e.a.F.XX$X",
"%XXXG.e.-.s.k.r.M.<.x H s.F.F.H.;XhXcXcXcXcXcXcXcXcXlXs.^ v..X|.N.b.U.'.Y.*X5X;X;X;X*X.XH.}.;X$X;X;XXXB.J.G.x.^ { j.v.-.3.s.N.N.A.Z.b.c.M.M.M.M.N.N.N.Z.Z.A.G.U.H.F.N.s.k.<.8.k.U.Y.Y.Y.Y.Y.Y.Y.^.G.A.^.'.'.}.}.|.|.|.|.}.}.}.|.|.(.{.XXXXJ.n.Z..X.XH.F.^. X.X.XXXXXXX$X$X$X$X$X$X$X.X$X$X.X.X.XXXXX$X$X$X$X$X$X$X$X$X$X$X$X*X*X$X$X;X;X;X;X*X*X;X;X*X*X*X*X*X*X;X;X;X;X;X;X;X;X;X;X;X;X;X;X;X;X>X>X>X>X>X>X>X>X>X>X>X>X>X>X>X>X>X>X>X>X>X>X>X>X>X>X>X>X>X>X>X>X>X>X>X>X>X>X>X>X,X,X>X>X>X>X,X,X,X,X,X,X>X>X>X>X,X,X,X,X,X,X,X,X,X,X,X,X,X,X,X,X,X,X,X,X,X,X,X,X,X,X,X,X,X,X,X,X>X>X,X,X,X,X>X>X>X>X>X>X,X,X,X,X,X>X>X>X>X>X>X>X>X>X>X>X>X>X>X>X>X>X>X>X>X>X;X;X;X;X;X;X;X;X;X;X>X>X>X>X;X;X;X;X;X;X;X;X;X;X;X;X;X;X;X;X*X*X*X*X*X*X*X*X*X*X*X*X$X$X$X$X$X;X$X X.X$X*X*X*X$X$X$X$X$X$X$X$X$XXXXX#X#X}.J.Z.}.*X}.J.F.Z.}..X.X.X X}.|.'..X}.^..X}.Y.Y.^.Y.^.'.F.9.j.!.^.!.U.!.U.D.x.M.r.8.N.v.v.F.!.^.H.Z.N.b.b.b.v.c.c.c.c.b.N.A.N.k.r.5.{ 5.9.) <.9.N.H.N.Y.$X$X*X;X.X^..X$X*X*X;X;X*X}.J.F.U.M.x..XJ.1.] >XcXcXcXcXcXcXcXcXzX*X}.U.x.x.v.H j j.F.M.a.9.a.M.{.$X",
"%X|.b.>.9.k.v.j.b.E x { Z.J.G.!.wXzXcXcXcXcXcXcXcXcXwX{ #.'.}.H.c.Z.Y.U..X;X>X;X<X>X%X{.D.*X;X;X;X$X^.F.F.I.5.^ +.<.5.@.e.j.N.F.G.Z.v.v.b.b.b.M.N.N.N.Z.Z.A.H.U.U.F.v.k.a.=.r.M.H.U.U.!.!.!.!.!.!.Z.G.^.}.}.}.}.}.}.}.}.|.|.|..X.X^.}..X}.F.c.J.$X}.F.H.}. X.X.X.X.X$X$XXXXXXX$X$X$X$XXX$X$X$X$XXXXX$X$X$X$X*X*X$X$X*X*X*X*X*X$X*X*X*X*X*X*X*X*X;X;X*X*X*X*X=X*X;X;X;X;X;X;X;X;X;X;X;X;X>X>X>X>X>X>X;X;X;X>X>X>X>X>X>X>X>X>X>X>X>X>X>X>X>X>X>X>X>X>X>X>X>X>X>X>X>X>X>X>X,X,X,X,X>X>X>X>X>X>X,X,X,X,X,X,X,X,X,X,X,X,X,X,X,X,X,X,X,X,X,X,X,X,X,X,X,X,X,X,X,X,X,X,X,X,X,X,X,X,X,X,X>X>X>X>X,X,X,X>X,X,X,X,X>X>X>X>X>X,X,X,X,X,X>X>X,X,X>X>X>X>X>X>X>X>X>X>X>X>X;X;X>X>X>X>X>X>X;X;X;X;X;X;X;X;X;X;X;X;X;X;X;X;X;X;X;X;X;X;X;X;X;X;X*X*X*X*X*X*X*X*X;X;X;X$X$X*X$X$X.X$X$X$X$X$X$X$X$X$X$X$X$X$X.X.X$X$X.XY.D.H.$X;XJ.J.N.U..X.X.X X}.}.}.|.}.}.}.}.}.}.}.}.^.U.H.F.Y.U.U.Y.Y.Y.Y.H.N.M.x.<.v.N.b.N.U.^.H.Z.N.N.b.b.b.v.v.c.v.b.N.A.N.v.j.e.<.-.N G <.<.x.F.N.H.$X;X;X;XXX X.X$XXX$X;X;X;X$XU.F.U.!.r.U.^.j.[ b.cXcXcXcXcXcXcXcXcXrXY.Y.D.x.b.=.j @.F.F.c.r.e.s.G.$X",
".XY.a.-.a.v.M.c.w.x H j.F.J.J.XXgXcXcXcXcXcXcXcXcXkXH.E j.$X(.A.b.G.U.Y.$X>X>X;X,X;XXXU.{.%X#X;X;X#XY.F.F.A.e.e.s.5.=.} r.x.N.F.F.N.v.b.b.b.b.M.N.N.N.Z.A.F.H.U.H.A.c.N.8.<.j.Z.H.U.!.!.!.!.!.!.H.Z.U.^.}.}.}.}.}.}.}.}.|.|.|..X.X{..X}.Y.N.b.{..X^.D.H.}. X.X.X.X.X$X$XXXXX#X$X$X$X$X$X$X$X$X$X$X$X$X$X$X$X$X*X$X$X$X$X*X*X$X$X*X*X*X*X*X*X*X*X;X;X*X*X*X*X=X*X;X;X;X;X;X;X;X;X;X;X;X;X>X>X>X>X>X>X;X;X;X>X>X>X>X>X>X>X>X>X>X>X>X>X>X>X>X>X>X>X>X>X>X>X>X>X>X>X>X>X>X>X,X,X,X,X>X>X>X>X>X>X,X,X,X,X,X,X,X,X,X,X,X,X,X,X,X,X,X,X,X,X,X,X,X,X,X,X,X,X,X,X,X,X,X,X,X,X,X,X,X,X,X,X>X>X,X,X,X,X>X>X,X,X,X,X,X,X>X>X>X>X,X,X>X,X>X>X,X,X>X>X>X>X>X>X>X>X>X>X>X>X;X>X>X>X>X>X>X>X;X;X;X;X;X;X;X;X;X;X;X;X;X;X;X;X;X;X;X;X;X;X;X;X;X;X;X*X*X*X*X*X*X*X;X;X;X$X$X$X$X$X$X$X$X$X$X$X$X$X$X$X$X$X$X$X.X.X$X$X.X^.F.F..X;XY.U.Z.F.}..X.X X}.}.}.|.}.}.|.}.}.}.}.}.Y.^.'.'.'.Y.Y.'.Y.Y.Y.U.A.M.v.9.e.N.v.N.H.U.U.F.Z.N.b.b.M.b.v.v.v.b.N.Z.Z.N.j.e.9.5._ a.k.e.s.Z.Z.F.}.*X;X;XXX X}.$XXX$X;X;X;X*X^.H.H.!.j.N..XN.<.} wXcXcXcXcXcXcXcXcXgX#X{.F.c.N.c.m Z D.Z.N.r.w.e.N..X",
".XA.,.5.k.v.b.v.) h =.Z.J.J.Y.6XcXcXcXcXcXcXcXcXcXrX>.{ ^.$XH.b.Z.!.U.}.>X>X;X;X>X;X^.J.$X;X#X*X;X}.H.F.I.M.M.H.b.a.>.<.j.b.Z.Z.A.b.b.M.b.b.M.M.N.N.Z.A.A.H.U.H.G.M.b.v.>.9.b.G.U.!.!.!.!.^.^.!.G.F.^.}.}.}.}.}.}.}.}.}.|.|.|.|.}.}..X{.F.x.N.XX.XY.Z.!.}.}..X.X$X$X$X$X$X$X$X$XXXXX$X$X$X$X$X$X$X$X*X$X$X$X$X$X$X$X$X$X$X$X$X$X*X*X*X*X*X*X*X*X;X;X*X*X*X*X=X=X;X;X;X;X;X;X;X;X;X;X;X;X;X;X;X;X>X;X;X;X>X>X>X>X>X>X>X>X>X>X>X>X>X>X>X>X>X>X>X>X>X>X>X;X>X>X>X>X>X>X>X>X,X,X,X,X>X>X>X>X>X>X>X>X,X,X,X,X,X,X,X,X,X,X,X,X,X,X,X,X,X,X,X,X,X,X,X,X,X,X,X,X,X,X,X,X,X,X,X,X,X,X,X,X,X>X>X,X>X,X>X>X,X,X,X,X,X>X>X>X>X>X>X>X>X>X>X>X,X,X,X>X>X>X>X>X>X>X>X>X>X>X>X>X>X>X>X>X>X>X>X>X>X>X;X>X;X;X;X;X;X;X;X;X;X;X;X;X;X;X;X;X;X;X;X;X;X;X*X*X*X*X*X*X;X;X;X$X$X$X$X$X$X$X$X$X$X$X$X$X$X$X$X$X$X$X.X.X$X$X.X}.H.N.Y.;X$XU.H.C.^..X.X.X.X}.}.}.}.}.}.}.}.}.}.}.!.^.}..X}.Y.Y.'.^.Y.Y.Y.H.b.b.s.,.Z.M.M.Z.H.!.H.D.C.N.b.N.M.b.v.b.b.M.B.F.N.k.e.5.5.4.A.F.x.r.b.D.Z.H.*X;X;XXX XY.XXXX$X*X;X;X;X.XH.H.U.F.t..X}.t.] b.kXcXcXcXcXcXcXcXcXwX XU.N.c.D.W y s.Z.N.j.e.e.j.U.",
"].k.=.r.c.k.k.k.C H j.H.J.F.{.hXcXcXcXcXcXcXcXcXcXoX^ e.$X.XF.c.H.^.^.#X>X>X>X*X;X$XY.Y.%X;X%X*X;X^.F.F.F.k.Y.}.Z.a.<.r.x.b.Z.Z.N.b.M.M.b.b.M.N.Z.Z.Z.A.F.H.U.H.Z.k.b.a.,.a.Z.H.!.!.!.U.!.^.^.U.H.H.^.}.}.}.}.}.}.}.}.}.|.|.|.}.(.}..X{.V.x.F.XX$X^.D.}.}.}..X.X.X$X$X$XXX$X$X$XXX$X$X$X$X$X$X$X$X$X$X$X$X$X$X$X$X$X$X$X$X$X$X$X*X*X*X*X*X*X*X*X;X;X*X*X*X*X=X=X;X;X;X;X;X;X;X;X;X;X;X;X;X;X;X;X;X;X;X;X>X>X>X>X>X>X>X>X>X>X>X>X>X>X>X>X>X>X>X>X>X>X>X;X>X>X>X>X,X>X>X>X,X,X,X,X>X>X>X>X>X>X>X>X,X,X,X,X,X,X,X,X,X,X,X,X,X,X,X,X,X,X,X,X,X,X,X,X,X,X,X,X,X,X,X,X,X,X,X,X,X,X,X,X>X,X,X>X>X>X>X>X,X,X,X,X,X>X>X>X>X>X>X>X>X>X>X>X,X,X,X>X>X>X>X>X>X>X>X>X>X>X>X>X>X>X>X>X>X>X>X>X>X>X>X>X;X;X;X;X;X;X;X;X;X;X;X;X;X;X;X;X;X;X;X;X;X;X;X*X*X*X*X*X;X;X;X$X$X$X$X$X$X$X$X$X$X$X$X$X$X$X$X$X$X$X.X.X$X$X.X}.H.N.J.*X;XU.H.D.H.}..X.X.X.X}.}.}.}.}.}.}.}.}.}.!.^.^.^.Y.U.U.Y.^.Y.Y.Y.U.N.b.x.<.v.N.b.N.G.H.H.F.Z.C.N.N.N.M.M.b.b.M.N.F.N.k.e.r.8.5.M.F.b.r.s.Z.Z.F..X;X;XXX XJ.XX$X$X*X;X;X;X$X^.H.H.^.t.H.$Xb.<.=.sXcXcXcXcXcXcXcXcXjX$XY.F.x.Z.8.r ^ F.N.b.j.e.r.b.",
"U.e.<.j.b.b.N.#.x @.Z.G.J.F.<XcXcXcXcXcXcXzXcXkXjXt.W Y.*X^.N.b.!.H.Y.;X;X;X;X;X;X XF..X;X;X%X%X#XF.D.F.N.x.^..XN.8.e.j.j.N.F.F.v.c.c.c.b.b.M.N.Z.Z.Z.Z.F.H.H.F.Z.j.v.8.8.k.F.U.!.!.U.U.U.^.^.H.H.H.^.^.}.}.}.}.}.}.}.}.}..X}.^.{..X.XY.N.c.Y.XX$X{.^.}.^.}..X.X.X$X$XXXXXXX$X$X#X#X$X$X$X$X$X$X$X$X$X$X$X$X$X*X$X$X$X$X;X;X;X;X*X*X*X*X*X*X*X*X;X;X*X*X;X;X=X=X;X;X;X;X;X;X;X;X;X;X;X;X>X>X;X;X>X>X>X>X;X;X;X;X>X>X>X>X>X>X>X>X>X>X,X,X>X>X>X>X>X>X>X>X,X,X,X,X,X,X,X,X,X,X,X,X<X<X,X,X,X,X,X,X,X,X,X,X,X,X,X,X,X,X,X,X,X,X,X,X,X,X,X,X,X,X,X,X,X,X,X,X,X,X,X,X,X,X,X,X,X,X,X,X,X>X>X,X>X,X>X>X,X,X>X>X,X,X,X,X,X,X>X>X>X>X,X,X>X>X>X>X>X>X>X>X>X>X>X>X>X>X>X>X>X>X;X;X>X;X;X;X;X>X;X>X>X>X;X;X>X>X>X>X;X;X;X;X;X;X;X;X;X;X;X;X*X*X*X*X*X*X*X*X*X;X%X$X$X$X$X$X*X*X*X*X*X*X*X*X$X$X$X$X$X$X$X.X$X$X.X XU.N.N.#X,X}.H.F.Z.^..X.X.X.X.X.X}.}.}..X}.}.}.}.}.}.}.^.^.Y.U.Y.Y.Y.Y.Y.U.B.b.b.8.w.N.v.b.D.H.H.G.Z.Z.Z.Z.N.M.b.b.b.b.b.A.N.c.a.r.r.9.j.A.G.s.w.Z.Z.C.H.$X;X$XXX^.^. X X$X*X;X;X*X}.H.H.}.b.D..XF.t.[ {.cXcXzXcXcXcXcXcXcX<X^.F.j.c.b.V u s.D.b.n.s.e.s.",
"Z.5.9.c.N.M.s.A V r.F.G.F.Y.sXcXcXcXcXcXcXcXcXcXXX@.w.$X.XH.b.Z.U.U..X;X;X;X;X;X$X^.J.$X;X;X;X;X|.G.F.Z.s.x.|.}.j.<.s.j.c.N.F.D.b.v.v.v.b.b.M.N.Z.Z.Z.Z.H.H.G.A.j.j.c.,.r.M.F.U.H.U.U.U.U.^.^.H.H.U.^.^.}.}.}.}.}.}.}.}.}..X}.^.}..X}.J.b.N.{.XX$X}.U..X^.}..X.X.X$X$XXXXXXX$X$X$X$X$X$X$X$X$X$X$X$X$X$X$X$X$X*X$X$X$X$X;X;X;X;X*X*X*X*X*X*X*X*X;X;X*X*X;X;X=X=X;X;X;X;X;X;X;X;X;X;X;X;X>X>X;X;X;X>X>X>X;X;X;X;X>X>X>X>X>X>X>X>X>X>X>X,X>X>X>X>X>X>X>X>X,X,X,X,X,X,X,X,X,X,X,X,X<X<X,X<X,X,X,X,X,X,X,X,X,X,X,X,X,X,X,X,X,X,X,X,X,X,X,X,X,X,X,X,X,X,X,X,X,X,X,X,X,X,X,X,X,X,X,X,X>X>X>X>X,X,X>X>X,X>X>X>X,X,X,X,X,X,X>X>X>X>X>X,X>X>X>X>X>X>X>X>X>X>X>X>X>X>X>X>X>X>X;X;X>X;X;X;X;X>X;X;X>X>X;X;X>X>X>X>X;X;X;X;X;X;X;X;X;X;X;X;X*X*X*X*X*X*X*X*X%X%X$X$X$X$X$X$X*X*X*X*X*X*X*X*X$X$X$X$X$X$X$X.X$X$X.X}.U.D.B.|.>X$XU.F.Z.H..X.X.X.X.X.X}.}..X.X}.}.}.}.}.}.}.}.'.Y.Y.Y.Y.Y.Y.U.U.F.M.b.j.>.v.M.v.Z.H.H.H.F.F.Z.B.N.b.v.v.v.v.c.Z.Z.v.s.9.e.a.j.G.H.s.=.c.N.Z.F..X*X*X$X X{.}..X$X*X;X;X;X.XU.H.^.Z.j.$X Xb.>.5.jXcXcXcXcXcXcXcXcXuX$XJ.N.x.Z.[ 5 [ G.b.x.c.s.r.",
"s.-.j.M.c.N.,.h [ b.F.G.F.;XcXcXcXcXcXcXcXcXcXlXw.{ Y.$X^.Z.b.H.U.U.;X>X;X;X;X;X$XJ.{.*X%X;X;X$XY.U.G.M.,.s.N.w.^ @.j.c.b.C.D.Z.M.M.M.b.b.b.M.N.N.A.D.F.H.H.G.Z.r.v.r.=.j.Z.G.U.D.H.!.H.U.^.^.H.H.^.}.^.'.'.}.}.}.}.}.}.}..X}.^.}..X{.F.b.F. X$X$X XD.}.^.}..X.X$X$X$X X.XXX$X$X$X$X$X$X$X$X$X$X*X*X$X$X$X$X*X*X$X$X$X$X*X*X*X*X*X*X*X*X*X*X*X*X*X*X*X*X;X;X=X=X;X;X;X;X;X;X;X;X;X;X;X;X>X>X>X;X;X;X>X>X>X>X;X;X>X>X>X>X>X>X>X>X>X>X,X,X>X>X>X>X>X>X,X,X,X,X,X,X,X,X,X,X,X,X,X,X<X<X<X<X,X,X,X,X,X,X,X,X,X,X,X,X,X,X,X,X,X,X,X,X,X,X,X,X,X,X,X,X,X,X,X,X,X,X,X,X,X,X,X,X,X,X,X,X>X>X>X>X,X>X>X>X,X,X>X>X>X>X,X,X>X,X>X>X>X>X,X,X>X>X>X>X>X>X>X>X>X>X>X>X>X>X>X>X>X>X>X>X>X;X;X;X;X;X;X;X>X>X>X>X;X;X>X>X;X;X;X;X;X;X;X;X;X;X;X;X*X*X*X*X*X*X*X*X;X*X$X$X$X$X$X$X*X*X*X*X*X*X*X*X$X$X$X$X$X$X$X$XXXXX.X}.U.U.F.^.;X;X{.F.Z.G.{.XX.X.X.X.X.X.X.X.X}.}.}.}.}.}.}.}.}.^.Y.U.U.U.U.U.Y.G.M.c.c.>.s.N.c.N.H.U.H.H.F.Z.N.N.N.M.v.v.v.c.Z.Z.M.k.9.e.l.5.c.s.@.Q 8.b.Z.Z.Y.$X;X$X$X{.{.XX.X$X*X;X;X$X}.U.^.!.r.U.XXF.t.] ;XcXcXcXcXcXcXcXcXzX6X^.H.c.Z.s.d c n.C.c.c.s.r.",
"9.8.b.v.b.j.U c r.N.H.H.H.sXcXcXcXcXcXcXcXcXzXwX@.r.}..XH.N.b.^.U.^.5X;X;X;X;X;X.XJ..X$X%X>X;X|.U.U.U.x.9.k.5.W J 8.c.c.b.Z.Z.N.M.M.M.M.N.b.M.N.N.Z.D.G.U.U.F.N.r.v.<.3.v.D.G.U.Z.H.^.H.U.^.^.!.!.^.}.^.^.'.'.}.}.}.}.}.}..X}.^.}..X^.D.b.H.XX$X;X Xc.J.^.}..X$X$X$X$X X.XXX$X$X$X$X$X$X$X$X$X$X*X$X$X$X$X$X*X*X$X$X$X$X*X*X*X*X*X*X*X*X*X*X*X*X*X*X*X*X;X;X=X;X;X;X;X;X;X;X;X;X;X;X;X;X>X>X>X>X;X;X>X>X>X;X;X;X>X>X>X>X>X>X>X>X>X>X,X,X,X>X>X>X>X>X>X,X,X,X,X,X,X,X,X,X,X,X,X,X<X<X<X<X,X,X,X,X,X,X,X,X,X,X,X,X,X,X,X,X,X,X,X,X,X,X,X,X,X,X,X,X,X,X,X,X,X,X,X,X,X,X,X,X,X,X,X,X>X>X>X>X,X,X>X>X,X,X>X>X>X>X,X,X>X>X>X>X>X>X,X,X,X>X>X>X>X>X>X>X>X>X>X>X>X>X>X>X>X>X>X>X>X;X;X;X;X>X;X;X>X>X>X>X;X;X;X;X;X;X;X;X;X;X;X;X;X;X;X;X*X*X*X*X*X*X*X*X;X$X$X$X$X$X$X$X*X*X*X*X*X*X*X*X$X$X$X$X$X$X$X$X$XXX.X^.U.^.U.'.$X;X.XG.Z.F.!.|..X.X.X.X.X.X.X.X}.}.}.}.}.}.}.}.}.'.Y.Y.U.U.U.H.Y.G.N.c.c.9.3.Z.b.N.F.H.U.H.G.Z.F.F.Z.B.N.b.v.c.Z.A.N.v.a.a.a.^ *.e.<.w.@.x.Z.Z.F..X*X*X;X.X{. X.X$X*X;X;X*X.X^.!.}.c.b.*X{.b.>.N.lXcXcXcXcXcXcXcXcXsX$X^.C.b.b.U r @.F.b.j.s.x.",
"5.e.M.M.M.6.h W v.D.G.F.;XlXcXcXcXcXcXcXzXcXcXx.{ Z..X}.Z.b.G.}.U.$X5X;X;X;X;X*XG.^.*X*X;X6X;XU.U.F.Z.k.Z.Y.Y.r.=.s.x.M.N.Z.Z.N.M.b.M.M.N.A.F.F.A.Z.F.H.U.H.F.j.a.M.-.a.M.D.H.U.G.G.G.G.!.^.H.^.^.(.(.^.}.}.}.}.}.}. X X X.X'.U..X.XU.N.D. X$X$X$XY.b.J.{.}..X.X$X$X$X.X.X$X$X$X$X$X$X$X$X$X$X$X*X$X$X$X$X$X$X%X*X*X*X*X*X*X*X*X*X*X*X*X;X;X;X;X;X;X;X;X;X;X;X;X;X;X;X;X;X;X;X;X;X;X;X;X;X;X;X;X>X>X>X>X>X>X>X>X>X>X>X,X,X,X,X,X,X,X,X>X>X>X,X,X,X,X>X>X>X>X>X>X,X,X,X,X,X,X,X,X,X,X,X,X,X,X,X,X<X<X<X<X,X,X,X,X,X,X,X,X,X,X,X,X,X,X,X,X,X,X,X,X,X,X,X,X,X,X,X,X,X,X,X,X,X,X,X,X,X,X,X,X,X,X,X,X,X,X,X,X,X,X,X,X,X,X,X,X,X,X,X,X,X,X,X,X:X,X,X,X>X>X>X>X>X>X>X>X>X>X>X>X>X>X>X>X;X;X>X>X;X;X;X;X;X;X;X;X;X;X;X;X;X;X;X;X;X;X;X;X;X;X;X;X;X;X;X;X*X*X*X*X*X*X*X*X*X*X*X*X*X*X*X*X*XXX$X$X$X$X$X$X*X$X$XH.H.^.^..X$X;X$XH.D.G.H..X.X.X.X.X X X X X X X X}.}.}.}.}.}.^.^.U.U.H.D.b.H.U.H.N.k.s.#.c.M.c.F.U.H.H.F.D.F.F.Z.Z.Z.N.v.c.b.Z.N.b.j.a.s.<.s.A.H.Z.,.s.N.F.H..X*X*X$X$X{. XXX$X*X;X;X;X$X}.U.}.Z.r.$X}.J.e.>.uXcXcXcXcXcXcXcXcXzX6X}.G.M.v.5.d Z j.Z.b.c.s.",
"<.r.N.N.k.E z 9.B.F.J.J.wXcXcXcXcXcXcXcXcXcXuX{ 5.H.*X^.N.C.H.^.^.=X,X;X;X;X*X#XG.}.*X$X;X,X$XH.H.F.v.M.G.U.M.-.5.j.c.M.N.Z.Z.N.b.M.N.N.N.A.F.F.A.A.G.H.H.U.A.a.k.j.,.c.V.J.U.U.H.H.H.H.!.U.H.^.^.^.^.^.}.}.}.}.}.}. X X}.}.(.!.|.}.F.N.J. X$X$X*X XD.D.^.}..X.X$X$X$X$X$X$X$X$X$X$X$X$X$X$X$X$X*X*X$X$X$X$X$X%X*X*X*X*X*X*X*X*X*X*X*X*X;X;X;X;X;X;X;X;X;X;X;X;X;X;X;X;X;X;X;X;X;X;X;X;X;X;X;X;X>X>X>X>X>X>X>X>X>X>X>X>X,X,X>X,X,X,X,X>X>X>X>X>X,X,X>X>X>X>X>X>X,X,X,X,X,X,X,X,X,X,X,X,X,X,X,X,X<X<X<X<X,X,X,X,X,X,X,X,X,X,X,X,X,X,X,X,X,X,X,X,X,X,X,X,X,X,X,X,X,X,X,X,X,X,X,X,X,X,X,X,X,X,X,X,X,X,X,X,X,X,X,X,X,X,X,X,X,X,X,X,X,X,X:X:X,X,X,X,X>X>X>X>X>X>X>X>X>X>X>X>X>X>X>X>X;X>X>X>X>X;X;X;X;X;X>X;X;X;X;X;X;X;X;X;X;X;X;X;X;X;X;X;X;X;X;X;X*X*X*X*X*X*X*X*X*X*X*X*X*X*X*X*X*X$X$X$X$X$X$X$X.X*X.XF.U.'.'..X$X*X$X^.Z.D.G.}..X.X.X.X X X X X X X X}. X}.}.}.}.}.^.!.U.U.H.Z.G.!.U.Z.c.j.<.e.N.c.N.U.H.H.F.D.F.F.A.Z.Z.N.b.c.c.M.N.N.j.s.j.r.<.8.v.G.x.w.N.F.G.!..X$X$X;XXX}.XXXX$X;X;X;X$X.X}.}.H.s.J.$XY.c.] {.cXcXcXcXcXcXcXcXcXuX|.^.A.k.Z.G u =.N.b.c.s.",
"3.k.N.N.8.x H b.Z.F.Y..XlXcXcXcXcXcXcXcXcXcXH.) b..X*XH.b.F.U.H..X>X>X;X;X;X$XY.!.$X*X;X,X*X}.H.G.N.r.Z.^.A.,.+.a.c.v.M.Z.A.N.b.N.N.N.N.N.A.F.F.A.G.H.H.H.H.b.e.v.9.6.N.J.Y.Y.Y.U.U.U.U.!.G.H.^.}.{.^.^.}.}.}.}.}.}.}.}.}.^.(.(.|.U.N.D.{. X$X$X$X$X^.N.J..X$XXX.X$XXX$X$X$X$X$X$X$X$X$X$X$X$X$X$X$X$X$X$X$X;X;X*X*X*X*X*X*X*X*X*X*X*X*X;X;X;X;X;X;X;X;X;X;X;X;X;X;X;X;X;X;X;X;X;X;X;X;X;X;X;X;X>X>X>X>X>X>X>X>X>X>X>X>X>X>X>X>X>X,X>X>X>X>X>X>X>X>X>X>X>X>X>X>X,X,X,X,X,X,X,X,X,X,X,X,X,X,X,X,X<X<X<X<X,X,X,X,X,X,X,X,X,X,X,X,X,X,X,X,X,X,X,X,X,X,X,X,X,X,X,X,X,X,X,X,X,X,X,X,X,X,X,X,X,X,X,X,X,X,X,X,X,X,X,X,X,X,X,X,X>X>X>X>X,X,X,X,X,X,X,X,X>X>X>X>X>X>X>X>X>X>X>X>X>X>X>X>X;X;X>X>X>X>X;X;X>X>X>X>X;X;X;X;X;X;X;X;X;X;X;X;X;X;X;X;X;X;X;X;X*X*X*X*X*X*X*X*X*X*X*X*X*X*X*X*X*XXX$X$X%X%X%X%X$X*X^.Z.}..X}..X.X.X$X.XH.Z.Z.H. X.X.X.X X X X X X X X}. X}.}.}.}.}.^.^.!.!.!.H.H.^.^.H.N.j.w.>.Z.c.v.H.U.H.H.F.H.G.F.A.Z.N.b.v.k.c.N.M.k.s.a.a.@.) v.F.F.8.k.F.F.H. X*X*X;X$XY..XXX$X*X;X;X;X$X.X.X}.b.j.;X XD.1.8.gXcXcXcXcXcXcXcXcXzX;X}.G.k.Z.<.d A t.b.c.t.",
"9.N.N.c.^ d 6.H.M.D.}.>XcXcXcXcXcXcXcXcXcXzX<.=.G.;X$XC.b.H.^.H.$X>X>X;X;X;X.XF.$X;X;X;X;X.X!.G.F.j.r.F.].A._ >.s.v.b.M.A.A.N.v.N.N.N.N.N.A.F.F.A.H.U.H.U.F.s.r.v.8.r.B.U.Q.Y.Y.^.^.^.^.^.F.U.^.(.(.^.^.}.}.}.}.}.}.}.}.}.!.^.|.(.H.N.J.XXXX.X.X.X$X XJ.F..X$X.X.X.XXXXXXX$X$X$X$X$X$X$X$X$X$X$X$X$X$X$X$X$X;X;X*X*X*X*X*X*X*X*X*X*X*X*X;X;X;X;X;X;X;X;X;X;X;X;X;X;X;X;X;X;X;X;X;X;X;X;X;X;X;X;X>X>X>X>X>X>X>X>X>X>X>X>X>X>X>X>X>X>X>X>X>X>X>X>X>X>X>X>X>X>X>X,X,X,X,X,X,X,X,X,X,X,X,X,X,X,X,X,X<X<X<X<X,X,X,X,X,X,X,X,X,X,X,X,X,X,X,X,X,X,X,X,X,X,X,X,X,X,X,X,X,X,X,X,X,X,X,X,X,X,X,X,X,X,X,X,X,X,X,X,X,X,X,X,X,X,X,X,X>X>X>X>X,X,X,X,X,X,X,X,X>X>X>X>X>X>X>X>X>X>X>X>X;X>X>X;X;X;X>X>X>X>X;X;X>X>X>X>X;X;X;X;X;X;X;X;X;X;X;X;X;X;X;X;X;X;X;X;X*X*X*X*X*X*X*X*X*X*X*X*X*X*X*X*X*XXX$X$X%X%X%X$X*X.XG.D..X$X|..X$X.X.X.X}.Z.Z.N.{. XXXXX X X X X X X X}. X}.}. X}.}.}.^.!.^.}.^.!.U.U.U.Z.j.a.,.b.c.c.H.!.U.H.G.H.H.F.F.Z.N.M.v.j.k.b.N.v.s.9.8.<.>.j.Z.A.a.w.N.D.H.^.XX;X;X;XY. XXX$X$X;X;X;X$X}.}..XH.s. X XJ.D.) ;XzXcXcXcXcXcXcXcXcXrX.XH.M.N.N.A h @.x.c.s.",
"s.N.Z.9.h A v.D.B.Y.XXjXcXcXcXcXcXcXcXcXcX$XW r..X;X}.N.A.H.H.^.>X>X>X;X;X=X}.G.*X;X;X;X>X^.U.H.Z.9.v.U.U.N.{ 9.s.k.b.N.F.Z.b.c.N.N.N.N.Z.Z.F.F.H.U.U.H.H.Z.9.a.r.<.k.G.Y.Q.Y.Y.^.^.!.^.H.H.^.^.}.}.}.}.}.}.}.}. X X.X|.}.^.(.|.H.Z.D.^.#X#X#X#X.X.X#X}.H.^.$X XXXXX$X$X$X$X$X$X$X$X$X$X$X$X$X$X$X$X$X$X$X$X;X;X*X*X*X*X*X*X*X*X*X*X*X*X;X;X;X;X;X;X;X;X;X;X;X;X;X;X;X;X>X;X;X;X;X;X;X;X;X;X;X;X>X>X>X>X>X>X>X>X>X>X>X>X>X>X>X>X>X>X>X>X>X>X>X>X>X>X>X>X>X>X,X,X,X,X,X,X,X,X,X,X,X,X,X,X,X,X,X,X<X<X<X<X<X<X<X<X<X<X<X<X<X<X<X<X<X<X<X,X,X,X,X,X,X,X<X<X,X,X,X,X,X,X,X,X,X,X,X,X,X,X,X,X,X,X,X,X,X,X,X,X,X,X,X,X,X,X<X<X>X>X>X>X,X,X,X,X,X,X<X<X>X>X,X,X,X>X>X>X>X>X>X>X;X;X;X;X;X;X;X;X>X>X>X;X>X>X;X;X;X;X;X;X;X;X;X;X;X;X;X;X;X;X;X;X;X;X;X;X*X*X*X*X*X*X*X*X*X*X*X*X*X*X*X*X*X*X$X$X%X%X$X$X;X.XZ.H.$X$XXXXX$X$X$X$X.X^.F.b.F.}..XXXXX X X X X X X X}.}. X X}.}.}.(.!.^.{.^.!.U.U.U.U.v.a.6.a.N.s.Z.H.U.H.H.H.H.G.F.A.N.N.b.k.j.v.N.M.d.e.e.a.5.e.A.F.M.5.j.F.H.U.}.;X;X;X X}.$XXX.X;X;X;X;X.X}..X^.c.b..XJ.Y.1.t.cXcXcXcXcXcXcXcXcXzX.X.XF.N.A.8.y W s.b.j.",
"v.H.Z.E d @.D.B.U.{.<XcXcXcXcXcXcXcXcXcXzXe.) N.$X;XU.b.F.H.U..X>X>X>X;X;X=XF..X*X;X;X;X*X^.H.H.c.r.Z.G.G.r.+.j.c.b.Z.D.F.N.M.b.Z.Z.Z.Z.Z.Z.A.F.H.U.U.H.G.j.8.k.5.r.N.F.Y.Y.Y.^.^.^.^.U.H.H.^.^.}.}.}.}.}.}.}.}. X X.X.X.X}.(.(.H.D.J.}.$X#X#X#X.X.XXXXXJ.J.XXXXXXXX$X$X$X$X$X$X$X$X$X$X$X$X$X$X$X$X$X$X$X$X;X;X*X*X*X*X*X*X*X*X*X*X*X*X;X;X;X;X;X;X;X;X;X;X;X;X;X;X;X;X>X>X;X;X;X;X;X;X;X;X;X;X>X>X>X>X>X>X>X>X,X>X>X>X>X>X,X>X>X>X>X>X>X>X>X>X>X>X>X>X>X>X,X,X,X,X,X,X,X,X,X,X,X,X,X,X,X,X,X,X<X<X<X<X<X<X<X<X<X<X<X<X<X<X<X<X<X<X<X,X,X,X,X,X,X,X<X<X,X,X,X,X,X,X,X,X,X,X,X,X,X,X,X,X,X,X,X,X,X,X,X,X,X,X,X,X,X,X,X<X>X>X>X>X,X,X,X,X,X,X<X<X>X>X,X,X>X>X>X>X>X>X>X>X;X;X;X;X;X;X>X>X>X>X>X>X>X>X;X;X;X;X;X;X;X;X;X;X;X;X;X;X;X;X;X;X;X;X;X;X*X*X*X*X*X*X*X*X*X*X*X*X*X*X*X*X*X*X$X$X%X%X$X#X*X}.Z.U.$X$XXX$X$X$X$X$X$X.X^.D.Z.U. XXXXXXX X X X X X X}.}. X X}.}.}.^.!.^.{.^.!.U.U.U.G.M.k.a.5.N.r.C.H.U.U.H.G.G.F.D.A.N.M.v.x.k.c.M.N.x.a.r.a.5.5.k.A.Z.e.<.Z.G.H.^.$X;X;X$X{. XXX.X;X;X;X;X$X.X}.}.Z.s. X}.Y.N.} wXcXcXcXcXcXcXcXcXcX5X^.Y.v.Z.N.Z x <.c.n.",
"A.U.s.x n s.D.F.{. XsXcXcXcXcXcXcXcXcXcX6X~ -.].<X;XZ.C.H.U.^.*X>X>X>X>X;X#XZ.;X*X;X;X;X.XU.U.H.e.j.F.G.G.-.=.j.b.N.F.G.F.N.N.N.Z.F.G.H.G.F.F.F.U.U.U.H.D.e.e.j.-.k.A.G.^.Y.Y.^.^.^.^.H.F.U.^.}.}.}.}.}.}.}.}.}. X X.X.X.X.X}.].H.H.}.XX$X$X.X.XXX.XXXXXY.F. X$XXXXX$X$X$X$X$X$X$X$X$X$X$X$X$X$X$X$X$X$X$X*X;X;X*X*X*X*X*X*X*X*X*X*X*X*X;X;X;X;X;X;X;X;X;X;X;X;X;X;X;X;X>X>X>X>X;X;X;X;X;X;X;X;X>X>X>X>X>X>X>X>X,X,X>X>X>X>X,X,X,X>X,X,X>X>X>X>X,X,X,X>X>X>X>X,X,X,X,X,X,X,X,X,X,X,X,X,X,X,X,X,X<X<X<X<X<X<X<X<X<X<X<X<X<X<X<X<X<X<X<X<X,X,X<X,X,X,X,X<X,X,X,X,X,X,X,X,X,X,X,X,X,X,X,X,X,X,X,X,X,X,X,X,X,X,X,X,X,X,X<X<X>X>X,X,X,X,X,X,X,X,X,X,X>X>X>X,X>X>X>X>X>X>X>X>X;X;X>X>X>X>X>X>X>X>X>X>X>X;X;X;X;X;X;X;X;X;X;X;X;X;X;X;X;X;X;X;X;X;X;X;X*X*X*X*X*X*X*X*X*X*X*X*X*X*X*X*X*X*X$X$X*X%X$X$X$XU.N.^.$X$X$X$X$X$X$X$X.X.X.X^.D.J. XXXXXXXXX X X X X X}.}.}. X|.}.}.^.^.^.{.^.!.U.U.U.H.Z.v.s.,.c.j.b.Z.H.U.H.F.F.F.A.Z.N.N.b.c.x.x.b.N.v.j.a.a.9.=.8.N.F.c.+.c.F.H.!.$X;X>X>X}.}.XXXX;X;X;X;X*X.X}..X^.s.D.;X{.Y.2.F.zXcXcXcXcXcXcXcXcXgX}.^.F.x.F.>.y ^ j.c.",
"U.}.{ d ^ B.Z.J. X;XcXcXcXcXcXcXcXcXcXcXb.~ k.*X,X.XN.G.H.U.}.,X>X>X>X>X>XY.U.;X;X;X;X;X^.J.Y.Z.5.v.U.F.M._ 5.c.v.N.A.G.F.Z.N.N.A.G.U.U.U.H.F.F.U.H.U.H.n.w.j.8.5.v.A.J.Y.Y.Y.Y.!.!.U.H.H.U.^.}.}.}.}.}.}.}.}.}.}. X.X.X.X.X|.(.!.}.XX$XXX#X.X.XXX.X.XXX}.J.{. XXXXX.X$X$X$X$X$X$X$X$X$X$X$X$X$X$X$X$X$X$X*X;X;X*X*X*X*X*X*X*X*X*X*X*X*X;X;X;X;X;X;X;X;X;X;X;X;X;X;X;X;X>X>X>X>X;X;X;X;X;X;X;X;X>X>X>X>X>X>X>X>X,X,X>X>X>X>X,X,X,X,X,X>X>X>X>X,X,X,X,X,X>X>X>X>X,X,X,X,X,X,X,X,X,X,X,X,X,X,X,X,X<X<X<X<X<X<X<X<X<X<X<X<X<X<X<X<X<X<X<X<X,X,X<X<X,X,X,X<X,X,X,X,X,X,X,X,X,X,X,X,X,X,X,X,X,X,X,X,X,X,X,X,X,X,X,X,X,X,X<X<X>X,X,X,X,X,X,X,X,X,X,X,X>X>X>X,X>X>X>X>X>X>X>X>X;X;X>X>X>X>X>X>X>X>X>X>X;X;X;X;X;X;X;X;X;X;X;X;X;X;X;X;X;X;X;X;X;X;X;X;X*X*X*X*X*X*X*X*X*X*X*X*X*X*X*X*X*X*X$X$X*X%X$X$X.XH.N.}.$X$X$X$XXXXX$X$X.X.X$X.X^.J.}.XXXXXXXXXX X X X X}.}.}.}.|.}.}.^.^.^.{.^.!.U.U.U.U.F.b.s.8.e.b.j.N.H.U.U.F.F.A.Z.N.N.N.b.c.c.x.c.N.v.x.j.a.e.=.-.N.F.M.@.w.D.G.U.XX;X;X>XXX}..XXX;X;X;X;X*X$X.X}. XF.s.$XoXJ.x.=.iXcXcXcXcXcXcXcXcXzX,X^.H.c.b.c.N N 8.x.",
"}.b.c x 5.D.H.Y. XyXcXcXcXcXcXcXcXcXcXuX[ @.G.*X5XU.A.H.Y.Y.*X=X;X;X;X;X*XD.}.;X;X=X5X*XY.U.Y.b.5.N.U.Y.a._ a.x.v.Z.A.N.v.b.N.N.Z.D.G.H.H.F.D.F.J.Y.Y.J.j.e.a.-.a.N.G.Y.Y.Y.!.!.Y.Y.U.U.U.^.}.}.}.}.}.}.}.}.}.}.}.}..X.X.X.X^.Z.}.$XXXXXXXXX.X.X.X.X.X.XXXU.H.XXXXXX$X$X$X$X$X$X*X*X*X*X*X*X*X*X$X$X$X$X;X;X;X;X*X*X*X*X;X;X*X*X*X*X*X*X;X;X;X;X;X;X;X;X;X;X=X;X;X;X;X;X;X;X;X;X>X>X>X>X>X>X;X;X>X>X>X>X>X>X>X>X,X,X>X>X>X,X,X,X>X>X>X>X>X>X,X,X>X>X,X,X>X>X>X>X,X,X,X,X,X,X,X,X,X,X,X,X,X,X,X,X,X,X,X,X<X<X<X<X<X<X<X<X,X,X,X,X,X,X,X,X,X,X<X<X,X,X,X,X,X,X,X,X,X,X,X,X,X,X,X,X,X,X,X,X,X,X,X,X,X,X,X,X,X,X,X,X,X,X,X,X,X,X,X,X>X>X>X>X,X,X>X>X>X>X>X>X>X>X,X,X>X>X>X>X>X>X>X>X;X;X;X;X;X;X;X;X;X;X;X;X;X;X;X;X;X;X;X;X;X;X=X=X=X=X;X;X;X;X;X;X;X;X;X;X*X*X*X*X*X*X*X*X*X*X*X*X$X$X*X*X*X$X$X$X'.Z.F.$X$X$X$X$XXXXX$X$X.X|.|..X}.U.}..X.X.X.X.X X X X X X X X X.X}.}.^.^.^.(.^.^.U.U.U.U.G.N.s.w.<.v.j.N.N.U.Y.F.F.N.N.N.N.M.b.v.c.x.k.v.N.b.a.s.a.w.>.c.N.M.=.=.A.H.H.^.*X,X<X*X^.^..X$X*X*X*X;X*X.X.X.X^.s.G.XXH.D.} F.cXcXcXcXcXcXcXcXcXgX!.H.C.b.b.Q y @.j.",
"$X=.q E N.D.Y.{.$XlXcXcXcXcXcXcXcXcXcXU.~ k..X=X.XA.H.Y.Y.}.*X;X;X;X;X*X.XF.$X;X;X;X,X.XG.Y.H.a.5.j.b.b.,.#.s.x.b.A.F.N.b.b.M.N.N.Z.Z.G.G.F.F.G.J.Y.J.Z.r.j.5.-.x.Z.H.U.Y.Y.U.U.Y.Y.U.H.Y.'.}.}.{.}.}.}.}.}.}.}.{.}..X.X.X.XH.b.^..XXXXXXXXX.X.X.X.X.X.X$X{.H.}.XX$X$X$X$X$X$X$X*X$X*X*X*X*X*X*X$X$X$X$X;X;X;X;X*X*X*X*X;X*X*X*X*X*X*X*X;X;X;X;X;X;X;X;X;X;X=X;X;X;X;X;X;X;X;X;X>X;X>X>X>X>X;X;X>X>X>X>X>X>X>X>X>X,X>X>X>X>X,X,X,X,X>X>X>X>X,X,X>X>X>X,X>X>X>X>X,X,X,X,X,X,X,X,X,X,X,X,X,X,X,X,X<X,X,X,X<X<X<X<X<X<X<X<X,X,X,X,X,X,X,X,X,X,X<X<X,X,X,X,X,X,X,X,X,X,X,X,X,X,X,X,X,X,X,X,X,X,X,X,X,X,X,X,X,X,X,X,X,X,X,X,X,X,X,X,X>X>X>X>X,X,X>X>X>X>X>X>X>X>X,X,X>X>X>X>X>X>X>X>X;X;X;X;X;X;X;X;X;X;X;X;X;X;X;X;X;X;X;X;X;X;X=X=X=X=X;X;X;X;X;X;X;X;X;X;X*X*X*X*X*X*X*X*X*X*X*X*X$X$X*X*X$X$X$X$XU.A.!.$XXX$XXX$XXXXX$X$X.X.X}.^.U.U..X.X$X.X.X.X X X X X}. X}. X|.}.}.(.^.^.(.^.^.!.U.U.U.U.Z.j.e.,.j.j.v.M.G.U.H.F.Z.N.N.N.M.b.b.c.k.j.c.N.N.j.s.s.r.,.a.r.3.-.>.k.U.A.U..X;X<X;X|.^..X$X*X*X*X;X*X.X.X$X.Xb.b.;X*XF.t.} yXcXcXcXcXcXcXcXcXkX*X!.G.b.x.5.h U c.",
"^.C y 5.F.D.Y..XwXcXcXcXcXcXcXcXcXcXhX-.+.U.#X*XU.Z.Y.Y.Y.#X=X;X;X;X*X*XH.!.;X;X=X,X>XY.H.Y.N.s.8.#.@.@.^ 5.s.c.N.F.D.b.v.b.M.N.N.N.Z.D.F.D.F.H.J.U.F.c.a.k.@.5.N.F.U.U.U.U.U.U.Y.Y.U.H.^.}.}.}.}.}.}.}.}.}.}.}.}.}.|..X.X.XH.b.U..X.X$XXXXXXXXX.X.X.X.X$X.XH.H.XX$X$X$X$X$X$X$X$X$X$X$X*X*X*X*X$X$X$X$X;X;X*X;X*X*X*X*X$X%X*X*X*X*X*X*X;X;X;X;X;X;X;X;X;X;X;X;X;X;X;X;X;X;X;X;X;X;X;X;X>X;X;X;X>X>X>X>X>X>X>X>X>X>X>X>X>X>X>X>X,X,X>X>X>X>X>X,X>X>X,X,X>X>X>X>X,X,X,X,X,X,X,X,X,X,X,X,X,X,X,X,X<X<X,X,X<X<X<X<X<X<X<X<X<X<X,X,X<X<X<X<X,X<X<X<X,X,X,X,X,X,X,X,X,X,X,X,X,X,X,X,X,X,X,X,X,X,X,X,X,X,X,X,X,X,X,X,X,X,X,X,X,X,X,X,X>X>X>X>X>X>X>X>X>X>X>X>X>X>X,X,X>X>X>X>X;X;X>X>X;X;X;X;X;X;X;X;X;X;X;X;X;X;X;X;X;X;X;X;X;X=X=X=X=X=X;X;X;X;X;X;X;X;X;X;X*X*X*X*X*X*X*X*X*X*X*X*X$X$X*X$X$X$X$XXXF.G.|.$X$X$X$X$X$X$X$X$X$X$X'.F.D.^..X$X.X.X.X.X X X X X X X}.}.|.}.}.(.^.^.(.^.^.^.!.!.!.!.D.x.r.<.9.k.k.b.B.U.U.G.A.Z.N.N.M.M.M.c.x.j.c.N.N.b.s.s.s.>.~ U W 5.a.e.A.A.G.}.;X,X,X#X^.}..X$X*X*X;X*X.X.X$X.XH.j.XX<X{.Z.] H.zXcXcXcXcXcXcXcXcXwX!.U.Z.s.t.A u e.",
"j.r W b.Z.Y.{. XkXcXcXzXcXcXcXcXcXcX*X) r.'.*X.XH.G.Y.'.U.$X;X>X;X*X*X$XF.*X;X;X=X;X*XH.U.U.v.v.N.e.,.) ^ e.s.b.N.F.A.v.v.b.M.N.N.N.N.Z.F.F.G.H.J.Y.D.s.x.e.@.r.N.F.U.U.Y.U.U.U.Y.Y.U.H.'.'.}.}.}.}.}.}.}.}.}.}.}.}.|.|..X.XU.N.H.}..X$XXXXXXXXX#X.X.X.X*X*XU.H.XX$XXX$X$X$X$X$X$X$X$X$X*X*X*X*X$X$X$X$X;X;X$X$X*X*X*X*X$X%X%X%X*X*X*X*X;X;X;X;X;X;X;X;X;X;X;X;X;X;X;X;X;X;X;X;X;X;X;X;X>X>X;X;X>X>X>X>X>X>X>X;X>X>X>X>X>X>X>X>X,X,X>X>X>X>X>X,X>X>X,X>X,X>X>X,X,X,X,X,X,X,X,X,X,X,X,X,X,X,X,X,X<X<X,X,X,X,X<X<X<X<X<X<X<X<X<X<X<X<X<X<X<X<X<X<X,X,X,X,X,X,X,X,X,X,X,X,X,X,X,X,X,X,X,X,X,X,X,X,X,X,X,X,X,X,X,X,X,X,X,X,X,X,X,X,X>X>X>X>X>X>X>X>X>X>X>X>X>X>X,X,X>X>X>X>X;X>X>X>X;X;X;X;X;X;X;X;X;X;X;X;X;X;X;X;X;X;X;X;X;X=X=X=X=X=X;X;X;X;X;X;X;X;X;X;X*X*X*X*X*X*X*X*X*X*X*X*X$X$X*X$X$X$XXX|.H.!..X$XXXXX$X$X$X$X$X$X$X$X^.Z.Z.}..X$X.X.X.X.X X X X X X X}.}.|.}.}.(.^.^.^.^.^.^.!.!.^.^.F.c.y.8.-.v.k.c.b.U.U.G.A.Z.N.N.M.M.M.v.x.j.x.b.N.Z.j.s.s.<.B W 5.N.A.9.c.G.D.^.XX;X,X*X|.}..X$X*X*X;X*X.X.X.X.X^.N.F.,X$XD.t.1.gXzXcXcXcXcXcXzXcXhX}.U.G.c.c.[ 3 W ",
"Q h 5.Z.J..X{.wXcXcXcXcXcXcXcXcXcXzX3.~ A.#X*X].A.U.'.H.}.=X;X*X;X*X$XU.Y.*X;X>X>X;X}.H.Y.H.s.N.H.G.9.E =.e.k.Z.H.H.N.c.v.b.N.N.N.C.C.Z.D.F.H.J.U.H.M.d.M.,.#.c.F.H.H.U.Y.!.!.!.Y.Y.G.Y.'.^.^.'.}.}.}.}. X X}.}.}.}.}..X.X.X^.N.D.{.$X$XXXXXXXXX$X#X#X#X$X$X}.H.}.$XXX$X$X$X$X$X$X$X$X$X*X*X*X*X$X$X$X$X$X$X$X$X*X*X*X$X$X;X;X;X*X*X*X*X;X;X;X;X;X;X;X;X;X;X;X;X;X;X;X;X;X;X;X;X>X>X;X;X;X;X;X;X>X>X>X>X>X>X>X;X>X>X>X>X>X>X>X>X>X>X>X>X>X>X>X>X>X>X>X>X>X,X,X>X,X,X,X,X,X,X,X,X,X,X,X,X,X,X,X,X<X<X<X<X,X,X,X,X<X<X<X<X<X<X<X<X<X<X<X<X,X,X,X,X,X,X,X,X,X,X,X,X,X,X,X,X,X,X,X,X,X,X,X,X,X,X,X,X,X,X,X,X,X,X,X,X,X,X,X,X,X,X,X,X<X<X<X,X>X>X>X>X,X,X>X>X>X>X,X,X>X>X>X>X;X;X;X;X;X;X;X;X>X>X>X>X;X;X;X;X;X;X;X;X;X;X;X;X;X;X=X=X;X;X;X;X;X;X;X;X;X;X;X;X*X*X*X*X*X*X*X*X*X*X*X*X$X$X*X*X*X$X$XH.H.}.*X$X$X$X$X$X$X$X$X$X*X.XD.Z.H..X$X.X.X.X.X.X.X.X.X X.X X X}.}.}.}.^.U.U.}.!.^.^.^.!.U.^.H.N.r.e.[ j.j.k.b.F.U.G.A.A.N.N.M.M.M.v.x.k.k.v.N.Z.c.a.a.8.) <.Z.F.U.c.e.Z.Z.H.XX$X,X;X$X^..X.X$X;X;X;X$X.X.X.X XH.n.;X<XD.n.] $XcXcXcXcXcXcXcXcXcX<X{.^.F.x.5.r v ",
"z A s.b.}.^.{.cXcXcXcXcXcXcXcXcXcXXXU @.].#X#XG.F.Y.^.U..X=X;X*X*X*X#XF..X;X;X;X,X$X^.U.U.x.e.A.G.N.=.U 5.a.c.F.H.D.b.c.v.b.N.N.N.C.C.Z.D.F.H.J.U.H.x.c.k.@.3.N.H.U.U.U.!.!.!.!.Y.U.G.U.^.Y.^.}. X}.}.}. X X}.}.}.}.}.}..X.X}.N.Z.J.$XXXXXXXXXXX#X#X#X#X$X$X.XU.U.XXXX$X$X$X$X$X$X$X$X$X*X*X*X*X$X$X$X$X$X$X$X$X*X*X*X$X$X;X;X;X*X*X*X*X;X;X;X;X;X;X;X;X;X;X;X;X;X;X;X;X;X;X;X;X>X>X;X;X;X;X;X;X>X>X>X>X>X>X;X;X>X>X>X>X>X>X,X>X>X>X>X>X>X>X>X>X>X>X,X>X,X>X>X,X,X,X,X,X,X,X,X,X,X,X,X,X,X,X,X,X<X<X<X<X,X,X,X,X<X<X<X,X<X<X<X<X,X,X<X<X,X,X,X,X,X,X,X,X,X,X,X,X,X,X,X,X,X,X,X,X,X,X,X,X,X,X,X,X,X,X,X,X,X,X,X,X,X,X,X,X,X,X,X,X<X<X<X,X>X>X>X>X,X,X>X>X>X>X,X,X>X>X>X>X;X;X;X;X;X;X;X;X>X>X>X>X;X;X;X;X;X;X;X;X;X;X;X;X;X;X=X=X;X;X;X;X;X;X;X;X;X;X;X;X*X*X*X*X*X*X*X*X*X*X*X*X$X$X*X*X$X*X'.Z.^..X$X.X$X$X$X$X$X$X$X$X*X!.F.G.^..X$X.X.X.X.X.X.X.X.X X.X X X}.}.}.}.^.!.^.H.!.^.^.!.!.U.!.U.D.j.a.=.e.x.c.v.N.U.G.F.A.N.N.N.N.M.v.x.k.k.c.b.N.b.j.a.e.>.>.j.A.N.M.5.M.Z.H. XXX;X;X*X}.|..X.X*X;X;X$X.X.X.X.X!.c.{.,X.Xb.1.n.kXcXcXcXcXcXcXcXcXjX XY.F.x.t.E 9 ",
"h [ b.F.Y.Y.<XcXcXcXcXcXcXcXcXcXcXs.A a.=X=X|.A.H.Y.Y..X*X;X=X;X*X*X!.H.;X>X,X,X,X|.U.Y.F.e.s.F.H.j.[ +.a.s.M.H.G.N.c.k.v.b.N.N.C.C.C.Z.D.F.H.H.J.D.s.M.w.@.s.F.U.U.U.U.U.!.^.!.^.H.G.F.U.^.'.}.}.}. X X X X X|.|.|.}.}.}..X.XD.b.F. XXX$XXXXXXX.X.X$X$X$X$X$X}.F. X$XXX$X$X$X$X$X$X$X$X*X*X*X*X*X%X$X$X%X$X;X;X;X;X$X$X*X*X*X*X*X*X*X*X;X;X;X;X;X;X;X;X;X;X;X;X;X;X;X;X;X;X;X;X>X>X>X>X;X;X;X;X>X>X>X>X>X>X>X>X>X>X>X>X,X,X,X,X>X>X,X,X>X,X>X>X>X>X,X,X,X,X>X>X,X,X,X,X,X,X,X,X,X,X,X,X,X,X,X,X,X,X<X,X,X,X<X<X<X<X,X,X,X,X,X,X,X,X,X,X,X,X,X,X,X,X,X,X,X,X,X,X,X,X,X,X,X,X,X,X,X,X,X,X,X,X,X,X,X,X,X,X,X,X,X,X,X,X,X,X,X,X,X,X<X<X<X<X>X>X>X>X,X,X>X>X>X>X,X,X>X>X>X>X>X>X;X;X;X;X;X;X;X;X>X>X;X;X;X;X;X;X;X;X;X;X;X;X;X;X;X;X;X;X;X;X;X;X;X;X;X;X;X;X*X*X*X*X*X*X*X*X*X*X*X*X$X$X*X*X$X$XH.Z..X$X.X.X$X$X$X$X$X$X$X$X.XF.D.H.$X$X$X.X.X.X.X.X.X.X.X X.X X X X|.}.}.^.U.D.Z.{.^.^.!.U.U.U.!.H.N.v.e.>.x.v.v.b.H.H.F.Z.Z.N.N.M.b.v.x.k.k.k.v.N.N.c.a.a.w.=.5.k.j.N.9.a.F.F.Y..X;X;X;X.X^..X.X$X;X;X*X.X.X.X.X}.b.F.;X,Xt.b.8.<XcXcXcXcXcXcXcXcXzX;X^.}.b.t.1.r ",
"N =.C.^.{.Y.kXcXcXcXcXcXcXcXcXcXcX[ ) Y.=X#X].Z.U.U.Y.=X;X;X*X;X*X$XD.}.>X>X,X*X=XY.Y.H.b.e.N.B.c.8.@.w.s.x.N.F.A.M.k.c.v.b.M.N.C.C.C.Z.D.H.H.J.U.v.j.M.-.,.c.H.U.U.U.U.U.!.!.!.^.G.H.A.H.Y.}.}.}.}.}. X X}. X.X.X.X}.}.}..X.XH.b.J.J..XXXXXXXXX.X.X$X$X$X$X$X.XJ.}.XXXX$X$X$X$X$X$X$X$X*X*X*X*X*X%X$X$X;X;X;X;X;X;X$X*X*X*X*X*X*X*X*X*X;X;X;X;X;X;X;X;X;X;X;X;X;X;X;X;X;X;X;X;X>X>X>X>X>X;X;X;X>X>X>X>X>X>X>X,X,X>X>X>X>X,X,X,X>X>X,X,X,X,X>X>X>X,X,X,X>X>X>X>X,X,X,X,X,X,X,X,X,X,X,X,X,X,X,X,X,X,X,X,X,X,X,X<X<X<X,X,X,X,X,X,X,X,X,X,X,X,X,X,X,X,X,X,X,X,X,X,X,X,X,X,X,X,X,X,X,X,X,X,X,X,X,X,X,X,X,X,X,X,X,X,X,X,X,X,X,X,X,X,X<X<X<X<X>X>X>X>X,X,X>X>X>X>X,X,X>X>X>X>X>X>X>X>X;X;X;X;X;X;X>X>X;X;X;X;X;X;X;X;X;X;X;X;X;X;X;X;X;X;X;X;X;X;X;X;X;X;X;X;X*X*X*X*X*X*X*X*X*X*X*X*X$X$X*X*X*X$XA.U.*X$X.X.X$X$X$X$X$X$X$X$X^.G.H.H.*X*X.X.X.X.X.X.X.X.X.X X.X X X X|.}.}.^.b.b.F.H.}.^.U.U.U.U.!.H.F.N.j.{ a.M.b.v.H.U.G.Z.Z.N.N.M.b.v.x.k.k.k.c.b.N.b.j.a.e.=.+.8.a.N.M.5.F.Z.J.}.*X*X;X$X^..X.X.X;X;X*X$X.X.X.X.XH.J. X;Xt.Z.w.{.cXcXcXcXcXcXcXcXzXsX XY.b.s.t.Q ",
"Q s.G.G.!.;XcXcXcXcXcXcXcXcXcXcX|.J w.>X=X#XI.S.'.T..X,X;X;X;X;X;X{.D.$X,X<X<X,X|.Y.Y.F.e.s.H.U.k.{ -.s.s.v.A.F.N.v.k.v.v.v.b.b.N.N.N.Z.D.H.H.H.F.j.x.j.{ 5.Z.U.U.Y.Y.U.U.Y.^.Y.U.G.H.H.H.!.}.}.}.}.}.}. X X X X.X.X.X|.}..X.X.XD.N.D.H.XXXX$X$X$X$X$X$X$X$X$X$X!.H. XXX$X$X$X$X$X$X$X$X$X$X$X$X*X*X*X*X*X*X*X*X*X*X*X*X*X*X*X*X;X;X;X;X;X;X;X;X;X;X;X;X;X;X;X;X;X;X;X;X;X;X;X;X;X;X;X;X>X>X>X>X>X>X>X,X,X,X,X,X,X,X,X:X,X,X,X,X,X,X,X,X,X,X,X,X,X,X,X,X,X,X,X,X,X,X,X,X,X,X,X,X,X,X,X,X,X,X,X,X<X<X<X<X<X<X<X<X<X<X<X<X<X<X<X<X<X<X<X<X,X,X,X,X,X,X,X,X,X,X<X<X<X,X,X,X,X,X<X<X<X<X<X<X<X<X<X<X,X,X,X,X,X,X,X,X,X,X,X,X,X,X,X,X,X,X,X,X,X,X,X,X,X,X,X,X>X>X,X,X,X,X>X>X>X>X>X>X>X>X;X;X;X;X;X;X>X>X>X>X;X;X;X;X;X;X;X;X;X;X;X;X;X;X;X;X;X;X;X;X*X*X*X*X*X*X*X*X;X;X;X;X;X;X*X$X$X$X*X*X*X^.A..X*X*X*X$X$X$XXXXXXX$X*X.XF.F.H.XX;X$XXXXXXXXXXXXXXX.X.X X X X}.}.}.}.}.^.C.Z.!.F.}.^.U.U.U.U.U.H.G.F.c.=.w.c.v.c.Z.H.H.Z.Z.N.b.b.b.c.k.k.j.j.k.v.M.b.j.a.a.5._ =.a.N.A.a.v.H.F.}..X*X;X*X}. X XXX$X;X>X;X$X.XXX$X XF.F.$X$Xc.c.e.jXcXcXzXcXcXcXcXcXzX;XH.J.x.t.t.",
"=.b.Z.{.Y.tXcXcXcXcXcXcXcXcXcXcX6.~ A.,X#X`.I.I.T.`.$X,X;X;X;X;X$XD.^.;X,X,X<X;X}.Y.U.N.e.b.'.#XN.[ e.k.j.M.F.F.m.x.x.v.v.c.b.b.N.N.N.Z.F.H.G.H.N.x.N.w.-.r.F.U.G.Y.Y.U.U.Y.^.Y.U.H.U.U.U.^.^.}.}.}.}.}. X X}. X.X.X.X|..X.X.X.XJ.Z.Z.F.}.XXXXXX$X$X$X$X$X$X$X$X.XD.{.$X$X$X$X$X$X$X$X$X$X$X$X$X*X*X*X*X*X*X*X*X*X*X*X*X*X*X*X*X;X;X;X;X;X;X;X;X;X;X;X;X;X;X;X;X;X;X;X;X;X;X;X;X;X;X;X;X>X>X>X>X>X>X>X>X,X,X>X,X,X,X,X:X,X,X,X,X,X,X,X,X,X,X,X,X,X,X,X,X,X,X,X,X,X,X,X,X,X,X,X,X,X,X,X,X,X,X,X,X<X<X<X<X<X<X<X<X<X<X<X<X<X<X<X<X<X<X<X<X,X,X,X,X,X,X,X,X<X,X<X<X,X,X,X,X,X,X<X<X<X<X<X<X<X<X<X<X,X,X,X,X,X,X,X,X,X,X,X,X,X,X,X,X,X,X,X,X,X,X,X,X,X,X,X,X>X>X,X,X,X,X>X>X>X>X>X>X>X>X;X>X;X;X;X;X>X;X>X>X;X;X;X;X;X;X;X;X;X;X;X;X;X;X;X;X;X;X;X;X*X*X*X*X*X*X*X*X;X;X;X;X;X;X*X$X$X$X*X*X*XF.F.$X*X*X$X$X$X$XXXXXXX*X$X}.F.G.^.*X*XXXXXXXXXXXXXXXXX.X.X X X X}. X}.}.}.^.^.^.^.D.^.^.U.U.H.H.H.H.H.F.M.8.>.s.c.b.b.F.H.F.Z.N.b.b.b.v.c.k.j.j.k.v.M.b.k.s.a.e.<.>.k.Z.F.b.a.F.F.^..X$X*X*X$X{. X XXX;X>X>X*XXXXXXX.XJ.Z. X6XN.b.e.;XzXcXcXcXcXcXcXcXcXwXG.H.N.x.x.",
"<.b.}. XXXcXcXcXcXcXcXcXcXcXcX;XJ ,.$X=X@XI.I.Y.U.'.=X,X;X;X;X;X{.b.XX>X<X>X>XXXY.}.U.c.j.F.U.U.v.,.s.s.x.N.G.Z.k.d.k.c.c.c.c.b.N.N.N.N.H.H.G.F.c.M.b.<.5.c.H.U.U.Y.Y.G.U.Y.'.Y.H.U.!.^.^.^.}.}.}.}. X X}. X X X.X.X.X.X.X.X.X.X}.Z.Z.H.J.XXXXXX$X$X$X$X$X$X$X$X*XF.J.$X$X$X$X$X$X$X$X$X$X$X$X$X*X*X*X*X*X*X*X*X;X;X;X;X;X;X;X;X;X;X;X;X;X;X;X;X;X;X;X;X;X;X;X;X;X;X;X;X;X;X;X;X>X>X;X;X>X>X>X>X>X>X>X>X>X>X>X>X,X,X,X,X,X,X,X,X,X,X,X,X,X,X,X,X,X,X,X,X,X,X,X,X,X,X,X,X,X,X,X,X,X,X,X,X,X,X,X,X<X<X<X<X<X<X<X<X<X<X<X<X<X<X<X<X<X<X<X<X<X<X,X,X,X,X<X<X<X<X<X<X<X,X,X,X<X,X<X<X<X<X<X<X<X<X<X<X,X,X,X,X,X,X,X,X,X,X,X,X,X,X,X,X,X,X,X,X,X,X,X,X,X,X,X,X>X>X>X>X>X>X>X>X>X>X>X>X>X>X>X>X>X>X;X;X;X;X;X;X;X;X;X;X;X;X;X;X;X;X;X;X;X;X;X;X;X;X;X;X*X*X*X*X*X*X*X*X;X;X;X;X;X;X*X*X$X$X%X*X#Xb.U.*X$X$X$X$X$X$XXXXX*X*X$X^.G.H.}.*X$XXXXXXXXXXXXXXXXX.X.X X X X X X|.}.}.^.|.^.^.N.H.!.^.U.H.H.H.H.G.G.N.k.@.r.c.N.c.D.U.G.Z.N.b.b.b.b.v.c.k.j.j.c.v.v.x.s.a.s.y.9.s.v.Z.F.s.N.F.^.}..X*X;X;X{.{.XX.X$X>X>X*XXX.X X$XJ.N.Y.;X}.b.b.x.lXcXcXcXcXcXcXcXcXkX{.{.J.x.x.",
"r.Z.^.^.tXcXcXcXcXcXcXcXcXcXcXr.U v.>X;XT.I.U.#XY.|.=X>X;X;X;X;XH.H.$X;X>X>X;X}.U.^.F.N.Z.U.v.e.w.r.s.j.c.N.F.B.k.k.k.v.c.c.c.c.b.N.N.N.H.H.G.Z.j.B.k.>.s.N.H.H.Y.^.U.M.U.Y.'.Y.H.^.^.^.}.}.}.}.}.}. X X}. X X X.X.X.X.X.X.X.X.XXXH.D.F.F. XXXXX$X$X$X$X$X$X$X$X$XY.D.$X$X$X$X$X$X$X$X$X$X$X$X$X*X*X*X*X*X*X*X*X;X;X;X;X;X;X;X;X;X;X;X;X;X;X;X;X;X;X;X;X;X;X;X;X;X;X;X;X;X;X;X;X>X>X>X;X>X>X>X>X>X>X>X>X>X>X>X>X,X,X,X,X,X,X,X,X,X,X,X,X,X,X,X,X,X,X,X,X,X,X,X,X,X,X,X,X,X,X,X,X,X,X,X,X,X,X,X,X<X<X<X<X<X<X<X<X<X<X<X<X<X<X<X<X<X<X<X<X<X<X<X,X<X<X<X<X<X<X<X<X<X,X,X,X<X<X<X<X<X<X<X<X<X<X<X<X,X,X,X,X,X,X,X,X,X,X,X,X,X,X,X,X,X,X,X,X,X,X,X,X,X,X,X,X>X>X>X>X>X>X>X>X>X>X>X>X>X>X>X>X>X>X>X>X;X;X;X;X;X;X;X;X;X;X;X;X;X;X;X;X;X;X;X;X;X;X;X;X*X*X*X*X*X*X*X*X;X;X;X;X;X;X*X*X$X$X%X*X}.c.|.*X$X$X$X$X$X$XXXXX*X*X.X^.H.Y..XXXXXXXXXXXXXXXXXXXXX.X.X X X X X X|.}.}.^.}.^.}.F.D.U.^.Y.H.H.H.H.F.F.Z.M.=.a.v.N.c.Z.H.F.Z.N.b.b.b.b.b.c.x.j.j.x.c.b.c.d.s.j.j.a.9.r.k.A.N.k.H.^.^..X$X*X;X.XY.XX X$X;X>X;X$XXX}.XXU.N.J.$X;XD.N.t.<XcXcXcXcXcXcXcXcXcX6X{.Y.n.x.",
"s.H..X XzXcXcXcXcXcXcXcXcXzX6X] @.T.4X%XI.U.'.].I.%X6X>X;X;X%X|.Z. X;X;X>X<X$XU.U.Y.Z.Z.U.G.k.5.e.a.d.x.N.F.F.b.k.k.v.m.b.b.b.b.N.N.N.A.H.H.D.v.k.M.y.5.d.D.H.H.Y.Y.U.F.U.Y.Y.U.H.^.^.^.^.}.}.}.}.}.}.}.}.}. X X.X.X.X.X.X.X.X.XXX{.F.D.J.^..XXX$X$X$X$X$X$X$X$X$XXXb.Y.$XXX$X$X$X$X$X$X$X$X$X$X*X*X*X*X*X*X*X*X*X*X*X*X;X;X;X;X;X;X;X;X;X;X;X;X;X;X;X;X;X;X;X;X;X;X;X;X;X;X;X;X>X>X;X;X>X>X>X>X>X>X>X>X>X>X>X>X,X,X,X,X,X,X,X,X,X,X,X,X,X,X,X,X,X,X,X,X,X,X,X,X,X,X,X,X,X,X,X,X,X,X,X,X,X,X,X,X<X<X<X<X<X<X<X<X<X<X<X<X<X<X<X<X<X<X<X,X<X<X<X<X<X<X<X<X<X<X<X<X<X<X,X,X,X,X<X<X<X<X<X<X<X<X<X<X,X,X,X,X,X,X,X,X,X,X,X,X,X,X,X,X,X,X,X,X,X,X,X,X<X<X<X,X,X,X,X,X>X>X>X>X>X>X>X>X>X>X>X>X>X>X>X>X>X>X;X;X;X;X;X;X;X;X;X;X;X;X;X;X;X;X;X;X*X*X*X*X*X*X*X*X*X*X*X*X*X*X*X*X;X;X*X*X*X$X*X=XN.F.#X*X$X$X$X$X$X$X$X$X*X$X'.H.U.'.$X.XXXXX$X$X$X$X$XXXXXXXXX.X.X X X X|.}.}.}.(.^.}.U.N.U.!.U.H.G.H.H.U.G.G.F.9.8.x.c.b.b.H.U.H.D.N.b.b.b.b.c.x.j.d.j.x.b.v.k.s.j.k.j.<.=.k.F.U.x.F.U.^.}.$X*X;X$XY. X$X XXX;X;X;X$X XXX}.F.D.XX<X Xc.n.x.cXcXcXcXcXcXcXcXcXlX XW.D.h.",
"b.}..X<XcXcXcXcXcXcXcXcXcXzXx.] a.4X4X`.I.Y.].U.`.>X5X;X>X;X|.F.J.XX;X;X<X>X.XJ.Y.G.M.F.Y.F.a.8.r.s.j.c.B.D.N.c.k.c.v.m.b.M.b.N.N.Z.Z.F.G.G.G.x.k.c.7.e.c.F.H.H.Y.U.Y.U.Y.U.Y.F.H.!.^.^.^.}.}.}.}.}.}.}.}.}. X X.X.X.X.X.X.X.X.XXX XJ.D.J.U. XXX$X$X$X$X$X$X$X$X*X$XD.V.$X$X.X$X$X$X$X$X$X$X$X$X*X*X*X*X*X*X*X*X*X*X*X*X;X;X;X;X;X;X;X;X;X;X;X;X;X;X;X;X;X;X;X;X;X;X;X;X;X;X;X;X>X>X;X;X>X>X>X>X,X>X>X>X>X>X,X>X,X,X,X,X,X,X,X,X,X,X,X,X,X,X,X,X,X,X,X,X,X,X,X,X,X,X,X,X,X,X,X,X,X,X,X,X,X,X,X,X<X<X<X<X<X<X<X<X<X<X<X<X<X<X<X<X<X<X<X,X<X<X<X<X<X<X<X<X,X<X<X<X<X<X,X,X,X,X<X<X<X<X<X<X<X<X<X<X,X,X,X,X,X,X,X,X,X,X,X,X,X,X,X,X,X,X,X,X,X,X,X,X<X<X,X,X>X,X,X>X>X>X>X>X>X>X>X>X>X>X>X;X>X>X>X>X>X>X;X;X;X;X;X;X;X;X;X;X;X;X;X;X;X;X;X;X*X*X*X*X*X*X*X*X*X*X*X*X*X*X*X*X&X;X*X*X*X*X*X.XN.Y.*X*X$X$X$X$X$X$X$X$X*X.X^.H.U..X$XXXXXXX$X$X$X$X$XXXXXXXXX.X.X X X X|.}.}.}.(.^.^.!.b.H.^.H.H.H.H.U.U.H.G.F.s.5.s.s.b.N.F.H.H.D.N.b.b.b.b.c.c.k.j.s.k.b.M.c.j.s.j.j.5.5.A.Y.Y.b.b.U.^.}..X$X>X.X X}.$X XXX;X;X;X$XXX$X.XJ.N.}.>X;Xb.j.5.wXcXcXcXcXcXcXcXcXcX,X XJ.n.",
"G.{..XlXcXcXcXcXcXcXcXcXcXuX) ] N.7X=XA.G.].Y.U.$X>X,X*X>X;XY.M. X$X;X>X,X;X}.J.Y.N.c.U.}.U.<.8.a.s.x.B.F.D.b.k.k.v.b.b.b.M.N.N.Z.Z.F.H.H.H.C.k.M.a.,.d.B.H.H.H.Y.U.U.Y.Y.Y.F.Z.^.^.^.}.}.}.}.}.}.}.}.}. X X X X.X.X.X.X.X.X.X.XXXXX^.D.F.J.}.$X$XXX$X$X$X$X$X$X*X$X^.b..X*X$X$X$X$X$X$X$X$X$X$X*X*X*X*X*X*X*X*X*X*X*X*X*X*X*X*X;X;X;X;X;X;X;X;X;X;X;X;X;X;X;X;X;X;X;X;X;X;X;X;X>X>X;X;X>X>X>X>X,X,X>X>X>X>X,X,X,X,X,X,X,X,X,X,X,X,X,X,X,X,X,X,X,X,X,X,X,X,X,X,X,X,X,X,X,X,X,X,X,X,X,X,X,X,X,X,X<X<X<X<X<X<X<X<X<X<X<X<X<X<X<X<X<X<X,X,X,X,X<X,X,X,X,X,X,X,X<X<X<X<X<X<X,X,X,X<X<X<X<X<X<X<X<X<X,X,X,X,X,X,X,X,X,X,X,X,X,X,X,X,X,X,X,X,X,X,X,X,X,X<X<X<X>X>X>X>X,X,X,X>X>X>X>X>X>X>X;X;X;X;X;X;X>X>X>X>X;X;X;X;X;X;X;X;X;X;X;X;X;X;X;X;X*X*X*X*X*X*X*X*X*X*X*X*X*X*X*X*X&X%X*X*X*X*X*XH.N..X*XXX*X*X$X$X$X$X*X*X*X}.U.H.^.$X$XXXXXXX$X$X$X$X$XXXXXXX.X.X.X X X X|.}.}.}.(.^.^.^.Z.Z.^.U.U.H.H.U.U.H.G.F.Z.5.5.a.N.Z.Z.H.H.D.N.b.b.b.b.c.c.x.j.s.j.b.N.v.j.a.s.j.9.9.M.U.U.A.a.F.U.^.}.$X>X$XXX}.$XXXXX;X;X>X;X$X$X$X}.b.U.*X6X{.r.8.n.cXcXcXcXcXcXcXcXcXkXXXJ.b.",
"!..X,XcXcXcXcXcXcXcXcXcXcXF.E 2.%XqX`.B.U.].U.'.>X>X;X$X;X#XY.H.$X$X>X,X>X$XY.J.G.c.b.U.B.a.=.3.s.j.c.Z.D.N.c.k.k.v.b.b.b.b.N.N.Z.F.G.F.H.H.x.j.v.w.5.d.B.H.U.U.Y.Y.Y.Y.^.U.b.A.^.^.^.}.}.}.}.}.}.}.}.}. X X X X.X.X.X.X.X.X.X.XXXXX}.J.F.J.{.$XXXXX$X$X$X$X$X$X*X*X.Xb.Y.$X$X$X$X$X$X$X$X$X$X$X*X*X*X*X*X*X*X*X*X*X*X*X*X*X*X*X;X;X;X;X;X;X;X;X;X;X;X;X;X;X;X;X;X;X;X;X;X;X;X;X>X>X;X;X>X>X>X>X,X,X>X>X>X>X,X,X,X,X,X,X,X,X,X,X,X,X,X,X,X,X,X,X,X,X,X,X,X,X,X,X,X,X,X,X,X,X,X,X,X,X,X,X,X,X,X,X<X<X<X<X<X<X<X<X<X<X<X<X<X<X<X<X<X<X,X,X,X,X,X,X,X,X,X,X,X,X<X<X<X<X<X<X,X,X<X<X<X<X<X<X<X<X<X<X,X,X,X,X,X,X,X,X,X,X,X,X,X,X,X,X,X,X,X,X,X,X,X,X,X<X<X<X>X>X>X>X,X,X>X>X>X>X>X>X>X>X;X;X;X;X;X;X>X>X>X>X;X;X;X;X;X;X;X;X;X;X;X;X;X;X;X;X*X*X*X*X*X*X*X*X*X*X*X*X*X*X*X*X%X%X*X*X*X*X$XN.H.$X*XXX*X*X$X$X$X$X*X*X*X^.H.H.}.*XXX.XXXXX$X$X$X$X$XXXXX.X.X.X.X X X X|.}.}.}.(.^.^.^.H.b.U.U.U.H.H.U.U.U.H.F.F.e.>.r.b.Z.Z.F.H.F.N.M.M.b.b.c.c.x.j.s.s.c.b.v.k.s.s.j.a.5.e.M.F.G.e.b.H.^.}..X;X;X X X$XXXXX$X;X;X;X$X X$XXXF.N.;X,X;Xx.t.2.wXcXcXcXcXcXcXcXcXcX,XY.D.",
"XX XjXcXcXcXcXcXcXcXcXcXlX2._ M.7X7X|.A.`.'.U.|.5X,X;X;X*X}.F.^.*X;X;X,X;X.XH.}.F.a.F.U.Z.<.=.e.j.c.N.Z.A.N.v.c.b.b.b.b.b.b.N.N.D.F.H.H.U.D.j.b.a.,.e.b.F.H.U.U.Y.Y.Y.Y.Y.U.v.G.^.^.^.(.(.(.{.{.}.}.}.}.}.}..X.X X X.X.X|..X.X.X$X$XXX XN.D.U..XXXXX$X$X$X$X$X$X$X*X$XJ.N.$X$X$X$X$X$X$X$X$X$X$X*X*X*X*X*X*X*X*X*X*X*X*X*X*X*X*X;X;X;X;X;X;X;X;X;X;X;X;X;X;X;X;X;X;X;X;X;X;X;X;X;X;X;X;X>X>X>X>X>X>X>X>X>X>X>X>X>X>X>X>X>X>X>X>X<X<X<X<X>X>X,X,X>X>X,X>X<X<X<X,X,X,X,X,X,X,X,X,X,X,X,X,X,X,X,X,X<X<X<X<X<X<X<X<X<X<X<X<X<X<X,X,X<X<X,X,X,X,X,X,X,X,X,X,X,X,X,X<X<X<X<X<X<X<X<X<X<X<X<X<X,X,X,X,X,X,X,X,X,X,X,X,X,X,X,X,X,X,X,X,X,X,X,X,X,X,X,X,X,X,X,X,X>X>X>X>X>X>X>X>X;X;X;X;X>X>X;X;X>X>X>X>X;X;X;X;X;X;X;X;X;X;X;X;X;X;X;X;X;X;X;X;X;X;X;X;X;X;X;X;X;X;X;X;X;X;X$X$X*X;X;X;X*X*X}.c.|.$X$XXX*X*X*X$X$X$X$X*X}.H.G.Y..X*XXXXXXX$X$X$XXX.X.X.XXXXXXX.X.X X X X}.}.}.}.(.(.(.(.^.b.D.U.U.H.H.H.H.H.H.F.H.s.} s.c.A.b.F.U.H.Z.B.M.M.b.c.c.c.j.s.s.k.v.b.c.s.s.k.k.<.{ j.Z.F.k.a.H.!.^..X*X;X.X^.$XXX}.$X>X>X;X*X.X.X$X^.b.^.,X6XD.b.>.J.cXcXcXcXcXcXcXcXcXuX{.J.",
"$X,XzXcXcXcXcXcXcXcXcXcX$X^ 3.%X7X>XY.I.'.T.'.$X5X,X;X;X*X!.F..X;X;X;X;X*X^.H.^.b.j.U.^.N.{ 5.a.j.v.B.F.Z.M.v.b.M.M.M.M.b.b.N.Z.D.F.H.H.H.N.c.b.,.,.a.M.F.U.U.U.Y.Y.Y.Y.^.N.A.Y.^.^.^.^.(.(.{.{.}.}.}.}.}.}..X.X X X.X.X|. X.X.XXX$X$XXXD.D.J.}.XXXX$X$X$X$X$X$X$X*X$X{.c. X$X$X$X$X$X$X$X$X$X$X*X*X*X*X*X*X*X*X*X*X*X*X*X*X*X*X;X;X;X;X;X;X;X;X;X;X;X;X;X;X;X;X;X;X;X;X;X;X;X;X;X;X;X;X>X>X>X>X>X>X>X>X>X>X>X>X>X>X,X>X>X>X>X>X<X<X<X<X>X>X,X,X>X>X>X,X<X<X,X,X,X,X,X,X,X,X,X,X,X,X,X,X,X,X,X,X<X<X<X<X<X<X<X<X<X<X<X<X<X<X,X,X<X<X,X,X<X<X,X,X,X,X<X,X,X,X<X<X<X<X<X<X<X<X<X<X<X<X<X<X,X,X,X,X,X,X,X,X,X,X,X,X,X,X,X,X,X,X,X,X,X,X,X,X,X,X,X,X,X,X,X,X>X>X>X>X>X>X>X>X;X;X;X;X;X>X;X;X>X>X>X>X;X;X;X;X;X;X;X;X;X;X;X;X;X;X;X;X;X;X;X;X;X;X;X;X;X;X;X;X;X;X;X;X;X;X*X$X*X;X;X;X$X;XN.A.$X$X$XXXXX$X*X*X$X$X$X$XU.G.H.'.$X$XXXXX$X$X$X$XXXXX.X.XXXXXXX.X.X X X X}.}.}.}.(.{.(.{.}.Z.b.U.U.H.H.H.H.H.H.H.F.b.=.s.k.N.M.b.H.H.F.N.M.m.v.v.c.c.c.x.j.j.c.M.b.s.s.x.v.5.[ e.M.U.A.s.Z.H.!.^.$X;X*X}. X;X}. X;X;X;X;X.X.X.X.Xc.Z.;X6X.Xb.w.1.uXcXcXcXcXcXcXcXcXcX$X{.",
"OXuXcXcXcXcXcXcXcXcXcXlXu.E M.5X7X$XU.U.^.U..X,X,X,X;X;X$XD.F.$X;X;X;X;X.XH.H.F.j.N.}.^.r.^ e.s.k.v.Z.F.N.M.b.M.N.N.N.N.b.b.C.Z.D.F.H.H.F.x.c.r.>.<.d.Z.H.U.U.U.Y.Y.Y.Y.U.j.U.'.^.^.(.^.(.(.{.{.}.}.}.}.}.}..X.X X X.X.X X XXXXXXXXX$X$XY.Z.D.{..X$X$X$X$X$X$X$X$X$X*X$XN.H.*X$X$X$X$X$X$X$X$X$X*X*X*X*X*X*X*X*X*X*X*X*X;X;X;X;X;X;X;X;X;X;X;X;X;X;X;X;X;X;X;X;X;X;X;X;X;X;X;X;X;X;X;X;X>X>X>X>X>X>X>X>X,X>X,X,X>X>X,X,X,X,X>X>X<X,X<X<X>X>X>X,X>X,X>X,X,X,X,X,X,X,X,X,X,X,X,X,X,X,X,X,X,X,X,X,X<X<X<X<X<X<X<X<X<X<X<X<X<X<X<X<X,X,X,X,X<X<X<X<X<X<X<X<X,X,X,X,X<X<X<X<X<X<X<X<X<X<X<X<X,X,X,X,X,X,X,X,X,X,X,X,X,X,X,X,X,X,X,X,X,X,X,X,X,X,X,X,X,X,X,X,X>X>X,X,X>X>X>X>X;X;X>X>X;X;X;X;X;X>X>X>X;X;X;X;X;X;X;X;X;X;X;X;X;X;X;X;X;X;X;X;X;X;X;X;X;X;X;X;X;X;X;X;X;X;X$X$X%X%X*X*X;X.Xs.}.$X$X$X$X$X$X$X$X$X$X$X$XH.F.U.#X*X$XXXXX$X$X$X$X#XXX#X#XXXXXXX.X.X X X X}.}.}.}.(.(.{.{.}.H.c.H.!.H.H.H.H.H.H.H.F.F.q.e.e.r.N.c.D.H.G.N.m.M.M.b.M.M.b.c.c.j.c.M.M.s.a.k.c.r._ ,.M.].].c.x.F.!.^.}.;X,X$X}.$X.X{.*X;X;X;X$X.X.X$XC.j.$X0X;Xb.c.} {.zXcXcXcXcXcXcXcXcXsXJ.",
"<XzXcXcXcXcXcXcXcXcXcX<XR @.T.5X7X.XF.^.'.Y.$X5X,X;X;X;X}.D.H.$X,X;X;X*X^.U.U.C.s.F.|.U.-.@.r.j.v.b.Z.A.N.M.M.N.Z.Z.Z.Z.Z.Z.Z.N.D.F.G.H.Z.j.s.<.8.e.b.U.U.U.U.U.Y.Y.Y.Y.Z.c.U.Y.^.^.^.^.(.(.{.{.}.}.}.}.}.}..X.X X X.X.X X XXXXXXXXXXX$X XZ.D.{.}.XX$X$X$X$X$X$X$X$X*X$XH.b.$X$X$X$X$X$X$X$X$X$X$X*X*X$X$X*X*X*X*X*X*X*X;X;X;X;X;X;X;X;X;X;X;X;X;X;X;X;X;X;X;X;X;X;X;X;X;X;X;X;X;X;X;X;X>X>X>X>X>X>X>X>X,X,X,X,X>X>X,X,X,X,X,X>X,X,X<X<X>X>X>X>X>X,X,X>X,X,X,X,X,X,X,X,X,X,X,X,X,X,X,X,X,X,X,X,X<X<X<X<X<X<X<X<X<X<X<X<X<X<X<X<X,X,X,X,X<X<X<X<X<X<X<X<X,X,X,X,X<X<X<X<X<X<X<X<X<X<X<X<X,X,X,X,X,X,X,X,X,X,X,X,X,X,X,X,X,X,X,X,X,X,X,X,X,X,X,X,X,X,X,X,X>X,X,X,X>X>X>X>X;X;X>X>X;X;X;X;X;X>X>X>X;X;X;X;X;X;X;X;X;X;X;X;X;X;X;X;X;X;X;X;X;X;X;X;X;X;X;X;X;X;X;X;X;X;X$X$X%X%X*X*X;XH.c..X*X$X$X$X$X$X$X$X$X$X$X$XF.G.^.$X$X$X*XXX$X$X$X$X#X#X#X#XXXXXXX.X.X X X X}.}.}.}.^.^.{.{.^.^.N.N.!.!.H.H.H.H.H.H.F.F.s.<.<.>.N.M.N.H.F.M.M.N.N.N.N.N.b.b.b.x.x.b.M.s.a.k.j.k.+.@.b.U.U.A.t.b.U.^.^.*X,X*X.X}.XX^.$X;X;X;X*X$X$X$XH.c.H.;X6XJ.N.1.t.sXzXcXcXcXcXcXcXcXcX{.",
"uXcXcXcXcXcXcXcXcXcXzXx.H a.>X7X>XF.H.^.^.|.;X5X;X>X<X*XH.N..X;X;X;X;X.XH.^.H.j.c.Y.$Xx.~ 5.j.c.x.M.Z.Z.b.N.N.N.Z.Z.Z.D.D.D.Z.C.F.F.G.H.b.c.<.>.w.e.Z.H.U.U.U.Y.U.U.^.U.k.N.Y.Y.^.^.^.^.}.}.{.{.}.}.}.}.|.|..X.X X X.X.X.X.X.X.XXXXXXXXXXXY.M.J.Y.XX$X$X$X$X$X$X$X$X$X*X}.j.^.$X$X$X$X$X$X$X$X$X$X*X$X$X$X*X*X*X$X$X$X$X;X;X;X;X*X*X;X;X;X;X;X;X;X;X;X;X;X;X;X;X;X;X;X;X;X;X;X;X;X;X;X;X>X>X;X>X>X>X>X>X>X>X>X,X>X>X,X,X,X,X>X>X>X>X>X>X>X>X>X>X,X>X>X>X,X,X,X,X,X,X,X,X,X,X,X,X,X,X,X,X,X,X,X,X<X<X<X<X<X<X<X<X,X,X<X<X<X<X<X<X,X<X<X,X,X,X<X<X<X<X,X,X,X,X<X<X<X<X<X<X<X<X<X<X,X,X<X<X,X,X,X,X,X,X,X,X,X,X,X,X,X,X,X,X,X,X,X,X,X,X,X,X,X,X,X,X,X,X>X>X>X>X,X>X>X>X>X>X>X>X>X>X;X;X>X>X;X;X;X;X;X;X;X;X;X;X;X;X;X;X;X;X;X;X;X;X;X;X;X;X*X*X*X*X;X;X;X;X%X%X*X;X;X;X;X$X*X*X*X*X;XN.U.*X$X$X$X$X$X$X$X$X;X*X$X!.N.G.|.*X$X$XXXXX$XXX$X$X.XXX.X#XXXXXXX|.|. X X X}.}.}.}.^.^.^.{.^.^.H.b.H.!.H.H.H.H.H.H.F.D.b.,.5.3.b.N.M.F.U.F.Z.A.A.Z.Z.Z.N.N.N.v.c.v.v.k.a.d.k.k.>._ a.A.U.].e.c.Z.^.}.$X,X,X$X X X X}.;X;X;X;X$X$X$X}.Z.j.$X6X$XZ.x.=.XXzXcXcXcXcXcXcXcXcX0X",
"jXcXcXcXcXcXcXcXcXcX0X^ O.U.5X7X^.A.Y.^.}.$X>X5X,X;X>X#XD.U.*X;X;X;X;X^.H.U.N.s.A.}.H.<.) 8.d.c.c.N.Z.N.b.M.N.N.Z.Z.Z.D.D.D.A.A.G.H.H.F.b.b.e.8.9.j.F.Y.U.U.U.Y.U.U.Y.F.k.A.^.}.^.^.^.^.}.}.{.{.}.}.}.}.|.|..X.X X X.X.X.X.X.X.XXXXXXXXXXX Xb.F.Y.|.$X$X$X$X$X$X$X$X$X$X$XG.H.;X$X$X$X$X$X$X$X$X$X*X$X.X$X$X*X*X$X$X$X$X;X;X;X;X*X*X;X;X;X;X;X;X;X;X;X;X;X;X;X;X;X;X;X;X;X;X;X;X;X;X;X;X>X>X;X;X>X>X>X>X>X>X>X>X>X>X,X,X>X,X>X>X>X>X>X>X>X>X>X>X,X>X>X>X,X,X,X,X,X,X,X,X,X,X,X,X,X,X,X,X,X,X,X,X<X<X<X<X<X<X<X<X,X,X<X<X<X<X,X,X<X<X<X<X,X,X<X<X<X<X,X,X<X<X<X<X<X<X<X<X<X<X<X<X,X,X<X<X,X,X,X,X,X,X,X,X,X,X,X,X,X,X,X,X,X,X,X,X,X,X,X,X,X,X,X,X,X,X>X>X>X>X>X>X>X>X>X>X>X>X>X>X;X>X>X>X;X;X;X;X;X;X;X;X;X;X;X;X;X;X;X;X;X;X;X;X;X;X;X;X*X*X*X*X;X;X;X;X%X%X*X*X;X;X$X$X*X*X*X*X*XZ.}.$X$X$X$X$X$X$X$X$X$X$X.XH.Z.U..X$X$X$XXXXXXXXX$X$X.X.X.X.XXXXXXX|..X X X X}.}.}.}.^.^.^.(.^.^.U.N.Z.U.U.U.H.H.H.H.G.D.Z.r.5.8.j.b.M.B.H.H.F.F.F.A.A.Z.C.N.N.N.v.k.c.c.s.a.k.k.5.) <.v.U.U.c.e.Z.'.}..X*X,X$XXX.X XY.;X;X*X;X*X$X$X.XH.c.H.6X,XD.N.=.x.lXzXcXcXcXcXcXcXcXsX",
"cXcXcXcXcXcXcXcXcXcXb.U a.'.rX>XN.F.}.U.|.;X,X,X6X;X*X(.Z.$X;X;X;X;X*XU.^.H.j.j.^..Xc.) @.r.c.c.b.N.Z.N.b.b.N.N.D.D.Z.Z.F.F.F.F.H.H.H.Z.b.N.c.s.e.N.U.Y.U.U.Y.Y.Y.Y.Y.N.v.H.^.'.'.^.^.^.(.(.{.{.}.}.}.}.|.|..X.X X X.X.X.X.X.X.XXXXXXXXX$XXXB.M.U.}.$X$X$X$X$X$X$X$X$X$X$X*XH.$X$X$X$X$X$X$X$X$X$X*X$X.X.X$X*X*X$X$X$X$X;X;X;X;X*X*X;X;X;X;X;X;X;X;X;X;X;X;X;X;X;X;X;X;X;X;X;X;X;X;X;X;X>X>X>X>X>X>X>X>X>X>X>X>X>X>X>X,X>X>X>X>X>X>X>X>X>X>X,X,X,X,X>X>X,X,X,X,X,X,X,X,X,X,X,X,X,X,X,X,X,X,X,X,X<X<X<X<X<X<X<X<X,X,X,X<X<X<X<X<X<X<X<X<X,X,X,X,X<X,X,X,X<X<X<X<X<X<X<X<X<X<X<X<X,X,X<X<X<X<X,X,X,X,X,X,X,X,X,X,X,X,X,X,X,X,X,X,X,X,X,X,X,X,X,X,X,X,X>X>X>X>X>X>X>X>X>X>X>X>X;X;X;X;X>X>X>X>X;X;X;X;X;X;X;X;X;X;X;X;X;X;X;X;X;X;X;X;X;X;X*X*X*X*X;X;X;X;X%X%X*X*X$X$X$X$X*X*X;X*X.XH.$X$X$X$X$X$X$X$X$X$X$X*X^.Z.Z.}.$X$X$X$XXXXXXX$X$X$X.X.X.X.XXXXXXX|..X X X X|.}.}.}.^.{.^.^.^.!.}.F.b.U.!.U.U.H.H.H.H.D.Z.b.9.r.r.N.b.N.F.U.H.G.F.F.A.Z.C.N.N.N.j.r.b.b.j.r.k.c.s.+.[ a.H.U.Z.e.N.H.}.}.$X,X;X$X XXXJ..X,X*X;X;X$X$X$X}.b.j.,XwX{.Z.r.} 6XcXcXcXcXcXcXcXcXcX",
"cXcXcXcXcXcXcXcXcXuX{ @.Z.>XqX|.N.U.}.U.$X;X,X>X6X;X*XH.D.;X;X6X;X*X$XH.!.D.j.c.}.U.9.[ 5.s.c.b.M.Z.N.N.b.b.M.N.Z.D.D.D.F.F.G.H.H.U.H.N.x.c.j.8.j.H.F.G.U.U.Y.Y.Y.^.U.v.A.U.Y.Y.'.^.^.^.(.(.{.{.}.}.}.}.|.|..X.X X X.X.X.X.X.X.XXXXXXXXXXXXX{.x.G.{.XX$X$X$X$X$X$X$X$X$X$X*X!..X$X$XXX$X$X$X$X$X$X*X$X.X.X$X*X*X$X$X$X$X;X;X;X;X*X*X;X;X;X;X;X;X;X;X;X;X;X;X;X;X;X;X;X;X;X;X;X;X;X;X;X;X>X>X>X>X>X>X>X>X>X>X>X>X>X>X>X>X>X>X>X>X>X>X>X>X>X>X>X,X,X,X>X>X,X,X,X,X,X,X,X,X,X,X,X,X,X,X,X,X,X,X,X,X<X<X<X<X<X<X<X<X,X,X,X,X<X<X<X<X<X<X<X<X,X,X,X,X,X,X,X,X<X<X<X<X<X<X<X<X<X<X<X<X,X,X<X<X<X<X<X<X,X,X,X,X,X,X,X,X,X,X,X,X,X,X,X,X,X,X,X,X,X,X,X,X,X,X>X>X>X>X>X>X>X>X>X>X;X;X;X;X;X;X>X>X>X>X>X;X;X;X;X;X;X;X;X;X;X;X;X;X;X;X;X;X;X;X;X;X*X*X*X*X;X;X;X;X;X;X*X*X%X$X$X$X*X$X;X*X!.}.$X$X$X$X$X*X*X$X$X$X*X$XH.Z.F..X*X#X$X$XXX$XXXXX$X$X.X.X.X.XXXXXXX.X.X X X X|.}.}.}.^.^.^.^.^.!.^.U.c.F.^.U.U.U.H.H.H.D.F.C.a.r.a.N.b.N.A.G.U.G.G.F.A.Z.C.C.N.v.s.a.j.v.x.a.c.k.k.8.) 8.N.A.H.j.s.G.}.}..X*X;X$X$X$X{.{.;X;X*X;X*X$X.X.XG.s.XX6X;XN.F.{ Z.zXcXcXcXcXcXcXcXcX",
"cXcXcXcXcXcXcXcXcXJ.H v.U.7X,XD.A.'.U.^.>X>X>X>X7X>X|.A.}.;X,X,X;X;X}.U.}.v.x.J.$Xb.} >.t.c.b.M.N.A.B.M.v.b.b.b.N.B.D.F.F.F.H.U.!.H.F.b.c.c.e.8.N.H.H.U.U.U.U.U.Y.^.F.x.H.U.U.!.^.^.}.}.^.}.{.{. X X}.}.}.}. X X X XXXXX|.|.XXXX.X.X.X.X.X.X|.F.D.Y..X$X$X#X$X$X$X$X$X$X$X*X}.}.;X$X.X.X$X$X$X$X$X$X$XXX$X$X;X*X$X$X$X$X*X*X;X;X*X*X;X;X;X;X;X;X;X;X;X;X;X;X;X;X;X;X;X;X;X;X;X;X;X>X>X>X>X>X>X>X>X>X>X>X>X>X>X>X>X,X>X>X>X>X,X,X,X,X,X>X>X>X>X>X,X,X>X>X,X<X<X<X,X,X,X,X,X,X,X,X<X<X<X<X<X<X<X<X<X<X<X<X<X<X<X<X<X<X<X<X<X<X<X<X,X,X,X,X<X<X<X<X,X,X<X<X,X,X,X,X<X<X<X<X<X<X<X<X<X<X<X<X<X<X<X<X<X<X<X<X<X<X<X<X<X<X<X<X,X,X,X,X,X,X,X,X,X,X,X,X<X<X<X<X>X>X>X>X>X>X,X,X>X>X>X>X>X>X>X>X>X>X;X;X;X;X>X>X>X>X>X>X;X;X;X;X;X;X;X;X;X;X;X;X;X;X;X;X;X;X;X;X;X*X*X*X$X;X;X;X*X$X;X$XU.$X$X$X$X$X$X*X*X*X*X*X*X.XZ.Z.^.$X*X#X$X$X$X$X$X$X$X$X$XXXXXXX.X.X.X.X.X.X.X}.|.|.}.}.^.^.^.^.^.^.^.^.b.Z.^.^.U.U.U.H.H.F.F.D.c.w.e.M.N.b.B.U.U.H.G.F.F.Z.Z.b.j.j.j.j.d.b.N.v.j.k.c.a.{ =.M.Z.H.b.e.N.U.^.}.*X>X;X$X$XXX}.$X,X;X;X*X*X$X.X}.c.D.6X6XH.H.e.<.0XcXcXcXcXcXcXcXcX",
"cXcXcXcXcXcXcXcXfX] >.D.|.rX#XM.U.^.U.|.,X,X>X>X5X*XY.F.$X>X,X>X;X$X{.}.Y.x.c.Y.}.w.{ 5.j.c.b.N.N.Z.N.v.c.v.b.c.v.M.B.D.A.F.F.H.H.G.Z.c.c.s.5.j.F.H.U.U.U.U.U.U.Y.^.N.N.!.!.^.^.^.^.}.}.}.^.(.(.}. X}.}.}.}. X X X XXX.X|.|.XXXX.X.X.X.X.X.X.XU.B.J. X$X$X#X$X$X$X$X$X$X$X*X.X}..X$X.X.X$X$X$X$X$X$X$X$X$X$X;X$X$X$X$X$X*X*X;X;X*X*X;X;X;X;X;X;X;X;X;X;X;X;X;X;X;X;X;X;X;X;X;X;X;X;X>X>X>X>X>X>X>X>X>X>X>X>X>X>X>X,X>X>X>X>X,X,X,X,X>X>X>X>X>X>X,X,X>X>X<X<X<X<X,X,X,X,X,X,X,X,X<X<X<X<X<X<X<X<X,X<X<X<X<X<X<X<X<X<X<X<X<X<X<X<X,X,X,X,X<X<X<X<X,X<X<X<X<X,X,X,X<X<X<X<X<X<X<X<X<X<X<X<X<X<X<X<X<X<X<X<X<X<X<X<X<X<X<X<X,X,X,X,X,X,X,X,X,X,X,X,X<X<X<X<X>X>X>X>X>X>X>X>X>X>X>X>X>X>X>X>X>X>X;X>X;X;X>X>X>X>X>X>X;X;X;X;X;X;X;X;X;X;X;X;X;X;X;X;X;X;X;X;X*X*X*X*X;X;X;X;X*X$X;XXX^.*X$X*X$X.X$X*X*X*X*X*X$X}.Z.D. X$X$X*X$X$X$X$X$X$X$X$X$XXXXXXX.X.X.X.X.X.X.X.X.X.X.X}.}.}.}.}.}.^.^.^.C.N.!.^.U.U.U.H.H.H.F.D.N.y.8.a.M.b.N.F.U.U.H.G.Z.N.b.c.j.j.j.j.s.x.b.b.s.j.k.j.@.@.e.Z.G.H.t.s.H.^.}..X>X;X$X$X$X XXX;X;X;X*X*X$X$X.XZ.s.*X6X*XZ.F.[ }.cXcXcXcXcXcXcXcX",
"cXcXcXcXcXcXcXcX{.S x.J.5X6XG.M.|.Y.H.*X,X,X,X,X>X.XF.Y.;X,X,X=X;X}.Y.|.B.d.A.|.F.=.} w.c.b.M.N.Z.Z.M.c.c.c.c.c.b.M.M.B.Z.F.G.H.G.D.C.j.k.e.8.v.H.H.U.U.U.U.U.U.!.H.b.G.^.^.^.^.^.'.}.}.^.^.{.{.}.}.}.}.}.}. X X X X.X.X|.|.XXXX.X.X.X.X$X$X#X|.D.D. X$X$X$X%X%X$X$X$X$X*X*X$X^.}.$X$X$X$X$X$X*X$X$XXX$X$X;X*X$X$X$X$X$X*X*X;X;X*X*X;X;X;X;X;X;X;X;X;X;X;X;X;X;X;X;X;X;X;X;X;X;X;X;X;X;X>X>X>X>X>X>X>X>X>X>X>X>X,X,X,X,X>X>X,X,X>X>X>X>X>X>X>X>X,X,X>X>X,X,X<X<X,X,X,X,X,X,X,X,X<X<X<X<X<X<X<X<X,X,X<X<X<X<X,X<X<X<X<X<X<X<X<X<X<X<X,X,X<X<X<X<X,X,X<X<X<X<X,X,X<X<X<X<X<X<X<X<X<X<X<X<X<X<X<X<X<X<X<X<X<X<X<X<X<X<X<X<X,X,X,X,X,X,X,X,X,X,X,X,X<X,X<X<X>X>X,X>X>X>X>X>X>X>X>X>X>X>X>X>X>X>X>X>X;X;X;X>X;X;X;X;X;X;X;X;X;X;X;X;X;X;X;X;X;X;X;X;X;X;X;X*X*X*X*X*X*X;X;X;X*X*X;X}.}.*X$X*X.X.X.X$X*X*X*X$X$XH.Z.H.$X*X$X$X$X$X$X$X$X$X$X$X$XXXXXXX.X.X.X.X.X.X.X.X.X}.}.}.^.^.^.^.}.}.}.^.H.b.H.^.^.U.U.U.H.H.G.F.G.s.5.9.x.c.b.Z.H.U.H.D.b.b.x.j.j.j.j.j.s.s.b.b.j.s.k.k.8.{ @.M.Z.^.c.8.F.^.}..X;X;X;X$X$XXX X$X;X;X;X*X*X$X$XH.s.H.6X6XH.H.<.8.gXcXcXcXcXcXcXcX",
"cXcXcXcXcXcXcXcX>.} F.XXrX&Xv.D.#X^.U.;X,X,X,X,X=X^.F.'.>X,X>X.X%XY.Y. Xx.d.R.|.b.} =.s.b.b.N.N.Z.N.v.c.c.c.c.c.b.M.M.M.N.F.H.H.F.Z.N.j.k.<.a.N.H.U.U.Y.U.U.U.U.^.D.b.U.U.U.U.H.H.G.H.F.F.H.U.!.}.}.}.}.}.}. X X X.X.X.X|..XXXXX.X.X.X.X$X$X#X.XU.D.}.XX$X$X%X%X$X$X$X$X*X$X.X'.!.$X$X$X*X*X$X$X$X$X$X$X$X;X$X$X$X$X$X$X%X*X;X;X*X*X;X;X;X;X;X;X;X;X;X;X;X;X;X;X;X;X;X;X;X;X;X;X;X;X;X;X>X>X>X>X>X>X>X>X>X>X>X>X,X,X,X,X>X>X,X,X>X>X>X>X>X>X>X,X,X,X>X>X,X<X<X<X,X,X,X,X,X,X,X,X<X<X<X<X<X<X<X<X,X,X<X<X<X<X,X,X<X<X<X<X<X<X<X<X<X<X,X,X,X<X<X,X,X,X<X<X<X<X,X,X<X<X<X<X<X<X<X<X<X<X<X<X<X<X<X<X<X<X<X<X<X<X<X<X<X<X<X<X,X,X,X,X,X,X,X,X,X,X,X,X,X,X<X<X>X>X,X,X>X>X>X>X>X>X>X>X>X>X>X>X>X>X>X>X;X;X;X>X;X;X;X;X;X;X;X;X;X;X;X;X;X;X;X;X;X;X;X;X;X*X;X*X$X$X*X*X$X;X;X;X$X;X;XY..X*X$X$X.X.X.X$X*X*X*X$X.XF.Z.H.$X$X$X$X$X$X$X$X$X$X$X$X$XXXXXXX.X.X.X.X.X}.^.U.H.H.H.G.F.F.F.F.H.^.}.}.U.b.Z.^.^.U.U.U.H.H.H.F.H.v.r.r.r.c.v.N.F.H.H.N.c.c.j.j.j.j.j.j.s.s.x.b.j.a.j.k.a.-.{ e.Z.H.C.8.b.U.^.}.$X;X;X$X$X$XXX$X;X;X;X*X*X$X$X^.b.s.*XwX.XD.b.=.;XcXcXcXcXcXcXcX",
"cXcXcXcXcXcXcX$XH c.D.;X6XF.d.Y.#XU..X>X,X,X5X5X$XH.U.$X,X,X=X;X|.U.}.F.y.N.{.U.8.} 5.b.b.b.M.N.Z.N.c.c.c.c.c.b.b.M.N.N.Z.F.H.H.D.Z.j.j.s.5.k.G.U.U.U.U.U.U.H.H.U.c.N.U.U.Y.Y.N.Z.F.F.F.F.G.G.U.Y.{.}.}. X X X X.X.XXXXXXXXXXXXX.X.X$X.X$X$X$X#X}.D.Y.XX$X$X$X$X$X$X$X$X$X$X$X}.H.$X$X$X$X*X$X*X$X$X$XXX$X;X;X$X$X$X$X$X*X*X*X*X*X*X*X*X;X;X;X;X;X;X;X;X;X;X;X;X;X;X;X;X;X;X;X;X>X>X>X;X>X>X>X>X>X>X>X>X,X,X,X,X,X,X,X,X>X,X,X,X>X>X>X>X>X>X,X,X,X,X,X,X,X,X,X,X,X,X,X,X,X,X,X,X<X<X<X<X<X<X<X<X,X,X,X,X,X,X,X,X<X<X<X<X<X<X<X<X<X<X<X<X,X,X,X,X,X,X,X,X<X<X<X<X<X<X<X<X<X<X<X<X<X<X<X<X<X<X<X<X<X<X<X<X<X<X<X<X,X,X<X<X,X,X,X,X,X,X,X,X,X,X,X,X,X,X,X,X>X,X,X,X>X>X>X>X>X>X>X>X>X>X>X>X;X;X;X;X;X;X;X;X;X;X;X>X;X;X;X;X;X;X;X;X;X;X;X;X;X;X;X;X;X*X*X;X$X.X$X*X$X$X$X$X$X;X$XY.$X*X$X$X$X.X$X$X$X*X$X$X.XZ.D.^.$X$X$X$X$X$X*X$X$X$X$X$XXXXXXXXX.X.X.X.X.X!.F.H.H.D.Z.N.Z.F.H.H.D.!.}.}.^.D.c.^.!.U.U.U.H.H.H.H.G.N.j.a.<.c.c.v.C.F.F.b.b.c.j.j.k.k.k.j.s.s.x.b.k.j.j.k.k.<._ 5.Z.U.H.e.s.^.}.^.XX;X;X*X$X*XXX{.;X;X*X*X*X*X$X.XF.s.H.0X6XH.!.>.b.lXcXcXcXcXcXcX",
"cXcXcXcXcXcXcXe.^ N.Y.0X>XM.v.}.}.Y.*X,X>X,X,X>X'.U.}.;X5X,X;X*X{.{.}.M.s.D.}.G.>.>.r.b.b.b.b.N.N.b.c.c.c.v.c.b.b.M.N.B.A.G.H.H.Z.Z.t.x.e.e.M.G.U.U.U.U.U.U.H.H.H.b.D.H.!.!.Y.N.F.F.F.Z.C.Z.Z.Z.D.J.{. X X X X X.X.XXXXXXXXXXXXX.X}.^..X$X$X$X$X#XD.G.#X$XXX$X$X$X$X$X$X$X$X$X.XU.$X$X.X*X*X$X$X$X$X*X$X$X$X;X$X$X$X$X$X*X*X*X*X*X*X*X*X;X;X;X;X;X;X;X;X;X;X;X;X;X;X;X;X;X;X;X;X>X>X>X;X>X>X>X>X>X>X>X>X,X,X,X,X,X,X,X,X>X>X,X,X>X>X>X>X>X>X,X,X,X,X,X,X,X,X,X,X,X,X,X,X,X,X,X,X<X<X<X<X<X<X<X<X,X,X<X,X,X,X,X,X<X<X<X<X<X<X<X<X<X<X<X<X,X,X,X,X,X,X<X<X<X<X<X<X<X<X<X<X<X<X<X<X<X<X<X<X<X<X<X<X<X<X<X<X<X<X<X<X,X,X<X<X,X,X,X,X,X,X,X,X,X,X,X,X,X,X,X,X>X>X,X,X>X>X>X>X>X>X>X>X>X>X>X>X;X;X;X;X;X;X;X;X;X;X>X>X;X;X;X;X;X;X;X;X;X;X;X;X;X;X;X;X;X*X*X*X$X.X$X$X$X$X$X$X;X;XXXJ.$X$X$X$X$X.X$X$X$X$X$X$X!.Z.H..X$X$X$X$X.X$X.X.X#X$X$X$XXXXXXXXX.X.X.X.X.XU.Z.C.D.Z.N.b.b.b.b.b.N.U.}.}.}.H.c.F.U.U.U.H.H.H.H.H.G.Z.x.a.=.c.c.v.N.Z.F.Z.b.c.x.j.k.k.j.j.s.s.j.v.v.k.j.j.k.9.+.-.b.G.H.c.w.D.^.^. X$X;X;X$X$X$X}.*X;X;X*X*X*X*X.XH.j.b.;X6X$XD.c.} wXcXcXcXcXcXcX",
"cXcXcXcXcXcXwX^ 1.Z.6XwX}.x.F.}.U.}.5X5X;X5X>X$XF.U.%X5X5X,X;X#XY.}.U.d.v.U.Y.d.{ 5.j.b.b.n.N.Z.N.v.c.c.c.v.c.b.M.M.N.N.F.H.G.F.D.b.t.j.<.j.F.G.U.U.U.U.U.U.H.H.Z.b.G.J.!.Y.U.Z.N.Z.F.D.D.F.G.G.J.Y.{. X X X X X.X.X.XXXXXXXXXXX#X^.H..X$X$X$X$X$XJ.B. X$XXX$X$X$X$X$X$X$X$X*X.X}..X$X$X$X$X$X$X$X$X;XXXXX$X;X;X*X*X$X*X*X*X*X*X*X*X*X*X;X;X;X;X;X;X;X;X;X;X;X;X;X;X;X;X;X;X;X;X>X>X>X>X>X>X>X>X>X>X>X>X,X,X>X>X>X>X>X>X>X>X>X>X,X,X,X,X>X>X>X>X,X,X,X,X,X,X,X,X,X,X,X,X,X,X,X,X<X<X<X<X<X<X<X<X<X<X<X<X<X<X<X<X<X<X<X<X<X<X<X<X,X,X<X<X,X,X<X<X<X<X<X<X<X<X<X<X<X<X<X<X<X<X<X<X<X<X<X<X<X<X<X<X<X<X<X<X<X<X<X<X,X,X,X<X,X,X,X,X,X,X,X,X,X,X,X,X,X,X,X,X>X>X>X>X>X>X>X>X>X>X>X>X>X>X>X>X;X;X>X;X;X;X>X;X>X>X>X>X;X;X;X;X;X;X;X;X;X;X;X;X;X;X;X;X;X;X*X$X.X$X$X$X$X$X$X$X$X$XXX X.X$X$X$X$X}.XX.X.X$X$XXXD.N.^.*X*X$X$X$X$X.XH.H.$X$X$XXXXXXXXXXX.X.X.X.X|.^.!.^.^.!.!.H.H.F.Z.Z.F.!.}.^.'.U.c.b.U.U.U.H.H.H.H.H.G.F.v.a.w.k.N.N.b.Z.G.G.N.b.c.j.k.x.x.x.s.s.s.x.v.k.j.j.k.a.-.{ r.Z.H.F.5.c.!.}.{.XX;X;X$X$X$X X.X;X,X;X*X*X*X$X}.b.r.^.<X<XF.H.@.F.kXcXcXcXcXcX",
"cXcXcXcXcXcXb.R c.Y.rX6XD.x.U.U.U.$X7X5X;X5X;X.XA.}.,X>X,X5X>X^.}.{.D.s.B.{.G.,.@.e.c.b.c.n.N.Z.M.c.c.v.v.v.c.b.M.M.N.Z.F.H.F.D.F.x.s.s.5.b.U.G.U.U.U.U.U.U.H.H.Z.Z.H.U.H.U.Y.U.U.Y.!.U.^.^.!.(.{.Y.{.}. X X X X X.X.X.XXXXXXXXX#X.XH.^..X$X$X$X$X}.B.Y.XXXX$X$X$X.X.X$X$X$X$X$XXX.X$X$X$X$X$X$X$X$XXX{. X$X$X$X%X*X*X*X*X*X*X*X*X*X*X*X;X;X;X;X;X;X;X;X;X;X;X;X;X;X;X;X;X;X;X;X>X>X>X>X>X>X>X>X>X>X>X>X>X>X>X>X>X>X>X>X>X>X>X>X,X,X,X,X>X>X>X>X,X,X,X,X,X,X,X,X,X,X,X,X,X,X,X,X<X<X<X<X<X<X<X<X<X<X<X<X<X<X<X<X<X<X<X<X<X<X<X<X,X,X,X,X,X,X<X<X<X<X<X<X<X<X<X<X<X<X<X<X<X<X<X<X<X<X<X<X<X<X<X<X<X<X<X<X<X<X<X<X,X,X,X,X,X,X,X,X,X,X,X,X,X,X,X,X,X,X,X,X>X>X>X>X,X>X>X>X>X>X>X>X>X>X>X>X;X;X>X>X;X;X>X>X>X>X>X>X;X;X;X;X;X;X;X;X;X;X;X;X;X;X;X*X*X;X*X.X^.$X*X*X$X$X$X%X;X$X$X$X$X$X$X$X.X}..X.X.X*X$X XZ.D..X=X*X$X$X$X$X{.F..X$X$X$XXXXXXXXXXX.X.X.X.X}.^.}.^.!.U.U.U.^.^.^.U.H.U.^.^.^.!.b.b.U.U.U.H.H.H.H.H.H.G.M.a.j.w.b.b.b.Z.F.G.Z.b.c.j.x.x.x.x.s.s.s.j.c.v.k.j.j.a.5.+.5.b.D.H.e.j.F.}.}. X$X;X$X$X$XXX.X;X,X;X;X*X*X*X.XH.j.b.;X6X.XH.r.2.uXcXcXcXcXcX",
"cXcXcXcXcXrX^ >.N.*XwX.Xs.N.'.Y.^.;X,X;X>X<X;X^.J.$X>X>X,X>XXXY.}.}.v.d.U.Q.b.} =.a.b.c.c.N.A.N.v.k.c.v.v.v.c.b.b.b.N.A.F.H.F.Z.N.r.s.5.e.N.G.G.H.H.H.H.H.!.U.F.C.F.U.H.H.U.Y.H.F.D.F.F.F.H.U.U.U.U.!.!.{.}. X X X.X.X.XXXXXXXXXXX.X|.U.*X$X.X$X$X.XZ.F.}.$X$X*X$XXX.X$X$X$X$X$X$X$X$X$X$X*X*X*X$X$X.X^.}.$X$X$X$X$X*X*X*X*X*X*X;X;X;X;X;X;X=X=X;X;X;X;X;X;X;X;X;X;X;X;X;X;X;X;X;X;X;X;X;X;X;X;X>X>X>X>X,X,X,X>X>X>X>X>X,X,X>X>X>X>X>X>X,X,X,X,X,X,X,X,X,X,X,X,X,X,X,X,X,X,X,X,X,X,X,X,X,X,X,X,X<X<X,X,X,X<X<X<X<X<X<X<X<X,X<X<X,X,X<X<X<X<X<X,X<X<X<X<X<X<X<X<X<X<X<X<X<X<X<X<X<X<X<X<X,X,X,X,X,X,X,X,X,X,X,X,X<X<X<X<X>X>X>X>X,X,X,X,X>X>X>X>X>X>X>X>X>X>X>X>X>X>X>X>X>X>X>X>X>X>X>X>X>X>X>X>X>X>X>X>X;X;X;X;X;X;X;X;X;X;X;X;X;X;X;X;X*X*X*X*X;X;X$Xb.Y.$X*X;X;X;X;X;X$X$X$X$X$X$X$X$X$XXXXXXX$X*X$XJ.N.J.XX=X*X*X$X$X XF..XXX$X$X$X.X.X.XXXXX.X.X.X}.^.^.H.G.H.G.F.G.H.H.H.H.Y.Y.^.^.}.^.F.v.F.!.Y.H.J.J.U.J.H.U.F.s.k.8.j.N.v.N.F.F.Z.M.k.k.x.x.x.k.s.s.s.j.M.M.c.s.s.s.w.-.=.s.A.U.b.8.Z.Y.}.}.$X,X*X$X*X$X^.*X<X;X;X;X*X*X$XJ.b.r.XX<X<XN.b.] {.zXcXcXcXcX",
"cXcXcXcXcXJ.W v.F.,X,XG.j.F.Y.Y..X;X,X;X>X<XXXF.}.;X>X,X,X;X|.Y.|.Y.d.x.}.Y.r.] 5.j.v.c.v.N.Z.b.k.s.j.x.v.v.b.b.b.b.C.F.G.F.Z.D.c.s.a.5.j.Z.G.H.H.H.H.H.U.U.H.F.N.H.U.H.U.U.U.U.U.!.!.^.!.!.^.^.^.^.^.U.U.{. X X X.X.X.XXXXXXXXXXX.X#XY.}.$XXX$X$X$XF.N.U..X$X$X$XXXXX$X$X$X$X$X$X$X$X$X$X*X*X$X$X$X$X}.}..X$X$X$X$X*X*X*X*X*X*X;X;X;X;X;X;X=X=X;X;X;X;X;X;X;X;X;X;X;X;X;X;X;X;X;X;X;X;X;X;X;X;X>X>X>X>X,X,X>X>X>X>X>X>X,X,X,X,X,X>X>X>X,X,X,X,X,X,X,X,X,X,X,X,X,X,X,X,X,X,X,X,X,X,X,X,X,X,X,X,X<X<X,X,X,X<X<X<X<X<X<X<X,X,X,X,X,X,X<X<X<X<X,X,X<X<X<X<X<X<X<X<X<X<X<X<X<X<X<X<X<X<X<X<X,X,X,X,X,X,X,X,X,X,X,X,X,X<X<X<X>X>X>X>X,X,X,X,X>X>X,X,X>X>X>X>X>X>X>X>X>X>X>X>X>X>X>X>X>X>X>X>X>X>X>X>X>X>X>X>X;X;X;X;X;X;X;X;X;X;X;X;X;X;X;X;X*X*X*X*X*X;XXXb.}.$X;X;X;X;X;X;X$X$X$X$X$X$X$X$X$X$X$X$X$X*XXXJ.F.{.*X*X*X$X%X$XY.{.$XXX$X$X.X.X.X.XXXXX.X X}.^.!.U.!.].^.^.^.^.^.^.^.^.{.{.'.'.'.^.H.N.A.U.Y.H.J.U.U.J.H.U.F.x.x.8.a.N.v.N.A.F.A.M.c.k.x.k.x.k.s.s.s.j.b.b.c.s.s.s.r.3.@.8.b.H.Z.e.c.U.}.}..X;X;X*X$X$X(.$X;X;X;X;X*X*X$X{.Z.s.H.;X6X^.B.r.w.sXcXcXcXcX",
"xXcXcXcXhX2.{ U.U.wX$Xc.v.U.H.Y.;X<X>X;X<X>XY.F.$X>X>X>X,X%X{.Y.|.D.a.M. XB.@.{ a.v.c.k.v.A.Z.N.k.s.s.j.k.c.b.b.b.N.Z.H.H.D.Z.D.j.s.w.w.b.F.G.G.H.H.H.H.U.U.H.Z.Z.U.U.H.H.U.U.^.^.^.}.}.^.^.^.^.^.H.Z.N.U.^.}..X.X X.X.XXXXXXXXX.X.X#X}.U.*X*XXXXX$X^.M.A..X$XXXXXXX$X$X$X$X$X$X$X$X$X$X*X*X$X$X$X$X$X.X.X.X$X$X*X*X*X*X*X*X*X*X*X*X*X*X;X;X;X;X;X;X;X;X;X;X;X;X;X;X;X;X;X;X;X;X>X>X;X;X;X;X;X;X>X>X>X>X,X,X>X>X>X>X,X,X,X,X,X,X,X,X>X>X,X,X,X,X,X,X,X,X,X,X,X,X,X,X,X,X,X,X,X,X,X,X,X,X,X,X,X,X<X,X,X,X<X<X<X<X<X<X,X,X,X,X,X,X,X<X<X<X,X,X,X,X<X<X<X<X<X<X<X<X<X<X<X<X<X<X<X<X<X<X<X<X,X,X,X,X,X,X,X,X,X,X,X,X,X,X<X<X>X,X>X>X,X,X,X,X,X>X>X,X,X>X,X,X>X,X,X,X>X>X>X>X>X>X>X>X;X;X>X>X>X>X;X;X;X>X>X>X;X;X;X;X;X;X;X;X;X;X;X;X;X;X;X;X*X*X*X;X;X;X.X X.X$X$X$X;X;X;X;X$X$X$X$X$X$X$X$X$X$X$X$X$X$X XF.J.XX*X*X$X$X$XXXJ.#X$XXXXXXX.X.X.X.X.X.X.X.X^.!.!.^.'.}.}.|.}.}.}.}.}.}.|.}.'.'.Y.Y.Y.A.N.H.Y.Y.U.J.J.J.H.G.H.N.a.e.8.M.k.M.Z.A.F.N.v.c.k.k.x.k.j.j.j.x.b.v.v.j.s.s.s.w.@.=.s.A.H.j.r.F.}.}.}.$X;X*X$X*X.X.X$X;X;X;X;X*X$XXXH.x.x.$XwX>Xx.B.@.;XcXcXxXvX",
"xXcXcXcX$XR y.U.>X0XH.e.N.H.H.^.;X,X>X*X>X$XJ.J.;X>X>X*X,XXXY.Y.^.M.r.G.{.s.Q <.j.b.c.c.M.Z.B.M.v.x.j.j.k.x.b.b.N.C.F.G.G.Z.Z.C.j.r.<.a.Z.F.G.G.H.H.H.H.U.U.F.C.Z.H.U.U.H.H.U.!.^.^.^.^.^.^.^.^.^.^.U.H.U.!.}..X X X.X.XXXXXXXXX.X.X.X}.G.$X*XOXXX$X#XG.M.'.$X.XXXXX$X$X$X$X$X$X$X$X$X$X*X*X*X*X$X$X$X$X$X.X$X$X*X*X*X*X*X*X*X*X*X*X*X*X;X;X;X;X;X;X;X;X;X;X;X;X;X;X;X;X;X;X;X;X;X>X>X>X;X;X;X;X>X>X>X>X,X,X>X>X>X>X>X,X,X,X,X,X,X,X>X>X,X,X,X,X,X,X,X,X,X,X,X,X,X,X,X,X,X,X,X,X,X,X,X,X,X,X,X,X,X,X,X,X<X<X<X<X<X<X<X,X,X,X,X,X,X,X<X<X,X,X,X,X<X<X<X<X<X<X<X<X<X<X<X<X<X<X<X<X<X<X<X<X,X,X,X,X,X,X,X,X,X,X,X,X,X,X<X<X,X,X>X>X,X,X,X,X>X,X,X>X,X,X,X,X>X>X,X,X>X>X>X>X>X>X>X>X;X>X>X>X>X;X;X;X;X>X>X>X;X;X;X;X;X;X;X;X;X;X;X;X;X;X;X;X*X*X*X*X;X;X X X$X$X$X$X$X$X*X*X%X$X$X$X$X$X$X$X$X$X$X$X$X$X}.D.Y.$X*X$X$X#X X}.Y.XX$X$XXXXX.X.X.X.X.X.X.X.XU.U.}.|.}.}.'.'.^.^.^.^.^.^.}.}.}.^.Y.Y.Y.H.b.G.Y.Y.J.J.J.J.H.F.U.A.9.w.3.k.k.b.Z.Z.G.Z.b.v.x.x.x.k.k.j.k.v.v.c.c.k.s.s.s.r.=.@.8.b.U.N.e.N.^.}.}..X;X;X*X$X.X|..X;X;X;X;X*X$X$XJ.N.s. X;XwXF.b.5.b.cXcXcXvX",
"zXcXcXzXw.E D.XXqX6Xk.s.F.F.U.$X,X,X>X,X>X{.N.{.>X<X>X;X,XY.{.}.G.c.k.Y.U.@.W <.k.c.x.c.N.B.N.b.M.m.c.c.c.c.c.b.b.Z.G.G.D.C.N.b.s.5.5.s.Z.F.G.G.H.H.H.U.H.!.Z.b.Z.H.H.H.Z.H.^.^.^.!.^.}.^.^.}.^.^.'.^.Y.U.H.^..X X X X X.X.X.XXX.X.X|.Y.U.Z.*XXXXX$X$X'.N.F..X.XXXXX$X$X$X$X$X$X$X$X$X$X$X$X$X$X$X$X*X*XN.$X$X$X*X*X*X*X*X*X*X*X*X*X*X*X*X*X;X;X;X;X;X;X;X;X;X;X;X;X;X;X;X;X;X;X;X;X;X;X;X;X;X;X;X;X;X;X;X>X>X>X,X,X,X,X,X,X,X,X,X,X>X>X>X>X,X,X,X,X,X,X,X,X,X,X,X,X,X,X,X,X,X,X,X,X,X,X,X,X,X,X,X,X,X,X,X,X,X,X,X,X,X,X<X<X<X<X,X,X,X,X,X,X,X,X<X<X<X<X<X<X<X<X,X,X,X,X<X<X<X<X<X,X,X,X,X,X,X,X,X,X,X,X,X,X,X,X,X,X,X,X,X,X,X>X>X>X,X,X,X>X>X>X>X>X>X,X>X>X>X>X>X>X>X>X>X>X>X>X;X;X>X>X>X>X;X;X;X;X;X;X;X;X;X;X;X;X;X;X;X;X;X;X;X;X;X*X*X*X*X*X;X;XXXj.XX$X;X$X$X$X$X$X$X$X$X$X$X$X$X$X$X$X$X$X$XXXJ.D.{.$X*X$X$X$X XY.Y.XX$XXXXXXX.X.XXXXXXXXXXX.XJ.^..X.X}.}.}.^.^.H.H.U.^.}.}.}.Y.U.U.U.U.U.b.Z.Y.J.J.J.J.J.H.G.F.F.a.w.e.8.v.M.N.Z.F.A.N.v.c.c.v.b.v.v.v.v.v.v.c.c.j.s.s.s.8.^ >.s.U.G.8.a.H.}..X}.;X*X$X*X*X|.^..X;X;X*X*X$X$X}.F.s.B.;XwX;Xv.x.=.wXcXcXcX",
"zXcXlX0XR >.Y.,XqX.Xr.N.U.F.U.;X,X,X;X,X$XJ.F.XX>X>X>X>X%XY.}.Y.B.x.b.^.k.E [ r.j.j.k.c.M.N.N.b.M.M.b.v.v.v.v.c.b.D.H.H.C.N.b.N.5.5.5.c.F.G.G.G.H.H.H.U.!.H.N.b.D.H.H.F.s.j.C.H.H.!.!.H.H.U.}.^.^.'.'.^.!.H.^..X.X X X X.X.X.XXX.X.X'.H.Z.H..XXXXX$X$X.XN.N..X$XXXXX$X$X$X$X$X$X$X$X$X$X$X$X$X$X$X*X*Xx.Z.*X*X*X*X*X*X*X*X*X*X*X*X*X*X*X*X*X;X;X;X;X;X;X;X;X;X;X;X;X;X;X;X;X;X;X;X;X;X;X;X;X;X;X;X;X;X;X;X>X>X>X,X,X,X,X>X,X,X,X,X,X>X>X>X>X,X,X,X,X,X,X,X,X,X,X,X,X,X,X,X,X,X,X,X,X,X,X,X,X,X,X,X,X,X,X,X,X,X,X,X,X,X,X<X<X<X<X,X,X,X,X,X,X,X,X<X<X<X<X<X<X<X<X,X,X,X,X<X<X<X<X<X,X,X,X,X,X,X,X,X,X,X,X,X,X,X,X,X,X,X,X,X,X>X>X>X>X>X,X>X>X>X>X>X>X>X>X,X>X>X>X>X>X>X>X>X>X>X>X;X;X>X>X>X>X;X;X;X;X;X;X;X;X;X;X;X;X;X;X;X;X;X;X;X;X*X*X*X*X*X*X$X;X$Xc.c.$X;X$X$X$X$X$X$X$X$X$X$X$X$X$X$X$X$X$X$X XF.F. X$X*X$X$X$X#XY.U.}.XXXXXXXX.X.XXXXXXXXXXXXX^. XXX.X}.}.}.U.F.b.G.H.!.^.U.M.c.G.H.U.U.U.Z.N.J.J.J.J.J.J.H.G.F.F.c.e.k.8.j.v.M.Z.A.A.Z.M.b.b.b.M.M.M.M.M.b.v.v.c.c.s.a.s.a.@.#.e.A.H.a.8.F.!.}.}.$X*X*X*X*X.X}..X*X;X*X*X;X$XXXU.v.s.$X6XrXH.b.>.F.lXcXcX",
"cXcXcXb.S x.;X6X0XU.s.F.F.F.|.6X,X,X,X,X XD.{.>X<X>X5X;X}.^.|.U.B.c.Z.U.<.H <.j.j.d.k.b.M.N.M.v.M.M.b.b.b.N.N.b.C.F.J.H.N.N.N.c.<.8.r.Z.F.H.G.G.H.H.H.U.!.F.b.C.H.H.H.H.Z.b.j.t.c.Z.H.G.N.Z.U.}.'.^.'.'.{.^.^..X.X}..X.X.X.X.X.X.X.X}.U.^.#X.XXXXX$X$X$XH.N.^.*X$XXX$X$X$X$X$X$X$X$X$X$X$X$X$X$X$X$XN.r.$X*X$X*X*X*X*X*X*X*X*X*X*X*X*X*X;X;X;X;X;X;X;X;X;X;X;X;X;X;X;X;X;X;X;X;X;X;X;X;X;X;X;X;X;X;X;X;X>X>X>X>X,X,X>X>X>X>X,X,X,X,X>X>X>X>X>X>X,X,X,X,X,X,X,X,X,X,X,X,X,X,X,X,X,X,X,X,X,X,X,X,X,X,X,X,X,X,X,X,X,X,X<X<X<X<X<X<X,X,X,X,X,X,X,X,X<X<X<X<X<X<X<X<X,X,X,X,X<X<X<X<X<X<X,X,X,X,X,X,X,X,X,X,X,X,X,X,X,X,X,X,X>X,X>X>X>X>X,X,X>X>X>X>X>X>X>X>X,X,X>X>X>X>X>X>X>X>X>X>X;X;X;X>X>X>X;X;X;X;X;X;X;X;X;X;X;X;X;X;X;X;X;X;X;X*X*X*X*X*X*X*X;X;X>XXXs.J.$X$X$X$X$X$X$X$X$X$X$X$X$X$X$X$X$X$X$X{.F.J.$X$X*X$X$X$X$X|.{.}..XXXXXXX.X.X.X.X.X.XXXXX.X.X.X}.}.}.!.G.N.l.j.Z.G.D.s.c.H.H.U.U.Y.Y.H.b.D.J.J.J.J.J.H.G.F.F.N.a.x.r.9.k.b.Z.Z.A.A.M.N.N.N.N.N.N.N.N.M.v.v.v.b.s.r.r.a.,.[ 5.a.F.c.r.b.H.}.}.}.*X;X$X*X$X.X.X$X;X*X*X*X$X$X}.N.y.U.<X0X;Xb.r.} uXcXcX",
"zXcXwXQ } Y.;X0X5XN.b.U.A.U.*X5X,X,X,X,X{.F.XX>X>X<X6X$XY.{..XG.Z.v.A.A.H R 8.l.s.d.x.v.v.M.b.v.M.M.b.b.M.N.N.C.Z.G.J.D.B.N.A.9.8.9.c.F.G.H.G.H.H.H.H.U.H.N.c.G.!.!.U.U.^.^.H.F.c.c.b.F.G.Z.U.^.}.'.^.'.}.{.}..X}.}..X.X.X.X.X.X.X.X#X.X#X$XXXXXXX$X$X$X^.Z.F.$X$XXX$X$X$X$X$X$X$X$X$X$X$X*X$X$X$XH.r..X*X;X*X*X*X*X*X*X*X*X*X*X*X*X*X*X;X;X;X;X;X;X;X;X;X;X;X;X;X;X;X;X;X;X;X;X;X;X;X;X;X;X;X;X;X;X;X;X>X;X>X>X>X>X>X>X>X>X,X,X,X,X>X>X>X>X>X>X,X,X,X,X,X,X,X,X,X,X,X,X,X,X,X,X,X,X,X,X,X,X,X,X,X,X,X,X,X,X,X,X<X<X<X<X<X<X<X<X,X,X,X,X,X,X,X,X<X<X<X<X<X<X<X<X,X,X,X,X<X<X<X<X<X<X,X,X,X,X,X,X,X,X,X,X,X,X,X,X,X,X,X,X>X>X>X>X>X>X,X>X,X>X>X>X>X>X>X>X,X,X>X>X>X>X>X>X>X>X>X>X;X;X;X>X>X>X;X;X;X;X;X;X;X;X;X;X;X;X;X;X;X;X;X;X*X*X*X*X*X*X*X*X;X;X;X>X}.t.{.$X$X$X$X$X$X$X$X$X$X$X$X$X$X$X$X$XXXJ.F. X*X$X*X*X$X$X$X%X%XXX$XXXXXXX.X.X.X.X.X.XXXXX.X.X.X}.}.^.!.G.b.t.x.F.Z.r.b.Y.!.U.Y.Y.Y.Y.U.Z.N.J.Y.J.J.J.H.G.F.F.Z.x.j.v.8.a.v.N.Z.A.A.Z.B.N.N.N.N.N.N.N.N.M.v.v.b.s.e.e.s.8./ @.=.Z.b.N.b.Z.!.}.}.$X*X$X*X*X$X.X.X*X*X*X$X$X$XXXH.d.s.0XwX0XF.x.} D.zXcX",
"zXcXD.S s.>X6X6X%Xa.N.Y.N.Y.=X>X,X>X>X#XA.Y.=X,X5X7X>X}.J.#X|.G.F.b.A.s.c ) 9.a.s.s.x.M.N.v.v.M.M.M.M.M.M.B.Z.F.F.H.G.Z.N.A.N.8.8.t.C.H.G.G.H.H.H.H.H.H.G.c.N.H.].!.!.^.{.{.^.^.U.G.j.b.U.D.U.'.}.}.}.|.}.}.}. X X X}..X.X.X.X.X.X.X$X.X$X$XXXXX$X$X*X*X.XH.Z.$X$X$X$X$X$X$X$X$X$X$X$X$X$X$X$X*X.Xt.H.$X*X*X*X*X*X*X*X*X;X;X*X*X*X*X*X*X;X;X;X;X;X;X;X;X;X;X;X;X;X;X;X;X;X;X;X;X>X>X>X>X;X;X>X>X;X;X;X;X>X>X>X>X>X>X>X>X,X,X,X,X>X>X>X>X>X>X>X>X>X>X>X>X,X,X,X,X<X,X,X,X,X,X,X,X,X,X,X,X,X,X,X,X<X<X<X<X<X,X<X<X,X<X<X<X,X,X,X,X,X,X,X,X,X,X,X,X,X,X,X,X,X,X,X,X,X,X,X,X<X<X<X<X<X<X<X<X,X,X,X,X,X,X,X,X,X,X,X,X,X,X,X,X>X>X>X>X>X>X>X>X>X>X>X>X>X>X>X>X,X>X>X>X>X>X>X>X>X>X>X>X>X>X;X;X;X>X>X>X;X;X;X;X;X;X;X;X;X;X;X;X;X;X;X;X;X;X;X;X*X*X*X*X;X;X=X;X;XG.k.#X#X$X$X*X$X.X.X$X$X$X$X$X$X$X$X$X|.J.Y.$X$X$X$X$X$X$X$X$X$X$X$X$X$X.X.X.X.X.X.X.XXX.XXX.X.X}.}.}.H.D.b.N.C.j.j.F.^.^.^.^.^.!.!.!.^.F.N.G.U.U.U.U.G.G.F.F.Z.C.s.b.8.a.a.M.Z.A.H.H.B.N.N.N.N.N.N.N.N.b.b.c.v.v.r.y.a.8.E { <.j.v.A.Z.b.G.}.^.|.=X;X*X;X$XXX{.$X5X;X$X*X$X$X'.x.5.$XwXwXXXb.w.] sXkX",
"cXuX@.] J.,X6X5XD.j.G.H.F.|.;X>X>X5X;X|.F.|.>X>X5X6X*XY.Y.$X{.H.F.N.N.a.{ ,.9.a.a.s.x.v.b.c.c.M.M.M.M.M.B.A.A.F.H.H.F.C.N.F.r.r.w.j.Z.H.G.G.H.H.H.H.H.H.F.b.Z.H.!.!.!.!.{.{.^.^.}.(.b.c.M.v.Y.|.}.}.|.|.|.}.{.}. X X.X.X.X.X.X.X.X.X.X.X$X$XXXXX$X$X*X*X$X!.Z.^.$X$X$X$X$X$X$X$X$X$X$X$X$XXX.X$XN.C.$X$X*X*X*X*X*X*X*X*X;X;X*X*X*X*X*X*X;X;X;X;X;X;X;X;X;X;X;X;X;X;X;X;X;X;X;X;X>X>X>X;X;X;X>X>X;X;X;X;X>X>X>X>X>X>X>X>X,X,X,X,X>X>X>X>X>X>X>X,X>X>X>X>X>X>X,X,X,X,X,X,X,X,X,X,X,X,X,X,X,X,X,X,X<X<X<X<X,X,X,X,X<X<X,X,X,X,X,X,X,X,X,X,X,X,X,X,X,X,X,X,X,X,X,X,X,X,X,X,X<X<X<X<X<X<X<X<X,X,X,X,X,X,X,X,X,X,X,X,X,X,X,X,X>X>X,X,X>X>X>X>X,X>X>X>X>X>X,X>X,X,X>X>X>X>X>X>X>X>X>X>X>X>X>X;X;X>X>X>X;X;X;X;X;X;X;X;X;X;X;X;X;X;X;X;X;X;X;X;X*X*X*X*X;X;X;X;X;X$Xb.N.$X$X$X.X.X}.}..X$X$X$X$X$X$X$X$X}.U.}.$X$X$X$X$X$X$X$X$X$X$X$X$X$X.X.X.X.X.X.X.X X.XXX.X.X.X}.^.D.j.D.G.r.c.U.^.^.^.^.^.^.!.!.!.'.U.B.Z.U.U.U.U.H.G.G.F.F.Z.j.j.s.e.s.k.N.A.G.H.A.Z.N.N.N.N.N.N.N.N.M.b.c.b.s.r.9.3.+.e.j.a.s.A.H.N.Z.U.|.Y.=X;X;X*X$X$X}.XX,X;X$X*X$X$X*XN.5.Z.6XrX;XH.b.Q !.kX",
"cX{.U j.;X5XrX|.r.b.Y.A.Y.%X>X>X>X5X$XH.U.*X>X>X,X6X#XU.|.|.J.D.N.M.v.9.a.5.9.e.r.j.v.v.x.k.k.M.N.N.N.N.B.D.D.H.U.H.Z.N.Z.b.9.a.r.b.F.G.G.G.H.H.H.H.H.H.D.b.F.U.!.!.!.!.^.^.{.{.{.{.Z.b.N.M.U.'.Y.^.}.|.}.|.^.^.}. X.X.X.X.X.X.X.X.XXXXX$X$XXXXX$X$X$X*X*X}.D.H.$X$X$XXX$X$X$X$X$X$X$X$X$XXX.XZ.s.}.*X;X*X*X*X*X%X%X%X%X;X*X*X*X*X*X*X*X;X;X;X;X;X;X;X;X;X;X;X;X;X;X;X;X;X;X;X;X>X>X;X;X;X;X>X>X;X;X;X;X:X:X;X;X>X>X>X>X>X>X,X,X,X>X,X,X>X,X,X,X,X,X>X>X>X>X>X>X,X,X,X,X,X,X,X,X,X,X,X,X,X,X,X,X<X<X,X,X,X,X,X,X,X,X,X,X,X,X,X,X,X,X,X,X,X,X,X,X,X,X,X,X,X,X,X,X,X,X,X,X<X<X<X<X<X<X<X<X,X,X,X,X,X,X,X,X,X,X,X,X,X,X,X,X,X>X>X,X>X>X,X,X,X,X>X>X,X,X,X,X,X,X>X>X>X>X>X>X>X>X>X>X>X>X;X;X;X;X>X>X;X;X;X;X;X;X;X;X;X;X;X;X;X;X;X;X;X;X;X;X*X*X*X*X;X;X;X;X;X;XU.s.U..X.X.X$X.X.X$X$X$X$X$X$X$X$X$XU.U.XX$X$X$X$X$X$X$X$X$X$X$X$X$X$X.X.X.X.X.X.X.X}.XXXX.XXXXX XU.b.b.^.H.c.!.^.^.^.^.^.^.^.!.!.!.^.Y.N.v.U.U.U.U.H.H.G.G.F.Z.c.r.c.3.x.s.M.Z.F.H.F.Z.N.N.N.N.N.N.N.M.b.v.x.N.c.a.8.5.8.a.k.a.j.U.U.A.b.U..XY..X>X;X%X%X$X|.|.;X;X$X$X$X$X$XH.w.r.;XyX0X}.F.2.5.jX",
"yX>.^ {.5X5X5XY.y.Z.Y.A.|.=X>X>X>X;XY.F.|.;X>X;X;X;X.XU.|.Z.d.j.s.x.j.5.a.9.9.9.a.c.M.v.d.d.k.M.N.N.N.Z.D.D.G.J.J.G.N.M.F.r.s.8.s.b.F.G.G.G.H.H.H.H.H.H.Z.N.H.^.!.!.Y.Y.Y.^.{.^.!.Y.U.U.Y.U.A.U.U.U.Y.}.}.|.}.^.}..X.X.X.X.X.X.X.X.X.XXX$X$XXXXX$X$X$X$X*X.XG.F.$X$X$XXX$X$X$X$X$X$X$X$X$X$X^.t.D.$X*X*X*X*X*X*X%X%X%X;X*X*X*X*X*X*X*X*X;X;X;X;X;X;X;X;X;X;X;X;X;X;X;X;X;X;X;X;X>X>X;X;X;X;X>X>X;X;X;X;X;X;X;X;X>X;X>X>X>X,X,X,X,X,X,X,X>X>X,X,X,X>X>X>X>X>X>X>X,X,X,X,X,X,X,X,X,X,X,X,X,X,X,X,X<X<X<X,X,X,X,X,X,X,X,X,X,X,X,X,X,X,X,X,X,X,X,X,X,X,X,X,X,X,X,X,X,X,X,X,X<X<X<X<X<X<X<X<X,X,X,X,X,X,X,X,X,X,X,X,X,X,X,X,X>X,X,X>X>X>X>X,X,X,X>X>X>X,X,X,X,X,X,X>X>X>X>X>X>X>X>X>X>X>X;X;X;X;X>X>X;X;X;X;X;X;X;X;X;X;X;X;X;X;X;X;X;X;X;X;X*X*X*X*X;X;X;X;X*X*X*XZ.j.}.$X*X*X$X$X*X$X$X$X$X$X$X$X$XJ.{.XX$X$X$X$X$X$X$X$X$X$X$X$X$X$X.X.X.X.X.X.X}.}.XX$XXXXXXX}.D.F.H.H.^.^.^.}.^.^.^.^.^.^.!.!.!.Y.Y.A.c.F.U.U.U.H.H.H.H.D.C.N.e.s.e.r.v.c.Z.F.H.H.A.Z.N.N.N.N.N.c.c.x.j.k.N.v.a.r.8.8.9.j.k.v.F.M.k.r.Z.}.^.^.;X;X*X$X$X|.}.%X;X$X$X$X$X$X|.s.3.U.6X6X$XJ.N.^ yX",
"b.E b.;X,X5X#Xx.a.}.^.U.$X=X=X>X>X*XF.U.;X;X,X,X,X;XU.'.'.8.[ { <.e.8.r.a.9.5.5.k.v.v.x.5.<.a.c.v.M.N.Z.D.D.G.J.H.F.N.N.v.r.a.8.j.b.F.G.H.H.H.G.H.U.H.H.Z.D.H.!.!.!.!.!.^.^.^.^.{.{.^.^.|.}.Z.U.U.m.U.|.}..X}.!.{..X.X.X.X.X.X.X.X.X.X.X$X$X$X$X$X$X$X$X*X$XU.F.{.$X$XXX#X$X$X$X$X$X$X$X$X}.j.c.|.*X*X*X*X*X*X*X;X;X;X;X*X*X*X*X*X*X*X*X;X;X;X;X;X;X;X;X;X;X;X;X;X;X;X;X;X;X;X;X>X;X;X;X;X>X>X>X;X;X;X;X,X,X;X;X>X>X>X>X;X;X;X;X>X>X>X>X>X>X>X>X,X,X>X>X>X>X>X>X,X,X,X,X,X,X,X,X,X,X,X,X,X,X,X,X,X,X,X,X<X<X<X<X,X,X,X,X,X,X,X,X,X,X,X,X,X,X,X,X,X,X,X,X,X,X,X,X,X,X,X,X,X,X,X,X<X<X<X<X,X,X,X,X,X,X,X,X,X,X,X,X<X<X<X<X,X>X>X>X>X,X,X,X,X,X>X>X>X>X>X,X,X,X>X>X>X>X>X>X>X>X>X>X>X>X>X;X;X;X>X>X;X;X;X;X;X;X;X;X;X;X;X;X;X;X;X;X*X*X*X*X;X;X;X;X;X;X;X;X*X*X*X*Xc.c..X;X$X$X*X*X$X$X$X$X$X$X$X^.J. X$X$X$X$X*X$X$X$X$X$X$X$X$X$X$X.X.X.X$X.X.XH.}..X$X.X.X{.Z.b.H.D.G.^.}.}.}.^.^.^.^.^.^.!.!.!.Y.Y.F.b.Z.U.Y.U.H.G.G.G.F.Z.C.x.e.j.5.j.k.M.Z.U.Y.F.Z.N.N.N.N.v.x.a.8.,.k.N.N.j.a.9.5.5.a.j.5.<.#.{ >.s..X^.Y.;X>X;X$X$X%X|.|.*X=X$X#X.X%X$Xb.6.y.;X0X;X}.{._ x.",
"Q } {.*X,X;XU.6.N.'.Y.^.%X=X=X=X>X|.N..X;X;X,X,X,X.XH.}.G.s.a.a.9.5.+.5.a.8.5.5.v.N.M.v.w.3.9.e.a.j.x.N.D.D.G.H.G.D.A.Z.y.s.9.r.c.C.F.G.H.G.H.G.H.U.H.F.Z.G.U.!.!.!.!.!.^.^.^.^.{.{.^.^.'.}.Z.N.F.M.F.'.|..X}.!.Y. X.X.X.X.X.X.X.X.X.X.X$X$X$X$X$X$X$X$X*X*X^.H.J.XX$XXX#X$X$X$X$X&X;X&XXXc.j.}.*X*X*X*X*X*X*X*X;X*X;X;X*X*X*X*X*X*X*X*X;X;X;X;X;X;X;X;X;X;X;X;X;X;X;X;X;X;X;X;X>X>X;X;X;X;X>X>X;X;X;X;X,X,X:X>X>X>X>X>X;X;X;X;X>X>X>X>X,X>X>X>X,X,X>X>X>X>X>X>X,X,X,X,X,X,X,X,X,X,X,X,X,X,X,X,X,X,X,X,X<X<X<X<X,X,X,X,X,X,X,X,X,X,X,X,X,X,X,X,X,X,X,X,X,X,X,X,X,X,X,X,X,X,X,X,X<X<X<X<X,X,X,X,X,X,X,X,X,X,X,X,X<X<X<X<X>X>X>X>X>X>X,X,X,X,X,X>X>X>X>X>X,X,X>X>X>X>X>X>X>X>X>X>X>X>X;X;X;X;X>X>X;X;X;X;X;X;X;X;X;X;X;X;X;X;X;X;X*X*X*X*X;X;X;X;X;X;X;X;X*X*X*X*X.Xc.b.$X*X*X*X*X$X$X$X$X$X$XXXJ.Y.|.$X$X$X$X*X$X$X$X$X$X$X$X$X$X$X.X.X.X$X.X.XG.}. XXX X}.G.b.c.F.G.U..X}.}.}.^.^.^.^.^.^.!.!.!.Y.Y.U.Z.N.H.Y.U.H.G.G.G.F.Z.N.c.e.r.5.a.c.v.N.U.U.G.F.Z.M.M.c.a.9.8.5.3.k.N.N.c.a.e.5.<.5.=.+.5.c.j.s.e.H.}.Y.$X>X;X$X$X%XXX|.#X;X$X#X#X%X$XH.a.1.J.wX%X|.Y.d.R ",
"S x.;X;X;X#Xx.w.'.^.G.#X;X;X=X=X;XU.Z.;X;X;X,X,X;XY.U.^.N.M.F.U.U.N.-.+.8.<.<.r.b.B.B.b.x.s.s.a.e.5.5.j.N.D.F.F.G.D.Z.N.9.r.5.j.b.Z.F.G.G.G.H.H.U.U.H.Z.A.H.!.U.!.!.!.!.^.^.^.^.^.^.^.^.}.}.U.b.A.N.H.'.|..X.X^.G.^..X.X.X.X.X.X.X.X.X.X$X$X$X$X$X$X$X$X$X*X.X!.F. X;X$X$X#X$X$X$X$X$X$XZ.t.Y.;X*X*X*X*X*X*X*X*X*X*X*X*X*X*X*X*X*X*X*X*X;X;X;X;X;X;X;X;X;X;X;X;X;X;X;X;X;X;X;X;X;X;X;X;X;X;X;X;X;X;X;X;X,X,X>X>X>X>X>X>X>X>X;X;X>X>X>X>X,X,X>X>X>X>X>X>X,X,X,X>X,X,X,X,X,X,X,X,X,X,X,X,X,X,X,X,X,X,X<X<X<X<X<X<X,X,X,X,X,X,X,X,X,X,X,X,X,X,X,X,X,X,X,X,X,X,X,X,X,X,X,X,X,X,X,X,X<X<X<X<X,X,X,X,X,X,X,X,X,X,X,X,X,X,X<X<X>X>X>X>X>X>X>X>X>X>X>X>X>X>X>X>X>X>X>X>X>X>X>X>X>X>X>X>X;X;X;X;X;X;X;X;X;X;X;X;X;X;X;X;X=X=X=X=X=X=X=X=X*X*X*X*X;X;X;X;X;X;X;X;X=X=X*X*X;X^.s.Z..X;X*X$X$X$X$X$X*X$X{.H.{.$X$X$X$X$X$X$X$X$X$X$X$X$X$X$X$X.X.X.X.X.X}.F.}. X X}.^.J.Z.s.Z.H.}..X}.}.}.^.^.^.^.^.^.!.!.!.Y.Y.Y.G.b.F.Y.U.H.H.G.G.F.D.N.N.a.8.e.w.j.b.N.H.U.H.A.b.s.e.5.3.e.r.a.s.j.b.N.b.a.e.5.@.) =.a.Z.H.U.Z.j.c.}.'.|.;X;X%X$X%X%X|.|.=X*X#X.X$X%X#Xv.5.w.*X6X.XU.G.W ",
"] Y.XX*X}.G.w.v.#X'.U.$X;X;X;X=X$XF.'.;X;X;X,X,X$XU.^.U.v.N.U.}.}.F.5._ +.+.<.j.v.M.M.v.b.c.b.k.j.j.e.r.b.b.N.Z.Z.N.Z.c.e.5.9.k.N.Z.F.F.G.G.H.H.H.U.F.N.G.U.U.U.U.U.!.!.^.^.^.^.^.^.^.^.}.^.^.N.A.G.].}.|.|.}.^.Z.!..X.X.X.X.X.X.X.X.X.X$X$X$X$X$X$X$X$X$X*X.X}.J.Y.$X$X$X#X$X$X$XXXXXXXt.Z.*X*X*X*X*X*X*X*X*X*X*X*X*X*X*X*X*X*X*X*X*X*X;X;X;X;X;X;X;X;X;X;X;X;X;X;X;X;X;X;X;X;X;X;X;X;X;X;X;X;X;X;X;X;X,X,X>X>X>X>X>X,X>X>X>X>X>X>X>X>X,X,X>X>X>X>X>X>X,X,X,X>X,X,X,X,X,X,X,X,X,X,X,X,X,X,X,X,X<X<X<X<X<X<X<X<X,X,X,X,X,X,X,X,X,X,X,X,X,X,X,X,X,X,X,X,X,X,X,X,X,X,X,X,X,X,X,X,X<X<X<X<X,X,X,X,X,X,X,X,X,X,X,X,X,X,X<X<X,X>X>X>X>X>X>X>X>X>X>X>X>X>X>X>X>X>X>X>X>X>X>X>X>X>X>X>X;X;X;X;X;X;X;X;X;X;X;X;X;X;X;X;X=X=X=X=X=X=X=X;X*X*X*X*X;X;X;X;X*X*X*X=X=X=X*X*X*X$XU.j.G..X*X$X$X$X$X$X;X.XU.J. X$X$X$X$X$X$X$X$X$X$X$X$X$X$X$X$X.X.X.X.X.X}.F.}.}. X}.{.{.H.s.Z.^..X^.}.}.}.{.^.^.^.^.^.!.!.!.Y.Y.Y.U.N.Z.U.U.H.H.G.F.F.D.C.N.x.8.s.w.e.N.N.A.H.F.M.a.9.3.5.a.s.j.x.v.j.v.N.N.a.r.5.+.W r.<.M.U.}.Y.N.s.H.|.'.>X;X$X$X%X;X#X}.$X*X$X.X#X$X*XZ.r.<.Z.;XXXD.U.6.",
"r.^.^.H.U.c.r.U.}.H.^.;X;X;X*X*XY.G.%X,X,X>X,X<X.XF.H.N.x.F.^.}.^.M.[ -.*.+.9.v.N.B.v.c.v.v.v.v.c.k.k.e.6.c.b.N.Z.b.j.>.r.<.r.c.N.F.F.F.H.H.H.H.H.H.F.Z.H.H.U.U.U.U.!.!.!.!.!.!.^.^.^.^.^.^.'.Y.Y.'.}.}.}.}.}.(.!.^..X.X.X.X.X.X.X.X.X.X.X.XXX#X$X$XXXXX$X*XXX|.!.J. X$X$X$X$X$X.XY.}.N.H.$X#X*X*X*X$X$X$X$X$X$X$X$X$X*X*X*X*X*X*X*X*X*X*X*X*X*X;X;X;X;X;X;X;X;X;X;X;X;X;X;X;X;X;X;X;X;X;X;X;X;X;X;X;X;X,X,X,X,X>X>X>X>X>X>X>X>X>X>X>X>X,X,X>X>X,X,X,X>X>X>X,X,X,X,X,X,X<X<X<X<X,X,X,X,X,X,X,X,X,X,X,X,X,X,X,X,X,X,X,X,X,X,X,X,X,X,X,X,X,X,X,X,X,X,X,X,X,X,X,X,X,X,X,X,X,X,X,X,X,X,X<X<X,X,X>X>X,X,X,X,X,X,X,X,X>X>X>X>X>X>X>X>X>X>X>X,X,X,X>X>X>X>X>X>X>X>X>X>X>X>X;X;X;X;X;X;X;X;X;X;X;X;X;X;X;X;X;X;X;X;X;X;X;X;X;X;X;X;X;X;X;X;X;X;X;X;X;X;X;X;X*X*X*X*X*X*X*X*X*XH.b.!.XX.XXXXX$X%X;XXXJ.Y.XX*X*X$X$X$X$X$X$X$X$X$X$X$X$X$X$XXXXX.X.X X}. X{.{.{.{.{..X{.A.!.}.}.}.}.}.}.^.{.Y.^.{.Y.Y.Y.Y.U.U.U.U.D.N.H.U.J.J.H.F.F.D.Z.N.c.8.e.e.,.v.v.M.F.F.N.3.9.j.k.x.c.c.c.c.k.k.v.N.j.r.5.-.~ 5.-.N.U.Y.Y.U.c.c.|.Y.$X;X*X$X$X*X$X}.XX;X$X X#X%X;X'.c.<.e.^.U.M.M.v.",
"r.c.j.j.N.j.b..XU.U.XX>X;X;X%X#XG.Y.;X,X,X,X,X;X!.H.D.c.b.H.^.^.Y.8._ <.+.=.r.v.N.M.v.c.v.v.v.v.v.c.x.e.y.M.N.N.G.Z.s.<.e.<.l.b.N.F.F.F.H.H.H.H.H.G.Z.D.H.H.U.U.U.U.!.!.!.!.!.!.^.^.^.^.^.'.'.'.'.'.}.}.}.}.}.}.}..X.X.X.X.X.X.X.X.X.X.X.X.X.X#X$X$X$X$X$X$X$X.X^.J.{.$X$X$X$X$X}.H.'.^.U.$X*X*X*X*X$X$X$X$X$X$X$X$X*X*X*X*X*X*X*X*X*X*X*X*X*X*X;X;X;X;X;X;X;X;X;X;X;X;X;X;X;X;X;X;X;X;X;X;X;X;X;X;X;X;X,X,X,X,X>X>X>X>X>X>X>X>X>X>X>X>X,X,X>X>X,X,X,X>X>X>X>X,X,X,X,X,X<X<X<X<X,X,X,X,X,X,X,X,X,X,X,X,X,X,X,X,X,X,X,X,X,X,X,X,X,X,X,X,X,X,X,X,X,X,X,X,X,X,X,X,X,X,X,X,X,X,X,X,X,X,X,X<X,X,X,X>X,X,X:X:X,X,X,X,X>X>X>X>X>X>X>X>X>X>X>X>X,X,X>X>X>X>X>X>X>X>X>X>X>X>X;X>X;X;X;X;X;X;X;X;X;X;X;X;X;X;X;X;X;X;X;X;X;X;X;X;X;X;X;X;X;X;X;X;X;X;X;X;X%X%X*X*X*X*X*X*X$X$X$XU.!..X{..XXX$X%X%X%X}.J.{.*X*X*X*X$X$X$X$X$X$X$X$X$X$X$X$X$XXXXX.X.X X X X{.{.}.}.{.|.{.{.}.}.}.}.}.}.^.^.Y.Y.^.{.Y.Y.Y.Y.U.U.U.U.H.b.F.H.J.J.H.F.F.D.Z.N.b.r.9.e.a.5.b.j.N.F.F.e.e.c.v.v.c.c.c.c.k.k.v.N.k.a.8.5.) 5.9.b.U.Y.^.U.Z.s.H.'.}.*X*X*X*X*X$X.X}.$X$XXX#X$X%X.XZ.9.5.v.H.b.x.c.",
"e.5.<.8.c.c.H. XD.^.;X,X;X;X$X}.B.#X,X,X>X<X>X$XF.U.N.x.D.!.}.^.A.{ +.-.[ ,.l.b.N.M.v.c.v.v.v.v.M.M.c.r.d.N.b.Z.!.Z.r.r.9.5.k.b.N.F.F.F.G.G.H.H.H.C.N.F.H.H.U.U.U.U.U.!.!.!.!.!.^.^.'.'.^.^.'.'.{.{.}.}.}.}.|.|..X.X.X.X.X.X.X.X.X.X.X.X.X.X.X.X$X$X$X$X$X$X*X$X}.Y.J.XX$X$X$X$X}.U.|.#XF.U.$X*X*X*X$X$X$X$X*X*X$X$X*X%X*X*X*X*X*X*X*X*X*X*X*X*X;X;X;X;X;X;X;X;X;X;X;X;X;X;X;X;X;X;X;X;X;X;X;X;X;X;X;X;X;X;X,X,X>X>X>X>X>X>X>X>X>X>X>X>X,X,X,X,X,X,X>X>X>X>X,X,X,X,X,X,X<X,X<X<X,X,X,X,X,X,X,X,X,X,X,X,X,X,X,X,X,X,X,X,X,X,X,X,X,X,X,X,X,X,X,X,X,X,X,X,X,X,X,X,X,X,X,X,X,X,X,X,X,X<X<X<X,X>X>X>X,X,X,X,X,X,X,X,X>X>X>X>X>X>X>X>X>X>X>X>X,X>X>X>X>X>X>X>X>X>X>X>X>X>X>X>X>X>X;X;X;X;X;X;X;X;X=X=X;X;X;X;X;X;X;X;X;X;X;X;X;X;X;X;X;X;X;X;X;X;X;X;X*X*X*X*X*X*X*X*X*X$X.XG.H.XX.X.XXX$X;X;X.XJ.J..X*X*X*X*X*X$X$X$X$X$X$X$X$X$X$X$X$XXXXX.X.X X X X|.|.}.}.|.{.oXoX}.}.}.}.}.^.^.^.Y.Y.^.^.Y.Y.Y.Y.U.U.U.U.H.b.N.H.J.J.F.F.F.F.Z.N.N.j.5.r.j.<.s.v.v.N.H.b.e.c.v.v.c.c.c.c.j.j.k.M.M.a.5.9._ -.k.M.H.Y.^.Y.H.x.Z.}.!.$X;X*X*X$X$X$X{.XX;X$XXX#X%X=X].j.,.5.N.M.k.d.",
"w.<.<.5.b.G.^.U.D. X>X>X;X;X$XY.G.*X;X>X>X<X>XXXZ.H.b.b.H.}.}.^.r._ 5.+.{ 5.j.c.N.M.c.x.v.v.v.v.M.M.c.r.c.v.s.Z.!.b.q.c.8.8.c.b.N.F.F.F.G.G.H.H.H.N.N.G.H.H.U.U.U.U.!.!.!.!.!.!.^.^.'.'.^.^.'.'.{.{.}.}.}.}.}.|..X.X.X.X.X.X.X.X.X.X.X.X.X.X.X.X$X$X$X$X$X$X$X$X.X{.J. X$X$X$X$X#X}.|..X}.H..X*X*X*X$X$X$X*X*X*X$X$X$X$X*X*X*X*X*X*X*X*X*X*X*X*X;X;X;X;X;X;X;X;X;X;X;X;X;X;X;X;X;X;X;X;X;X;X;X;X;X;X;X;X;X;X,X,X>X>X>X>X>X>X>X>X>X>X>X>X,X,X,X,X>X>X>X>X>X>X>X>X,X,X,X,X,X,X<X<X,X,X,X,X,X,X,X,X,X,X,X,X,X,X,X,X,X,X,X,X,X,X,X,X,X,X,X,X,X,X,X,X,X,X,X,X,X,X,X,X,X,X,X,X,X,X,X,X,X,X<X<X>X>X>X>X,X,X,X,X,X,X,X,X>X>X>X>X>X>X>X>X>X>X>X>X,X,X>X>X,X>X>X>X>X>X>X>X>X>X>X>X>X>X>X>X;X;X;X;X;X;X=X=X;X;X;X;X;X;X;X;X;X;X;X;X;X;X;X;X;X;X;X;X;X;X;X;X*X*X*X*X*X*X*X*X*X$X}.D.U.!..X}..X$X;X;XY.F.U.*X*X*X*X*X*X$X$X$X$X$X$X$X$X$X$X$X$XXXXX.X.X X X X|.|.|..X.X{.{.{.}.}.}.}.^.^.^.^.Y.Y.^.^.Y.Y.Y.Y.U.U.U.U.H.Z.b.H.J.J.H.F.F.F.Z.N.N.k.w.a.v.j.-.M.c.c.F.H.9.j.k.x.c.c.c.c.j.j.k.b.Z.j.5.8.-.+.j.s.F.Y.^.^.U.N.k.}.^.}.*X*X*X$X$X$X{. X$X$X#X#X$X*X.XN.5.=.j.Z.x.e.",
"5.r.N.Z.D.b.^.H.{.;X<X>X;X;XJ.D.}.;X;X>X<X;X*XY.F.F.j.N.(.^..XF.=.=.>.^ =.9.k.b.M.b.c.c.c.c.v.v.M.M.k.s.M.x.r.F.U.t.q.b.9.e.c.b.B.A.A.F.F.G.G.H.F.b.Z.H.H.H.H.U.U.U.U.U.!.!.!.!.Y.^.^.'.'.'.}.}.}.}.}.}.}.}.|.|..X.X.X.X.X.X.X.X.X.X.X.X.X.X$X$X$X$X$X$X$X$X$X$X$X}.J.J.$X$X$X$X$X.X.X|.*XH.H.$X$X$X$X$X$X$X$X*X$X$X$X$X*X*X*X*X*X*X*X*X*X*X*X*X;X;X;X;X;X;X;X;X;X;X;X;X;X;X;X;X;X;X;X;X;X;X;X;X;X;X;X;X;X;X;X;X>X>X>X>X>X>X>X>X>X>X>X>X>X>X>X>X>X>X>X>X>X>X>X>X>X>X>X>X>X>X>X>X,X,X,X,X,X,X,X,X,X,X,X,X,X,X,X,X,X,X,X,X,X,X,X,X,X,X,X,X,X,X,X,X,X,X,X,X,X,X,X,X,X,X,X,X,X,X,X,X,X,X,X,X>X>X>X>X,X,X,X,X,X,X,X,X>X>X>X>X>X>X>X>X>X>X>X>X>X>X>X>X,X,X,X,X>X>X>X>X>X>X>X>X>X>X>X>X;X;X;X;X;X;X=X=X;X;X*X*X;X;X;X;X*X*X*X*X*X*X*X*X;X;X;X;X;X;X;X;X;X;X*X*X*X*X*X*X*XXXH.^.XX}.{..X;X;X;X%XJ.G. X;X*X*X*X*X$X$X$X$X$X$X$X$X$X$X.X.XXXXXXX.X.X X X X.X.X.X{..X{.{.{.}.}.}.}.^.^.^.^.{.{.{.{.!.!.!.!.U.U.U.H.H.D.j.F.J.J.H.F.F.D.Z.N.b.x.9.j.j.k.@.c.N.s.N.U.j.y.v.M.c.c.c.c.j.j.j.c.Z.b.8.8.>._ 5.5.j.G.U.^.^.F.e.H..X}..X*X;X*X$X*X}.{.;X*X#XXXXX$X#XF.r.<.s.5X$XM.",
"b.!.,X;Xx.b.^.Z.XX>X,X>X;XXXH.H.#X;X,X,X>X>X$XJ.H.M.c.F.'.'.(.k.+.,.+.) 3.a.c.b.b.c.c.c.c.c.c.v.v.v.j.v.Z.d.s.G.G.>.e.N.9.e.v.b.Z.A.F.F.F.G.G.H.F.C.F.H.H.H.H.U.!.U.U.U.!.!.!.!.Y.^.^.'.'.'.'.}.}.}.}.}.}.}.|.|..X.X.X.X.X.X.X.X.X.X.XXX.X.X$X$X$X$X$X$X$X$X$X$X*X XH.J. X$X;X$X$X.X.X.X*XH.H.$X$X$X$X$X$X$X$X$X$X$X$X$X*X*X*X*X*X*X*X*X*X*X*X*X;X;X;X;X;X;X;X;X;X;X;X;X;X;X;X;X;X;X;X;X;X;X;X;X;X;X;X;X;X;X;X;X>X>X>X>X>X>X>X>X>X>X>X>X>X>X>X>X>X>X>X>X>X>X>X>X>X>X>X>X>X>X>X>X,X,X,X,X,X,X,X,X,X,X,X,X,X,X,X,X,X,X,X,X,X,X,X,X,X,X,X,X,X,X,X,X,X,X,X,X,X,X,X,X,X,X,X,X,X,X,X,X,X,X,X,X>X>X>X>X,X,X,X,X,X,X,X,X>X>X>X>X>X>X>X>X>X>X>X>X>X>X>X>X,X,X>X,X>X>X>X>X>X>X>X;X>X>X>X>X;X;X;X;X;X;X=X=X;X;X*X*X;X;X;X;X*X*X*X*X*X*X*X*X;X;X;X;X;X;X;X;X;X;X*X*X*X*X*X*X*X$XG.U.$X}. XXX;X>X%X{.H.Y.$X;X*X*X*X$X$X$X$X$X$X$X$X$X$X$X.X.XXXXXXX.X.X X X X.X.X.X{.{.{.{.{.}.}.}.}.^.^.^.^.{.{.{.{.!.!.!.!.U.U.U.H.H.H.b.Z.J.J.H.F.F.D.Z.N.N.c.9.s.s.k.,.r.Z.c.b.F.v.y.c.v.c.c.c.c.k.j.j.k.N.b.9.8.,.) { 9.w.v.Y.'.Y.Y.a.N.}.^.}.$X;X*X*X*XXX{.XX*X$X#XXX#X#XU.c.8.9.sXlX6X",
".X;X;X.Xr.U.G.H.;X<X>X;X$X^.F.}.;X;X;X5X;X;X{.J.G.x.N.U.}.$X'.e.+.-.~ { e.k.b.b.b.c.c.c.c.c.c.c.M.k.j.N.Z.s.c.H.b.*.s.b.8.9.v.N.A.A.F.F.G.G.G.H.G.Z.H.H.H.H.H.U.!.!.U.U.!.!.!.!.Y.^.'.}.'.'.'.'.}.}.}.}.}.}.|.|..X|.|.|..X.X.X.X.X.X.X.X.X.X$X$X$X$X$X$X$X$X$X$X*XXXQ.F.Y.$X;X$X.X^.'..X*X^.}.$X$X$X$X$X$X$X$X$X$X$X$X$X*X*X*X*X*X*X*X*X*X*X*X*X;X;X;X;X;X;X=X=X=X;X;X;X;X;X;X=X=X=X;X;X;X;X;X;X;X;X;X;X;X;X;X;X>X>X>X>X>X>X>X>X>X>X>X>X>X;X>X>X,X>X>X>X>X>X>X,X,X,X>X>X>X>X>X>X,X,X,X,X,X,X,X,X,X,X,X,X,X,X,X,X,X,X,X,X,X,X,X,X,X,X,X,X,X,X,X,X,X,X,X,X,X,X,X,X,X,X,X,X,X,X,X,X,X,X,X,X,X>X,X,X,X,X:X:X,X,X,X,X>X>X>X>X>X>X>X>X>X>X>X>X>X>X>X>X>X>X>X>X>X>X>X>X>X>X;X;X;X;X;X;X;X;X;X;X;X;X=X=X;X;X*X*X;X;X;X;X*X*X*X*X*X*X*X*X;X;X;X;X;X;X;X;X;X;X*X*X*X*X*X*X*X$X!.^..X}.(.*X>X>X.XD.G.}.;XXX*X*X*X*X$X$X$X$X$X$X$X$X$X$X#X#XXXXXXX.X.X X X X.X.X.X{.{.{.{.{.}.}.}.}.(.(.^.^.{.{.^.^.!.!.!.!.U.U.U.H.H.H.F.A.F.H.H.F.F.D.Z.N.N.c.8.a.k.M.r.5.F.N.j.N.N.r.d.c.c.c.c.c.k.k.j.j.v.M.e.9.<.) U =.5.a.Z.Y.Y.^.b.s.H.^.U..X;X*X*X*X$X}.{.;X%X#XXX#X.X'.Z.a.+.$XjXaX",
".XXX*X.Xc.}.U..X>X<X>X*X#XJ.F.$X;X;X;X>X;X#XJ.J.Z.M.G.U.}.}.A.@.-.{ Y @.a.c.b.c.c.c.c.c.c.c.c.c.M.k.j.Z.N.d.D.U.F.a.c.l.8.9.b.C.A.F.F.F.G.G.H.H.G.F.U.H.H.H.U.U.!.!.U.U.!.!.!.!.Y.^.'.}.'.'.'.'.}.}.}.}.}.}.|.|.|.|.|.|..X.X.X.X.X.XXXXX.X.X$X$X$X$X$X$X$X$X$X$X$X$X XJ.F.XX;X$X^.H.Y.|.$X*X*X$X$X$X$X$X$X$X$X$XXX$X*X$X*X*X*X*X*X*X*X*X*X*X*X*X;X;X;X;X;X;X=X=X=X;X;X;X;X;X;X=X=X=X;X;X;X;X;X;X;X;X;X;X;X;X;X;X>X>X>X>X>X>X>X>X>X>X>X>X;X;X>X>X,X>X>X>X>X>X>X,X,X,X>X>X>X>X>X>X,X,X,X,X,X,X,X,X,X,X,X,X,X,X,X,X,X,X,X,X,X,X,X,X,X,X,X,X,X,X,X,X,X,X,X,X,X,X,X,X,X,X,X,X,X,X,X,X,X,X,X,X,X,X,X,X,X,X:X:X,X,X,X,X,X>X>X>X>X>X>X>X>X>X>X>X>X>X>X>X>X>X>X>X>X>X>X>X>X>X;X;X;X;X;X;X;X;X;X;X;X;X=X=X;X;X*X*X;X;X;X;X*X*X*X*X*X*X*X*X;X;X;X;X;X;X;X;X;X;X*X*X*X*X*X*X*X$X.X.X^.U.U.$X>X;X^.G.Y.XX*XXX*X*X*X*X$X$X$X$X$X$X$X$X$X$X#X#XXXXXXX.X.X X X X.X.X.X{.{.{.{.{.}.}.}.}.{.^.^.^.{.^.^.^.Y.Y.!.!.U.U.U.H.H.H.U.G.H.H.H.F.F.D.Z.N.Z.c.6.r.v.Z.v.>.N.F.j.b.F.r.s.k.c.c.c.c.k.k.j.j.k.M.r.9.<._ U G { r.N.H.Y.U.G.a.N.U.U.^.;X*X*X*X*X.XY.;X%X$X#X$X}.'.H.c.[ Y.sX,X",
"$X$X*X;X{.Z.Y.;X;X,X,X*X.XF.^.*X;X;X;X;X;X.XF.H.x.N.U.Y.^.H.3.[ >.W E <.a.k.M.v.x.x.c.c.v.v.v.v.M.k.j.A.v.k.H.H.c.A.N.c.5.9.v.Z.Z.D.F.F.G.F.H.H.F.U.Y.Y.Y.F.A.U.Y.Y.Y.Y.Y.Y.].].^.{.}.}.^.^.^.}.}.}.}.}.}.}..X.X.X.X.X.X.X.X.X.XXXXXXXXXXXXXXXXX$X$X$X$X$X$X$X$X$X$XXXY.H. X;X;X}.J.U.^.$X=X*X$X$X$X$X$X$X$X$X$X}..X;XXX$X$X*X*X*X*X*X*X*X*X*X*X=X=X*X*X=X=X=X=X=X;X;X;X;X;X;X=X=X=X;X;X;X;X;X;X;X;X>X>X>X>X>X>X>X>X>X>X>X>X>X>X>X>X>X>X>X>X>X>X,X>X>X>X>X>X,X,X<X<X,X,X,X,X,X,X<X<X<X,X,X,X,X,X,X,X,X,X,X,X,X,X<X<X<X,X,X,X,X,X,X,X,X,X,X,X,X,X,X,X,X,X,X,X,X,X,X,X,X,X,X,X,X,X,X,X,X,X>X>X>X>X>X>X>X>X>X>X>X>X,X,X>X>X>X>X,X,X>X>X;X;X>X>X>X>X>X>X>X>X>X>X;X;X>X;X;X;X;X;X;X;X;X;X;X;X;X;X*X*X*X*X*X*X;X;X;X;X*X*X*X*X*X*X*X*X;X;X;X;X;X;X;X*X*X;X*X*X*X*X*X*X$XXX XXX{.J.{.;X>X;XU.F.}.*X*X*X$X$X$X$X$X$X$X$X$X$X$X$XXXXX#X#XXXXX.X.X.X X X X X X X X}.}.}.}.}.}.}.}.}.{.{.{.{.{.^.^.^.!.!.U.Y.Y.Y.U.H.U.U.G.Z.H.H.G.F.F.D.D.M.c.8.e.N.F.N.>.M.H.Z.b.F.j.k.v.v.v.v.v.k.k.j.s.k.b.k.5.<.[ E Y R 5.k.F.^.U.H.k.j.H.F.!.$X;X*X*X,X*XU..X;X*X*X$X$X.X^.U.B.6X6X;X",
"$X$X*X;X$X^.$X>X;X>X;X*X(.D..X*X;X;X;X;X=XY.F.b.s.N.H.U.^.N.@.>.5.U ^ 4.f.v.M.v.x.x.x.c.v.v.v.v.M.k.j.A.v.c.H.F.k.A.Z.b.8.8.k.Z.Z.D.F.F.G.F.H.H.F.U.Y.Y.U.F.Z.F.U.Y.Y.Y.Y.Y.].^.^.{.}.^.^.^.^.}.}.}.|.}.}.}..X.X.X.X.X.X.X.X.X.XXXXXXXXXXXXXXXXX$X$X$X$X$X$X$X$X$X$X$X}.J.{.;X;X$XJ.F.G.U.#X*X$X$X$X$X$X$X$X$X$X}.}.;XXX}..XXX*X*X*X*X*X*X*X*X*X=X=X*X*X=X=X=X=X=X;X;X;X;X;X;X=X=X=X;X;X;X;X;X;X;X;X>X>X>X>X>X>X>X>X>X>X>X>X>X>X>X>X>X>X>X>X>X>X,X,X>X>X>X>X,X,X<X<X,X,X,X,X,X,X,X,X,X,X,X,X,X,X,X,X,X,X,X,X,X,X<X<X<X,X,X,X,X,X,X,X,X,X,X,X,X,X,X,X,X,X,X,X,X,X,X,X,X,X,X,X,X,X,X<X,X,X>X>X>X>X>X>X>X>X>X>X>X>X,X,X>X>X>X>X,X,X>X>X;X;X>X>X>X>X>X>X>X>X>X>X;X>X>X>X;X;X;X;X;X;X;X;X;X;X;X;X*X*X*X*X*X*X;X;X;X;X*X*X*X*X*X*X*X*X;X;X;X;X;X;X;X*X*X*X*X*X*X*X*X*X$X XY.{.J.J.$X>X;XXXG.H..X*X*X*X;X$X$X$X$X$X$X$X$X$X$X$XXXXX#X#XXXXX.X.X.X X X X X X X X X}.}.}.}.}.}.}.}.{.{.{.{.{.^.^.^.!.U.U.Y.Y.Y.Y.U.U.U.F.Z.H.H.G.F.D.Z.Z.N.c.5.e.Z.F.N.,.b.H.A.M.D.j.k.b.v.v.v.v.k.k.j.s.k.v.k.5.<.[ E Y ^ ^ e.Z.H.H.U.N.8.G.H.H..X*X;X;X;X*X^.}.;X;X*X$X*X$X$X.X*X5X5X,X",
"$X$X*X;X;X$X;X;X>X>X;X*XH.H.*X;X;X;X;X;X.XF.F.j.c.N.F.G.U.b.5.9.5.W _ 9.j.v.M.k.x.x.x.x.v.v.v.v.M.k.j.A.v.v.H.Z.a.Z.Z.N.a.5.a.v.Z.D.F.F.F.G.H.Z.N.F.Y.U.U.H.F.F.H.Y.Y.Y.Y.Y.].'.^.}.}.^.^.^.}.}.}.}.}.}.}.}..X.X.X.X.X.X.X.X.X.XXXXXXXXXXXXXXXXX$X$X$X$X$X$X$X$X$X$X$XXXY.Y.XX;X>X}.F.Z.A..X*X*X$X$X$X$X$X$X$X$X.XY.*X$X.X$X*X;X;X*X*X*X*X*X*X*X=X=X=X=X=X=X=X=X=X;X;X;X;X;X;X=X=X=X;X;X;X;X;X;X;X;X>X>X>X>X>X>X>X>X>X>X>X>X>X>X>X>X>X>X>X>X>X>X,X,X>X>X>X>X>X,X<X<X<X,X,X,X,X,X<X,X<X<X,X,X,X,X,X,X,X,X,X,X,X,X<X<X<X<X,X,X,X,X,X,X,X,X,X,X,X,X<X<X<X<X,X,X,X,X,X,X,X,X,X,X,X,X<X<X<X<X>X>X>X>X>X>X>X>X,X,X>X,X>X,X>X>X>X>X>X,X>X>X>X;X>X>X>X,X>X>X>X>X>X>X>X>X;X;X;X;X;X;X;X;X;X;X;X;X;X*X*X*X*X*X*X*X;X;X;X;X*X*X*X*X*X*X*X*X;X;X;X;X;X$X$X*X;X;X*X*X*X*X*X*X$X{.D.D.V.Q.<X>X;X^.F.^.*X*X*X*X;X%X$X$X$X$X$X$X$X$X$X$X.XXX.X.XXXXX.X.X.X X X X X X X X X}.}.}.}.}.}.}.}.{.{.{.{.{.^.^.!.U.U.U.Y.Y.Y.Y.Y.Y.H.A.Z.G.H.F.F.D.C.b.b.j.5.s.Z.F.N.,.c.G.F.N.Z.s.x.N.v.v.v.v.k.k.j.j.j.c.k.9.<.[ E Y ) U e.N.F.F.H.N.>.C.H.F.}.*X,X;X;X;X.X^.$X;X*X$X*X*X*X*X;X;X,X5X",
"$X$X*X;X;X*X$X;X>X;X;X$XA.}.;X;X;X;X;X;XH.Z.N.v.Z.F.F.A.M.5.#.@.-._ { 9.j.m.M.j.k.x.x.x.v.v.v.v.M.k.j.A.b.M.H.N.r.Z.A.Z.v.5.9.j.Z.D.F.F.F.H.H.b.c.Z.G.H.U.Y.U.F.G.U.Y.Y.Y.Y.^.'.^.^.^.^.^.^.}.}.}.}.}.}.}.}..X.X.X.X.X.X.X.X.X.XXXXXXXXXXXXXXXXX$X$X$X$X$X$X$X$X$X$X$X$X{.J..X;X;X$XU.A.A.^..X*X$X$X$X$X*X%X$X$X#XU.*X*X$X*X*X;X;X*X*X*X*X*X*X*X=X=X=X=X=X=X=X=X=X;X;X;X;X;X;X=X=X=X;X;X;X;X;X;X;X;X>X>X>X>X>X>X>X>X>X>X>X>X>X>X>X>X>X>X>X>X>X>X>X>X>X>X>X>X>X,X<X<X,X,X,X,X,X,X<X<X<X<X,X,X,X,X,X,X,X,X,X,X,X,X<X<X<X<X,X,X,X,X,X,X,X,X,X,X,X,X<X<X<X<X,X,X,X,X,X,X,X,X,X,X,X,X<X<X<X<X>X>X>X>X>X>X>X>X,X,X,X,X>X>X>X>X>X>X>X>X>X>X>X;X:X>X,X,X>X>X>X>X>X>X>X>X;X;X;X;X;X;X;X;X;X;X;X;X;X*X*X*X*X*X*X*X;X;X;X;X*X*X*X*X*X*X*X*X;X;X;X;X*XXXXX$X;X;X*X*X*X*X*X*X.XU.N.b.b.$X>X;X$X!.F.|.*X*X*X*X$X$X$X$X$X$X$X$X$X$X$X$X.X.X.X.XXXXX.X.X.X X X X X X X X X X X X}.}.}.}.}.{.{.{.{.{.^.^.!.U.U.H.Y.Y.Y.Y.^.Y.H.Z.Z.G.H.G.G.Z.N.b.j.a.9.M.N.Z.M.-.k.G.F.Z.N.s.c.N.v.v.v.v.k.k.j.j.s.c.c.9.<.[ E Y ~ >.=.N.H.F.F.b.<.b.Z.F.^.$X;X,X*X;X$XU..X;X;X*X*X;X;X;X;X;X;X,X",
"$X$X%X%X;X;X;X;X;X;X*X^.D.*X;X;X;X;X;X}.F.U.v.v.A.N.M.k.a.{ c Z ) ^ +.5.j.c.b.j.k.k.k.k.c.c.v.v.N.k.f.F.M.N.F.F.9.k.Z.A.Z.j.<.e.j.N.Z.D.G.H.H.H.A.Z.F.H.Y.Y.Y.U.G.U.Y.Y.Y.Y.].(.^.^.^.^.^.}.}.}.}.}..X.X}.}..X.X.X.X.X.X.X.X.X.XXXXXXXXXXXXXXXXX$X$X$X$X$X$X$X$X$X$X$X$X XJ.G.*X;X;X.XF.Z.U.}.$X$X$X$X$X$X$X$X$X$XY.^.$X.X$XXX=X;X*X*X*X*X*X*X*X=X=X=X=X=X=X=X=X=X;X;X;X;X;X;X=X=X=X;X;X;X;X;X;X;X;X>X>X>X>X>X>X>X>X>X>X;X;X>X>X>X>X>X>X>X>X>X>X>X>X>X>X>X>X>X>X>X>X>X>X>X>X>X>X,X,X>X>X>X>X,X,X>X>X>X>X>X>X>X>X1X,X>X>X>X>X,X,X>X>X>X>X>X>X>X>X,X,X,X,X>X>X>X>X>X>X>X>X>X>X>X>X,X,X,X,X,X,X,X>X>X>X>X,X>X>X>X>X>X>X>X>X>X>X>X>X,X,X,X,X:X:X:X;X>X>X>X>X;X;X>X>X>X>X;X;X;X;X;X;X;X;X;X;X;X*X*X*X*X*X*X*X;X;X;X;X*X*X*X*X*X*X*X*X$X^.Y.$X$X.X$X*X*X*X*X*X*X*X*X$X}.b.x.c.H.;X>X;X.XH.U.$X*X*X*X*X$X$X$X$X$X$X$X$XXXXX$XXX.X.X.X.X.X.X.X.X X X X X}.}.}.}. X X X X X}.}.}.{.{.{.{.{.{.^.!.U.H.H.U.Y.Y.U.U.^.U.F.F.G.H.H.G.Z.N.c.s.e.e.s.N.A.Z.x.#.v.A.F.F.F.a.b.N.v.v.v.v.c.k.j.j.j.k.v.e.<.{ W H ^ 5.#.j.A.v.j.v.r.j.s.D.^.^.*X;X;X;X*X}.!.$X;X;X;X;X;X;X;X;X;X;X",
"$X*X%X%X;X;X;X;X;X;X$XF.^.;X;X*X;X;X$XH.Y.}.M.e.s.a.y.y.c.r.H h h B ) -.a.k.M.k.j.k.k.k.k.c.v.v.N.k.0.G.N.B.H.F.a.r.M.A.F.N.e.<.w.j.N.Z.F.G.G.H.H.G.H.U.U.U.Y.Y.U.U.Y.Y.Y.^.].].^.^.^.^.^.}.}.}.}.}.|.|.}.}..X.X.X.X.X.X.X.X.X.XXXXXXXXXXXXXXXXX$X$X$X$X$X$X$X$X$X$X$X$XXXY.G.}.;X;X$XU.A.F.^..X$X$X$X$X$X$X$X$X*X.XH.$X.X}.{.*X*X*X*X*X*X*X*X*X=X=X=X=X=X=X=X=X=X;X;X;X;X;X;X=X=X=X;X;X;X;X;X;X;X;X>X>X>X>X>X>X>X>X>X>X;X;X;X>X>X>X>X>X>X>X>X>X>X>X>X>X>X>X>X>X>X>X>X>X>X>X>X>X,X,X>X>X>X>X>X,X>X>X>X>X>X>X,X>X<X<X>X>X>X>X,X,X>X>X>X>X>X>X,X,X,X>X,X,X>X>X>X>X>X>X>X>X>X>X,X>X>X>X,X,X>X,X,X>X>X>X>X,X>X>X>X>X>X>X>X>X>X>X>X>X>X,X,X,X:X:X;X;X>X>X>X>X;X>X>X>X>X>X>X>X;X;X;X;X;X;X;X;X;X*X*X*X*X*X*X*X;X;X;X;X*X*X*X*X*X*X*X*X XU.Y.XX$XXX;X*X*X*X*X*X*X*X*X.XH.c.x.b.}.;X>X*X^.U.'.$X*X*X*X*X$X$X$X$X$X$X$X$XXXXX.X.X.X.X.X.X.X.X.X.X X X X X}.}.}.}.}.}.}.}.}.}.}.{.{.{.{.{.{.^.!.U.H.H.H.U.Y.Y.U.U.U.F.F.H.H.H.H.F.Z.b.s.r.9.a.b.F.F.Z.w.<.N.N.Z.H.Z.r.v.N.v.v.v.v.c.k.j.j.a.k.b.e.-._ U U [ @.<.>.[ ) { ,.5.j.b.G.H.H..X*X;X;X*X.XU.}.*X;X;X;X;X;X;X;X;X;X",
"*X*X$X%X;X;X;X;X;X;X^.Z.XX;X*X*X;X,X.XN.F.'.U.b.c.s.k.v.b.a.) N e j E =.8.a.v.k.j.k.k.k.k.v.v.b.N.M.r.v.N.B.H.H.Z.9.r.C.Z.A.v.e.5.w.j.N.D.F.G.G.U.U.U.U.H.U.Y.^.Y.H.U.Y.^.Y.].].^.^.^.^.^.(.}.}.}.}.|.|.}.}..X.X.X.X.X.X.X.X.X.XXXXXXXXXXXXXXXXX$XXX$X$X$X$X$X$X$X$X$X$X$X}.J.H.*X,X*X!.F.Z.H.}.$X$X$X$X$X$X$X$X*X$XH.}..X^.H.$X*X*X*X*X*X*X*X*X=X=X=X=X=X=X=X=X=X;X;X;X;X;X;X=X=X=X;X;X;X;X;X;X;X;X>X>X>X>X>X>X>X>X;X;X;X;X>X>X>X>X>X>X>X>X>X>X>X>X,X,X>X>X>X>X>X>X,X>X,X,X>X>X>X,X>X>X>X>X,X,X>X>X>X>X,X,X,X,X,X,X>X>X>X>X,X,X>X>X>X>X,X>X>X,X>X>X>X>X>X>X>X>X>X>X>X>X,X,X,X,X>X>X>X>X>X>X>X>X>X>X,X,X>X>X>X>X,X>X,X,X>X>X>X>X>X>X>X>X;X;X;X;X>X>X>X>X;X;X>X>X>X>X>X>X;X;X;X;X;X;X;X;X;X*X*X*X*X*X*X*X;X;X;X;X*X*X*X*X*X*X*X*X.X^.}.$XXXXX;X;X*X*X*X$X*X$X.X'.C.j.x.H.&X>X;X}.H.Y.$X*X*X*X*X*X$X$X$X$X$XXX$X$XXX.X.X.X.X.X.X.X.X.X X|. X X X X X X}.}.}.}.}.}.}.{.{.{.{.{.{.{.^.Y.U.U.H.H.U.!.Y.Y.Y.U.F.F.H.U.U.H.G.Z.b.s.e.r.s.b.F.H.Z.c.<.a.D.N.D.F.M.e.c.N.v.b.v.v.c.k.k.j.a.k.v.8.{ U c B _ _ e.j.e.8.r.c.b.F.F.H.F.D.}.;X;X;X*X*X!.^.$X;X;X;X;X;X;X;X;X;X",
";X$X%X;X;X;X;X;X*X.XH.F.$X;X*X*X*X;X^.c.k.D.U.F.F.M.M.N.v.a.{ U j d U { <.e.c.k.j.k.k.k.k.v.v.b.N.Z.k.9.Z.Z.J.H.G.j.q.j.Z.Z.F.v.e.5.w.j.N.D.F.G.H.U.U.F.F.H.Y.'.{.U.U.Y.Y.Y.].].^.^.{.^.^.^.}.}.}.}.|.|.}.}..X.X.X.X.X.X.X.X.X.XXXXXXXXXXXXXXXXXXXXX$X$X$X$X$X$X$X$X$X$X$X X!.F..X;X*X{.H.Z.F.^.XX$X$X$X$X$X$X$X*X$X}.U.$X!.G.$X*X*X*X*X*X*X*X*X=X=X=X=X=X=X=X=X=X;X;X;X;X;X;X=X=X=X;X;X;X;X;X;X;X;X>X>X>X>X>X>X>X>X;X;X;X;X>X>X>X>X>X>X>X>X>X>X,X,X,X,X,X,X>X>X>X>X,X,X,X,X,X>X>X>X>X>X>X>X,X,X,X>X>X,X>X,X,X>X>X>X>X>X>X>X,X,X,X>X>X,X>X,X,X>X>X>X>X>X>X>X>X>X,X>X>X,X>X,X,X>X>X>X>X>X>X>X>X>X>X>X,X,X>X>X>X>X,X,X,X,X,X>X>X>X>X>X;X;X;X;X;X;X>X>X>X>X;X;X>X>X>X>X>X>X;X;X;X;X;X;X;X;X;X*X*X*X*X*X*X*X;X;X;X;X*X*X*X*X*X*X*X*X^.U.Y.XX{. X;X;X*X*X*X$X$X$X.X!.v.j.b.}.&X;X$X^.U..X*X*X*X*X*X*X$X$X$X$X$XXX$X$X.X.X.X.X.X.X.X.XXX.X|.|. X X X X X X X}.}.{.{.{.{.{.{.{.{.{.{.{.!.U.U.H.H.H.U.U.Y.Y.Y.F.F.H.U.U.H.H.Z.C.j.e.e.s.M.D.G.F.M.w.<.M.N.Z.F.G.v.w.c.N.v.v.v.v.c.k.k.j.j.v.k.,.) N 8 s h E <.y.j.s.b.G.D.G.Z.D.F.Z.^.$X*X;X*X*X}.!..X*X;X;X;X;X;X;X;X;X",
";X;X;X;X;X;X;X;X;X}.N.{.$X;X;X;X;X;X^.c.c.F.Y.J.U.N.N.M.M.a.{ W G h A ^ -.5.k.k.c.k.c.c.v.v.v.v.N.Z.C.4.x.H.F.A.H.N.5.r.Z.F.Z.Z.b.r.8.w.x.N.F.H.H.H.U.H.F.F.G.U.Y.U.H.H.!.!.^.^.^.^.^.^.}.}.}.}.}.}.}.}.|.}.}.}. X X X X.X.X.X.X.X.X.X.X.X.X.X.X.X.X#X#X$X$X$X$X$X$X$X$X*X.X}.H.U.XX;X$X!.D.Z.H.|.$X$X$X$X*X*X*X*X$X.XH..X.X.XXX*X*X*X;X;X*X*X*X*X*X*X*X*X*X*X*X;X;X;X;X;X;X;X;X;X;X;X;X;X;X;X;X;X;X;X;X;X;X;X;X;X;X;X;X>X>X>X>X>X>X>X>X>X>X>X>X>X>X>X>X>X>X>X>X,X,X,X,X,X,X,X,X>X>X>X>X>X>X>X,X,X,X,X,X:X,X,X,X>X>X>X>X>X>X>X>X>X,X,X,X>X>X>X>X,X,X,X,X:X:X,X,X,X,X,X,X,X,X,X,X,X,X>X>X>X>X>X>X>X>X>X>X>X>X>X>X>X>X>X>X>X>X>X>X;X;X;X;X;X;X;X;X;X;X;X>X;X;X;X;X;X;X;X;X;X;X;X;X;X;X;X;X;X;X;X;X*X*X*X*X*X*X*X*X;X;X;X*X*X;X*X$XJ.{.Y.$X{.}.*X$X&X&X$X$X$X.X^.Z.j.x.D..X;X;X.XU.{.$X$X$X$X$X$X$X$X$X$X$X$X$X$X$XXXXXXXXXXXXXXXXX.X.X.X.X.X}.}.}. X X X}.}.}.{.{.^.{.^.^.^.^.^.^.!.U.U.H.H.U.!.!.!.U.G.F.H.H.H.H.H.B.v.j.r.a.k.Z.G.H.G.A.s.<.j.H.N.G.U.M.9.c.A.M.M.v.v.v.c.k.k.j.s.v.e.+.~ x w y N { ,.5.a.a.j.G.D.F.G.H.H.C.H.;X*X*X;X*X;XY.Y.;X*X*X*X*X;X;X;X;X",
";X;X;X;X;X;X;X;X$XJ.N.$X$X$X*X;X;X;X^.v.N.J.}.{.U.N.b.c.a.9.+.) Y h Z W =.5.a.c.c.x.c.c.v.v.v.v.M.Z.A.j.-.Z.G.H.H.U.c.,.j.A.A.G.Z.c.r.8.e.k.N.F.G.H.H.U.G.F.F.G.U.U.H.H.H.!.^.^.^.^.^.^.}.}.}.}.}.}.}.}.|.}.|.|. X X X X.X.X.X.X.X.X.X.X.X.X.X.X.X.X#XXX$X$X$X$X$X$X$X$X$X$X.X^.H.}.;X;X}.H.Z.A.U.^.}..X.X.X$X$X$X.X.XU.H.*X;XXX$X*X*X*X*X*X*X*X*X*X*X*X*X*X*X*X;X;X;X;X;X;X;X;X;X;X;X;X;X;X;X;X;X;X;X;X;X;X;X;X;X;X;X;X>X;X>X>X>X>X>X>X>X>X>X>X>X>X>X>X>X>X>X>X,X,X,X,X,X,X,X,X>X>X>X>X>X>X>X>X,X,X,X,X:X:X,X,X>X>X>X>X>X>X>X>X,X,X>X,X>X>X>X>X,X,X,X,X:X:X,X,X,X,X,X,X,X,X,X,X,X,X>X>X>X>X>X>X>X>X,X,X,X,X>X>X>X>X>X>X>X>X>X>X;X;X;X;X;X;X;X;X;X;X>X>X;X;X;X;X;X;X;X;X;X;X;X;X;X;X;X;X;X;X;X;X*X*X*X*X*X*X*X*X;X;X;X;X;X;X*XXXXX$X X X}. X$X$X&X$X$XXX.XY.Z.c.c.b.!.$X;X$X^.H. X$X$X$X$X$X$X$X$X$X$X$X$X$X$X.XXXXXXXXXXXXXXXXX.X.X.X.X.X}.}.}. X X X}.}.{.{.{.^.{.^.^.^.^.^.!.U.U.H.J.H.!.!.!.U.G.F.G.H.H.H.F.B.c.s.y.r.c.Z.A.G.U.G.v.<.a.Z.G.Z.G.U.a.s.N.Z.b.M.v.v.v.c.k.k.j.c.k.5.[ E j w n ) -.>.5.r.j.c.G.G.H.H.U.H.Z.H.*X*X*X*X*X;X{.J.XX*X*X*X*X;X;X;X;X",
";X;X;X;X;X;X;X;X}.N.J.>X$X$X%X%X;X;X^.v.F.Y.}.}.U.b.k.a.r.0.9.;._ c Z ~ +.<.9.M.c.c.c.c.v.v.v.v.v.M.A.C.9.5.A.F.F.F.F.a.5.M.F.I.F.N.c.r.9.e.j.N.A.G.G.H.U.H.F.F.G.U.H.F.H.].!.!.^.^.^.^.}.}.}.}.}.}.}.}.|.|.|.|. X X X X.X.X.X.X.X.X.X.X.X.X.X.X.X.X.X.X$X$X$X$X$X$X$X$X$X*X$X}.G.U.*X;X$X!.Z.N.A.F.U.Y.Y.^.}..X}.}..X^.Z..X;X$X$X$X*X*X*X*X*X*X*X*X*X*X*X*X*X*X;X;X;X;X;X;X;X;X;X;X;X;X;X;X;X;X;X;X;X;X;X;X;X;X;X;X;X;X;X;X;X;X;X;X>X>X,X,X,X,X>X>X>X>X>X>X>X>X,X,X,X,X,X,X,X,X>X>X>X>X>X>X>X>X,X,X,X,X,X:X,X,X>X>X>X>X>X>X,X,X>X>X>X>X>X>X,X,X,X,X,X,X,X,X,X,X,X,X,X,X>X>X>X>X>X>X>X>X>X>X,X,X>X>X,X,X,X,X>X>X>X>X>X>X>X>X>X>X;X;X;X;X>X;X>X>X;X;X>X>X;X;X;X;X;X;X;X;X;X;X;X;X;X;X;X;X;X;X;X;X*X*X*X*X*X*X*X*X;X;X;X;X*X;X$X X;X;XXX{.Y..X X X.X X}.^.J.Z.b.c.M.F..X;X;X.XH.U.$X$X$X$X$X$X$X$X$X$X$X$X$X$X$X.XXXXXXXXX.XXXXXXX.X.X.X.X.X}.}.}. X X X}.}.{.{.{.^.^.^.^.^.^.^.Y.U.U.U.H.H.U.!.^.G.F.G.H.H.H.F.C.v.s.y.a.c.N.G.F.H.F.N.e.9.N.F.F.F.G.N.5.N.N.N.N.M.M.v.v.c.k.k.j.b.r.-.[ U x h Q <.<.5.5.<.e.c.U.H.U.^.^.!.Z.H.$X*X*X*X*X;XXXH.{.*X*X*X*X;X;X;X;X",
";X;X;X;X;X;X;X;XJ.b.$X;X$X%X%X;X;X;X^.v.J.U.^.{.!.b.s.9.0.r.a.5.5.Y B ^ { -.5.v.c.c.c.c.v.v.v.v.v.v.M.Z.M.<.9.H.H.Z.A.A.p.e.M.U.F.F.Z.b.r.8.w.s.M.A.G.H.H.U.H.F.G.U.H.A.F.U.!.!.^.^.^.^.^.^.}.}.}.}.}.}.}.}.|.|. X X X X.X.X.X.X.X.X.X.X.X.X.X.X.X.X.X.X$X$X$X$X$X$X.X.X$X*X$X.XH.H..X;X;X}.G.M.v.M.N.A.A.A.H.U.^.^..X.XH.F..X$X.X$X$X*X*X*X*X*X*X*X*X*X*X*X*X*X;X;X*X*X;X;X;X;X;X;X;X;X;X;X;X;X;X;X;X;X;X;X;X;X;X;X;X;X;X;X;X;X>X>X>X>X,X,X,X,X>X>X>X>X>X>X>X>X,X,X,X,X,X,X,X,X>X>X>X>X>X>X>X>X,X,X,X,X,X,X,X,X>X>X>X>X,X,X,X,X>X>X>X>X>X>X,X,X,X,X,X,X,X,X,X,X,X,X,X,X>X>X>X>X>X>X>X>X,X,X,X,X>X,X,X,X,X,X,X>X>X>X>X>X>X>X>X>X>X;X;X;X>X>X>X>X;X;X>X>X;X;X;X;X;X;X;X;X;X;X;X;X;X;X;X;X;X*X;X;X*X*X*X*X*X*X*X*X;X;X;X*X$X$X}.Y.*X;X XD.Y. X{.^.Y.Y.J.D.N.b.b.b.F.Y.$X;X*X^.H.^.$X*X$X$X$X$X$X$X$X$X$X$X$X$X.X.XXXXXXXXXXXXXXXXX.X.X.X.X.X}.}.}.}.}.}.}.{.{.{.{.^.^.^.^.^.^.!.!.U.U.U.U.U.!.!.U.F.G.H.H.H.F.C.b.j.y.a.c.A.Z.F.U.G.c.e.8.b.H.H.U.H.F.w.a.Z.N.N.N.M.M.v.v.c.k.k.j.b.8.+.+.J B N *.8.q.9.e.5.5.e.Z.!.^.^.}.^.Z.G.$X$X*X*X*X$X$XJ.{.*X*X*X*X;X;X;X;X",
";X;X;X;X;X;X;X$XD.J.$X;X*X*X;X*X;X%XG.v.J.Y.}.{.H.c.a.a.j.j.j.j.r.~ j ~ +.-.<.j.M.c.c.c.v.v.v.v.v.v.M.N.Z.b.=.j.U.U.B.G.F.a.e.M.U.Y.F.b.b.j.e.5.j.N.A.H.H.H.H.H.G.G.G.F.F.H.!.!.^.^.^.^.^.(.^.}.}.}.(.(.}.}.}.}.}. X X X X X X X.X.X.X.X.X.X.X.X.X.X.X.X.X.X.X.X$X.X.X.XXX$X$X.X^.H.(.$X;X*X}.D.M.M.M.M.M.N.Z.G.H.U.}..X}.C.^.$X$X$X$X$X*X*X*X*X*X*X*X*X*X*X*X*X*X*X*X*X*X*X*X*X*X*X*X*X;X;X;X;X;X;X;X;X;X;X;X;X;X;X;X;X>X>X;X;X;X;X;X;X;X;X;X;X>X>X>X>X>X>X>X>X;X;X,X,X,X,X;X;X>X>X>X>X>X>X>X>X,X,X,X,X,X,X,X,X>X>X,X,X>X>X>X>X>X>X>X>X>X>X,X,X,X,X,X,X,X,X,X,X,X>X,X,X,X,X>X>X>X>X>X>X>X>X,X,X>X>X,X,X,X,X>X>X>X>X>X>X>X>X>X>X>X>X;X;X;X;X>X>X;X;X;X;X;X;X;X;X;X;X;X;X;X;X;X;X;X;X;X;X%X;X;X%X*X*X*X*X*X*X*X*X%X%X%X%X$X.X^.J.{.$XU.Z.{.{.U.Y.J.F.F.N.N.N.Z.U. X$X;X;X$XH.G..X;X;X;X$X$X$X$X$X$X$X$X$X$X$X.X.XXXXXXXXX.X.X X X.X.X.X}.}.}.}.}.}.}.}.}.}.{.{.{.^.^.^.^.^.U.U.Y.!.!.U.!.!.U.H.H.H.H.H.H.D.Z.b.j.s.y.v.D.N.F.Y.F.v.w.e.A.F.H.F.U.U.s.a.Z.Z.N.N.N.M.v.v.c.v.k.k.c.x.=.@.[ H Z ) q.r.r.a.a.9.8.8.Z.H.^.^.}.^.D.Z.$X$X$X$X$X$X$X XY..X*X;X*X*X*X*X*X",
";X;X;X;X;X;X;X$XF. X*X;X*X*X;X*X;X%XG.M.J.Y.}.}.F.c.s.j.c.c.c.c.k.-.N U +.=.-.e.M.c.c.c.c.v.v.b.v.v.N.N.A.A.r.=.Z.}.Y.G.I.A.k.s.M.G.H.G.N.N.k.r.r.j.M.A.G.H.H.H.G.G.G.G.H.H.H.U.!.^.^.^.^.^.^.^.^.^.^.^.(.}.}.}.}.}. X X X X X X.X.X.X.X.X.X.X.X.X.X.X.X.X.X.X.X$X$X.X.X.XXX$X$X}.U.!..X;X;X$X|.'.Y.Y.Y.Y.U.H.F.F.H.U.}.}.F.U.$X*X$X$X$X*X*X*X*X*X*X*X*X*X*X*X*X*X*X*X*X*X*X*X*X*X*X*X*X;X;X;X;X;X;X;X;X;X;X;X;X;X;X;X;X>X>X;X;X;X;X;X;X;X;X;X;X>X>X>X>X>X>X>X>X;X;X,X;X,X,X;X;X>X>X>X>X>X>X>X>X,X,X,X,X,X,X,X,X>X>X,X,X>X>X>X>X>X>X>X,X>X>X,X>X,X,X,X,X,X,X,X,X>X>X,X>X,X,X>X>X>X>X>X>X>X>X>X>X>X>X,X>X>X,X>X>X>X>X>X>X>X>X>X>X>X>X;X;X;X;X>X>X;X;X;X;X;X;X;X;X;X;X;X;X;X;X;X;X;X;X;X*X;X;X;X%X*X*X*X*X*X*X*X*X%X%X*X%X$X$X{.Y. X$XZ.F.}.U.H.F.F.F.H.F.J.J.}.%X;X;X>X;X}.G.!.$X;X;X$X$X$X$X$X$X$X$X$X$X$X.X.X.XXXXXXX.X.X.X X X.X.X}.}.}.}.}.(.}.}.}.}.{.{.{.{.^.^.^.^.!.U.U.U.!.!.!.!.!.U.H.H.H.H.H.F.b.b.x.r.a.B.B.M.D.U.F.v.w.r.N.Y.U.H.F.H.v.s.M.F.Z.N.N.N.M.v.v.c.c.k.k.v.s.#.@.[ G U =.r.l.l.j.j.e.9.8.N.H.^.^.}.!.C.b.}.$X$X$X$X$X$XXX{.}.*X;X*X*X*X*X*X",
";X;X;X;X*X;X$X{.J.$X;X*X*X*X*X;X;X#XD.A.Y.{.|. XZ.c.j.v.b.b.b.v.M.a.W N { =.=.5.M.v.c.c.c.v.v.b.v.v.M.N.A.F.Z.5.e.H.|.{.H.U.H.v.s.v.H.^.U.Z.N.b.s.r.s.M.A.F.G.G.G.G.G.H.H.H.H.H.U.].^.^.^.^.^.^.^.^.!.^.(.}.}.}.}.}.}.}. X X X X.X.X.X.X.X.X.X.X.X.X.X.X.X.X.X.X$X$X$X$X$X.XXX$X#X(.H.(.*X;X;X;X;X;X=X=X=X$X}.U.G.H.H.U..XU.Z.#X$X$X.X.X$X*X*X*X*X*X*X*X*X*X*X*X*X*X*X*X*X*X*X*X*X*X*X*X;X;X;X;X;X;X;X;X;X;X;X;X;X;X;X;X>X>X>X>X;X;X;X;X;X;X;X;X>X>X>X>X>X;X;X>X;X;X;X;X,X,X,X;X>X>X>X>X>X>X>X>X,X,X,X,X:X,X,X,X>X>X>X,X>X>X>X>X>X,X,X,X>X>X>X>X,X,X,X,X:X:X,X,X>X>X>X>X,X,X,X>X>X>X>X>X>X>X>X>X>X>X>X>X>X>X>X>X>X>X>X>X>X>X>X>X>X>X>X>X;X;X;X>X;X;X;X;X;X;X;X;X;X;X;X;X;X;X;X;X;X;X;X;X;X;X*X$X*X*X*X*X*X*X*X*X;X*X*X*X*X XY.{.$X{.N.Y.Y.J.H.J.$X*X*X;X;X;X;X>X>X<X;X$XH.H. X;X;X*X$X$X$X$X$X$X$X$X$X#X.X.X.X.XXXXXXX.X.X.X X.X.X.X}.}.}.}.}.^.}.}.}.}.{.{.{.{.^.^.^.^.U.!.U.!.!.!.!.U.U.U.H.H.H.H.F.C.x.j.s.j.N.B.M.J.Y.H.M.r.e.N.Y.Y.Y.H.G.N.j.N.Z.F.Z.N.N.N.M.v.v.c.k.j.k.b.e.@.+._ B _ 9.l.k.k.k.k.s.a.9.v.H.^.}.}.^.N.c.!.$X$X$X$X$X%X%X X^.$X*X*X*X*X*X;X",
";X;X;X;X;X;XXXF. X*X;X*X*X;X*X;X;X|.D.D.Y.}. X XZ.b.v.M.M.M.M.M.M.M.-.B ) @.+.<.M.v.c.c.c.v.v.b.v.v.N.N.Z.F.G.M.<.c.Y..XJ.H.U.H.c.j.N.Y.|.H.N.N.b.s.e.s.M.A.F.G.G.G.G.G.G.H.U.!.!.].].^.^.^.^.^.^.^.!.^.^.}.}.}.}.}.}.}. X X X X.X.X.X.X.X.X.X.X.X.X.X.X.X.X.X.X$X$X$X*X$X.X.X$X$X.XU.H.XX$X*X;X,X,X>X>X;X,X;X.XU.H.H.U.}.Y.M.^.#X.X^.^.*X*X*X*X*X*X*X*X*X*X*X*X$X*X$X$X*X*X*X*X*X*X*X*X;X;X;X;X;X;X;X;X;X;X;X;X;X;X;X;X>X>X>X>X;X;X;X;X;X;X;X;X>X>X>X>X>X>X;X;X;X;X;X;X,X,X:X;X>X>X>X>X>X>X>X>X,X,X,X,X,X:X,X,X>X>X,X,X>X>X>X>X>X>X,X,X>X>X>X>X,X,X,X,X,X,X,X,X>X>X>X>X,X,X,X,X>X>X>X>X>X>X>X>X>X>X>X>X>X>X>X>X>X>X>X>X>X>X>X>X>X>X>X>X;X;X>X>X;X;X;X;X;X;X;X;X;X;X;X;X;X;X;X;X;X;X;X;X;XXX}.$X*X*X*X*X*X*X*X*X;X*X*X*X$XF.Y. XXXD.Y.Y.F.F.Y. X*X,X;X>X>X,X>X;X;X<X;X#XF.!.$X;X*X$X$X$X$X$X$X$X$X$X$X.X.X.X.X.XXXXX.X.X.X.X X.X.X.X|.|.}.}.}.^.}.}.}.}.{.{.{.{.^.^.^.^.!.!.!.U.!.!.^.U.U.U.U.H.H.F.N.b.x.r.j.Z.M.Z.U.U.U.N.s.9.Z.Y.Y.U.Y.H.F.s.M.Z.A.F.Z.N.N.N.M.v.v.c.j.j.k.b.8.{ { ^ Z @.p.l.c.c.v.v.k.j.e.k.H.^.}.}.}.Z.b.^.$X$X$X$X$X$X*XXXU..X*X*X*X*X*X;X",
";X;X;X;X;X;X{.F.XX$X$X$X;X;X;X;X;X.XD.F.U.}..X}.Z.b.N.N.N.N.N.N.N.Z.e.A ) @.@.,.c.Z.c.c.c.c.c.v.v.M.M.N.A.F.F.G.v.9.j.^.}.Y.H.H.F.b.c.N.U.^.H.Z.N.v.s.a.k.M.Z.F.F.H.U.U.U.U.Y.^.^.^.^.^.^.^.^.^.{.^.^.^.^.^.}.}.}.}.}.}. X X}.}.|.|..X.X.X.X.X.X.X.X.X.X.X.X.X.X$X$X$X$X$X$X#X$X$X#X].H.{.$X>X>X;X;X>X;X;X>X,X;X*X^.H.H.U.'.F.Z.$X$X.X$X}.*X*X$X*X*X*X*X*X*X*X*X%X;X XXX*X;X;X;X*X*X*X*X;X;X;X;X;X;X;X;X;X;X;X;X;X;X;X;X;X;X>X>X;X;X;X;X;X;X;X;X;X;X;X;X;X>X>X>X>X>X>X>X,X,X,X>X>X>X>X,X>X>X>X>X>X>X,X,X>X>X>X>X>X,X,X,X>X>X>X>X>X>X>X>X,X,X,X,X>X>X>X,X>X>X>X>X>X>X>X>X>X>X>X>X>X>X>X>X>X>X>X>X>X>X>X>X>X>X>X>X>X>X>X;X>X>X,X,X>X>X;X;X>X>X>X>X>X>X;X;X;X;X;X;X;X;X;X;X*X*X*X*X*X*X*X*X;X|.^.$X*X*X*X*X*X*X;X;X*X*X;X;X$XH.U..X.XU.Y.H.F.F..X;X;X;X;X;X;X;X>X>X,X<X*XH.H.}.*X*X$X$X$X*X;X;X$X$X$X$XXXXXXXXXXXXXXXXX.X.X.X.X.X.X X X X X|.}.}.{.}.}.}.}.^.^.^.^.^.^.^.^.^.^.U.H.H.!.^.!.U.U.H.H.Z.N.b.c.j.j.A.N.U.^.^.U.N.k.s.N.H.Y.Y.Y.^.G.c.M.A.A.A.A.Z.N.N.M.b.b.c.k.c.k.c.c.<.{ [ E G ,.j.v.v.v.v.v.c.j.r.k.H.^.}.}.}.F.N.Y.#X$X;X;X*X$X$X$X{.|.*X;X*X;X;X;X",
";X;X;X;X;X$XY.U.$X$X$X$X;X;X;X;X;X.XD.H.U.}..X}.Z.M.N.N.Z.Z.Z.Z.N.Z.j.^ ~ +.@.-.s.N.v.c.c.c.c.v.v.M.M.N.Z.A.G.U.D.s.5.s.H.}.!.H.J.F.b.c.Z.U.^.H.A.N.v.s.r.s.b.Z.A.H.U.U.Y.U.U.Y.^.^.^.!.^.^.^.^.{.{.^.^.^.^.}.}.}.}.}.}. X X X X|.|..X.X.X.X.X.X.X.X.X.X.X.X.X.X$X$X$X$X$X$X$X$X$X$X|.H.U.XX;X>X;X;X;X;X;X;X>X>X,X.XU.H.U.^.U.A.}.;X;X*XN.$X*X*X*X*X*X*X*X*X*X=X;X;XXX*X;X;X;X;X*X*X*X*X;X;X;X;X;X;X;X;X;X;X;X;X;X;X;X;X;X;X>X>X;X;X;X;X;X;X;X;X;X;X;X;X;X>X>X>X>X>X>X>X,X,X,X>X>X>X>X,X>X>X>X>X>X>X>X,X>X>X>X>X>X,X,X>X>X>X>X,X,X>X>X>X,X,X,X,X>X>X>X,X>X>X>X>X>X>X>X>X>X>X>X>X>X>X>X>X>X>X>X>X>X>X>X>X>X>X>X>X>X>X>X;X>X>X,X,X>X>X;X;X;X>X>X>X>X>X;X;X;X;X;X;X;X;X;X;X*X*X*X*X*X*X*X*X*X.X}.$X*X*X*X*X*X*X&X;X*X;X*X$X.X^.^.$X.XY.H.Z.F.^.*X;X>X>X;X;X;X;X>X>X,X>X}.F.^..X*X*X$X$X$X$X;X*X$X$X$X$XXXXXXXXXXXXXXXXX.X.X.X.X.X.X X X X X|.}.}.(.}.}.}.}.^.^.^.^.^.^.^.^.^.^.U.H.H.U.!.U.U.H.G.Z.N.b.c.j.c.F.b.A.^.^.U.N.k.s.N.Y.U.Y.Y.U.G.c.N.F.A.A.A.A.Z.N.N.M.b.b.c.k.c.k.b.c.-.@.[ G ~ 5.k.v.M.M.M.M.v.j.l.k.H.^.}.}.'.F.M.Y.$X%X;X;X*X$X%X#XXX|.$X*X*X*X;X;X",
";X;X;X;X;X XJ.}.;X;X$X$X;X;X;X;X*X.XF.H.!.}..X}.Z.N.Z.Z.Z.Z.Z.Z.Z.Z.M.-.U { @.=.e.N.b.v.c.c.c.v.v.M.M.N.Z.A.G.U.Y.G.v.a.c.U.}.!.U.H.F.b.b.Z.U.^.U.A.N.v.j.s.j.b.N.F.U.U.Y.Y.H.U.U.U.!.^.^.^.^.^.{.{.^.^.^.^.}.}.}.}.}.}. X X X X.X.X.X.X.X.X.X.X.X.X.X.X#X#X.X.X#X$XXXXX$XXXXX$X$X*X$X^.H. X;X>X;X;X;X;X;X>X;X>X5X;X.XU.U.Y.Y.F.H.$X;X$XF.$X*X*X*X*X*X*X*X*X*X=X;X;X$X%X;X;X;X;X*X*X*X*X;X;X;X;X;X;X;X;X;X;X;X;X;X;X;X;X;X;X>X>X;X;X;X;X;X;X;X;X;X;X;X;X;X;X,X,X>X>X>X>X>X>X>X>X>X>X,X,X>X>X>X>X>X>X,X,X>X>X>X>X>X>X>X>X>X>X,X,X,X,X>X>X,X,X,X,X>X>X,X,X>X>X>X>X>X>X>X>X>X>X>X>X>X>X>X>X>X>X>X>X>X,X>X>X>X>X>X>X>X,X;X;X>X;X,X,X>X>X;X;X;X;X>X>X>X>X;X;X;X;X;X;X;X;X;X;X=X*X*X*X*X*X*X*X*X$X$X*X*X*X*X*X*X;X;X;X*X;X$X^.^.H.^.*X'.U.A.N.U.$X;X>X>X>X>X>X;X>X>X>X,X*XH.D.}.*X*X$X$X$X$X$X$X$X$X$X$XXXXXXXXXXXXXXXXXXX.X.X.X.X.X.X.X.X.X.X.X}.}.{.}.}.}.}.^.^.^.^.^.^.^.^.^.^.!.!.U.U.H.U.H.G.Z.b.b.c.j.b.F.N.Z.Y.^.U.N.j.s.N.Y.Y.Y.Y.Y.H.c.M.U.H.A.A.A.A.Z.N.N.M.b.b.c.k.k.k.C.k.#.@.) B { r.M.M.M.M.M.M.b.c.j.j.H.}..X.X}.F.N.Y.%X%X$X$X$X$X*X%X#X X X$X*X*X;X;X",
";X;X;X;X;XY.F..X$X$X$X$X$X%X;X;X*X}.F.U.^.}..X}.Z.N.Z.Z.Z.Z.Z.Z.Z.Z.M.5.G [ +.@.5.M.M.v.c.c.c.v.v.M.M.N.N.A.G.U.Y.Y.U.N.j.c.H.}.!.U.H.F.b.b.Z.U.Y.U.A.N.F.b.s.s.c.Z.G.U.Y.Y.U.U.H.U.U.U.!.^.^.^.{.{.^.^.^.^.}.}.}.}.}.}. X X X X.X.X|.|..X.X.X.X.X.X.X.X$XXXXX.XXXXXXXXX$XXX$X$X$X*X*X}.H.^.$X>X*X*X;X;X;X;X;X;X,X6X=X^.U.H.U.U.C.H.}..XH.U..X*X*X*X*X*X*X*X*X*X%X;X&X$X$X;X;X;X*X*X*X;X;X;X;X;X;X;X;X;X;X;X;X;X;X;X;X;X;X;X>X>X;X;X;X;X;X;X;X;X;X;X;X;X;X;X,X,X>X>X>X>X>X>X,X,X>X>X,X,X,X,X>X>X>X>X,X,X,X>X>X>X>X>X>X>X>X>X,X,X,X,X>X>X>X,X,X,X>X>X,X,X,X>X>X>X,X>X>X>X>X>X>X>X,X,X>X>X>X>X>X>X,X,X>X>X>X>X>X>X>X,X;X;X;X;X,X,X>X>X;X;X;X;X>X>X>X>X;X;X;X;X;X;X;X;X;X;X*X*X*X*X*X*X*X*X*X;X*X*X;X*X*X*X*X;X;X;X*X;X.XH.D.F.*X^.U.H.Z.Z.'.;X>X5X>X>X>X;X;X;X>X>X;X.XF.H..X*X*X$X$X$X$X$X$X$X$X$X$XXXXXXXXXXXXXXXXXXX.X.X.X.X.X.X.X.X.X.X|.}.}.}.}.}.}.}.^.^.^.^.^.^.^.^.^.!.U.!.U.H.H.H.G.Z.b.c.c.j.b.F.b.F.'.Y.U.N.j.e.N.Y.Y.Y.Y.Y.U.Z.a.U.Y.H.A.A.A.A.Z.N.N.M.b.b.c.k.k.k.A.j.#.@.W B +.a.C.M.N.N.N.N.M.v.k.a.H.}..X.X.XU.Z.}.;X;X$XXXXX$X%X%X$XXX}.XX$X*X;X;X",
">X>X>X>X;XJ.J.$X$X$X$X$X$X$X$X$X*X}.D.U.^.}..X}.Z.N.Z.Z.Z.Z.Z.Z.A.Z.N.9.n Y [ @.,.c.Z.c.c.c.c.v.M.b.b.b.Z.A.F.F.U.Y.^.^.F.k.v.G.'.Y.U.^.H.N.c.C.U.^.U.F.H.H.N.a.j.c.N.F.U.Y.Y.Y.U.U.H.U.!.^.^.^.{.^.^.^.^.^.^.^.}.}.}.}.}.}.}.}.}.}..X.X.X.X.X.X.X.X.X.X$X#X#X#X$X$X$XXX$X$X$X$X$X$X*X.XU.U.$X;X;X*X*X*X;X;X;X>X;X,X;X.X!.H.H.!.H.N.G..X!.U.$X;X*X*X*X*X*X*X*X*X$X;X*X}.U.$X$XXX#X;X*X*X;X;X;X;X;X;X;X;X;X;X;X;X;X;X;X;X;X;X;X;X;X;X;X;X;X;X;X;X;X;X;X;X;X;X;X;X>X>X>X>X>X>X>X>X>X>X>X>X>X>X>X>X>X>X>X>X>X>X>X>X>X>X>X>X>X>X>X>X:X:X:X:X>X>X>X>X>X>X>X>X>X>X>X>X>X>X>X>X>X>X>X>X>X>X>X>X>X>X>X>X>X>X>X>X;X>X;X;X;X;X;X;X;X;X;X;X>X>X>X>X;X;X;X;X>X>X;X;X;X;X;X;X;X;X;X;X*X*X*X*X*X*XXX*X;X*X*X*X*X*X*X*X*X*X*X*X*X.X}.U.F.}.$XH.U.F.A.U.#X;X>X>X;X;X;X;X;X;X;X;X;X}.H.}.*X*X*X*X$X$X$X$X$X$X$X$XXXXXXXXXXXXXXXXX.X.X X X X X X X}.}. X X|.}.}.}.}.}.}.}.^.^.^.^.^.^.^.^.^.H.H.U.U.H.H.G.Z.b.c.j.s.N.G.Z.U.^.^.U.M.s.j.F.Y.Y.Y.'.^.Y.Z.M.Z.U.H.G.A.A.A.Z.N.N.N.M.b.b.c.k.k.k.b.8.@.{ Z H <.k.M.M.N.N.N.N.M.b.c.l.H.}..X.X.XU.F.}.%X%X$XXXXX$X$X$X$XXX}..X$X;X;X;X",
">X>X>X>X$XJ.{.$X$X$X$X$X$X$X$X$X*X}.Z.U.}.}..X}.A.N.Z.Z.Z.Z.Z.Z.A.Z.Z.a.N Z ) { =.y.v.x.c.c.v.v.v.v.b.b.M.N.Z.Z.F.H.U.Y.H.F.x.v.H.^.^.U.U.H.Z.b.F.U.^.U.F.F.F.M.k.j.c.N.F.U.Y.Y.!.U.U.U.U.!.^.^.{.^.^.^.^.^.^.^.}.}.}.{.}.}.}.}.}.}.}.}.|..X.X.X.X.X.X.X$X#X.X#X$X$X$XXX$X$X$X$XXX.X$X*X|.U..X;X;X*X*X*X;X;X;X;X;X,X,X*X}.H.H.H.H.G.H..X}.^..X$X*X*X*X*X*X*X*X*X;X;X;XY.x.{.XX{.U.$X*X*X;X;X;X;X;X;X;X;X;X;X;X;X;X;X;X;X;X;X;X;X;X;X;X;X;X;X;X;X;X;X;X;X;X;X;X;X>X>X>X>X>X>X>X>X>X>X>X>X>X>X>X>X>X>X>X>X>X>X>X>X>X>X>X>X>X>X>X>X:X:X:X:X>X>X;X;X>X>X>X>X>X>X>X>X>X>X>X>X>X>X>X>X>X>X>X>X>X>X>X>X>X>X>X>X;X;X;X>X;X;X;X;X;X;X;X;X>X>X;X;X;X;X;X;X>X>X;X;X;X;X*X*X*X*X*X*X*X;XXXG.H.*X}.^.$X}..X.X$X$X$X$X$X$X*X*X*X.X.X.X}.$X^.G.H.F.H.}.*X>X>X>X;X;X;X;X;X;X;X;X.X!.H..X*X*X*X*X$X$X$X$X$X$X$X$X$X$XXXXXXXXXXXXX.X.X X X X X X X}.}.}. X}.}.}.}.}.}.}.^.^.^.^.^.^.^.^.^.U.H.H.!.U.H.G.Z.C.b.s.s.N.Z.Z.F.^.Y.F.N.k.v.F.'.'.'.'.Y.Y.Z.M.F.U.G.F.F.A.A.A.Z.N.N.b.M.b.b.c.k.k.k.k.q.=.) N E <.k.C.M.N.N.N.N.M.M.c.k.H.}..X.X}.U.F.^.$X$X$XXXXX$X$X$X$XXX XXX$X;X;X;X",
";X;X>X>X$X{.XX$X$X$X$X$X$X$X$X$X$X}.Z.U.}.}..X}.F.N.A.D.F.Z.Z.Z.A.Z.Z.k.W n ^ [ @.5.k.v.c.c.c.v.v.v.v.v.b.M.N.C.Z.D.F.H.U.U.F.x.v.F.^.Y.!.^.U.Z.N.F.U.^.G.Z.A.F.B.x.j.v.N.F.U.Y.!.!.!.!.U.!.^.^.{.^.^.^.^.^.^.^.}.}.}.}.}.}.}.}.}.}.}.}.|.|..X.X.X.X.X.X.X.X.X.X$X$X$X$X$X$XXXXXXX X.X;X$XH.U.$X;X;X*X*X%X%X;X;X;X;X,X;XXX!.H.F.H.!.}.}..X^.^.^.!.!.!.!.U.U.U.U.U.U.}.D.Z.$X;X$X^.F.}.*X$X;X;X;X;X;X;X;X;X;X;X;X;X;X;X;X;X;X;X;X;X;X;X;X;X;X;X;X;X;X;X;X;X;X;X;X>X>X>X>X>X>X>X>X>X>X>X>X>X>X>X>X>X>X>X>X>X>X>X>X>X>X>X>X>X>X>X>X;X;X:X:X>X>X>X>X>X>X>X>X>X>X>X>X>X>X>X>X>X>X>X>X>X>X>X>X>X>X>X>X>X>X>X>X;X;X>X>X;X;X;X;X;X;X;X;X;X;X;X;X;X;X;X;X>X>X;X;X;X;X*X*X*X*X*X*X*XXX!.b..X;X*Xb.N.b.C.H.H.H.H.H.^.}..X.X$X.X.X$X$X^.A.F.G.H.'.;X;X>X>X;X;X;X;X;X;X;X;X;X^.H.H.*X*X*X*X*X$X$X$X$X$X$X$X$XXXXXXXXXXXXXXX.X X X X X X X|.|.|.|.|. X}.}.}.}.}.}.}.^.^.^.^.^.^.^.^.!.U.U.U.!.H.G.Z.N.c.j.j.Z.Z.Z.H.}.^.F.N.c.M.H.}.'.^.}.^.G.Z.M.F.Y.H.F.A.Z.A.A.Z.N.N.N.M.b.v.v.c.k.k.j.r.<.@.W G ~ 5.c.Z.C.N.N.N.N.N.M.b.c.U..X.X.X}.Y.F.U.#X#XXXXXXX$X$X$X#X#X.X$X$X$X;X$X",
";X;X;X;X;X X$X$X$X$X$X$X$X$X$X$X$X^.C.H.}..X.X.XG.Z.A.F.F.Z.Z.Z.A.Z.Z.c.U : m +.=.8.s.c.c.c.c.v.v.v.v.v.N.N.Z.Z.Z.Z.Z.F.G.U.H.F.a.v.H.'.}.^.^.^.F.N.F.U.U.F.Z.D.J.B.x.j.v.N.F.U.U.Y.!.!.U.U.!.^.{.^.^.^.^.^.{.^.^.{.}.}. X X}.}.}.}.}.}.|.|.|..X.X.X.X.X.X.X.X.X$X$X$X$X$X$XXXXXXXXX.X%X$XG.G.^.*X;X;X$X%X*X*X*X*X;X,X,X;X}.H.A.F.U.}.^..X}.(.H.Z.D.Z.Z.Z.Z.Z.Z.Z.G.A.x. X$X*X;X*Xb.H..X$X$X;X;X;X;X;X;X;X;X;X;X;X;X;X;X;X;X;X;X;X;X;X;X;X;X;X;X;X;X;X;X;X;X;X;X>X>X>X>X>X>X>X>X>X>X>X>X>X>X>X>X>X>X>X>X>X>X>X>X>X>X>X>X>X>X>X>X;X;X;X;X>X>X>X>X>X>X>X>X>X>X>X>X>X>X>X>X>X>X>X>X>X>X>X>X>X>X>X>X>X>X>X>X;X;X>X>X;X;X;X;X;X;X;X;X;X;X;X;X;X;X;X;X;X;X;X;X;X;X*X*X*X*X*XXXXX{.oX*X;X;X;XU.t.U.U.U.H.H.H.H.Z.F.H.U.^.}..X$X.XZ.N.A.F.Y.$X5X>X>X>X;X;X;X;X;X;X;X;XXX!.H.U.*X*X*X*X*X$X$X$X$X$X$X$XXXXXXXXXXXXXXX.X.X X X X X X X|.|.|.|.|.}.}.}.}.}.}.}.^.^.!.!.^.^.^.^.^.!.U.U.U.H.G.Z.N.b.j.c.D.F.F.^..XY.H.N.c.v.U.'.Y.Y.U.^.U.N.M.F.Y.U.G.F.Z.N.A.A.Z.N.N.M.M.v.b.v.c.k.k.j.8.<.@.A 3 f 5.v.Z.Z.Z.N.N.N.N.M.b.v.U..X.X.X}.U.Z.H.#XXXXXXXXX$X$X$X#X#XXX$X$X$X$X$X",
";X;X;X;X;X$X$X$X$XXXXX$X$X$X$X$X$X{.N.F.}.XX$X.XU.Z.Z.F.F.F.A.A.A.Z.Z.M.) % d +.-.<.r.k.v.v.v.v.M.v.j.v.Z.A.Z.N.A.F.F.F.F.G.U.U.Z.k.s.Y.^.^.^.Y.}.U.Z.D.D.H.J.J.D.F.B.b.a.x.N.D.U.Y.^.'.Y.Y.Y.Y.Y.^.Y.Y.^.^.^.^.^.^.^.^.}.}.}.}.}.}.}.}..X.X.X.X.X.XXXXXXXXXXXXXXXXXXXXX$X$X$X$XXX$XXX{.$X}.N.U.$X;X;X;X*X*X*X*X*X;X;X,X,X*X}.G.G.H.(.^.!..XoX!.{.{.{.{.{.{.{.XX$X.XZ.Y.*X*X*X*X;X$X XJ.J.XX*X;X*X;X;X;X;X;X;X;X;X;X;X;X;X;X;X;X;X;X;X;X;X;X;X;X;X;X;X;X;X;X;X;X;X;X;X;X;X;X;X;X;X>X>X>X>X>X;X;X>X>X;X;X;X;X;X;X;X;X;X;X;X;X;X;X;X;X;X;X;X;X;X;X;X;X;X;X;X;X>X>X>X>X>X>X;X;X;X;X>X>X>X;X;X;X;X;X;X;X;X;X;X;X;X;X;X;X;X;X;X;X;X;X;X;X;X;X;X;X;X;X;X;X;X;X;X*X*X*X*X$X.XH.F.}.;X;X*X;X;X;XY.H.;X;X*X$X$X$X}.}.}.}.{.}..X}.A.Z.Z.F.!.$X;X;X;X;X;X;X*X;X;X;X*X;X*X!.H.H..X*X*X*X*X*X$X$X$X$X$X$X$X$X.X.X.X.X.X.X.X.X X.X.X.X|.}.}.}.|.|.|.|.}.}.{.{.}.(.(.!.U.!.^.^.^.^.Y.Y.Y.Y.U.H.F.b.x.s.N.D.Z.G..X.X'.U.N.v.N.U.|.^.U.^.^.H.b.N.Y.Y.U.U.G.M.c.N.Z.A.C.b.N.b.v.c.v.M.v.j.a.a.9.>.[ z > z a.N.F.Z.Z.Z.N.N.N.M.v.N.^..X.X.X}.J.D.J.$X$X$X$XXXXX$X$X$XXX$X$X$X$X$X$X",
";X;X;X;X*X$X#X$X$X.XXX$X$X$X$X$X$X XD.D.}..X$XXXY.F.Z.A.F.F.F.A.A.Z.Z.N.9.h s ) -.-.5.r.k.v.v.v.v.c.k.b.F.G.F.Z.A.F.F.F.F.G.U.U.^.G.k.j.U.}.U.Y.'.^.H.Z.Z.G.H.H.H.G.G.B.x.a.s.b.F.U.Y.^.Y.Y.Y.Y.Y.Y.^.Y.^.^.^.^.^.^.{.{.}.}.}.}.}.}.}.}..X.X.X.X.X.XXX.XXXXXXXXXXXXXXXXX$X$X$XXXXX$X$X}.#X.XD.G..X*X;X;X*X*X*X*X*X*X;X;X,X;X*X{.D.D.H.!.^.}.OXXX;X;X;X;X;X>X,X<X.XZ.'.;X*X*X*X;X;X>X;X$XD.F..X$X$X*X;X;X;X;X;X;X;X;X;X;X;X;X;X;X;X;X;X;X;X;X;X;X;X;X;X;X;X;X;X;X;X;X;X;X;X;X;X;X;X;X>X>X>X>X;X;X>X>X;X>X;X;X;X;X;X;X;X;X;X;X;X;X;X;X;X;X;X;X;X;X;X;X;X;X;X;X>X>X>X>X;X>X;X;X;X;X>X>X>X;X;X;X;X;X;X;X;X;X;X;X;X;X>X>X;X;X;X;X;X;X;X;X;X;X;X;X;X;X;X;X;X*X*X*X*X*X*X$XF.b. X$X;X*X*X*X*X*X;XJ.F. X;X;X;X*X*X*X*X*X$X$X}.F.N.Z.N.H.$X;X;X;X;X;X;X*X*X;X;X;X;X;X$X!.H.^..X*X*X*X*X*X$X$X$X$X$X$X$X$X.X.X.X.X.X.X.X.X X.X.X.X|.}.}.}.|.|.|.|.}.{.{.{.}.(.^.^.^.^.}.}.^.Y.Y.Y.Y.U.H.F.N.x.j.b.G.N.J.#X.X}.U.N.v.M.H.'.^.Y.U.^.H.v.Z.U.Y.U.U.H.G.N.M.Z.F.A.b.c.c.b.N.C.M.v.k.a.j.a.5.+.^ m x #.c.Z.D.B.Z.Z.N.N.N.M.b.A.^..X.X.X}.J.F.Y.$X$X$X$XXXXX$X$X$XXX$X$X$X$X$X$X",
";X;X;X;X*X$X#X$X$X$X$X$X$X$X$X$X$XXXF.D.{. XXX X}.F.A.A.F.F.F.F.A.A.A.Z.c.{ Z Z W <.5.9.a.k.v.v.M.v.s.c.Z.G.G.F.A.F.F.F.F.G.H.U.H.U.U.v.j.U.}.^.^.^.^.H.D.F.H.U.U.J.F.F.B.x.y.s.N.F.U.Y.Y.Y.Y.Y.Y.Y.Y.{.^.^.^.^.^.^.{.{.}.}.}.}.}.}.}.}..X.X.X.X.X.X.X.XXXXXXXXXXXXXXX$X$X$X$X$XXX$XXX.X.X$XU.F.}.$X*X;X*X*X*X*X*X*X*X;X;X;X;XXXP.D.Z.G.U.!.*X:X:X:X>X>X;X>X%X{.N.Y.*X$X*X*X*X*X*X;X;X;XXXU.F.^.XX%X*X*X;X;X;X;X;X;X;X;X;X;X;X;X;X;X;X;X;X;X;X;X;X;X;X;X;X;X;X;X;X;X;X;X;X;X;X;X;X;X;X;X>X>X>X;X>X>X>X>X>X>X;X;X;X;X;X;X;X;X;X;X;X;X;X;X;X;X;X;X>X;X>X>X>X>X>X>X>X>X>X>X;X;X;X;X,X>X,X,X;X;X;X;X;X;X;X;X;X;X;X;X>X>X>X>X;X;X;X;X;X;X;X;X;X;X;X;X;X;X;X;X*X*X$X$X.XZ.N..X*X;X;X$X$X*X*X*X;X*XD.D.}.$X;X*X;X;X;X;X*X.XH.D.b.b.U.XX;X;X;X;X;X;X;X*X*X;X;X;X>X;X}.U.J. X$X$X$X$X$X$X$X$X$X$X$X$X$X$X.X.X.X.X.X.X.X}. X X.X.X|.|.|.|.|.|.|.|.}.}.}.}.(.^.(.}.}.}.^.^.^.Y.Y.U.H.F.Z.N.j.j.b.H.M.F..X$X'.U.N.c.M.I.^.}.^.^.^.H.c.C.^.H.U.U.H.G.H.A.Z.D.F.A.N.c.c.b.Z.A.M.k.k.a.a.5.@.) U N U s.Z.F.F.Z.Z.Z.Z.N.N.N.N.G.}..X.X.X}.H.Y.}.$X$X$X$X$X$X$X$X$XXX$X$X$X$X$X$X",
"*X*X;X;X$X$X$X$X$X$X$X$X$X$X$X$X$X$XJ.Z.^. XXX X|.H.Z.A.A.F.F.F.A.A.A.Z.N.9.[ ) ) ) =.9.r.a.k.v.Z.M.s.s.N.A.F.Z.F.F.F.F.F.G.H.U.U.U.|.H.j.s.H.}.^.^.^.}.J.F.F.J.Y.U.H.D.G.D.c.y.k.N.F.U.Y.Y.Y.Y.J.Y.Y.Y.{.{.^.^.^.^.{.^.^.}.}.}.}.}.}.}..X.X.X.X.X.X.X.XXXXXXXXXXXXXXX$X$X$X$X$XXXXXXX$XXX$X.XU.^.$X*X;X*X*X*X*X*X*X*X*X;X;X;X;XXXH.N.N.A.F.$X:X;X;X;X;X;X;X{.v.U.#X=X*X*X*X*X*X*X*X$X;X;X;X}.B.U.XX$X*X*X;X;X;X;X;X;X;X;X;X;X;X;X;X;X;X;X;X;X;X;X;X;X;X;X;X;X;X;X;X;X;X;X;X;X;X;X;X;X;X>X>X;X;X>X>X>X>X>X>X>X>X;X;X;X;X;X;X;X;X;X;X;X;X;X;X;X;X>X>X>X>X>X>X>X>X>X>X>X>X;X;X;X;X,X,X,X,X;X;X;X;X;X;X;X;X;X;X;X;X>X>X>X>X;X;X;X;X;X;X;X;X;X;X;X;X;X;X;X;X;X*X.X}.c.H.*X*X;X*X$X$X*X*X*X*X;X;X$XZ.C.^.*X*X*X*X*X*X$XH.C.N.N.F..X*X;X;X;X;X;X;X;X*X*X;X;X;X>X;X^.J.{.XX$X$X$X$X$X$X$X$X$X$X$X$X$X$X.X.X.X.X.X.X|.}. X X.X.X|.|.|.|.|.|.}.}.}.}.^.^.^.^.(.}.^.^.^.!.Y.Y.U.U.Z.N.c.k.c.C.F.D.F..X$X.XU.N.c.x.F.Y.'.'.|..XH.c.b.H.H.H.U.U.G.G.G.G.F.A.C.A.C.b.c.C.Z.Z.k.j.k.a.5.=.[ W E G [ M.F.F.A.Z.A.Z.Z.Z.N.N.N.U.}..X.X.X}.F.}.XX$X$X$X$X$X$X$X$X$XXX$X$X$X$X$X$X",
"{.$X$X$X$X$X$X$X$X$X$X$X$X$X$X$X$X$X.XN.Y. XXX.X.XU.Z.A.A.F.F.F.F.F.F.A.Z.v.+.{ -.-.@.-.5.9.a.k.N.A.N.c.N.N.A.A.F.F.F.F.F.G.H.H.U.U.U.Y.G.s.r.H.}.^.(.H.}.U.G.F.F.U.Y.J.F.F.F.N.x.x.M.A.Y.Y.U.U.J.J.Y.Y.^.^.^.^.^.^.^.!.!.^.}.^.}.|.|.|..X.X.X.X.X.XXX.X X XXXXX$X$X$XXXXXXXXX$X$XXX$X$X$X$X$X}.^.}..X*X*X*X*X*X*X*X*X*X*X;X;X;X*X.XH.v.x.N.G.{.$X;X>X>X;X$Xv.B..X*X*X*X*X*X*X*X*X*X*X*X;X;X%X{.D.G.XX$X*X*X;X;X;X;X;X;X;X;X;X;X;X;X;X;X;X;X;X;X;X;X;X;X;X;X;X;X;X;X;X;X;X;X;X;X>X>X>X;X;X;X;X;X>X>X>X>X>X>X>X>X;X;X;X;X;X;X;X;X;X;X;X;X;X;X;X;X>X>X>X>X>X>X>X>X;X;X;X;X;X;X;X;X;X;X;X;X;X;X;X;X;X;X;X;X;X;X;X;X;X;X;X;X;X;X;X;X;X;X;X;X;X;X;X;X;X;X;X;X$X.XY.b.^.*X;X;X*X*X$X$X*X*X*X*X;X;X;X.Xc.Z.XX*X*X*X$X}.G.v.j.j.U.}.*X;X;X;X;X;X*X*X*X*X$X*X;X>X<X*XU.H.{.$X*X$X$X$X;X;X$X$X$X$X$X$XXXXX.X.X.X.X.X.X}.}. X X.X.X}.}.}.}.}.}.}.'.'.^.'.^.^.^.^.^.^.!.U.H.U.U.Y.A.v.j.s.c.D.F.F.H.#X$X}.Y.N.v.b.A.|.|.}.'.|.F.c.N.^.Y.U.H.H.G.H.G.G.F.F.Z.b.N.C.A.N.Z.Z.b.k.j.r.5.@.{ [ [ @.E >.N.F.F.F.A.A.A.A.A.N.N.Z.U.}..X.X.X{.H..XXXXXXXXXXXXXXXXXXXXXXX$X$X$X;X$X^.",
"Y.{.$X$X$X$X$X$X$X$X$X$X$X$X$X$X$X$X.XN.J.}.XXXX.X^.A.A.F.F.F.G.G.F.G.F.A.k.[ W @.,.5.-.-.5.9.a.x.N.Z.N.A.A.A.A.A.F.F.F.F.F.G.G.H.H.U.U.Y.G.t.r.H.(.H.(.}.}.!.H.Z.F.^.}.J.F.J.F.F.v.v.Z.D.G.U.U.Y.J.U.J.J.J.J.J.U.U.!.U.U.!.^.!.!.!.!.!.Y.U.U.U.Y.Y.Y.Y.Y.{.}.}.}.}. X X X X.XXXXXXX$X$X$X$X.X}.!.^..X$X*X*X*X*X*X*X*X*X*X*X;X;X;X;X$XY.v.x.d.j.N.J.|.#X#XU.M.|.*X*X*X*X*X*X*X*X*X*X*X*X;X;X;X%X|.F.Z.{.$X;X;X*X*X;X;X;X;X;X;X;X;X;X;X;X;X;X;X;X;X;X;X;X;X;X;X;X;X;X;X;X;X;X;X;X>X>X>X;X;X;X;X;X>X>X>X;X>X>X>X>X;X;X;X;X;X;X;X>X;X;X;X;X;X;X;X;X>X;X>X>X>X>X>X>X;X;X;X;X;X;X;X;X;X;X;X;X;X;X;X;X;X;X;X;X;X;X;X;X;X;X;X;X;X;X;X;X;X;X;X;X;X;X;X*X*X*X$X$X.XH.N.}.*X;X;X*X*X*X$X$X*X*X*X*X*X;X;X;X}.N.F.XX#X].F.Z.k.l.b.U.$X*X;X>X;X;X;X;X*X*X*X*X;X*X;X;X,X XF.U. X$X$X$X$XXXXXXXXX X XXX}.}.}.}.}.}.}.'.'.'.^.^.{.{.^.!.!.^.}.}.}.}.'.^.Y.Y.^.Y.^.^.^.^.H.H.G.G.U.U.F.v.a.j.b.Z.H.F.H.}.$X'.F.N.N.N.G.^.|.|..X|.F.b.N.H.U.U.H.H.G.H.H.H.F.F.F.Z.N.C.A.A.Z.Z.N.v.j.r.5.-.+.@.=.-.@.@.a.F.F.G.F.A.Z.A.A.A.N.N.F.^.}.}.}.}.Y.U.XXXXXXXXXXXXXXXXXXXXXXXX$X$X;X;X{.N.",
"J.N. X$X$X$X$X$X$X$X$X$X$X$X$X$X$X$X$XF.F.{..XXX.X.XU.F.F.H.H.H.G.A.Z.N.s.5._ G ~ -.,.5.5.,.5.e.r.j.N.A.A.Z.Z.Z.Z.Z.A.A.F.F.F.G.G.H.H.H.U.H.H.s.t.G.(.!.}.}.|.'.D.D.H.{.{.J.F.F.J.Z.x.x.v.D.U.^.J.J.F.F.F.D.D.D.F.F.H.H.H.F.D.F.D.D.D.Z.D.Z.D.D.D.D.D.F.F.H.J.J.J.J.J.J.J.U.Y.Y.{.}. X XXXXX.X.XH.U.}..X*X*X*X*X*X*X*X*X*X*X*X;X;X;X>X=X'.A.x.s.s.c.N.G.%XM.U.%X*X*X*X*X*X*X*X*X*X*X*X*X*X*X;X;X;XXXF.N.{.$X*X*X*X*X;X;X;X;X;X;X;X;X;X;X;X;X;X;X;X;X;X;X;X;X;X;X;X;X;X;X;X;X;X;X>X>X>X>X;X;X>X;X>X>X;X;X;X;X;X;X;X;X;X;X;X;X>X>X;X;X;X;X;X;X;X;X;X;X;X;X;X;X>X>X;X;X;X;X;X;X;X;X;X;X;X;X;X;X;X;X;X;X;X;X;X;X;X;X;X;X;X;X;X;X;X;X;X;X;X;X;X;X;X;X;X;X$X{.Z.F.*X;X;X;X*X*X*X*X$X$X*X*X*X*X*X*X;X;X*X(.v.^.!.Z.v.N.k.Z.^.$X;X;X;X;X;X;X;X;X*X*X*X*X;X;X;X*X*XU.Z.^.}.}.}..X}.}.^.^.U.U.H.U.H.H.J.J.H.H.H.H.G.G.F.F.F.F.G.F.D.F.H.H.H.H.U.U.U.Y.Y.Y.^.^.U.H.H.G.F.F.U.F.c.a.j.b.A.F.A.G.}.*X'.F.M.v.A.U.|.#X|.#X|.U.M.Z.H.U.U.J.H.G.F.G.H.H.F.F.F.A.C.A.A.F.A.b.k.l.r.8.,.-.=.<.=.^ G _ 5.j.M.Z.Z.A.A.Z.Z.Z.N.A.U.}.}.}.}.^.Y.}.XXXXXXXXXXXXXXXXXX#X$X$X$X$X$XXXF.x.",
"D.s.F. X$X$X$X$X$X$X$X$X$X$X$X$X$X$X*X{.D.Y..XXX.X.X^.F.G.H.H.H.Z.v.a.9.5.>.-.) G ~ @.9.e.e.8.<.5.a.c.N.Z.Z.Z.Z.Z.Z.A.A.A.F.F.F.G.G.G.H.U.U.^.G.k.i.G.}.|..X.X#X^.H.G.J.{.{.J.F.F.Z.c.r.w.c.Z.H.D.D.F.F.F.F.H.G.G.G.H.!.H.Z.Z.D.D.D.D.D.F.F.F.F.F.F.F.F.H.J.J.U.U.U.U.J.J.J.U.U.J.U.{. X}..X}..XH.H.^..X*X*X*X*X*X*X*X*X*X*X*X*X;X*X;X>X>X$X}.F.D.b.d.c.I.B.%X;X*X*X*X*X*X*X$X$X*X*X*X*X*X*X*X;X$X>X*XJ.N.J..X*X*X*X*X;X;X;X;X;X;X;X;X;X;X;X;X;X;X;X;X;X;X;X;X;X;X;X;X;X;X;X;X;X>X>X>X>X;X;X>X>X>X>X;X;X;X;X;X;X;X;X;X;X;X;X>X>X>X;X;X;X;X;X;X;X;X;X;X;X;X;X>X>X;X;X;X;X;X;X;X;X;X;X;X;X;X;X;X;X;X;X;X;X;X;X;X;X;X;X;X;X;X;X;X;X;X;X;X;X;X;X;X;X$X$XY.N.U.*X;X*X;X*X*X*X*X*X$X$X;X*X*X*X*X*X*X;X>X>XA.v.A.b.C.G.]..X;X;X,X>X;X;X;X;X;X;X*X*X*X;X;X;X;X$X.XH.Z.U.^.U.U.^.^.].U.H.!.U.U.U.U.U.U.U.U.U.U.H.H.H.G.G.H.G.G.G.F.F.F.F.F.H.^.}.^.Y.U.U.Y.!.H.H.H.H.H.H.A.v.a.k.N.Z.Z.N.H..X#XU.F.N.M.M.H.'.|..X$X#XH.b.A.Y.^.H.J.H.G.G.F.G.H.H.F.F.F.A.A.A.F.F.Z.k.e.9.9.5.<.<.<.@.^ U Y [ =.,.8.a.k.M.Z.Z.Z.A.A.G.^.}.}.}.}.^.J. XXXXXXXXXXXXXXXXX$X$X$X$X$X$XXXY.N.c.",
"N.t.x.{.$X$X$X$X$X$X$X$X$X$X$X$X$X$X;XXXF.J. XXX#X#X}.G.F.Z.M.k.j.j.k.k.j.r.5.+.T H U =.9.s.k.e.<.3.r.c.N.Z.N.N.Z.Z.Z.Z.A.F.F.F.G.G.G.H.U.U.Y.U.U.n.r.!.(..X^.^.'.^.H.Z.G.J.U.Y.F.A.N.c.a.p.k.M.B.B.D.D.F.F.F.F.F.D.A.Z.C.N.b.b.N.Z.Z.Z.N.N.N.N.N.N.D.D.D.D.D.D.D.D.Z.Z.Z.Z.Z.Z.F.F.H.J.Y.J.^.}.D.Z.F.H. XXX*X;X;X*X;X*X*X*X*X;X;X;X;X;X>X>X;X$X#X'.H.A.M.M.*X*X;X;X*X*X*X*X$X$X*X*X%X$X$X$X;X;X;X;X*X;XU.C.Z.U.*X*X$X*X;X;X;X;X;X;X;X;X;X;X;X;X;X;X;X;X;X;X;X;X;X;X;X;X;X;X>X;X;X;X;X;X;X;X;X;X;X;X;X;X;X;X;X;X>X>X>X>X>X>X>X>X>X>X>X>X>X>X;X;X;X;X>X>X>X>X>X>X;X;X;X;X;X;X;X;X;X;X;X;X;X;X;X;X;X;X;X;X;X;X;X;X;X;X;X;X;X;X;X;X;X;X;X;X*X*X*X*XXXJ.D.Y.;X;X;X;X*X*X*X*X*X*X*X*X%X%X*X*X=X*X*X*X;X6XH.e.A.H.|.$X;X;X;X;X;X;X;X;X;X;X;X;X*X*X*X*X*X#X}.Y.H.N.b.N.Z.N.Z.Z.A.Z.F.F.H.H.H.G.H.G.G.G.G.F.F.Z.Z.Z.Z.Z.Z.Z.Z.B.N.M.b.b.v.b.N.F.F.A.A.F.D.D.D.D.Z.D.F.B.b.s.c.C.G.Z.N.H..X.X^.G.c.b.Z.H.^.}..X#X.XH.c.A.Y.Y.Y.Y.U.U.G.G.F.F.F.F.F.F.D.Z.F.F.F.N.j.5.8.3.8.8.e.e.,.^ Y U _ -.4.0.r.e.9.9.r.k.M.M.N.U.}.}.}.}. XY.Y.XX$XXXXXXX$X$X$X$X#X#X$X$X$X$X.XZ.x.x.",
"N.s.x.F.XX$X$X$X$X$X$X$X$X$X$X$X$X$X$X$XJ.F. XXX$X$X.XH.c.v.b.v.b.M.M.v.c.j.e.-.~ K B ~ e.k.v.k.5.#.5.r.v.N.Z.N.Z.Z.Z.Z.A.F.F.F.G.G.F.H.H.U.Y.Y.U.H.b.r.G..XU.U.^..X^.F.B.D.J.Y.^.U.H.F.A.k.s.v.B.D.G.F.F.D.A.F.Z.Z.Z.Z.Z.Z.D.D.F.H.H.H.J.J.J.J.J.U.!.{.{.^.{.{.^.^.^.^.!.U.U.U.J.J.J.J.J.J.J.J.F.F.H.J.D.D.J. X%X;X;X*X*X*X*X;X;X;X;X;X;X>X;X;X5X*X.X^.A.F.;X;X%X*X$X$X*X$X$X$X*X*X%X$X$X$X;X;X;X;X*X*X;X$XZ.b.H..X$X;X;X;X;X;X;X;X;X;X;X;X;X;X;X;X;X;X;X;X;X;X;X;X;X;X;X;X>X>X;X;X;X;X;X;X;X;X;X;X;X;X;X;X;X;X>X>X>X>X>X>X>X>X>X>X>X>X>X>X;X;X;X;X>X>X>X>X;X>X;X;X;X;X;X;X;X;X;X;X;X;X;X;X;X;X;X;X;X;X;X;X;X;X;X;X;X;X;X;X;X;X;X;X;X;X*X;X*X$XF.N.XX>X;X;X;X;X*X*X*X*X*X*X*X*X%X%X*X$X$X*X*X=X;X*XN.w.}.$X*X;X;X;X;X;X;X;X;X;X;X;X;X*X*X*X*X*X|.'.^.Y.^.Z.N.H.Y.Y.^.Y.U.H.^.'.'.^.^.Y.U.H.H.H.H.H.G.F.F.F.F.F.F.F.F.F.F.D.A.Z.A.N.Z.F.F.F.F.F.D.D.D.D.D.B.N.c.s.c.Z.D.Z.Z.H..X.X^.G.Z.b.N.H.}.}..X#X|.H.s.Z.Y.Y.Y.Y.Y.U.U.G.G.F.F.F.F.F.F.D.Z.F.F.N.x.w.<.<.<.w.a.j.s.{ U G Y O.<.e.j.k.j.j.j.a.l.a.a.c.U..X.X}. X XJ.}.XX$X$XXXXX$X$X$X$XXXXX$X$X$X$X^.b.j.b.",
"J.N.b.D. X$X$X$X$X$X$X$X$X$X$X$X$X$X$X*X XF.}.XX#X$X.X^.N.Z.A.Z.Z.Z.M.M.M.c.s.5._ G E -.f.f.j.k.k.>.#.9.a.v.Z.F.Z.Z.Z.A.A.F.F.F.G.F.F.H.H.U.U.Y.!.!.^.N.t.H.|.!.^..X.XU.G.B.F.Y..X}.Y.U.G.Z.N.Z.G.H.H.H.H.H.H.H.H.H.H.H.H.H.H.H.H.H.H.H.U.Y.Y.Y.Y.!.{.{.{.{.}.}.{.{.^.^.^.^.^.^.}. X X X{.{.{.Y.Z.F.F.D.D.D.U.XXXX%X;X*X*X*X*X;X;X;X;X;X;X;X;X;X,X>X;X$XN.G.=X*X*X*X*X$X$X$X$X*X;X;X;X;X*X*X*X;X*X*X*X*X*X,X;XU.b.D.{.XX*X;X;X;X;X;X;X;X;X;X;X;X;X;X;X;X;X;X;X;X;X;X;X;X;X;X>X>X;X;X;X;X;X;X;X;X;X;X;X;X;X;X;X;X>X>X>X>X;X;X;X>X;X;X>X>X>X>X>X>X;X;X;X>X;X;X;X;X;X;X;X;X;X;X;X;X;X;X;X;X;X;X;X;X;X;X;X;X;X;X;X;X;X;X;X;X;X;X;X;X;X;X;X;X$X.X^.H.Y. X XXX;X;X;X;X*X*X*X*X*X*X*X*X%X%X*X*X$X*X*X$X}.}.b.s.*X;X;X;X;X;X;X;X;X;X;X;X;X;X;X;X;X*X$X.X.X|.Y.U.U.M.M.J.Y.{.}.{.F.H.Y.^.Y.Y.U.H.U.H.H.H.U.U.H.H.G.G.F.G.G.G.F.H.H.H.F.F.F.A.Z.A.F.F.F.F.D.D.D.D.B.D.G.x.b.F.F.D.Z.H..X}.^.G.Z.N.Z.H.}..X.X#X|.H.c.Z.U.Y.Y.Y.Y.Y.U.U.G.G.G.F.F.D.D.D.D.D.F.N.x.a.s.9.@.>.s.x.c.s.@.U G ' =.9.f.k.v.v.v.v.M.M.M.k.Z.}..X^.}. X XJ.XX$X$XXXXXXX$X$X$X$X$X$X$X$X$X$XH.c.b.U.",
"XX{.H.H.^.$X$X$X$X$X$X$X$X$X$X$X$X$X$X$X$XD.{.XX|.XX$X.X^.U.F.Z.N.M.M.v.b.c.j.9.+.Y O.r.a.0.8.e.c.k.,.<.9.s.M.F.Z.A.Z.A.A.F.F.F.G.F.F.H.H.H.U.U.U.U.^.^.N.s.H.U.^.}.}.}.|.H.F.U.'.}.^.U.Y.U.H.F.G.J.U.U.Y.^.^.^.^.^.(.'.}.^.}.^.^.^.}.}. X X X X X.XXXXXXXXX$X$XXXXX.X.X.X.X.X.X X.XXX$X$X$X$X XY.$X XJ.F.H.U.{. XXX%X;X;X;X;X;X;X;X;X;X;X;X;X;X>X>X>X;Xb.N.|..X$X*X$X$X$X$X*X*X*X*X;X;X*X*X;X;X*X*X*X*X$X;X,X;X{.Z.D.!.XX*X;X;X;X;X;X;X;X;X;X;X;X;X;X;X;X;X;X;X;X;X;X;X;X;X>X>X;X;X;X;X;X;X;X;X;X;X;X;X;X;X;X;X>X>X>X>X;X;X;X>X;X;X;X>X>X>X>X>X;X;X>X>X;X;X;X;X;X;X;X;X;X;X;X;X;X;X;X;X;X;X;X;X;X;X;X;X;X;X;X;X;X;X;X;X;X;X;X;X;X;X;X;X.XU.H.!.;X<X$XXX;X;X;X;X*X*X*X*X*X*X*X*X%X*X*X*X*X*X.X.X}..XN.r.$X;X;X*X;X;X;X;X;X;X;X;X;X;X;X;X$X}.H.Z.U.U.U.U.}.Y.Y.|.XX$X$XXX X XXXXXXX.X.X.X|.|..X.X.X.X|.}.}.}.'.}.}.}.}.}.}.}.^.^.'.Y.^.}.`.'.'.'.{.Y.Y.Y.|.}.b.B.H.U.Z.Z.U..X.XH.G.Z.N.N.H.}..X.X#X|.H.N.A.U.Y.^.Y.Y.Y.Y.U.U.H.G.F.F.D.Z.Z.D.D.D.N.x.a.e.s.e.+.w.x.j.r.e.<.~ W +.8.a.k.k.v.v.M.M.M.C.Z.Z.Y..X.X}.}. X XJ.XX$X$X.XXXXX$X$X$X$X$X$X$X$X$X$XZ.b.H.;X",
";XXXY.D.F..X;X$X$X$X$X$X$X$X$X$X$X$X$X$X*XF.D.XX|..X$X$X|.U.F.Z.Z.N.M.M.v.v.k.s.4.' ~ @.-.4.5.9.s.v.j.5.<.8.s.b.A.F.F.A.A.A.F.F.F.G.F.H.H.U.H.U.H.U.!.^.Y.Z.s.^.^.}.}..X.X|.Y.U.U.Y.^.Y.Y.Y.^.Y.U.}.|.}.}. X X X.X}..X.X.X.X.X.X.X.X.X.XXX$X$XXXXXXX.X X X$X*X$X$X$X$X$X$X$X*X$X.X.X$X*X;X;X*X$X$X$X;X;X*XXXU.H.F.D.Y.XX$X;X;X;X;X;X;X;X;X;X;X;X;X;X;X;Xk.N..X$X}.^.}.$X*X*X$X$X$X*X*X;X*X*X*X*X*X*X*X*X$X}.}.;X>X$XJ.D.H. X*X;X*X*X*X*X;X;X;X;X;X;X;X;X;X;X;X;X;X;X;X;X;X;X;X;X;X;X;X;X;X;X;X;X;X;X;X;X;X;X;X;X;X;X;X;X;X;X;X;X;X;X;X;X;X;X;X;X;X;X;X;X;X;X;X;X;X;X;X;X;X;X;X;X;X;X;X;X;X;X;X;X;X;X;X;X;X;X;X;X;X;X;X;X;X;X;X;X*X;X$X^.G.G..X;X,X;X;X;X;X;X;X;X*X*X*X*X*X*X*X*X;X;X>X>X$X'.|.#X$X;XN.j.;X,X;X;X;X;X;X;X;X;X;X;X;X;X;X$XH.Z.Z.H.'.'..X#XXXXXXXXX$X$X$X$X&X&X;X$X$X$X$X$X$X$X$X$X#X#X#X#X#X#X.X.XXXXXXX.X.X X X X.X.X.X.X.X.X.X.X|. X}.}.{.Y.{.Y.F.Z.F.U..X.X!.G.D.Z.F.!.}..X.X.X}.U.M.A.}.^.^.Y.Y.Y.U.U.U.H.H.H.F.F.D.Z.F.F.D.C.N.s.e.e.e.8.a.x.x.r.9.<.~ A ~ <.r.s.k.k.k.v.v.M.C.Z.Z.F.}..X.X}. X XF.U.XX$XXX.XXXXXXXXX$X$X$X$X*X*X$X^.b.Z..X*X",
";X$XY.D.D.{.$X$X$X$X$X$X$X$X$X$X$X$X$X$X.XZ.s.XXXX.X#X$X|.U.F.A.Z.Z.M.M.M.v.v.k.0.$.Y Y ~ O.3.0.e.e.j.j.5.<.5.a.M.A.F.A.F.A.A.F.F.F.F.F.H.H.H.H.H.U.U.!.^.^.N.c.H.}.U.}..X.X}.Y.H.U.Y.^.{.Y.Y.Y.B.M.Y.|. X X X X|.}..X.X.X.X.X.XXX.X.X XXX$XXX X XXX{.J.Y. XXXXX*X$X}.c.!..X;X*X.X.X$X;X;X*X$X$X$X$X*X;X;X;X$X}.!.Y.Z.F.{.;X;X;X;X;X;X;X;X;X;X;X;X;X;X;XN.Z.#X*X*X$X}.^.}.*X$X;X*X$X$X*X*X*X*X*X*X*X*X*X*X$X$X*X;X;X$X{.D.F.^.XX*X*X*X*X;X;X;X;X;X;X;X;X;X;X;X;X;X;X;X;X;X;X;X;X;X;X;X;X;X;X;X;X;X;X;X;X;X;X;X;X;X;X;X;X;X;X;X;X;X;X;X;X;X;X;X;X;X;X;X;X;X;X;X;X;X;X;X;X;X;X;X;X;X;X;X;X;X;X;X;X;X;X;X;X;X;X;X;X;X;X;X;X*X*X;X;X$X$X^.N.D..X;X<X>X;X*X;X;X;X;X;X*X*X*X*X*X*X;X*X;X*X$X|.}..X$X*X*X$Xb.x.;X>X;X;X;X;X;X;X;X;X;X;X$X*X.XH.Z.H.}..X|.|.#X*X#X#X#X#X$X;X;X$X&X&X&X$X$X$X$X$X$X$X#X#X#X#X#X#X#X#X.X.XXXXXXX.X.X X X X.X.X.X.X.X.X.X.X X X}.}.}.{.{.H.Z.G.^..X.X!.H.D.D.F.U.}..X.X.X}.F.v.F.}.^.^.Y.Y.U.U.U.H.H.H.H.G.F.F.D.Z.H.H.D.b.k.r.w.<.8.s.c.k.w.5.@.^ n Z ` 8.f.s.k.k.c.v.M.M.C.Z.A.G.|..X}.}.}.}.Z.{.}..XXXXXXXXXXXXX$X$X$X$X*X*X.XU.b.H.$X$X",
"$X*X}.G.Z.J. X$X$X$X$X$X$X$X$X$X$X$XXX.X XJ.r.J.#X.X.X$X.XY.F.F.A.Z.Z.N.M.M.v.M.a.:.~ J Y ^ =.5.e.e.a.b.j.9.<.5.s.M.A.F.F.F.A.A.F.F.F.F.F.G.H.H.H.J.U.U.U.H.U.D.x.U..X.X#X.X.X}.U.H.U.Y.{.{.{.^.F.N.b.Y.}.}. X X X}. X X.X.X.X.X.X X X XXXXXXX Xc.H.H.s.N.Y. X.X$X$XU.5.N.Z.D.F..X.X$X$X*X$X$XXX$X$X$X$X;X>X<X;XXX{.{.!.J.U.#X*X;X;X;X;X;X;X;X;X;X;X;X;XY.A.}.$X*X*X*X.XY.Y. X$X$X$X*X$X*X*X*X*X*X*X*X*X*X$X$X*X;X;X>X*X{.F.F.^..X*X*X*X;X;X;X;X;X;X;X;X;X;X;X;X;X;X;X;X;X;X;X;X;X;X;X;X;X;X;X;X;X;X;X;X>X>X>X>X;X;X;X;X;X;X;X;X;X;X;X;X;X;X;X;X;X;X;X;X;X;X;X;X;X;X;X;X;X;X;X;X;X;X;X;X;X;X;X;X;X;X;X;X;X;X;X;X;X;X;X;X*X$X$X$X.XH.D.H.$X;X*X;X;X*X$X*X;X;X;X;X*X*X*X*X*X;X;X*X#X|.}..X$X$X$X#X$X^.c.Z.,X;X;X;X;X;X;X;X;X;X*X*X*X.XU.N.U.}..X}.|.#X*X;X$X$X$X$X$X;X;X$X$X$X$X$XXXXXXXXXXXXXXX$XXXXX#X.X.X.X.X.X.X.X.X.X.X.X.X X.X.X.X X.X.X.X.X X X}.}.!.{.D.F.U.^.}.}.!.H.D.Z.H.!.}..X.X.X^.H.M.A.|.}.^.Y.Y.U.U.U.H.G.H.G.G.F.D.D.F.F.H.D.b.j.a.r.8.5.s.v.j.e.5.=.E B n U =.9.s.j.k.k.v.v.M.M.Z.Z.A.]..X.X}.}. XD.J. X{.}.XX$XXXXXXXXX$X$X$X$X$X$X}.F.b.}.*X*X",
"}.*X$X^.Z.F.^.$X$X$X$X$X$X$X$X$XXX X}.}.$X$Xc.c.|.XX.X#X#X^.G.F.A.A.Z.Z.N.M.M.M.k.6.O.E E ~ [ -.e.s.s.s.N.c.w.<.9.s.M.A.F.F.F.A.A.F.F.F.F.F.H.H.H.H.H.U.!.U.H.U.F.c.^..X#X.X.X.X'.U.H.U.Y.^.{.{.F.Y.F.v.}.}.}. X}.}.}. X X X|.|. X X X X.XXXXX{.M.r.j.t.x.Y.Y.J.^.{.H.<.} =.w.F.^.}. XXX$X$X$XXX$X$X$X$X$X;X>X;X*X.X{.{.}.U.H.|.;X;X;X;X;X;X;X;X;X;X;X;X#XA.H.^.$X$X*X;X*XXX{.}. X.X$X$X;X;X*X*X*X*X*X*X$X$X$X$X*X;X;X;X;X.XJ.H.^..X*X*X;X;X;X;X;X;X;X;X;X;X;X;X;X;X;X;X;X;X;X;X;X;X;X;X;X;X;X;X;X;X;X;X>X>X>X>X;X;X;X;X;X;X;X;X;X;X;X;X;X;X;X;X;X;X;X;X;X;X;X;X;X;X;X;X;X;X;X;X;X;X;X;X;X;X;X;X;X;X;X;X;X;X;X;X;X;X;X;X;X*XXX XG.F.^.*X;X;X,X;X;X*X$X*X;X;X;X;X*X*X*X;X;X,X;X.XY.}.$X=X;X*X$X$X}.H.k.U.>X;X;X;X;X;X;X;X;X;X*X*X}.H.G.!..X.X}.^.$X=X;X*X$X$X$X$XXX$X$X$X$X$X$X$XXXXXXXXXXXXXXXXX#X#X.X.X.X.X.X.X.X.X.X.X.X.X.X.X|..X.X.X.X.X.X.X X X{.}.D.x.F.U.Y.'.'.Y.H.D.Z.Z.}..X.X.X}.^.G.N.F.'.Y.'.Y.Y.U.U.U.H.G.F.G.G.G.G.Z.Z.F.G.C.c.s.r.e.5.8.j.b.c.r.<.+.) U G G ^ <.r.s.k.k.v.v.v.M.M.Z.Z.G.'.|.}.}.}.U.b.{.XX X{.}. XXXXXXXXXXX$X$X$X$X.X^.Z.U.$X.X.X",
"G..X*X$XH.C.J.$X$X$X$XXX$X*X$X X|.|.}..X$X$XH.r.!..X.X.X.X^.H.F.F.F.Z.Z.N.N.N.M.k.s.<.W T ~ _ +.8.a.k.k.j.v.c.a.3.5.r.c.Z.F.F.F.Z.F.F.F.G.G.G.H.H.H.H.U.Y.Y.^.Y.!.Z.N.H.XX$XXX$X.X}.J.F.H.U.U.Y.^.U.U.F.x.U. X}.}.}.}.}.|.|.|.|.|.|.}.|..X.X.XU.Z.c.b.b.D.!.Y.^.(.(.H.C.N.A.H.U.Y.{.}..X$X$X$X$X$X$X$X$X$X;X*X*X;X;X$X}.(.'.'.Y.@X>X,X*X;X;X;X;X;X;X*X.X*X.XC.U..X$X*X*X;X;X;X X}.}..X$X*X*X*X*X*X*X*X*X$X$X$X$X;X*X*X*X,X;X$X!.J.J. X;X;X;X;X;X;X;X;X;X;X;X;X;X;X;X;X;X;X;X;X;X;X;X;X;X;X;X;X;X;X;X;X;X;X;X;X;X;X;X;X;X;X;X;X;X;X;X;X;X;X;X;X;X;X;X;X;X;X;X;X;X;X;X;X;X;X;X;X;X;X;X;X;X;X;X;X;X;X;X;X;X;X;X;X;X;X;X;X;X*X$XY.Z.J..X;X;X;X;X;X;X;X%X;X%X;X;X;X;X*X*X*X;X*X.X}.|.XX;X;X;X;X$X}.H.A.F.U..X;X;X;X;X;X;X;X;X;X*XXX}.H.U.}..X$X.X.X*X;X;X;X;X%X%X%X$X.XY..X$X$X$X$X$X$X$XXXXXXX.XXXXX.X.X.X.X.X.X.X.X.X.X.X.XXXXX.X.X|.|..X.X}.}.}.}.^.}.^.b.s.H.H.H.Y.}.Y.F.F.Z.F.!.}.XXXX}.}.F.k.F.}.'.^.^.U.U.U.U.H.H.H.G.F.F.F.F.G.U.H.A.k.a.r.e.w.e.j.b.c.r.5.=.^ ~ W W ) -.9.a.j.k.k.v.M.M.N.Z.A.A.U.|.|.|.|.}.D.D.XX$XXX X}.}..X.X$X$X$X.X.X$X$X.XJ.F.}. X$X.X",
"C.].#X$X^.F.H. X;X;X$X$X$X}.^.{.}..X$X$X$X$X}.j.Z.}..X.X.X}.!.H.F.F.A.Z.N.N.N.M.v.j.q._ ^ ^ ^ _ +.5.s.k.j.k.M.v.e.5.8.a.b.Z.F.F.D.Z.D.F.F.G.G.G.H.H.H.H.Y.Y.Y.Y.^.!.Z.b.Y.$X}..XXX.X X{.H.H.H.H.|.Y.Z.B.Z.c.U.}.}.}.}.}.|.|.|.|.|.|.}..X.X.X.XU.b.N.F.F.D.Y.^.!.}.}.(.Z.b.Z.G.U.{.}. XXX$X$X$X$X$X$X$X$X$X$X*X$X*X;X;X*X}.'.'.|.R.}.$X>X;X;X;X;X;X;X*X.X*X*XU.H.U.^.}..X$X$X;X;X*X$X.X.X.X$X*X*X*X*X*X;X;X;X;X;X;X;X*X*X*X*X*X*X{.H.J.{.$X*X;X;X;X;X;X;X;X;X;X;X;X;X;X;X;X;X;X;X;X;X;X;X;X;X;X;X;X;X;X;X;X;X;X;X;X;X;X;X;X;X;X;X;X;X;X;X;X;X;X;X;X;X;X;X;X;X;X;X;X;X;X;X;X;X;X;X;X;X;X;X;X;X;X;X;X;X;X;X;X;X;X;X;X;X;X*XXX^.D.J..X;X;X;X;X;X;X;X;X;X;X;X;X;X;X*X*X*X*X$X.X.X$X*X;X;X;X;X.XY.F.D.H.^.].|.;X;X;X;X;X;X;X;X*X.X^.!.!.}..X.X$X$X;X,X;X;X;X*X%X%X%X%X.X'.#X$X$X$X$X$X$X$XXX*XXX.XXXXXXX$X$X.X.X.X.X.X|.|.|..XXX.X.X.X|..X.X.X|.}.}.}.}.^.C.j.j.c.N.'.}.U.F.A.Z.F.!..X.X$XXX}.D.c.H.(.'.^.^.Y.U.U.U.H.H.H.H.G.F.F.F.F.G.G.Z.v.a.r.e.9.r.x.b.b.t.5.=.[ ~ ~ ~ ^ { 5.r.s.j.k.c.v.M.M.N.Z.A.F.Y.|.|.|.}.Y.c.Y.XX.X.XXXXX.X{.^.}.}..X$X$X$XXX^.H.U.$XXX XY.",
"j.A.}.*X$X!.J.U.*X$X X}.Y.Y.{..X#X.X.X.X.X$X$XC.j.^..X}..X.X}.H.G.F.F.Z.Z.N.N.N.v.c.r.>._ ^ ^ ^ ) @.5.s.j.k.c.M.c.r.8.w.s.b.Z.F.F.Z.D.F.F.G.G.H.H.H.H.H.U.U.Y.Y.H.U.!.F.c.J.XXXX$XXX.X X!.G.F.G.U.U.Z.N.Z.j.Z.^.}.}.}.}.|.|.|.|.|.|..X}.}.}..X!.Y.{.{.{.{. X.XoX{.!.{.!.!.!.!.!.}. XXXXX$X$X$X$X$X$X$X$X$X$X$X$XXX$X;X;X*X#X|.|.}.Y.^..X*X;X;X;X;X;X*X.X$X$X.X^.J.J.J.Y.}.XX$X;X;X;X*X.X.X.X$X*X*X*X;X;X;X;X;X;X;X;X*X*X*X*X;X;X*X}.H.H.{.$X$X*X*X;X;X;X;X;X;X;X;X;X;X;X;X;X;X;X;X;X;X;X;X;X;X;X;X;X;X;X;X;X;X;X;X;X;X;X;X;X;X;X;X;X;X;X;X;X;X;X;X;X;X;X;X;X;X;X;X;X;X;X;X;X;X;X;X;X;X;X;X;X;X;X;X;X;X;X;X;X;X;X;X;X$X XJ.D.}.$X;X;X;X;X;X;X;X;X;X;X;X;X;X;X;X;X;X*X$X}..X*X;X,X>X;X$X.XY.F.D.H.|..XH.}.;X;X;X;X%X*X;X;X.XY.U.(..X$X$X.X*X;X,X,X;X*X*X*X$X$X$X;X$X.X$X$X$X$X$X$X$X$X$X$XXX}.XXXXXXXXXXXX.X.X.X.X|..X|.|.XX.X.X.X.X|.|.|.|.|.|.|.|.A.x.N.j.b.U.}.Y.F.Z.F.F.!..X.X$XXX}.F.x.H.}.].^.^.Y.U.U.U.H.G.H.F.G.G.F.F.F.F.F.Z.v.j.r.e.e.a.c.N.b.s.8.>.] W ^ ) _ [ -.e.a.j.k.k.v.v.M.M.Z.Z.A.G.^.|.|.|.{.F.c.}.XX X X X.XXX.X{.!.U.!.}..X$X XJ.H..X$X.XF.2.",
"e.b.].*X*X.XY.F. X{.J.F.{..X$XXX.X.X.X.X.X$X.X!.j.H.^.^.}..X}.U.H.F.F.A.Z.N.N.N.b.c.j.8.+.^ ) _ _ ) +.8.a.k.k.v.M.c.a.8.e.s.b.Z.F.D.Z.D.F.F.G.G.G.H.H.H.U.U.U.U.U.H.U.!.F.x.J.}.XXXXXX X}.U.F.D.U.Y.G.s.r.v.N.U.}.}.}.}.}.|.|.|.|.|.|.}.}.(..X{.{.XX{.XXXXXX.X{..XXX.X.X.X.X.X.X.XXX$XXX$X$X$X$X$X$X$X$X$X$X;X$X$X$X*X;X>X*X$X|.}.}.}.}.XX;X;X;X;X;X*X.X.X.X$X$X}.J.F.F.J.Y.}.XX*X*X;X;X.X.X.X$X*X*X;X;X;X;X;X;X;X;X*X;X;X;X;X;X>X;X XJ.H.^.XX$X*X;X;X;X;X;X;X*X;X;X;X;X;X;X;X;X;X;X;X;X;X;X;X;X;X;X;X;X;X;X;X;X;X;X;X;X;X;X;X;X;X;X;X;X;X;X;X;X;X;X;X;X;X;X;X;X;X;X;X;X;X;X;X;X;X;X;X;X;X;X;X;X;X;X;X;X*X;X;X;X*XXX{.J.F. X;X;X;X;X;X>X;X;X;X;X;X;X;X;X;X;X;X;X$X.X.X$X*X;X;X;X;X.XY.J.H.J.^..X*X'.N.^.;X;X;X;X;X*X*X*X^.U.^.$X$X$X.X$X;X,X;X*X*X*X*X*X$X$X$X*X*X$X*X$X$X$X$X$X$X$X$X$X.X^.}.}.}.}. X X.X.X.X.XXX.XXX.XXXXX|..X|.|.|.|.|.|.|.|.#XZ.c.Z.G.U.|.H.F.A.F.F.!..X.X.X$X XF.x.G.^.].U.^.Y.U.U.U.H.G.G.F.F.G.G.F.F.F.F.Z.c.s.r.e.9.a.k.C.b.j.e.<.{ W W ^ ) [ { 5.r.a.j.k.c.v.M.M.N.Z.Z.F.Y.|.}.|. XY.B.F.}.XX.X X X X XXX.X}.!.F.Z.U.$XU.F.Y.$X$X X>.D ",
">.e.H.*X$X$X.X{.Y.J. XXX.X.X.X.X.X.X.X.X.X.X.X.Xb.c.^.^.}..X}.^.H.F.F.A.Z.N.N.N.b.v.k.a.,.[ ) _ ^ _ _ +.<.s.c.j.c.b.b.j.e.e.s.b.Z.H.G.F.Z.Z.D.F.F.H.H.G.U.U.Y.Y.U.U.!.!.J.D.x.J. X X$X X$X.XY.F.Z.H.Y.U.H.U.U.U.^.^.}.}.}.}.|.|..X|.^.}.}.}..X}. X X.X.XXXXXXX.X.X.XXXXXXXXXXXXX$X$X$X$X$X$X$X$X$X$X$X$X$X;X;X;X*X$X*X*X;X;X*X#X{.}.{.U.Y.|.%X;X*X;X;X*X.X^.$X$X$X$X XJ.F.F.J.Y.}.$X;X;X;X$X.X.X$X*X;X;X;X>X;X;X;X;X;X;X;X;X;X;X;X;X;X*XY.F.Y. X$X*X;X*X*X;X;X*X;X;X;X;X;X;X;X;X;X;X;X;X;X;X;X;X;X;X;X;X;X;X;X;X;X;X;X;X;X;X;X;X;X;X;X;X;X;X;X;X;X;X;X;X;X;X;X;X;X;X;X;X;X;X;X;X;X;X;X;X;X;X;X;X;X;X*X*X*X*X=X$XXXJ.F.J.;X;X;X;X;X;X;X;X;X;X;X;X;X;X;X;X;X;X;X*X^..X.X;X;X;X*X$X.XY.F.F.^. X$X*X=X^.N.#X;X;X;X>X;X$X|.U.U.Y.|.#X.X$X*X,X;X;X*X*X*X*X*X$X*X*X$X$X*X*X$X$X$X$X$X$X$X$X$X$X#X.X.X|. X}.}. X.X.X.X.XXXXXXXXX#X#X#X#X$X#X#X|.|.#X|..X}.^.U.H.^.^.U.H.Z.F.H.}..XXX.X.XU.N.c.J.}.^.^.!.Y.Y.Y.U.U.U.H.H.G.F.G.F.Z.F.F.C.c.j.a.r.9.e.j.N.x.j.t.<.{ ] ^ Q ^ ) _ =.9.a.j.k.c.v.M.M.N.N.Z.A.G.'..X}.|.^.J.M.^..X.X.X X X X X.X.X.X.X.X^.G.^.J.{.XXXX%X}.=.H ",
"r.k.G.].$X$X$X X^. X$X$X.X.X.X.X.X.X.X.X}..X.X.XH.s.H.^.}.}.}.^.U.H.F.A.Z.N.N.N.b.v.k.a.5.@._ ) ^ _ ) _ +.5.a.c.k.b.N.b.s.e.e.s.j.Z.H.F.D.D.D.F.F.F.G.F.H.U.U.U.!.!.!.!.Y.{.F.x.U..X}. XXXXX}.Y.Z.Z.G.U.Y.Y.Y.Y.^.^.}.}.}.}.}.}.'.^.U.^.}.}.}.}. X.X.X.X.X.X.X.X|..X.X#X$X$X$X$X$X$X$X$X$X$X$X$X$X$X$X$X$X$X;X;X;X;X*X$X*X;X;X*X%X|.}.U.J.U.{.$X*X;X,X,X$X^.$X$X$X$X$X$X{.J.F.F.U.}..X*X;X;X*XXX.X.X$X;X>X;X;X;X;X;X;X;X;X;X;X;X;X;X;X;X*XXXH.U..X.X}.*X;X*X*X*X*X*X;X;X;X;X;X;X;X;X;X;X;X;X;X;X;X;X;X;X;X;X;X;X*X*X*X*X*X*X*X*X$X$X$X$X$X$X;X;X*X*X;X;X;X;X;X;X;X;X;X;X;X;X;X;X;X;X;X;X;X;X;X*X*X*X*X;X;X*X$X.XJ.F.^.;X;X;X;X;X;X;X;X;X;X;X;X;X;X;X;X;X;X;X$X^..X$X*X;X*X*X.XH.Z.F.J.Y..X$X*X*X;X^.N.#X,X,X>X;X%XXXY.H.U.}..X|.$X*X;X,X;X*X*X$X$X$X*X*X*X*X$X$X$X$X.X.XXXXXXX.XXXXXXX#X#XXX.X.X X}.}. X.X.X.X.X|.|.|.|.|.|.|.|..X|.|.'.'.|.'..X'.'.^.^.}.U.F.Z.Z.H.}..X.X.X*X!.c.n.^.}.^.^.!.!.^.^.Y.Y.G.H.H.H.G.F.F.F.F.D.N.c.j.r.e.9.e.k.N.b.j.r.5.@.[ ] ) ^ ^ ) { <.e.a.j.k.v.v.M.N.N.Z.Z.A.U.'..X}.}.Y.Z.D..X.X X}. X X X X.X.X.X.X.X}..X!.{..X$X$XXXU.D.D.",
"^..XM.Z..X$X*X$XXXY.J. X.XXX.X.X.X.X.X.X}.}..X.X}.j.Z.Y.^.}.}.}.!.H.F.F.Z.N.N.N.b.v.k.j.a.,.[ ) _ _ _ _ { +.5.s.k.c.M.N.v.s.e.e.s.j.N.H.H.F.F.F.F.F.F.F.G.H.U.U.U.U.U.!.!.J.}.H.x.Y..XXX X}. X}.Y.Z.N.F.].].Y.Y.H.Z.G.F.F.F.F.A.F.A.Z.F.U.^.^.^.{.{.{.!.!.Y.Y.Y.!.^.^.^.^.^.^.^.^.Y.^.{.{.{.{.{.{.{.{.{.oX XXXXX*X=X=X*X*X*X;X;X>X%X|.U.Y.J.H.Y..X;X,X,X*X^..X$X$X$X$X$X;XXXY.F.F.H.!..X$X*X;X*X*X^.{.*X;X;X;X;X;X;X;X;X;X;X;X;X;X;X;X;X*X;X$XY.G.^.^.}..X$X*X*X%X;X;X;X;X;X;X;X;X;X;X;X;X;X;X;X;X;X;X;X;X;X;X;X*X*X*X*X*X*X*X*X$X$X$X$X$X$X*X*X*X*X;X;X;X;X;X;X;X;X;X;X;X;X;X;X;X;X;X;X;X;X;X;X*X*X*X$X*X$X^.A.J.|.;X;X;X;X;X;X;X;X;X;X;X;X;X;X;X;X;X;X;X X{. X*X*X;X*X#X}.H.N.F.{.XXXX*X*X*X*X*XY.M.#X,X>X;X$XXXY.U.Y.^..XXX$X;X;X;X;X=X*X$X$X*X*X$X#X#X#X.X.X.X|.'.'.^.^.^.^.^.^.^.^.Y.Y.U.U.H.H.H.H.H.H.H.H.H.J.J.H.H.H.H.H.H.H.F.F.A.Z.Z.U.}.}.}.}.^.F.D.G.^.}..X.XXX.X!.v.b.^.}.{.^.!.U.H.U.U.U.H.A.F.H.H.F.F.F.F.F.b.j.s.a.r.e.e.j.N.N.j.j.8.=.[ ) ) ) ) ) _ =.9.a.j.k.c.v.b.M.N.Z.A.A.F.'.}.|.|.|.J.M.U..X X}.}. X X X X.X.X.X.X^.U.}.}.XX$X$XXX{.U.|.{.",
"'.j.=.j.|.$X;X;X XD.x.D.|.XX.X.X.X.X.X.X}.}.}..X.XN.k.Y.^.^.}.}.^.U.H.F.Z.N.N.N.b.c.k.j.s.5.@._ _ _ _ _ { { @.<.a.c.v.N.M.v.s.e.r.t.c.C.H.H.G.G.F.F.F.F.G.G.H.U.H.U.U.U.{.{.{.Y.F.b.H..X}.{. X.X.XH.N.A.].].^.Y.F.b.N.N.N.N.N.N.N.N.b.Z.F.G.H.H.J.J.J.J.J.J.J.J.H.H.U.U.U.U.U.U.U.J.U.Y.Y.Y.Y.Y.Y.Y.Y.Y.H.H.Y.{.'..X*X=X*X*X*X;X;X>X%X|.U.Y.Y.U.!..X*X;X*XU.(..X$X$X$X;X;X;X$X.XH.F.D.U.}.$X;X>X;X.X^.U.$X;X;X;X;X;X;X;X;X;X;X;X;X;X;X;X$X*X;X*X}.U..X$XU.$X*X#X;X;X;X;X;X;X;X;X;X;X;X;X;X;X;X;X;X;X;X;X;X;X;X;X;X;X;X;X;X;X;X;X;X;X;X;X;X;X;X;X;X;X;X;X;X;X;X;X;X;X;X;X;X;X;X;X;X;X;X;X;X;X;X;X;X*XXX.X$XU.F.U.;X;X;X%X;X;X;X;X;X;X;X;X;X;X;X;X;X;X;X;X}.}.XX;X;X;X*X.XU.Z.Z.H.}.$X;X$X*X*X*X*X$XU.M.|.,X;X$XXXY.J.Y.XX'.#X;X,X;X;X;X;X*X$X$X$X|.^.H.F.U.G.G.G.U.U.H.G.G.G.H.G.H.H.H.H.J.H.G.G.F.Z.Z.F.H.H.H.H.H.H.H.G.F.F.F.F.F.F.Z.Z.b.b.b.H..X}.^.!.G.N.Z.!..X.X.X.X.X!.c.c.}.^.{.}.!.U.U.H.G.F.F.A.Z.F.H.H.F.F.F.F.C.c.s.s.j.a.a.j.N.b.j.l.r.>.[ ) ) ) ) ] ) { <.r.a.j.k.v.v.b.M.Z.A.A.F.F.|.}.|..X}.D.B.}. X X}.}. X X X X.X.X.X.XZ.c.c.^.XX$XXX}.c.j.Z.D.",
"-.G ~ 5.Z.Y.*X*X.XY.b.j.G..X}..X X X X X}.}. X X|.Y.k.H.'.'.}..X}.^.U.F.Z.N.N.N.M.v.v.k.j.9.-.{ ) ) ) _ { +.+.=.<.a.x.c.b.b.v.j.r.s.c.M.A.U.U.F.F.F.G.F.G.G.G.H.H.H.U.U.^.!.^.^.^.U.M.G.|.}..X#X$X.XH.Z.H.!.!.U.F.Z.F.G.U.U.U.U.H.H.H.H.H.H.H.H.J.J.Y.Y.Y.Y.Y.Y.^.^.^.'.^.^.^.^.{.^.{.{.{.{.^.^.{.{.{.{.{.{.{.{. X|..X$X$X$X*X;X;X;X;X*X|.!.U.U.Y.U. X;X;XN.Y. XXX;X$X$X%X%X*X;X$X^.F.Z.H..X*X*X;X;XXXY.F. X;X;X;X;X;X;X;X;X;X;X;X;X;X;X;X;X;X;X$X#X^.G.Y.H.G.G.G.D.D.Z.B.B.Z.Z.Z.Z.Z.Z.N.N.Z.Z.D.F.F.F.F.F.F.H.J.J.H.H.H.F.F.J.Y.Y.F.F.F.F.F.F.H.H.H.G.G.G.F.F.F.F.D.D.D.D.D.F.D.D.D.D.G.H.U.!.}.}.F.Z.J.J. X;X;X;X;X;X;X;X;X;X;X;X;X;X*X*X*X*X>X>X$X}.$X$X*X;X;X*X.XH.b.G.^..X%X*X;X*X*X$X%X$X$XZ.k..X=X#XY.H.Y.^.'.}.;X;X;X;X;X>X;X$X$X`.@X`.Y.U.U.^.^.^.^.^.^.^.^.^.^.^.^.^.^.^.^.^.Y.^.^.'.}.}.^.^.^.^.^.^.}.}.}.}.U.Y.Y.Y.Y.Y.Y.Y.J.Z.b.J.}.^.}.!.N.D.Y.}..XXX$X$X|.N.M.'.{.{.^.!.!.U.U.U.U.U.U.U.G.G.G.H.G.G.F.N.b.a.j.j.r.j.b.C.c.j.r.8.>.{ [ [ [ _ ) ) { =.9.s.j.k.c.v.v.M.N.N.Z.A.F.U..X.X X}.J.N.J.}.}.}.}.}.|.|..X.X}..X^.C.b.v.F.|.$X&X XM.1.[ W ^ ",
"U ~ W @.s.N.'.}..X.XH.c.c.^..X$X X X X X}.}.}.}.}.Y.c.b.Y.}.}.}.#X}.Y.H.Z.N.N.N.M.M.v.k.j.r.5.@._ ) ) ) [ { +.+.=.5.a.x.c.c.M.N.j.s.s.s.v.Z.U.U.H.G.G.G.G.G.F.F.H.H.H.U.!.U.U.!.^.'.Y.M.F.|..X#X$X.XU.Z.H.!.!.U.Y.H.U.Y.'.'.}.}.}.}.}.}.}.}.}.}.}. X.X|..X.X.X.X.X.X.X.X#X#X#X#XXXXXXX$XXXXXXXXX$X$X$XXXXXXXXXXXXX|.}.}.XX$X$X$X*X;X;X;X*X|.!.U.}.U.{.$X$Xx.F.H.Y.XX$X;X%X*X*X;X;X*X.XH.Z.F.^.$X;X;X;X;X}.J.{.*X;X;X;X;X;X;X;X;X;X;X;X;X;X;X;X;X=X$X}.G.Y.}.|.}.}.}.}.{.^.^.^.^.!.!.!.U.U.Y.^.^.!.!.!.U.U.J.J.J.J.J.H.F.F.F.J.Y. X{.F.D.D.D.D.F.F.H.H.H.H.H.H.H.J.J.J.H.J.Y.Y.^.!.!.!.^.}..X$X*X>X;XJ.N. X$X>X>X;X;X;X;X;X;X;X;X;X;X;X*X*X;X;X;X$X X}.XX$X;X;X;X*X}.D.c.D.}.$X*X%X;X;X;X;X$X%X*XZ.9.a.|.*X|.J.J.{.^.'.$X;X;X;X;X;X;X;X'.A.T.@XT.Y.(..X.X.X$X$X$X#X#X$X$X$X#X$X$X$X$X$X#X#X.X#X#X$X.X.X.X.X.X.X.X.X.X.X}.}.}.}.}.}.}.}.}.}.U.F.{.^.U.^.H.F.U.}.}..XXX#X@XB.B.'.|.}.{.!.!.U.U.U.U.U.U.U.U.G.G.G.H.H.F.N.x.s.s.k.s.s.N.F.b.j.r.8.=.{ [ [ [ [ _ [ [ @.5.e.s.j.k.v.v.b.M.N.Z.Z.F.H.^.}.}. X{.D.b.J.^.}.}.}.}.|.}..X.X.X}.F.c.c.F..X*X$X XG.d.w./ A G ",
"~ ~ { =.r.r.x.Y.$X$X.XF.r.F..X.X}.}. X X}.}.}.}.'.Y.N.9.N.^.|.}.#X}.Y.H.Z.N.N.N.M.M.v.c.k.j.9.-.[ ) ) ) _ [ { +.@.-.8.j.N.b.M.b.N.j.e.e.s.c.N.H.U.H.H.G.H.G.D.A.F.H.H.H.U.U.U.!.^.^.|.Y.N.H.$X$X$X$X^.Z.H.!.!.U.}.^.^.|.#X.X.X.X.X.X.X.X.X.X.X.X.X.X#X#X$X$X$X$X$X$X#X#X*X*X*X*X*X$X*X*X*X*X*X*X*X*X*X*X*X*XOXOX$X$X.X XY.|.%X;X*X=X;X;X;X*X}.U.}.{.Y.^.D.j.Y.F.D.Y.$X;X$X$X;X;X$X*X;X$XU.Z.F.^.$X;X;X>X;X$X{.Y.$X;X;X;X;X;X;X;X;X;X;X;X;X;X;X;X=X;X=X#XY.|.$X$X*X*X*X$X*X*X*X*X*X$X$X$X$X%X*X*X*X$X$X$X$X$X$X$X$X$XXXXX XXX;X6XrXwX>X;X;X;X;X;X;X;X;X;X;X;X;X;X>X>X>X;X;X;X>X>X;X;X;X;X;X;X=X*X;X$XJ.D.$X>X;X$X;X;X;X;X;X;X;X;X;X;X;X*X*X;X;XXX^. X$X$X*X;X;X*X}.D.b.Z.$X*X;X*X%X%X;X;X;X$X$XU.w.3.a.F.^.U.Y.{.U.^.$X;X>X;X;X;X;X>X.XN.'.%X#X]..X$X*X*X*X;X;X;X*X*X*X*X*X&X&X*X*X*X*X*X#X#X#X#X$X$X.X.X.X.X.X.X|.|.|.|.|.|.|.|. X X X X X}.Y. X!.H.U.H.H.^. X XXXXX|.G.M.'.|.|.{.^.!.U.U.U.U.U.U.U.U.U.G.G.G.G.G.N.j.r.a.j.s.s.b.A.N.j.r.8.=.[ ) _ [ [ [ [ { { ,.9.a.s.k.c.v.v.b.N.N.Z.A.F.U.}..X.X}.F.c.N.J.{.}.}.}.}.}.}.}.}..XH.b.c.Z.|.*X;X XY.v.y.s.5.@.+.",
"N.U.Z.<.5.w.w.b.$X*X.X}.c.j.H..X}.}. X X}.}.}.}.^.^.Z.-.5.F.'.}.'.'.U.F.Z.N.N.N.M.M.b.v.k.j.r.5.+._ ) ) _ _ [ { @.@.<.r.k.N.N.b.N.c.a.e.a.s.x.N.F.F.U.H.U.H.F.Z.F.G.H.H.H.H.U.U.Y.Y.|..XG.b.}.*X$X$X}.F.H.!.!.U.}.^.'.|..X.X.X.X.X.X.X.X.X.X.X.X.X.X#X#X#X$X#X#X#X.X.X.X*X*X*X*X*X$X*X*X*X*X*X*X*X*X*X*X*X*X*X*X*X$XXXXXU.Y..X*X*X*X*X;X;X;X*X}.Y. X{.Z.t.b..XJ.N.F.XX;X$X$X;X;X;X*X*X;X*X}.F.Z.Y. X$X;X;X,X*X X}.$X;X;X;X;X;X;X;X;X;X;X;X;X;X;X;X>X;X=X=X#X}.|.|.|.}.}.^.^.^.^.Y.Y.Y.Y.Y.Y.'.}.{.{.{.{.}.}.}.}.}.{.{.Y.Y.}.;X0XrX6X$X}. X X X X|.|.|.|.}.}.|.}. X X.X.X XXX#X#X.X.X.X.X|.}.}.|.XX;X$X*X>X>X>X>X;X;X;X;X;X;X;X;X;X;X;X;X*X;XXX{.XX$X;X;X*X;X$X^.Z.b.G.$X$X$X$X*X$X$X;X;X$X;X|.x.x.$XY.e.a.U.XX{.J..X;X;X>X;X;X;X;X#XF.Y.%X%X#X%X=X*X*X*X;X;X;X;X;X;X;X;X$X$X%X%X$X$X$X$X.X.X.X#X$X$X.X.X.X.X.X.X.X.X.X|.|.|.|.|. X X X X}.{.U.{.H.G.H.F.H.^. X.XXX.X}.v.`..X}.(.^.^.!.U.U.U.U.U.U.U.U.U.G.G.G.H.F.c.a.w.a.s.r.c.A.b.a.r.8.=.[ ) ) _ [ { [ { { @.8.a.a.j.k.c.v.b.M.N.N.Z.F.H.^.}.$X.XU.N.e.Z.{.{.}.}.}.}.|.}.}.}.^.N.c.b.^.$X*XXX}.B.r.s.y.a.9.>.",
">XD.3.#.e.5.9.a.^.;X$X}.U.c.N.}.}.(.}.}.}.(.^.!.Y.U.N.5.R e.F.Y.'.Y.F.M.Z.B.N.N.M.M.b.v.v.k.a.9.-.) ~ ^ ) ) _ _ +.@.=.5.e.j.b.N.v.c.j.r.a.w.e.s.N.F.G.H.G.U.G.F.F.H.H.H.U.H.U.U.Y.Y.'.|.^.Z.Z.*X;X*X}.G.H.^.Z.D.'.Z.F.G.D.F.F.F.D.Z.Z.Z.A.F.G.H.U.U.U.U.U.U.U.U.U.U.Y.^.|.}.}.'..X|.|..X|.|..X.X.X}.#X|..X.X.X.XXX$X;X$X#X}.}.#X=X=X*X;X,X;X*X.XY.Y.}.F.b.c.U. XJ.D.}.$X*X*X*X;X*X*X*X*X*X$X}.H.N.D.{.$X$X*X;X$X}.U.}.*X;X*X*X;X;X;X;X;X;X;X;X;X;X;X;X;X;X;X;X;X;X;X;X;X;X;X;X;X;X;X;X;X;X;X;X;X;X;X;X;X;X;X;X;X;X;X;X;X;X;X;X;X>X;X$X$X;X>X>X>X>X>X>X>X;X;X;X;X>X;X;X;X;X;X>X>X;X;X>X>X>X;X;X;X;X;X;X;X;X;X;X;X;X;X;X;X;X;X;X;X=X;X;X;X*X}.{.XX;X;X;X;X;XXXH.N.F.^.$X*X*X*X*X*X$X$X$X;X$X$XJ.d.N.$X#X4.<.}.XXQ.}.*X;X;X;X;X;X>X$XH.U.*X$X#X$X=X;X;X*X$X$X.X$X}.$X$X$X$X$X$X$X$X#X#X#X#X^.'.'.'.}.!.H.F.D.F.H.H.U.H.G.D.D.D.Z.B.Z.Z.Z.C.D.Z.F.H.F.!.G.Z.H.|.}.$XXX}.k.U.|.|.'.(.^.!.U.U.U.U.U.H.U.U.U.U.H.U.G.N.b.j.a.s.a.j.b.N.c.s.r.8.>.{ ) ) ^ ) ) [ _ ) { >.e.a.j.k.k.c.v.b.N.N.N.N.Z.G.Y.'..X}.C.=.{ D.U.!.^.^.}.}.}.}.}.}.U.C.b.G.$X*X*X.XM.a.k.3.-.0.0.9.",
"5.G B _ -.3.5.9.N.*X$X.X^.C.b.H.^.^.^.^.(.^.!.U.U.U.A.a.U _ k.F.H.F.N.x.Z.N.N.N.M.M.b.v.k.k.a.e.5.+.) ^ ^ ) ) ) [ { @.-.>.8.r.j.b.M.b.x.x.a.e.r.k.N.Z.D.F.G.G.F.F.H.H.H.H.U.H.U.Y.Y.^.}.}.G.b.^.*X*X}.F.H.!.Z.c.Z.e.6.5.5.8.9.9.8.8.8.8.w.e.r.r.y.y.r.r.p.e.e.e.e.e.r.r.a.s.s.s.l.a.s.l.s.s.s.s.j.w.j.F.H.}.}.{..XXXXX$X$X#X}.}.#X=X;X;X;X;X*X.XJ.J. X}.^.<.t.XXJ.D.Y.$X*X*X*X*X*X*X*X*X*X*X$X}.J.Z.Z.H. X$X*X;X;X.X^.U..X$X;X*X;X;X;X;X;X;X;X;X;X;X;X;X;X;X;X;X;X;X;X;X;X;X;X;X;X;X;X;X;X;X;X;X;X;X;X;X;X;X;X;X;X;X;X;X;X;X;X;X;X$X$X;X;X;X;X;X;X;X;X;X;X;X;X;X;X;X;X;X;X;X;X;X;X;X>X>X;X;X;X*X;X;X;X;X;X;X;X;X;X;X;X;X;X;X;X;X*X;X;X$X}.}.XX;X>X;X;X*XXXH.b.F.}.*X;X;X*X*X*X*X$X$X;X*X$X$XM.M.N.M.k.9.j.Y. XW.}.*X;X;X;X;X=X$XU.U..X=X$X*X;X;X*X.X.X.X!.v.s.s.j.j.j.j.s.s.s.s.s.a.a.a.9.9.9.9.8.8.5.5.8.8.8.e.w.w.8.8.6.6.5.<.<.>.>.=.=.@.>.=.c.H.H.N.U.|.}.$X|.m.M.}.|.}.(.!.^.U.U.U.H.H.H.U.Y.Y.Y.U.G.F.N.c.j.j.j.x.j.v.b.c.r.8.5.=.{ ) ) ) ) ) ) ) ^ ) +.5.a.s.j.k.k.v.v.b.N.N.N.N.N.G.U.H.^.H.8.Z <.F.U.U.U.!.^.^.}.}.}.}.G.N.Z.!.$X$X.XG.y.c.a.W E +.4.9.",
"5.@.~ _ ^ #.<.a.e.U.$X$X.XH.c.b.U.^.].].].!.U.H.H.H.A.b._ N ,.M.N.N.M.v.N.N.N.N.M.M.v.v.k.k.j.a.r.<.[ ~ ~ ^ ^ ) [ [ { @.@.,.5.e.j.b.M.b.b.k.a.y.s.j.c.M.A.G.G.F.F.H.H.H.H.U.U.U.Y.Y.Y.'.}.U.j.A..X*X}.F.U.^.U.8.e.=.3.a.8.9.e.e.e.e.e.r.a.a.a.a.a.a.a.a.a.a.r.a.a.a.s.s.s.s.a.a.e.8.9.0.9.9.9.9.<.@.8.N.U.|.XXXX.X.X.X.X$X$XXX{.^.$X;X;X;X;X*X$XU.U. XXX X>.r.}.J.N.J.$X*X*X*X*X*X*X*X*X*X*X*X$X*X{.D.b.F. X$X*X;X;X.X}.H.}.$X;X;X;X;X;X;X;X;X;X;X;X;X;X;X;X;X;X;X;X;X;X;X;X;X;X;X;X;X;X;X;X;X;X;X;X;X;X;X;X;X;X;X;X;X;X;X;X;X;X;X;X;X;X;X;X;X;X;X;X;X;X;X;X;X;X;X;X;X;X;X;X;X;X;X;X;X;X;X*X*X*X;X;X;X;X;X;X;X;X;X;X;X;X;X;X;X;X;X*X.X!.^..X;X;X;X;X$X{.D.b.U.$X*X;X;X*X*X*X*X*X;X;X;X;X;X.Xx.F.Y.9.-.M.Y.^.Y.J.}.*X;X;X;X;X$X^.U..X#X$X$X*XXXXX X X}.^.Z.a.8.s.a.a.a.a.a.y.y.r.r.e.e.e.e.e.e.e.8.8.w.w.e.e.e.e.w.e.e.e.e.e.9.8.<.<.<.<.-.-.<.>.j.H.H.Z.Y.|.}..XU.a.U.|.|.}.{.!.!.!.U.H.H.H.H.H.Y.Y.U.G.Z.b.j.s.s.x.c.v.x.v.j.a.8.<.*.[ [ [ [ [ _ ) ^ ^ W ) -.e.a.j.j.k.c.v.b.M.N.N.N.N.Z.Z.Z.N.G.b.) V r.F.H.H.H.U.U.!.^.^.}.}.Z.N.H.$X$X#XF.s.e.s.a.a.<.~ Y @.",
"$Xv.~ -.[ #.#.y.r.s.}.*X$X^.Z.x.Z.!.].!.!.U.H.H.F.G.Z.N.3.m ^ e.v.N.N.N.N.N.M.M.M.M.v.v.k.k.j.a.s.8.@.~ ~ ~ ~ ^ ) [ [ { =.>.<.8.w.s.c.v.v.c.d.s.s.r.r.j.M.F.G.F.F.H.H.H.H.H.U.U.U.Y.Y.^.'.Y.v.N.}.$X.XD.H.H.c.<.H.8.#.@.<.3.5.8.8.8.8.8.w.9.8.8.6.w.8.8.w.w.w.w.r.r.a.a.r.e.5.<.>.-.-.-.-.-.-.-.#.@.e.c.s.b.U.XX$X.X.X.X$X$X*XXXU..X;X;X*X*X*X$X}.U. XXX}.5.b.{.J.D.Y.XX$X$X$X$X*X*X*X*X*X*X*X*X*X*X XD.b.F. X$X*X;X;X*X.X^.^..X;X;X;X;X;X;X;X;X;X;X;X;X;X;X;X;X;X;X;X;X;X;X;X;X;X;X;X;X;X;X;X;X;X;X;X;X;X;X;X;X;X;X;X;X;X;X;X;X;X;X;X;X;X;X;X;X;X;X;X;X;X;X;X;X;X;X;X;X;X;X;X;X;X=X*X*X*X*X*X*X;X;X;X;X;X;X;X;X;X;X;X;X;X;X;X;X*X}.^.^.$X*X;X;X$XXXY.D.Z.}.*X$X*X*X$X*X*X*X*X*X;X;X;X;X;X}.v.G.`.9.,.U.#X|.G.F.}.*X;X;X;X;X$XH.^..XXX*XXXXX{.{.}.}.F.a.<.<.5.w.e.e.e.e.6.6.6.6.8.5.5.5.e.e.e.e.e.e.w.8.8.8.5.5.5.5.8.9.8.8.5.5.<.<.<.<.<.@.-.Z.b.G.F.F.Y.}.^..XG.y.Y.'.}.}.^.!.!.U.U.U.H.H.H.H.U.H.F.Z.c.s.a.a.k.v.v.x.s.j.a.8.q.-.[ ) *.*.*.*.[ ) ^ ^ W +.9.r.s.j.j.k.c.v.v.M.N.N.N.N.D.b.c.N.N.j.T { b.F.H.F.H.H.H.U.U.!.^.^.C.D.^.*X$XY.k.5.9.<.+.k.k.-.` _ ",
"[ ~ U 3.[ +.,.-.a.9.v.#X}.^.H.N.D.U.!.U.U.U.H.H.G.G.G.G.b.>.=.s.N.Z.A.Z.v.b.M.M.M.M.b.c.j.j.s.s.a.e.<.{ W Y ^ ~ ^ ) [ +.+.@.=.-.5.8.9.a.v.c.j.r.e.e.e.w.j.M.G.G.F.F.H.H.H.H.U.U.U.U.U.U.^.Y.M.M.|.$X|.G.Z.F.A.s.F.<.r.N.D.F.G.H.J.J.J.J.J.J.J.J.J.J.J.J.U.U.U.U.U.U.U.!.U.U.U.H.H.H.H.H.H.H.H.H.F.Z.F.^.{.c.<.j.}.$X}.}..X.X$X*X}.^..X;X;X*X*X*X.XU.}.XX^.r.b.U.Y.F.J.XX$X$X$X$X$X$X$X$X;X;X%X$X*X*X*X$XH.Z.C.^.$X*X;X%X;X#X}.}.$X*X*X;X;X*X*X*X*X;X;X;X;X;X;X;X;X;X;X;X;X;X;X;X;X;X;X;X;X;X;X;X;X;X;X;X;X;X;X;X;X;X;X;X;X;X;X;X;X;X;X;X;X;X;X;X;X;X;X;X;X;X;X;X;X;X;X;X;X;X;X;X;X;X;X;X;X;X;X;X;X;X;X;X;X;X;X;X;X;X;X;X;X;X;X;XH.U.|.*X;X>X;X*X XF.Z.H.XX$X$X$X;X;X;X*X*X*X*X*X*X*X*X*X*X!.c.H.$Xa.5.]..X|.U.G.{.;X;X*X;X;XJ.H..X$X$X.XXXXX.X}.'.k.9.M.^.H.H.^.^.^.^.^.^.^.^.!.Y.Y.Y.Y.'.^.Y.Y.Y.Y.Y.Y.U.U.U.U.H.H.H.H.F.F.F.F.G.F.D.A.Z.Z.=.j.Z.G.G.F.F.}.^..XN.y.Y.|.'.'.^.U.U.U.U.U.H.H.H.H.F.A.N.k.s.a.j.v.k.j.j.j.j.a.9.5.<.{ _ [ +.-.-.{ ^ ) ) ^ { <.e.r.r.l.j.k.c.c.v.M.N.M.N.Z.F.N.N.D.Z.r.q.c.A.A.F.F.U.U.U.Y.^.U.Y.{.D.F.$X*X^.Z.e.9.0.' I *.4.=.k.p.",
"5.6.9.a.3.@.-._ a.9.,.N.!.!.}.$X;X.X^.U.U.U.H.F.G.G.G.G.F.x.c.F.U.U.G.F.b.b.M.N.M.b.v.c.j.j.s.s.a.e.5.=.W G U Y U W _ +.{ { +.=.=.-.,.<.r.k.b.k.c.c.j.j.v.M.F.I.F.F.H.H.H.H.H.U.U.U.U.U.!.Y.M.b.}.#X}.D.Z.F.H.A.c.{ c.Y.J.H.H.Y.Y.Y.Y.Y.Y.^.Y.Y.^.^.^.Y.{.{.{.{.'.'.}.}..X.X.XoXXXXXXXXX.XXXXX.X.X}..X*X$X;X$Xs.5.U..X.X.X.X.X.X.X!.}.*X;X*X*X*X.XH.}..X^.j.j.!.Y.D.H.XX$X$X$X$X$X%X$X$X;X;X;X;X*X$X*X*X;X}.F.b.H.|.%X$X,X;X$X|.Y.'.$X;X;X;X*X*X*X*X;X;X;X;X;X*X;X;X;X;X;X;X;X;X;X;X;X;X;X;X;X;X;X;X;X;X;X;X;X;X;X;X;X;X;X;X;X;X;X;X;X;X;X;X;X;X;X;X;X;X;X;X;X;X;X;X;X;X;X;X;X;X;X;X;X;X;X;X;X;X;X;X;X;X;X;X;X;X;X;X;X;X;X;XXX{.U.}.*X,X;X;X$XY.Z.D.Y.$X;X;X;X$X;X;X;X;X*X*X*X*X*X*X*X*X*X^.c.H.$Xa.5.Y..X|.U.U. X;X;X;X;X*XH.Y.$X$X.X}..X}..XU.e.s.@X>X;X$X.X#X$X$X$X$X.X.X.X.X.X.X.X.X.X.X.X.X|.|.|.|.|.|.|.|.}.}.}.'.].].].].^.!.U.H.G.Z.[ =.H.H.F.N.F.^.}..XM.y.Y.|.'.^.^.U.U.U.U.U.H.H.H.H.A.N.v.k.c.k.k.c.j.a.a.j.a.e.5.<.=.[ _ _ +.+._ W E W ~ { ,.9.e.r.r.s.j.k.k.c.c.b.N.M.N.Z.U.F.G.!.F.C.A.A.A.A.F.F.H.H.U.U.U.U.}.$X$X$X$X$XU.k.9.<.q.q.q.8.{ @.f.a.",
"'.'.#XH.8.@.@.^ >.9.-.c..X.X*X6X<X$X^.H.H.G.F.F.D.D.D.D.b.N.D.H.U.U.U.U.N.v.c.b.M.b.c.k.j.j.s.s.r.e.9.<._ U x j m G W ~ [ { { +.+.@.@.=.5.a.k.M.N.N.b.M.M.M.A.F.F.F.F.F.F.F.H.H.U.U.U.U.Y.^.N.v.'..X}.D.Z.G.U.U.G.j.F.F.H.Y.^.^.{.{.{.{.{.{.{.{.}.}.}.}. X X X X.X.X.X.XXX.X.XXXXXXXXXXXXXXXXXXX$XXXXX$XXX$X;X;Xb.<.U.}.}.}..X.X|.H.U.*X;X;X*X*X.XH.}..X.Xb.r.}.{.D.F.$X$X$X$X$X*X*X*X$X;X;X;X;X*X*X*X*X*X$X.XH.M.D.Y.#X;X;X;X%X'.Y.(.$X*X;X;X*X*X*X*X;X;X*X*X*X;X;X;X;X;X;X;X;X;X;X;X;X;X;X;X;X;X;X;X;X;X;X;X;X;X;X;X;X;X;X;X;X;X;X;X;X;X;X;X;X;X;X;X;X;X;X;X;X;X;X;X;X;X;X;X;X;X;X;X;X;X;X;X;X;X;X;X;X;X;X;X;X;X;X;X;X;X{.Y.{..X$X;X>X;X.XH.b.b.{.;X*X;X;X;X;X*X*X;X;X*X*X*X*X*X*X*X*X*X^.b.^.*Xs.8.'.#X}.U.'.$X;X;X;X;X$XF.{.$X}.^.}..X}.F.e.F.$X=X=X;X*X$X$X$XXXXXXX$X$X$X.X.X.X.X.X#X#X.X|.'.'.'.|.}.}.}.}.{.{.^.^.!.!.^.^.!.U.H.H.H.H.t.j.^.U.G.N.Z.^..X.Xv.a.^.'.'.^.U.U.U.U.U.H.H.H.H.H.Z.Z.Z.M.j.j.j.j.k.j.j.a.9.5.=.{ [ [ _ [ { ~ A c Z Z E @.e.r.s.r.t.s.s.j.k.k.k.v.b.b.N.F.G.G.H.!.H.F.H.Z.C.C.A.A.F.F.F.G.G.U..X;X>X;X.X}.Z.e.>.{ *.0.a.0.8.p.O.O.",
"'.U.U.v.5.@.) ) <.Z.^.;X<X6X,X*X$X.X^.F.F.F.Z.Z.N.N.N.N.Z.H.^.^.Y.U.U.U.Z.c.k.b.b.v.c.j.j.j.s.s.r.e.e.8.5.=.^ ) =.>.@.) ) _ [ [ +.+.+.@.>.5.9.k.b.b.n.v.N.M.B.F.F.F.F.F.F.F.F.H.U.U.U.H.U.^.N.x.Y.|.Y.B.Z.H.Y.Y.U.Z.H.^.U.U.U.U.Y.Y.Y.Y.Y.^.^.^.{.{.{.{.}.}.}.}.}.}..X.XXXXXXXXX$X$X$X$X$X$X$X$X$X$XXX.X$X$XXX$X.XN.8.H.^.^.}.}.^.U.U..X*X;X*X*X.XH.}..X.XZ.w..X}.N.F.$X$X$X$X$X*X*X*X$X;X;X;X;X*X*X*X*X$X*X*X.X^.D.B.U.|.$X;X;X=X}.!.(.$X*X;X;X*X*X*X*X*X*X*X*X*X*X*X*X*X;X*X*X;X;X;X;X;X;X;X;X;X;X;X;X*X*X*X*X;X;X;X;X;X;X;X;X;X;X;X;X*X*X;X;X;X;X;X;X;X;X;X;X;X;X;X;X;X;X;X;X;X;X;X;X;X;X;X;X;X;X;X;X;X;X;X;X;X;X;X;X{.Y.{.$X;X;X*X*X.XA.b.Z.XX*X;X$X$X$X;X;X*X*X;X;X;X*X*X*X*X*X*X*X$X^.b.^.=Xs.9.|.$X}.Y..X;X;X;X;X;X$XF.}..XY.U.}.$XZ.a.Y.>X=X$X=X$X$X$X$X*X*X*X*X$X$X$X$X$X$X$X$X#X#X.X.X|.|.|.|.|.|.|.|.}.}.}.}.^.^.^.^.^.!.U.H.H.H.D.F.U.U.H.A.N.^.}..Xv.a.^.^.^.^.U.U.U.H.U.H.H.H.H.H.Z.G.N.r.a.k.v.c.M.M.j.9.<.=._ W ~ [ { @.-.,.3.5.8.8.r.s.s.s.s.t.r.t.s.s.j.k.k.v.v.b.C.G.G.H.!.(./.!.].H.C.C.A.A.A.F.F.F.F.U.}.*X;X;X.X$X#XN.+.W =.5.9.9.f.f.+.+.",
"Z.b.t.<.[ [ >.Z..X*X<X,X,X,X*X;X$X|.U.F.N.b.x.k.s.b.Z.^.}..X}.}.Y.Y.U.U.H.N.c.c.v.x.c.d.a.r.a.e.5.5.9.a.k.v.N.A.F.G.A.Z.k.r.-.{ [ { +.+.>.e.<.8.b.b.c.c.v.k.M.F.F.F.G.H.F.F.G.G.I.U.H.H.H.U.M.k.^..X^.B.N.G.Y.U.H.F.H.!.U.U.!.!.Y.Y.!.Y.!.!.^.^.^.^.(.(.}.}.}.}.{.{..X.XXX|.XX%X;X;X;X;X;X&X&X&X$X$X$X$XXXXXXXXX$X.Xc.s.^.!.U..X.XU.H.*X*X;X*X*X.XH.^..X XD.w.{. Xb.F.&X$X$X$X$X$X$X$X$X$X$X*X*X*X*X*X*X*X*X*X*X%X|.J.M.F. X$X*X*X;X.X^.^..X*X;X;X*X*X*X*X*X*X*X*X$X*XXXXX$X%X%X;X;X;X;X;X;X;X;X;X;X;X;X*X*X*X*X;X;X;X;X;X;X;X;X*X*X*X*X*X*X*X*X;X;X;X;X;X;X;X;X;X;X;X;X;X;X;X;X;X;X;X;X;X;X;X;X*X*X*X*X*X*X*X$X;X%X$X{.Y.$X;X;X;X*X.XH.M.v.H.XX*X*X;X*X$X$X$X$X;X;X;X;X$X$X$X$X$X$X$X$X$X^.b.^.*Xs.a.}.$X'.F.}.$X;X;X;X*X$XH..X.X}.}.$XF.e.^.*X=X*X*X*X*X$X*X*X.X$X$X.X$X.X.X$X$X.X.X#X.X.X|.|.|.|.|.|.}.}.}.}.{.{.^.^.'.'.'.'.^.Y.U.H.H.H.H.Z.U.U.H.A.F.^.XX}.b.t.U.^.!.Y.U.H.H.H.H.G.H.H.H.H.Z.b.j.r.j.b.M.M.N.k.9.>.=.[ W ^ _ -.8.a.N.Z.F.Z.F.D.N.x.a.e.9.8.5.w.a.s.j.k.k.v.j.b.b.C.H.U.!.^.{.{.}.}.^.H.N.b.c.c.c.x.M.A.^.$X>X;X,X0XsX0X$XM.r.9.9.5.=.,.<.4.",
"w.1.2.-.8.n..X,X<X,X;X;X$X;X*X*X$X}.G.v.k.a.r.s.Z.U..X$X.X.X.X^.^.Y.Y.U.Y.G.N.k.c.c.j.w.<.@.^ U Z E =.r.j.c.M.N.N.M.Z.A.G.A.M.k.5.+.) _ <.a.r.s.b.b.b.c.v.s.s.A.F.F.F.G.F.F.F.F.I.U.H.H.H.U.M.k.'..XY.M.N.G.Y.U.H.H.H.U.H.H.U.U.!.!.!.!.^.^.^.^.(.(.}.}.}.}.}.}.}.}..X.XXX#X#X#X#X$X$X$X#X$X$X#X#X.X X XXXXXXXXX.X*X.Xb.N.H.^..X.XU.H.*X*X;X*X*X.XH.!..X XF.w.{.XXN.D.$X$X$X$X$X$X$X$X$X$X$X*X*X*X*X*X*X*X*X*X*X*X$XXX{.N.D.^.$X$X$X*X$X.X^.}.$X*X;X*X*X*X*X;X;X;X*X$X}. X$X;X;X;X;X;X;X;X;X;X;X;X;X;X;X;X;X;X;X;X*X$X$X$X X X$X$X^.^.}.*X*X*X*X;X;X;X;X;X;X;X;X;X;X;X;X;X;X;X;X;X;X;X;X;X;X;X;X*X*X*X;X;X;X*X*X$XXXY.}.;X>X>X;X$X}.G.b.N.'.$X*X*X*X*X*X$X$X$X$X;X;X;X;X$X$X$X$X$X$X$X$X$X^.b.^.$Xa.a.|.$X'.F.|.$X;X;X;X$X$XH.}.}.}.#X=Xk.N.;X;X*X*X*X$X$X$X*X*X*X*X$X$X#X.X.X.X*X$X$X*X#X.X.X.X.X.X|.|.}.}.}.}.}.{.^.^.'.'.'.'.^.Y.U.H.H.H.^.F.U.Y.U.A.A.Y.#X}.b.t.U.^.U.U.H.H.H.H.G.G.G.F.F.F.N.v.j.r.j.M.N.Z.M.9.,.=.=.{ { -.j.M.F.A.N.N.b.v.c.b.c.j.r.e.3.@.[ [ @.,.9.a.s.j.c.k.s.b.U.!.^.^.{.{.}.}.$X.X}.!.b.k.a.r.j.N.U.}.#X#X*X;XwXwXrXrX;X^.Z.a.@.@.@._ ",
">.1.x.J.*X,X3X,X:X*XXX}.^.=X$X|.$X.XF.a.8.a.N.U.}..X$X$X.X.X.X}.'.^.Y.Y.Y.U.F.b.d.s.y.+.A t d [ =.-.5.e.j.M.Z.Z.N.b.M.Z.F.F.G.G.A.k.8.+.+.<.e.v.v.c.x.k.k.s.e.m.F.F.F.G.G.G.F.G.I.U.H.H.H.U.N.k.}.|.U.v.N.G.Y.Y.H.G.F.H.H.H.U.U.!.!.!.!.].].^.(.(.(.'.'.}.}.{.{.}. X.X.X#X}.R.U.U.U.U.U.U.U.R.Y.}..X.X|.XXXXXXXX$X.X*X^.s.H..X.X.XU.H.*X*X*X*X*XXXH.!..X XJ.w.H.$XN.D.$X$X$X$X$X$X$X$X$X$X$X*X*X*X*X*X*X*X*X*X*X%X%X%X$X}.Z.B.J.}.XX*X;X;X.XY.Y.#X=X;X*X;X;X;X;X;X;X*X X X$X;X;X;X;X;X;X;X;X;X;X;X;X;X;X;X;X;X;X;X;X;X*X{.H.H.{.^.H.!..X*X*X*X*X;X;X;X;X;X;X;X;X*X*X*X*X;X;X;X;X;X;X*X$X$X*X;X;X*X*X*X*X;X*X*X$X X{.$X;X;X;X*X*X{.F.N.F..X=X*X;X*X*X*X*X$X$X$X$X;X;X;X;X$X$X$X$X$X$X$X$X$X^.b.^..Xe.r.|.$X'.F.}.$X;X;X;X$XXXH.}.}..X$X=Xe.F.5X$X*X*X$X$X$X$X$X$X$X'.H.A.D.U.Y.Y.U.U.Y.#X.X.X.X.X|.|.|.|.}.}.}.}.}.{.^.^.Y.Y.Y.Y.Y.U.H.H.F.U.^.G.U.Y.U.A.N.U.XX Xc.r.H.Y.Y.U.H.H.H.H.H.H.G.G.F.F.b.k.s.r.a.c.M.M.s.5.<.,.<.8.N.U.|.'.U.A.b.b.v.v.M.Z.A.Z.U.F.Z.k.=.~ B K _ 9.d.v.N.N.c.Z.!.^.{.{.{.{.}.}..X.X.X.X.XY.D.N.N.Z.A.G.H.].'.}..X;X9XwX6X6X6X%X^.j.=.~ ",
"b.!.;X0XwX<X;X;XXX.X!.H.M.^.U.v.b.w.3.e.v.H.}.}..X.X.X.X.X.X}.}.}.'.^.Y.U.U.U.F.N.j.>.N 4 9 A <.s.9.<.-.8.j.N.Z.Z.Z.Z.M.Z.Z.A.A.G.A.Z.v.e.,.=.5.d.s.s.a.a.k.e.s.B.F.F.F.G.G.G.G.I.J.H.H.H.U.b.k.}.|.H.x.N.G.U.].H.F.F.H.G.H.U.U.!.!.!.!.].].^.(.(.(.'.'.}.}.{.{.}.}..X.XU.N.M.G.G.G.G.G.U.U.U.U.U.|.#X.XXXXXXXXX.X.X.X!.t.^.$X.X.XU.H.*X*X*X*X*XXXH.U..XXXY.w.J.$XN.D.XX%X$X$X$X$X$X$X$X$X$X*X*X*X*X*X*X*X*X*X*X%X%X;X;X%X}.D.B.G..X*X$X*X;X;X#X}.#X*X;X;X;X;X;X;X;X;X$XXX$X%X%X%X;X;X;X;X;X;X;X*X*X*X*X$X$X$X$XXX$X*X*XXXXXXXXX$X$X*X*X*X*X*X*X;X;X;X;X;X;X%X%X*X*X$X$X$X$X$X$X$X$XXXXX.XXX$X$X*X*X*X*X$X.X$X$X*X>X>X>X;X;X.XH.Z.Z.H.$X;X*X*X*X*X*X*X*X$X$X$X$X$X%X;X;X$X$X$X$X$X$X$X$X$X^.N.^.}.e.a.|.#X'.F.}.$X;X;X;X$X.XF.^..X#X$X#X3.A.=X*X*X$X$X$X*X*X#X|.A.Z.F.Y.'.|.'.U.A.N.Z.F.U.'..X.X.X.X.X.X|.|.|.}.}.}.}.^.^.^.Y.Y.Y.U.H.G.C.H.^.D.U.Y.H.A.M.H.|.}.c.r.H.U.U.H.H.H.H.H.H.H.G.G.G.F.c.k.a.r.e.j.v.j.5.5.5.5.a.U.*X$X#X^.F.M.M.N.Z.Z.M.k.a.9.,.-.,.,.-._ G n m O.j.A.A.H.H.^.^.^.^.{.}.}.}.}.^.^.}.}..X.X.X'.F.F.Z.c.b.A.G.F.B.G.Y.{.;X<XwX,X0X6X^.c.",
"<X<X<X,X<X>X*XXXY.Y.D.c.=.@.W R -.3.s.Z.U.^.}.'..X.X}..X.X.X.X.X.X}.^.U.^.!.U.H.A.r.+.G U [ ~ n c A G B m Z B U 5.k.A.F.F.A.F.B.F.A.A.Z.Z.c.8.@.8.a.a.s.9.r.9.a.v.A.G.F.F.F.F.F.G.H.H.H.H.H.k.c.}. XJ.c.C.G.!.!.U.j.c.N.N.H.Y.Y.!.!.!.^.^.^.^.(.}.}.}.}.}.}.}.}..X}..XU.x.M.k.=._ ~ ~ _ { ,.k.].}.}.;X=X#X#X#X#X.X*X*XU.<.F..X$X.XU.H.*X*X*X*X$XXXH.Y.#X#X^.t.F.XXN.D.XX;X;X;X;X$X$X*X*X*X*X*X*X*X*X*X*X*X*X*X*X*X*X*X*X;X*X.XH.b.G.}..X$X$X*X;X,X;X#X|..X.X.X.X|.|..X.X.X.X.X.X.X.X.X.XXXXXXX$X;X;X*X$X$XXXXX$XXXXXXXXXXXXX$X$X*X*X*X*X=X$X}.^.}.XXXX|.|.}.}.}.'.'.'.'.'.'.}.}.}.}. X}. XXX$X$XXXXXXX|..X$X$X$X>X>X;X;XXX{.H.F.H.^.$X;X*X*X*X*X;X;X;X;X;X;X;X*X$X$X$X$X$X$X$X$X$X$X$X$X$X^.N.(.^.e.j..X.X^.F.}.*X;X;X;X$X}.Z.!.#X#X=X@X@.M.$X*X$X$X$X$X*X#XU.U.Y.Y.y.-.+._ ^ ^ O.y.U.A.b.G.}..X.X.X.X.X.X|.|.|.}.^.^.^.Y.Y.Y.Y.Y.U.H.F.j.s.c.j.Y.Y.U.Z.b.F.|.}.b.e.Z.H.U.U.U.H.H.G.G.G.F.F.F.A.c.x.e.#.3.s.j.8.5.8.9.e.b.}..XU.U.Y.D.A.U.M.e.,.@.U H G f 0 , 1 d B ~ ~ J #.a.k.N.U.^.U.^.(.^.}..X.X.X.X}.U.F.Z.F.U.}.U.G.Y.M.3.9.c.F.Z.c.c.b.F. XXX;X>X<X6X0X,X",
"0X<X,X,X;X$X X{.D.D.N.c.s.Z.F.F.v.j.c.A.U.^.|.'.}.$X;X,X,X,X,X,X,X;X*X*X.X^.H.H.b.a.5.@.-.8.9.3.+.-.<.=.<.5.<.5.@.U m G >.N.U.F.Z.Z.Z.N.A.Z.k.5.5.a.j.a.8.9.9.j.a.M.F.F.F.F.F.F.G.H.H.H.H.H.s.v.}. XJ.k.C.G.!.!.Z.x.b.c.b.F.U.^.!.!.!.^.^.^.^.(.}.}.}.}.}.}.}.}.}..XF.b.F.9.~ G E E W Y H A _ e.U.U.^.;X$X#X#X#X.X$X$X'.9.c.XX$XXXY.G.*X*X*X*X$XXXH.U.#X#X}.j.D.XXN.D. X$X$X$X$X$X$X*X*X*X*X*X*X*X*X*X*X*X*X*X*X*X*X*X*X*X*X$X$XH.b.N.U..X$X*X;X%X%X%X%X$X%X*X*X;X;X;X;X;X;X;X>X;X;X;X;X;X;X>X>X>X>X>X;X;X;X;X;X>X>X>X>X;X>X,X,X;X;X;X;X>X>X;X;X;X,X,X;X;X,X,X,X>X>X>X>X;X;X;X;X>X>X>X>X>X>X>X<X>X>X>X>X;X;X;X;X&X;X*X$X{.D.Z.U..X$X;X;X;X*X*X*X;X;X;X;X;X;X;X*X$X$X$X$X$X$X$X$X$X$X$X$X$X^.C.(.^.r.N.$X$X}.F..X$X*X*X;X$X^.b.U.$X.X=XT.,.U.=X$X$X$X$X$X'.Y.'.|.U.@.B B G G J E Z G =.Z.F.F.Y.$X.X.X.X.X.X|.|.|.}.^.^.^.Y.Y.Y.Y.Y.U.H.F.x.j.x.c.Y.Y.U.Z.v.A..X}.b.8.Z.H.U.U.U.H.H.G.G.F.F.F.F.Z.j.r.3.+.c.c.a.<.<.8.r.k.U.U.H.Z.U.F.N.a._ s 9 j Z _ a.M.d.J N J ~ =.f.$.O.k.d.m.A.Y.(.].}..X$X$X$X$X$X$X#X}.U.H.}.XX#XU.A.U.k.3.5.s.b.M.x.b.N.N.J.^. X$X;X;X<X6X",
"<X>X;X$X}.^.J.F.N.b.k.j.F..X$X%XG.G.^.*X,X6X0X7X6X,X;X*X*X*X*X*X;X;X;X*X*X*X$X$X.XY.Z.a.5.<.e.k.M.M.k.a.9.5.{ H t $ $ $ 1 Z r.N.F.H.F.N.N.A.N.k.<.a.j.s.e.8.9.s.e.v.F.F.F.F.F.F.G.H.H.H.H.H.r.b.|. XF.s.Z.H.!.^.N.c.N.M.M.F.Y.^.!.!.^.^.^.^.^.}.}.}.}.}.}.}.}.}.|.U.C.H.a.^ ) e.k.Z.F.A.N.k.k.k.N.H.N..X*X#X#X#X.XXX$XXXe.s.$XXXXXY.D.#X*X*X$X$XXXJ.U.#X#X{.c.D.XXN.D. X$X$X$X$X$X$X*X*X*X*X*X*X*X*X*X*X*X*X*X*X*X*X*X*X*X*X*X*X*X^.F.b.F.!..X*X$X%X*X*X;X;X;X;X;X;X*X*X;X;X;X;X;X;X;X;X;X;X;X;X;X*X*X*X*X;X;X;X;X;X;X;X;X;X>X,X;X;X;X;X;X=X*X*X;X;X;X;X;X,X,X,X>X>X,X,X;X;X;X;X>X>X>X>X>X;X;X;X;X;X;X;X;X;X;X$X$X$X{.G.Z.F.!..X;X;X;X*X*X*X*X*X;X;X;X;X&X&X*X*X$X$X$X$X$X$X*X*X$X$X*X$X$X^.C.(.^.r.D.$X$X^.Z..X$X$X*X*X$X^.b.U.$X|.*XF.8.#X*X$X$X$X$X.XU.'.'.F.a.a.M.A.U.U.U.F.M.e.@.w.U.G.H..X.X.X.X.X.X|.|.|.}.^.^.^.Y.Y.T.T.Y.U.H.F.b.b.c.N.^.'.].A.v.N.|..XN.8.C.U.U.U.U.H.H.H.H.F.F.F.F.Z.j.e.6.5.x.w.<.,.e.j.k.U..XY.F.Z.N.a.[ s @ . : 9 n U ^ -.v.0.v.B.C.a.~ H e.U.].'..X#X#X*X;X>X,X>X;X;X;X;X;X;X6X0XwXwXqX;X}.Y.Z.N.c.j.r.j.k.N.D.Z.Z.F.U.{.}.$X;X5X",
";X$X X{.J.F.N.b.j.e.3.<.5.k.F..X;X;X;X;X,X0XwX0X0X6X,X;X$X$X*X*X*X*X*X;X;X;X;X*X*X;X;X.XY.j.9.j.Z.C.Z.Z.a.^ c 5 1 5 < % % = t =.j.F.Y.F.N.N.N.N.e.9.a.s.j.9.3.a.w.s.Z.F.F.F.F.F.F.G.G.H.H.H.9.b.|.|.F.s.Z.H.!.^.F.b.A.A.A.U.^.^.!.!.^.^.^.^.^.^.}.}.}.}.}.}.}.}.U.N.Z.Z.@.W 9.v.N.N.M.v.x.k.d.d.s.b.F.N.*X$X#X#X.X.X$X*Xk.r.}.$X$XY.Z.XX*X*X$X$XXXJ.U.$X#X}.b.D.XXN.D. X$X$X$X$X$X$X*X*X*X*X*X*X*X*X*X*X*X*X*X*X*X*X*X*X*X*X*X*X*X*X.XU.N.Z.G.^.*X%X$X$X$X$X%X%X*X*X*X*X;X;X;X;X;X;X;X;X;X;X;X;X*X$X$X.X$X;X;X*X%X;X;X*X%X;X;X;X*X*X*X*X$X$X.X.XXX$X%X%X%X%X%X%X*X*X=X=X=X=X;X;X;X;X;X;X>X;X;X;X;X;X;X;X%X$X$X$X XY.F.Z.J.oX*X*X;X;X*X*X*X*X*X*X;X;X;X;X%X%X*X*X$X$X$X$X*X*X*X$X$X$X$X$X$X^.Z.(.!.e.F..X$XH.N.}.$X$X*X*X.X^.b.U.$X}.*XN.e.$X$X*X$X$X.X}.U.}.G.N.B.G.F.M.M.N.N.c.a.w.-.{ v.A.F.H..X.X.X|.|.|.|.|.}.^.^.^.Y.Y.T.T.Y.U.H.F.Z.Z.N.Z.^.'.].A.x.N.}..XN.5.N.!.H.H.H.H.H.H.G.F.F.F.F.N.r.5.8.s.w.>.,.r.j.b.N.].}.H.N.b.8.m & @ & 0 t x n m k H 9.m.A.N.f.@.+.j.A.`.'.$X=X=X=X>X,X,X;X;X;X;X;X;X6X0XyXgXsXqX0X5X5X6X>X6X,X}.A.N.<.3.e.s.c.b.B.G.G.^.#X;X",
"U.G.A.Z.N.s.r.3.#.E N H 6.B.|.|.Y.H.H.Y.$X#X.X.X.X*X6XrXwXwX6X,X>X;X;X;X,X;X*X$X*X*X;X;X;X|.N.s.k.N.c.k.+.x H ~ n m U G t > > y ,.8.F.Y.F.N.Z.Z.j.5.8.j.k.k.<.r.a.y.Z.F.F.F.F.F.F.G.F.H.H.F.9.M.}.}.Z.8.Z.H.^.!.U.F.G.F.F.U.^.Y.!.!.^.^.^.^.^.^.^.^.}.}.}.}.}.^.F.Z.F.,.W ^ W ^ ^ ~ R H H H G G E { N.x.U.$X^.$X.XXX$X*Xb.t..X;X$X{.Z.XX*X$X$X$XXXJ.F.#X#X}.b.D.XXN.V.XX;X;X*X$X$X$X$X$X$X$X*X*X*X*X*X*X*X*X*X*X*X*X*X*X*X*X*X*X*X*X*X*X}.U.Z.Z.Y.{.XXXX$X$X$X$X*X*X*X*X*X*X*X*X*X$X$X$X%X%X%X$X#X.X.X$X$X$X$X$X$X$X#XXX#X#X#X#X$X$X#X.XXX*X;X;X;X;X;X;X;X*X$X$X$X$X$X$X$X$X*X*X$X$X*X*X*X$X$X$X%X$X#X|.|.XXXX}.F.V.F.{.;X;X*X*X*X*X*X*X*X*X*X*X;X;X;X;X*X*X*X*X$X$X*X*X*X%X$X$X$X$X*X*X*X^.C.(.U.w.D..X.XF.b.}.$X$X*X*X.X!.c.].$X|.*Xa.s.=X*X*X*X#XY.Y.}.U.s.,.+.[ ) ) +.{ ) W ^ E U B ^ b.F.A.'..X|.|.|.}.}.}.}.^.^.^.^.Y.T.T.Y.Y.H.F.A.H.F.G.U.^.].F.k.M.{. XD.5.b.H.H.H.H.G.H.G.F.F.F.A.Z.N.e.=.b.M.<.-.8.j.k.b.H.|.H.A.M.5.c $ * 9 x E O.O.H j h 4.v.k.9.9.v.B.G.Y.'..X$X$X;X;X;X;X;X;X>X>X>X6XwXwX0X0X6X;X$X}.'.'.|.$X*X|..X$X.XU.{ y x ^ ,.e.s.M.N.A.A.U.",
"k.j.s.e.8.>._ A x c ) e.M.D.Y.Y.U.}.$X*X#X#X#X#X$X*X,X6XwXyXyXwXwX0X,X;X,X;X;X*X;X;X>X,X;X*X'.N.a.k.v.9.B h n [ 5.-.@.<.<.m < $ x 3.5.H.Y.H.Z.N.v.9.5.r.r.b.5.e.a.e.Z.F.F.F.F.F.D.F.F.F.H.Z.8.N.}.^.Z.8.Z.H.^.!.U.A.F.F.F.H.Y.Y.!.!.^.^.^.^.^.^.^.^.^.^.}.^.}.U.Z.H.r.^ E / { { } @.@.@.@.} } } ) ^ -.A.N.*X#X|.XX$X$X*Xb.r.}.;X$X}.Z..X*X$X$X$XXXJ.Z..X#X{.n.D.XXN.N. X$X$X$X$X$X$X$X$X$X$X*X*X*X*X*X*X*X*X*X*X*X*X*X*X*X*X*X*X*X*X*X*X*X.X}.U.D.F.H.{.{.{.{.{.{.{.^.!.!.!.!.^.^.^.^.^.^.^.^.Y.U.U.^.^.'.}.}.^.}.}.}.Y.Y.Y.Y.Y.U.U.U.U.!.}. X}.|.|.|.|.}.}.}.}.}.}.}.}.}.}.}.}.}.{.{.{.{.{.{.{.^.Y.Y.Y.Y.Y.Y.H.F.Q.XX*X;X;X*X*X*X*X*X*X*X*X*X*X;X;X;X;X*X*X*X*X$X$X*X*X$X%X$X$X$X$X*X*X*X^.C.}.U.e.F..X.XF.N..X$X$X*X*X.XU.c.(.$X.X$Xr.N.=X*X*X$X.XY.'.}.a.{ ^ ^ { =.=.=.>.>.=.-.=.#.[ G -.A.F.Y.}.|.|.|.|.|.}.}.{.^.^.^.Y.T.T.Y.Y.H.F.N.M.H.H.U.^.].F.k.b.Y. XD.5.n.H.H.H.H.G.H.G.F.F.F.A.Z.b.-.<.Z.M.=.<.e.s.v.F.}.|.N.b.a.G , 9 x E O.3.9./ q w W 4.s.@.=.v.Y.|.$X$X$X*X*X*X>X;X;X;X>X;X5XwXyXyXrXwX;X}.{.}..X.X.X|.|.}.}.}.^.U.U.H.s.^ m d n ^ +.8.e.f.j.j.",
"9.p.a.9.{ B x Y 9.Z.G.^.U.D.D.J.Y.$X,X5X;X>X5X5XwX0X,X;X;X6XyXsXsXwX6X;X>X;X;X;X;X,X>X>X;X;X$X'.v.j.v.j.E h B U a.Z.e.@.3.=.m > = [ #.e.Y.}.G.N.Z.r.<.8.5.M.a.5.y.6.N.Z.F.F.F.F.D.F.F.F.G.N.5.Z.}.U.N.8.Z.H.^.Y.G.B.Z.Z.F.H.Y.Y.U.U.^.^.^.^.^.^.(.(.(.^.^.}.^.Z.F.D.,.@.y.c.D.F.F.G.J.U.Y.J.J.J.Z.s.{ x.Z.^.$X.XXX$X$X*XC.e.Y.$X$X}.A.(.*X$X$X$X$XJ.B.}.XXY.c.N.XXN.N. X$X$X$X$X$X$X$X$X$X$X*X*X*X*X*X*X*X*X*X*X*X*X*X*X*X*X*X*X$X*X*X*X*X*X*X.X}.U.F.F.F.F.F.F.D.D.Z.Z.Z.C.Z.Z.Z.Z.Z.Z.Z.Z.Z.Z.Z.Z.N.b.b.Z.Z.N.N.C.Z.Z.N.N.N.N.N.N.N.N.Z.Z.D.Z.D.F.F.F.D.D.F.F.D.Z.Z.Z.Z.Z.Z.Z.Z.Z.C.C.C.N.Z.D.F.D.D.H.J.J.H.Y..X$X;X;X;X*X*X*X*X*X*X*X*X*X*X*X;X;X;X;X*X*X*X*X$X$X$X$X$X$X$X$X$X$X*X*X$XU.Z.|.U.e.G..X.XD.N..X$X$X*X*X.XU.c.}.$X#X}.e.Y.*X$X*X#X}.Y.$XZ.,.5.j.N.F.H.F.Z.D.F.F.F.F.Z.c.@.G d.G.F.^.|.|.|.}.|.}.}.(.^.^.^.T.'.T.Y.Y.H.F.N.k.F.U.H.^.].F.k.c.J. XG.5.c.G.H.H.H.G.H.G.F.F.A.F.N.j.@.a.A.r.[ <.r.s.b.U.$XU.N.N.[ 9 d R W @.,.5._ j c J #.5.5.@.s.U.#X$X=X=X;X;X;X;X>X>X;X;X;X5XrXhXyXwX;X}.XX;X*X;X5X6X6X5X5X;X}.Y.F.F.F.D.c.c.f.,.Y n m ~ =.4.9.0.",
"9.4.~ N s T a.I.^..X}.|.#X.X|.|.Y.H.H.^.;X>X5X7XwXqX0X6X;X;X,XyXuXwX6X>X>X>X>X>X,X,X>X>X>X;X*X*X^.v.8.j.a.U { ^ W j.N.<.@.8.[ s * y 5._ b.Y.U.N.Z.a.5.5.,.k.v.5.a.6.N.F.F.F.F.F.D.F.F.F.F.M.5.Z.}.U.M.8.Z.H.^.Y.D.M.N.N.Z.G.U.U.!.!.^.^.^.^.^.^.!.!.(.^.}.}.U.M.G.j.[ ,.n.B.D.D.F.F.F.F.F.F.D.D.F.N.,.>.U.N.*X|.XX$X$X*XZ.8.H.$X$X}.A.].*X*X$X$X$XU.N.}..XY.x.N.XXZ.N. X$X$X$X$X$X$X$X$X$X$X*X*X$X$X$X$X$X$X$X$X*X*X*X*X*X*X*X*X$X$X$X*X*X*X*X*X$XXXXX X}.}.}.}.{.Y.U.U.H.H.H.H.H.H.H.H.H.H.H.H.H.U.H.G.F.H.H.F.G.H.H.H.H.J.H.H.H.H.Y.Y.!.^.^.Y.U.Y.Y.U.J.U.Y.{.!.!.!.!.!.!.!.U.Y.U.U.U.H.H.!.{.{.Y.{.XXXXXXXX*X$X$X;X;X;X;X*X*X*X*X*X*X*X*X*X*X;X%X$X%X*X*X*X*X$X$X$X$X$X$X$X$X$X$X*X*X$XU.Z..XU.e.H..X}.Z.N..X$X$X*X$X}.H.v.|.$X$X'.9.^.*X#X$X.XY.Y.#Xe.<.C.F.H.D.Z.D.Z.Z.Z.N.Z.b.c.e.=.m ,.H.F.U.'.}.}.}.}.}.{.^.^.^.^.Y.T.T.Y.Y.H.F.A.j.N.H.U.Y.].F.k.k.F. XH.8.c.F.G.H.H.H.H.G.F.F.Z.F.N.s.<.b.b.<.{ 5.a.x.b.^.|.N.v.a.j * A [ ) =.e.[ n ,.M.-.W +.@.=.F.|..X$X$X*X;X;X;X;X;X;X;X;XqXaXaX7X>X>X;X;X;X<X6X0XqXwX0X,X}.U.Y. XXX;X;X$X#XY.I.N.k.a.+.N m U O.4.",
"U j x W 9.Z.'.Y.Y.{.}.|.%X*X;X;X<X;X*X$X}.'.$X,X<XqXqX6XqX0X;X$X$X<XrXwX6X,X,X,X,X,X,X,X>X>X;X;X$XU.s.<.k.e.<.5.{ G r.b.=.>.,.B : = [ >.+.].}.F.M.c.3.5.=.s.N.<.e.<.k.F.F.A.F.A.A.F.F.F.F.b.3.F.].U.k.r.A.U.U.U.Z.Z.Z.Z.F.H.H.U.!.!.!.!.^.^.^.^.^.^.^.{.}.}.H.c.D.w.E R Q ^ / ^ ^ ^ Q Q Q Q W W / ^ [ [ Z.F.$X.XXX#X$X*XA.5.A.$X$X}.F.^.$X$X$X$X$XY.M.'.#XU.x.n.XXD.N.|.%X$X$X$XXXXX$X$X$X$X$X$X$X$X$X$X$X$X$X$X$X$X$X$X$X$X$X$X$X$X$X$X$X$X$X$X*X*X*X*X*X$X$X*X$X$X$X$X$X$XXX$X$X$XXX*X;X*X*X*X*X*X*XXX*X*X*X*X$X$X$X$X$X$X$X$X$X$X*X*X*X*X$X$X$X$X$X$X$X$X%X%X*X$X$X$X$X*X$X$X$X$X$X$X$X$X$X$X$X$X$X$X*X*X$X$X$X$X*X*X*X*X*X*X*X*X*X*X*X*X*X*X*X$X$X*X*X*X*X*X$X$X$X$X$X$X$X$X$X$X$X$X$XH.Z..XJ.r.H.}.^.N.C..X$X$X$X$X.XF.b..X$X*XF.6.#X#X#X.X.XH..XU.@.=.1.>.,.@.} } } @.#.#.+._ ^ E G x [ N.H.H.^.}.}.}.}.}.^.^.^.^.^.Y.Y.Y.Y.U.H.F.F.N.Z.H.H.Y.Y.U.x.j.D.}.F.8.e.F.G.F.F.F.F.F.G.G.Z.Z.N.y.<.b.x.{ +.8.a.b.B.#XF.r.b.@.= : A ) >.8.-.m -.G.k.>.=.r.{ a.].|.$X*X*X;X;X;X;X,X,X>X,X0XuXrX<X;X;X>X<X;X;X6XwX0X<X$XU.U.$X;X>X>X;X;X*X*X$X.X'.].N.k.j.j.=.N s m ",
"5.r.b.A.Z.G.Y.|.|. X%X%X;X;X,X,X,X,X,X,X,X*X^.F..X,X0X,XqXwX0X,X$X;X6XrXwX6X,X,X4X,X,X,X>X>X>X>X;X.Xb.<.s.M.r.r.e.~ A a.8.>.<.) t % c <.Y j..XU.N.c.5.8.@.8.b.3.9.>.j.A.Z.Z.A.A.A.F.F.F.F.v.4.G.].I.k.r.A.U.U.U.Z.Z.Z.Z.G.H.U.U.!.!.!.!.^.^.^.!.!.!.^.{.}.{.F.v.J.8.^ ^ { @.@.@.[ [ ] ] ] ] ) / ^ ~ _ [ v.H.}.XX#X#X$X*XG.5.A.XX$X}.F.^.$X$X$X$X#XY.M.]..XU.c.n. XV.M.}.$X$X$X$XXXXX$X$X$X$X$X$X$X$X$X$X$X$X$X$X$X$X$X$X$X$X$X$X$X$X$X$X$X$X$X$X*X*X*X*X$X*X*X$X$X*X$X$X$X$XXX$X$X$XXX*X*X*X$X$X*X*X*X*X*X*X*X*X$X$X$X$X$X$X$X$X$X$X*X*X*X*X$X$X$X$X$X$X$X$X%X%X*X$X$X*X$X$X$X$X$X$X$X$X$X$X$X$X$X$X$X$X*X*X$X$X$X$X*X*X*X*X*X*X*X*X*X*X*X*X*X*X*X$X$X*X*X*X*X*X$X$X$X$X$X$X$X$X$X$X$X$X$XH.Z.$XH.e.H.(.U.b.Z..X$X$X$X$X.XZ.C.XX$X*XA.e.#X#X#X.X.XH..XU.{ } >.,.@.@.@.@.>.,.,.,.,.-.>.=.,.^ ^ v.F.F.^.^.^.^.^.^.^.^.^.!.^.Y.!.!.Y.U.H.F.F.A.Z.F.H.U.Y.Y.v.s.Z.^.H.w.e.F.F.F.F.F.F.F.D.D.Z.N.b.9.<.b.x.{ =.9.a.v.H.XXx.r.j.B $ s ~ [ 5.5.m J M.F.k.a.9.) <.A..X.X$X*X*X;X;X;X>X,X>X,X0XwX6X5X,X,X,X;X6X0X0X6X;X}.Y.}..X*X;X;X;X*X*X*X$X$X$X$X*X*X$X#XU.k.M.k.0.~ ",
"B.B.D.G.U.Y.|.*X&X;X,X1X,X5X5X,X;X,X<X0X,X<X6X;XU.N.}.0XwXyXwX0X0X;X;X6XrXwX6X,X4X4X,X,X>X>X>X>X;X*XF.9.>.N.j.a.s.e.A H r.<.3.<.m = 1 { ) -.}.H.N.b.8.w.@.>.b.5.<.=.a.Z.A.Z.Z.N.N.A.F.F.F.k.<.U.'.A.j.a.A.U.U.U.Z.Z.Z.Z.H.H.U.!.!.!.!.!.^.^.^.!.Y.!.^.{.}.^.N.b.F.9.6.b.D.G.J.G.Y.Y.Y.Y.Y.U.U.U.U.Y.Z.5.a.U.G.#XXX#X$X*XU.9.F.XX#X|.H.^.$X$X$X$X.XY.M.U..XU.c.c.oXN.v.^.$X%X$X$XXXXX$X$X$X$X$X$X$X$X$X$X$X$X$X$X$X$X$X$X$X$X$X$X$X$X$X$X$X$X$X$X$X$X$X$X$X*X*X$X$X$X$X$X$XXXXX$X$X$X$X$X$X$X$X$X*X*X*X*X*X*X*X*X$X$X$X$X$X$X$X$X$X*XOX*XXXXXXXXX$X$X$X$X$X$X$X$X*X*XOXOX$X$X$X$X$X$X$X$X$X$X$X$X$X$X$X$X$X$X$X$X*X*X*X*X*X*X*X*X*X*X*X*X*X*X*X*X*X$X$X$X$X$X$X$X$X$X$X$X$X$X$X$X$X$X*X*X$XH.Z.$XF.e.H.!.F.b.Z..X$X$X$X$X|.Z.Z.#X$X*XM.s.#X#X#X.X}.G..XF.>.b.F.U.Y.U.Y.Q.{.{.Y.U.F.A.F.A.N.5.^ v.Z.D.^.'.^.^.^.^.^.^.^.!.!.Y.!.!.Y.U.G.F.F.G.F.F.H.U.Y.U.c.s.C.^.U.e.r.F.G.F.D.N.D.D.D.D.A.N.v.6.>.x.s.[ ,.r.j.v.{.Y.w.r.8.1 + A { =.9.^ t =.b.a.8.c.8.-.k.].#X#X$X*X*X;X;X;X>X,X,X0XwXwX;X>X,X<X>X>XwXyX>X}.J.{.;X>X<X>X;X;X$X$X*X*X$X$X.X.X$X*X*X$X*X#X].A.M.v.",
"H.U.{.#X%X;X,X6X5X6X9X9X6X6X5X5X,X<X<X6X6X<X6X6X6X;XH.H.,XwXsXwXyX6X>X<X0XrXwX6X5X,X5X,X,X>X>X>X#X$X}.b.^ a.c.a.s.s.,.h @.e.<.>.Y 1 = G -.) F.U.Z.M.8.e.+.=.v.=.{ ^ 5.j.k.s.r.e.s.b.F.F.F.k.3.Y.].A.a.a.A.U.U.U.Z.Z.Z.Z.H.H.U.!.Y.U.U.U.^.^.^.!.Y.!.^.^.^.^.b.b.F.<.<.b.B.D.D.A.A.F.D.D.D.Z.N.N.Z.A.v.,.9.Y.B.$XXX#X$X*X].9.F..X$X}.G.^.$X$X$X$X$X^.M.H..X^.n.c.oXV.v.^.$X$X$XXXXXXX$X$X$X$X$X$XXXXX$X$X$X$X$X$X$X$X$X$X$X$X$X$X$X$X$X$X$X$X$X$X$X$X$X$X$X;X;X$X$X$X$X$X$XXXXX$X$X$X$X$X$X$XXX.X.X.X$X$X$X$X*X*X$X$X$X$X$X$X$X$XXXXXXXXXXXXXXXXX$X$X$X$X$X$X$X$X$X$X$X$XXX$X$X$X$X$X$X$X$X$X$X$X$X$X$X$X$X$X$X$X*X*X*X*X*X*X*X*X*X*X*X*X*X*X*X*X*X*X$X$X$X$X$X$X$X$X$X$X$X$X$X$X$X$X*X*X$XF.Z.$XZ.e.H.U.D.c.D..X$X$X*X$X.XN.A.#X$X*Xk.v.#X#X#X.X{.F..XF.5.U.^.Y.^.H.G.G.D.Z.B.b.a.e.r.9.5.) Y v.N.Z.^.}.^.^.^.^.^.^.^.!.!.U.!.!.U.U.H.F.F.F.F.F.G.H.U.U.v.s.N.U.^.r.r.F.H.F.Z.b.t.s.x.v.M.c.a.-.@.s.e.^ <.a.j.c.}.M.6.s._ * = G { 5.5.m c e.9.<.j.c.9.F.G.U.#X#X$X$X*X;X;X;X,X,X0XwXwX6X,X<X<X<X<XwXrX;X}.$X>X<X<X,X>X>X>X>X;X;X;X;X*X*X*X;X;X;X;X;X;X=X*X=X'.F.",
"%X,X;X;X,X5X6XqX6XrXrX6X5X6X6X6X<X<X<X<X6X6X6X6X<X<X,X$XF.*XyXyXrXwX6X>X6X0XwX6X5X,X,X,X>X;X;X;X;X*X.X}.s.<.c.e.s.s.a.E x 3.5.-.) q = x >.~ v.U.M.c.e.9.{ @.3.^ E W ~ ~ ^ ~ E W ^ c.F.D.G.s.4.Y.I.Z.8.j.A.U.Y.H.b.b.N.D.H.H.H.H.U.U.U.U.!.^.^.^.^.^.^.^.^.^.b.b.F.@.H W _ ) ) ) _ [ [ { { [ _ _ [ ) ) W k.F.B.|..XXX#X$X'.a.C..X$X}.F.U.$X$X$XXX$X{.M.H..X^.n.n. XF.x.U..X$XXXXXXXXX$X$X$X$X$X$X$X$X$X$XXXXXXXXX.X.X.X.X$X$X$X$X$X$X$X$X$X$X$X$X$X$X$X$X$X$X$X$XXX$X$XXX$X$X$X$X$X$X$X$X%X$X|.}.}.}..X#X$X$X$X$X$X$X$X$X$X#X$X$XXXXXXXXXXXXXXXXX$X$X$X$X$X$X$X$XXXXXXXXXXXXX$X$X$X$X$X$X$X$X$X#X$X$X$X$X$X$X$X$X$X$X$X$X$X$X$X$X$X$X$X$X$X$X$X$X$X*X*X$X$X$X$X$X$X$X$X$X$X$X$X$X$X$X$X$X.XZ.Z.$XN.e.U.U.F.c.F..X$X$X$X$X}.b.H.#X$X#Xd.N.#X#XXXXX{.J.|.Z.^ { @.{ ^ ^ ) ^ ~ ~ ~ W ~ Y T W U N U M.b.F.].'.^.^.^.^.^.^.^.^.Y.U.U.U.U.U.H.F.F.A.b.G.Z.H.U.U.b.s.b.U.U.r.e.F.F.F.b.r.] { { @.=.{ #.) @.j.r.W ,.r.j.N.{.d.w.8.N $ q W +.4.=.8 ~ 5.@.9.v.9.v.'.].^.}..X$X$X*X;X;X;X,X0X6X6X6X6X<X0X>X<XwXyX*X.X6X6X6X,X>X<X,X<X,X>X>X>X,X,X,X,X;X;X*X$X;X#X%X;X<X5X6X6X",
"*X,X,X;X6X,X>X;X,X1X6XtX6X5X5X6X6X<X<X<X6X6X6X<X<X<X<X6X;XF.^.wXuXuXwX,X,X<X6X0X5X,X,X,X>X;X;X;X;X*X*X$X^.w.w.s.w.e.k.=.t [ 5.>.[ y % t ,.) r.U.M.b.r.9._ @.e.<.r.8.5.8.8.9.s.s.[ b.G.F.F.s.9.U.I.N.8.k.S.U.U.F.j.x.c.C.H.H.H.H.H.H.U.U.Y.!.^.^.^.^.^.^.^.}.N.b.U.=.G ~ _ _ ) ) [ { +.+.+.{ [ [ [ ) U E v.D.B.|..XXX#X$X}.j.b.|.$X.XF.U.#X#X.XXX$X}.N.H..X}.b.x. XH.x.H..X$X$XXXXXXXXXXX.X.X#X#XXXXXXXXXXXXXXXXX.X.X.X.X.X$X$XXX$X$X$X$X$X$X$X$X$X$X$X$X$X$X$X$XXXXXXX$X$X$X$X$X$X$X$X$X$X#XXX.X|.'.}..X$X$X$X$X$X$XXXXX#X#X#X#X$X$X$X$X$X$X$X$X$X$XXXXX$X$X$X$XXXXXXXXXXX$X.X$X$X#X#X#X#X#X#X#XXXXX$X$X$X$X$X$X$X$X$X$X$X$X$X$X$X$X$X$X$X$X$X$X$X$X$X*X$X$X$X$X$X$X$X$X$X$X$X$X$X$X.X.X^.Z.H.*Xs.w.U.!.H.j.H..X$X$X$X$X}.b.H.$X.X.Xs.A.#X#XXXXX{.J.|.G._ _ +.+.{ { { { { { { _ =.+.=.=._ m ^ Z.b.F.].(.^.^.^.^.^.^.^.^.Y.U.U.U.U.U.H.F.A.M.s.b.C.G.U.U.b.a.x.H.H.a.5.Z.H.Z.j.<.r.b.b.c.c.j.a.=.-.j.e.W >.e.j.M.Y.s.6.w.x $ d W @.4.U 8 =.O.=.M.a.<.G.|.^.'..X#X$X$X*X;X;X;X,X0X<X,X,X<X6X6X6XyXuX.XXX,X6X<X,X<X,X,X,X<X<X,X,X,X,X,X,X,X6X;X;X,X6X6XyXaXrX0X5X;X",
"y.B..X;X0X0XqX6X9X5X1X5XaXyXrX6X6X6X<X<X<X<X<X<X,X,X,X<X6X,XH.^.0XsXuX6X;X>X<X0X5X,X,X,X>X;X;X;X;X*X$X$X#XF.<.s.8.<.s.w.x Z -.@.{ d % 1 -.=.<.F.c.b.e.5.~ #.k.e.j.a.s.c.b.b.N.c.{ v.F.F.F.s.9.].I.M.8.v.G.U.H.A.j.j.b.Z.H.H.H.H.H.H.U.U.U.U.!.^.^.^.^.^.^.^.Z.b.U.5.{ k.Z.Z.Z.Z.A.F.F.G.G.F.A.A.A.b.~ W A.A.Z.XX.XXX#X$X.Xk.c.}.$X.XG.H.#X#X.XXX.X}.N.H.}..XN.x.{.^.b.Z.Y..X$XXXXXXXXXXX.X.X.X.XXXXXXXXXXX.X.X.X.X.X.X.X.X.XXXXX#X$X$X$X$X$X$X$XXXXX$X$X$X$X$X$X$X$X$X$X#X#X#X#X#X#X#X#X#X#X$X%X$X$X#X$X$X#X#X#X$X$X$X$X#X#X$X$X$X$X$X$X$X$X$X$X$XXX$X$X$X$X$X$XXXXX$XXX.X|.^.#X$X$X$X$X$X$X$X#XXXXX$X$X$X$X$X$X$X$X$X$X$X$X$X$X$X$X$X$X$X$X$X$X$X$X$X$X$XXX$X$X$X$X$X$X$X$X$X$X$X.X.X.XF.N.^.$X8.r.!.!.F.j.H..X$X$X$X.X^.v.H.$X.X|.s.G.#X#X.X.X}.J.}.Y.9.v.G.G.G.G.U.H.H.G.G.S.Z.Z.A.M.-.U 5.G.N.F.!.!.^.^.^.^.^.^.^.^.U.U.U.U.U.U.H.G.Z.N.s.c.b.F.U.U.M.e.s.H.H.k.,.Z.H.Z.t.=.j.F.F.N.N.M.s.>.8.k.9.W -.9.a.b.J.t.5.w.h @ j W _ -.n h -.{ e.v.@.5.'..X'.|..X#X$X$X*X=X;X;X,X6X>X;X>X>X>X6XyXsX$X.X6X6X6X,X>X,X,X,X,X,X<X<X<X<X,X<X<X<X>X6XwXuXsXrX<X$XQ.J.d.#.",
"> t G @.b.'.0XwXsXsXaXrX6X6XwXyX0X6X6X<X6X,X,X<X,X,X,X,X6X,X;X!..XwXsXrX<X;X,X5X5X,X<X,X>X;X;X;X;X*X$X$X.X'.r.3.y.=.w.5.E y ) @.[ h % < @.5.-.N.s.x.9.>.J -.M.9.a.a.k.c.Z.M.N.s.{ x.C.Z.A.a.9.'.I.M.8.M.G.G.A.A.c.b.Z.G.H.H.H.H.H.H.U.U.U.U.U.!.^.^.^.^.^.^.F.v.].9.{ v.U.U.H.G.G.G.H.U.U.H.F.F.'.b.G { G.Z.A.XX.XXX#X$X.Xv.k.'..X.XF.H.#X.X.XXX.X}.N.G.'..XZ.j.U.XXZ.v.N.^.XX$XXXXXXXXX.X.X.X.XXXXXXXXX.X X X X|..X.X.X.X.X.XXXXX$X$X$X$X$X$X$XXXXX$X$X$X$X$X$X$X$X$X$X#X#X#X#X#X#X#X#X$X$X%X*X*X$X.X#X#X.X#X#XXXXX$X$X$X$X#X#X$X$X$X$X$X$X$X$X#X$X$X$X$X$X$X$X.X{.U.H.}.G.N..X#X#X$X$X$X$X$X#XXXXX$X$X$X$X$X$X$X$X$X$X$X$X$X$X$X$X$X$X$X$X$X$X$X$X$XXXXXXX$X$X$X$X$X$X$X$X$X$X.X.X.X}.b.c.}..X5.x.^.U.Z.s.G..X$X$X$X.XU.c.G.*X.X}.s.U.#X.X.X.X}.Y.}.}.e.k.G.].^.'.}.'.Y.].].U.U.U.S.v.5.-.v.H.N.H.!.U.^.^.^.^.^.^.^.^.U.U.U.U.U.U.H.G.A.F.c.b.b.Z.H.H.N.r.s.G.!.b.-.A.H.Z.t.>.x.A.Z.Z.Z.N.k.a.r.c.9.E =.9.a.v.G.y.5.e.c X j W ) @.w B @.@.M.s.U k.|..X'.|..X#X$X*X*X;X;X,X,X,X>X;X;X;X<XyXuX*XXX6X<X<X<X<X,X;X>X,X,X,X<X<X5X<X<X<X6X6X0XuXsXwX$X^.b.5.^ C u 9 ",
"& $ $ = 9 A ,.N.;XyXsXsXyXwXwXrXwX6X6X<X<X<X<X<X<X,X,X>X>X>X>X>XF.>XuXuXwX>X;X;X;X,X,X,X;X;X;X;X$X$X#X.X#X#XA.{ 6.,.=.e.=.q Z =._ y = < -.a.@.k.k.k.9.-.E 5.s.6.r.c.v.N.B.M.N.y.@.a.N.Z.N.a.s.Y.G.j.8.A.F.G.Z.A.Z.A.F.F.G.G.H.H.U.U.U.U.U.U.Y.Y.^.Y.^.^.^.^.H.c.^.N.^ =.3.w.9.5.w.e.e.w.r.r.r.e.e.=.c 5.H.b.U..XXXXXXX$X.Xb.j.}..X.XH.D.XXXXXXXX.X.XN.Z.^.$XH.w.N. X XD.d.B.Y.}..X.X.X.X.X}.}..X.X.X X{.}.}.|.XX.X.X.X.X^.H.}..X.X.X.X.X.X.X.X.X.X.X.X.X.X.X.X.X.X.X.X.X.X.X.X.X.X|..X.X.X.X.X.X#X.X.X.X.X.X.X.X|.|..X.X.X#X#X#X#X#X#X#X#X X#X@X|.|.|.|..X.X.X.X.X}..X.X}.}.^.|..XXXXX.X.X$X$X$X$X$X$X$XXXXX$X$X$X$X$X$X$X$X$X$X$X$X$X$X$X$X$X$X$X$X$X$X*X$X.X.X$X.X.X.X.X.X.X.X.X}.H.b.Z.^.$XH.8.Z.H.U.N.s.U..X$X$X$X.XH.c.!.$X#XY.s.^..X.X.X.X}.U.J.XXs.@.[ =.=.@.@.} } } @.@.=.-.=.O.[ @.b.Z.Z.U.^.U.^.^.].].^.^.^.Y.Y.Y.Y.Y.H.H.H.G.F.F.F.Z.B.Z.H.H.N.e.r.F.U.N.=.Z.H.Z.a.=.x.A.F.F.A.F.F.b.a.v.s.W @.5.e.a.F.e.<.1.A @ h Y W ~ 9 N [ -.M.@.K A..X^.}.}.}..X$X*X;X;X;X>X>X;X;X;X;X;X6XrX;XXX<X6X<X>X>X>X>X,X,X<X,X,X<X,X,X<X,XwXwXuXlXkX,XJ.x.=.D 9 > * @ @ ",
"= * $ $ * = 0 x } c.*XyXhXsXyXuXyXwX6X,X5X5X<X<X<X<X,X>X>X>X>X>X;XZ.<XuXyX6X;X;X;X;X>X>X;X;X;X*X$X#X.X|.#X#XY.,.{ e./ e.w.5 s @._ w * 5 5.r.O.a.k.s.5.@.E 5.s.9.r.v.b.N.N.N.M.9.#.s.M.N.N.e.s.U.F.a.9.A.A.G.Z.A.A.A.A.F.F.G.H.H.U.U.U.U.U.U.Y.Y.Y.Y.^.^.^.{.U.c.D.!.>.m d m Z G H J J H G G G G N h U b.N.F.}..XXXXXXXXX.XN.j.^..X$XJ.D..X.X.X.X.X.XN.Z.^..X!.x.r.H.XXXXU.F.B.N.Z.Z.Z.Z.G.G.G.G.F.F.F.F.G.J.Y.{.!.H.H.U.!.H.!.U.U.U.U.U.U.U.U.U.H.H.H.H.U.U.U.U.U.U.U.U.H.H.H.H.H.G.G.G.H.H.H.H.H.H.H.H.U.U.H.H.H.G.G.G.G.G.G.G.I.I.U.U.U.U.U.U.U.H.U.H.H.H.U.U.H.H.}.^.^.U.Y.H.H.H.H.G.H.H.H.U.U.U.U.U.H.H.H.H.U.U.U.U.U.U.U.U.U.U.U.U.U.H.H.H.H.H.H.H.H.H.H.H.H.H.H.H.H.H.H.H.F.C.D.!..X*X}.j.r.H.^.H.b.s.U.}.$X$X$X.XH.c.^.$X#XU.s.'..X.X.X.X X{.J.}.Z.} ) ^ ^ Q Q R R R R E E U J N d [ Z.C.G.^.^.^.^.^.].].^.^.Y.U.Y.Y.Y.U.H.H.H.H.F.F.F.A.D.D.G.G.N.e.e.N.H.M.=.M.G.Z.r.@.k.A.F.F.A.F.F.v.a.v.a.W { 5.9.e.B.r.=.<.! @ t U Z U e N [ 9.k.J ~ G.|.}.}.}.}.|.$X*X;X;X;X;X;X*X;X;X;X6XwX*X|.6X6X<X<X,X>X>X>X>X<X<X,X<X<X,X<XrXrXsXgXzXwX Xn.2.v 5 * @ & & > 9 ",
"Z.t.} U x 7 - > 3 v >.^.0XsXuXyXyXyXwX6X5X<X<X<X<X,X,X>X>X>X>X>X;XXXD.rXsXwX>X;X;X;X;X;X;X;X*X$X#X.X|.}.|.|.|.e.H ,.^ ,.w.1 < ) ^ 5 = y e.9._ 9.k.s.3.[ ~ 6.k.e.e.b.N.b.N.N.M.<.-.s.M.N.b.5.s.F.A.9.9.A.A.A.N.Z.Z.A.A.F.F.F.H.H.U.U.U.U.U.Y.Y.Y.Y.Y.^.^.^.^.^.Z.x.Y.B.E m #.9.9.r.r.r.r.a.e.a.v.8.Z r.U.c.U..X.XXXXX.X.X.XD.s.U..X*XJ.Z. X X X X|.|.N.N.^..X.XH.t.x..X$X%XXX.X#XY.!.!.!.{.}.}..X.X.XXXXXXXXX$X$X.X.X.X.X$X$X*X$X$X$X$X$X$X$X$X#X.X.X.X.X.X.X.X.X$X$X$X$XXX.XXX.X.X.X$X$X$X$X$X$X$X$X$X$X$X.X.X#X.X.X.X.X#X#X$X$X$X$X$X$X$X$X$X$X$X$X$X$X$X$X$X*X$X}..X.X.X.X.X.X$X.X.X.X.X$X$X$X$X.X.X.X.X.X.X.X#X#X#X#X.X.X.X.X.X.X.X.X.X.X}.}.}.}.}.}.^.^.}.}.}.^.!.!.!.^.^.^.^.}..X.X.X^.c.8.Z.U.^.H.c.t.U..X$X$X$X.XH.b.^.$X$XF.s.|..X.X|.|..X XJ.Y.H.8.s.b.N.N.b.n.c.c.c.b.c.c.e.B m k.F.C.!.}.!.^.^.^.^.].^.Y.U.U.Y.Y.Y.U.H.H.H.H.F.F.F.F.D.B.Z.G.Z.e.e.N.G.Z.-.M.G.Z.a.=.x.F.F.F.G.F.A.c.e.k.j.^ ^ <.5.3.c.s.{ 2.} > < N n U w n +.9.9.x -.^.}.(.^.^.^.^..X*X*X;X;X$X$X*X;X;X;XwXwX}.;X6X<X<X<X,X>X>X>X>X<X<X<X<X6X0XrXsXuXsXuX<XF.<.S r = = t D ] w.Z.J.",
"6XwXwX6X*XJ.5.C 4 - 5 D x.;XrXwXwXuXuXwX<X5X<X<X,X,X,X>X>X>X>X>X>X;XD.$XhXyX6X;X*X;X;X>X;X*X$X$X.X|.|.}.].^..Xc.D / W { =.< % U U < = c e.5._ 9.s.a.,._ ~ 9.k.e.w.M.N.v.N.N.b.>.>.j.M.b.b.<.a.A.Z.8.e.A.Z.A.M.Z.Z.A.F.F.F.F.G.H.H.U.U.U.U.U.Y.Y.Y.Y.^.^.^.!.^.^.b.Z.U.5.U a.F.'.U.Y.Y.U.U.U.H.F.<.<.H.H.D.^.^..X.X.X.X.X.XG.s.H.}.*XY.Z. X X X X|.}.N.N.^.}..X}.F.r.x.^.%X;X;X*X$X$X$X$X$XXXXXXXXX$X;X;X$XXXXXXX.X.X.X.X.X.X*X$X*X*X*X*X*X*X*X*X*X*X=X=X*X*X;X;X;X;X;X;X;X;X;X;X;X;X;X;X;X;X;X;X;X;X;X;X;X;X>X>X,X>X,X,X,X,X>X>X,X,X>X>X;X;X;X;X;X;X;X;X;X;X;X;X*X^.}.}..X.X.X$X$X$X$X$X$X*X*X*X*X*X;X;X;X;X;X;X;X;X;X;X;X;X;X;X;X;X;X;X*X*X$X$X*X*X*X*X$X$X$X$X*X*X$X$X$X$X$X$X$X$X$X.XH.j.5.b.U.^.!.^.n.t.!.$X$X$X$X.XG.b.^..X$XZ.j..X.X.X|.|. XXXY.J.}.s.r.Z.H.H.Y.Y.U.J.U.Y.!.D.-.Z f.A.b.H.}.}.!.^.^.^.^.!.Y.U.U.U.Y.Y.U.U.H.H.H.H.F.F.F.Z.M.b.Z.F.A.r.e.b.F.N.=.v.G.N.r.@.k.Z.A.A.F.F.Z.j.5.j.k.{ W -.5.>.s.s.] =.<.r @ d x U w d =.-.@.j 9.^.].U.U.U.U.^.|.$X*X;X*X$X$X*X*X;X6XwX*X|.<X6X>X,X,X,X>X>X>X>X<X<X<X<X6XuXsXuXrXrX;Xx.Q y * 5 H w.D.;XwXwX6X>X",
"*X;X<X0XwXwXwX$Xx.S - - d 5.|.0X0X6X0XwXwX6X,X>X,X>X>X>X>X>X>X>X;X;X$XD.wXyX0X,X$X$X;X;X=X*X$X$X|.|.}.|.].'.|.Z.R D W / { 8 % m A = : W a.,.) 5.s.e.) ^ ~ e.k.3.9.k.s.N.v.v.x.-.3.j.b.N.M.,.j.F.v.5.a.A.A.N.M.Z.A.A.A.F.F.F.G.G.H.H.H.H.U.U.U.U.Y.Y.^.^.^.^.^.^.Y.M.B.G.@.R +.-.<.5.8.8.8.8.5.{ @.H.H.N.!.}..X.X.X.X.X.X.XU.s.H.}.}.^.b.{. X X X|.#XN.N.!. XoX.X{.G.r.t.Z.F.Y.'.'.'.|.}.^.^.^.^.{. X X X}.}.}. X}.!.^..X$X.X.X$X$X$XXX.X.X.X.X.X.X.X#X#X#X#X$X$X$X$X$X$X$X$X#X.X#X#X#X#X#X#X#X.X.X.X.X.X.X#X$X$X$X$X#X#X#X#X#X#X#X@X@X@X@X|.|.|..X.X.X$X$X$X$X.X.X}.'.^.^.^.}.}.}.|..X.X.X.X.X.X$X$X$X.X.X.X$X*X$X$X$X*X*X$X$X#X.X$X$X.X.X.X.X.X.X.X.X.X.X.X.X$X}.}.}.}.}.}.^.^.U.H.N.j.8.8.N.H.^.^.^.U.j.t.!..X$X$X$X.XZ.b.^..X.Xb.N..X.X.X.X.X X.X}.Y.U.F.9.<.8.q.e.r.s.t.r.r.q.{ ~ k.A.M.N.H.}.^.!.^.!.!.!.!.Y.U.U.U.Y.U.U.U.H.H.H.G.F.F.F.Z.v.v.Z.F.F.s.9.c.A.M.-.k.G.N.e.@.a.Z.F.A.A.Z.F.e.+.r.k.{ U =.-.-.5.j.] X.<.v $ 9 h Y f s #.,.) n j.U.].!.H.H.^.^.{..X$X$X$X$XXX$X*X;XyX0XU.*X,X;X;X;X;X>X>X>X>X>X<X<X,X6XwXuXyX6XrX$X>.v & = x r.;X<XwX6X>X;X$XXX",
";X<X6X0XwXwXwX6XyXXX5.t X 4 } J.6X6X<X0XwX0X<X>X>X>X>X>X>X>X>X;X;X;X;X}.J.0XyX0X%X$X%X;X$X$X.X.X|.}.}.}.].^.].F.) m { { [ w % h B * 4 -.e.=._ 5.s.>.W R Q 5.e.>.e.s.r.j.s.s.a.@.5.k.v.N.c.>.j.F.k.5.a.A.A.N.M.Z.A.A.A.F.F.F.G.G.H.H.H.H.U.U.U.U.U.Y.^.^.^.^.!.!.}.J.c.B.B.3.^ ~ ) [ { @.@.{ ^ W N.!.Z.b.(.|..X.X.X.X.X.X.XU.s.H. X X{.b.Y.}.}. X|..XN.M.!.^.oX.X.X{.Z.x.e.r.a.a.s.s.s.s.r.r.r.r.t.r.t.r.e.w.w.5.5.<.8.j.x.x.x.x.c.x.j.j.j.j.j.j.j.j.j.s.s.a.a.a.a.a.a.a.s.s.j.k.k.k.k.k.s.s.s.s.s.s.s.s.s.k.k.x.v.c.x.k.k.k.k.k.d.d.d.s.d.d.d.x.c.x.j.j.j.j.j.j.j.s.j.j.j.k.x.x.c.c.c.c.x.x.x.j.j.j.s.s.s.j.x.x.x.x.c.x.j.s.s.s.s.s.s.s.s.s.j.j.j.j.j.j.s.s.s.s.s.s.s.s.s.t.r.e.e.e.r.s.b.H.!.!.{.^.^.U.s.r.^..X$X$X$X}.C.b.}..X.Xc.N.#X.X.X.X.X X.X X{.H.U.G.r.[ H S H S A A A N Q a.A.N.M.D.^.^.U.U.!.^.!.!.U.Y.U.U.U.U.U.U.U.H.H.H.G.F.F.F.Z.M.v.Z.F.F.j.8.j.Z.M.-.j.G.M.e.@.w.b.N.Z.A.N.F.,.{ 9.k.=.G [ @.+.@.r.{ { 2.! > * w W f t +.-.E B v.H.!.H.F.H.^.^.^.}.XXXXXXXX$X$X*X<XwX*X$X;X;X$X;X;X;X;X>X>X>X>X>X>X<XwXrXwXrX6X}._ 9 = & ^ F.,XwXwXwX6X6X,X;X;X",
"<X0XwXwXwXwXwX0X,XwX6Xn.d @ > ^ F.,X6X6XwXwX6X<X,X>X>X>X>X>X>X;X;X$X;X$XF.;XwX0X>X$X#X#X.X}.'.^.'.'.'.'.].].U.U.[ h @./ E y $ t c : c 5.8.{ [ q.e.{ A m @.5.5.@.@.>.3.9.8.3.5.{ 8.k.c.b.s.>.j.Z.a.<.a.A.A.N.N.Z.A.A.A.F.F.F.G.G.H.H.U.H.H.U.U.U.U.U.U.^.!.!.Y.U.Y.{.U.x.c.N.9.[ W R R W W ^ =.x.G.F.F.U.}..X.X.X.X.X.X.X.X^.j.G..X.X{.b.H.^.}. X|..XN.b.H.U.!.{.!.(.U.H.F.A.A.Z.Z.M.k.s.t.t.t.t.t.s.s.j.j.s.t.t.r.r.j.C.c.c.c.c.x.x.j.j.j.j.j.j.j.j.j.j.j.j.j.j.j.j.j.j.j.c.c.b.b.b.b.v.v.v.v.b.b.b.b.b.N.N.N.N.N.N.N.N.N.N.N.N.M.M.M.M.N.B.N.N.b.x.x.j.j.j.j.j.j.j.s.s.s.s.s.t.t.s.s.t.r.r.r.r.r.r.r.r.t.s.s.s.a.a.a.a.e.e.e.r.r.t.s.s.s.s.s.s.s.s.s.s.s.t.t.s.s.s.s.s.j.x.n.b.N.Z.F.U.U.^.H.!.^.^.H.F.r.r.}..X.X$X.X}.N.N.}..X.Xk.Z.$X.X.X.X.X X X.X}.^.H.|..XA.8.@.^ E E W Q { r.Z.Z.Z.A.H.^.U.H.H.U.U.U.U.U.U.Y.U.U.U.U.U.U.H.H.H.H.F.F.F.A.N.b.Z.A.A.k.8.a.N.N.>.a.G.M.e.=.<.r.s.k.j.j.s.) ^ <.j.<.H U _ [ ^ <.=.] 2.} t @ 1 B d w +.=.G G Z.H.!.F.Z.H.^.U.Y.{.}. X.XXXXX$X*X0X6X}.,X;X;X$X;X;X;X;X>X>X>X>X;X<X0XrX0X0X5XY./ 3 * 9 ,.$X5X,X6X6X6X6X<X<X<X<X",
"wXwXwXwX<X<X0X0XwX<X6X0XF.x @ < W H.6X>X6X0X0X6X,X>X>X>X>X>X>X;X;X$X;X;X.XY.wX0X5X%X.X|.}.^.Y.Y.Y.^.^.^.Y.].U.G.[ v ,.^ A y % t s s +.9.<._ { 8.=.U c A @.>.=.^ A W @.3.<.>.>.[ 9.x.c.c.r.-.k.Z.r.<.s.Z.A.N.N.Z.A.A.A.F.F.F.F.F.H.H.U.H.H.H.H.U.U.U.U.U.U.U.U.U.}.Y.Y.U.N.N.H.H.H.N.c.v.M.Z.U.U.D.F.U.}.}.}.|.|..X.X.X.X}.^.j.F.XXXX}.N.F.!.}. X}..XN.b.F.Z.F.H.H.H.H.}.'.'.}.|.}.}.^.^.!.(.(.{.{.{.{.{.{. X.X.X.X.X.X$X$X$X$X$X.X.X.X}..X.X.X.X.X.X.X.X.X.X.X.X.X.X.X.X.X.X.X}.|.|.|.|.}.}.}.}..X.X.X}.}.}..X.X}.}..X.X.X.X.X$X#X#X#X#X$X$X*X$XXXXX$X$XXXXXXXXX.X.X.X.X$X*X$X.X.X.X.X.X.X.X.X.X.X.X.X}.}.}.^.^.^.^.^.^.'.}.|..X}.}.}.}.}.}.}.}.^.^.^.(.(.^.^.^.^.}.}.}.!.^.^.{.^.}.^.H.^.U.H.H.U.H.F.N.e.r.}..X.X.X.X^.b.C..X.X|.j.F.$X.X.X.X.X X X.X X}.^.F.H.U.G.H.Z.Z.A.F.G.F.F.Z.A.A.U.!.H.H.H.H.U.U.U.U.U.Y.Y.U.U.U.U.U.H.H.H.H.H.F.F.A.F.N.M.Z.Z.Z.k.8.e.b.M.-.a.S.M.r.>.>.5.3.5.<.3.@.R U @.a.<.E Z ~ ) W } =.{ 2.1.Z * % j x 1 { @.B J M.H.!.A.N.H.^.H.U.^.}..X X}. XXX,XwX.X*X,X;X;X*X;X;X;X;X>X>X>X>X>X0XwX6X<X6X{.} 3 = 9 y.*X6X6X,XwXwX0X6X<X<X6X6X",
"aXwXwXwX0X0X0X0X<X<X6X0XwXF.u $ 9 @. X>X>X<X6X6X>X>X>X>X>X;X;X;X*X*X*X*X*XH..XwX6X;X}.}.'.'.'.'.^.^.^.^.}.U.F.Z.{ D <.U c q $ e Z { 9.e.>.[ <.>.^ m A E { { ^ S Z W >.8.w.r.<.@.r.k.M.v.9.@.M.Z.r.<.j.F.Z.N.M.Z.Z.Z.D.F.F.F.G.G.G.G.H.H.H.H.H.H.U.U.Y.Y.U.U.U.U.!.U.U.U.U.H.Z.C.N.N.Z.H.G.H.H.H.U.!.}..X}. X|.}.}.}.}. X X Xx.N. X.X}.F.Z.!.!.^. X}.b.x.N.N.x.c.Z.F.H.H.H.H.U.U.U.J.U.J.J.U.Y.!.^.^.^.^.!.!.!.!.!.!.^.^.^.^.^.^.^.^.^.^.}.}.}.}.(.^.^.^.^.^.^.^.}.}..X.X.X.X.X.X X X.X}.}.}.}.}. X X X X.X.X.X.X.X.X.X.X.X.X'.^.}.}.{.{.{.{.}.}..X.X.X.X.X.X.X.X.X.XXXXX.X.X.X.X.X.X.X.X}..X}.}..X.X.X.X}.}..X|. X X.X.X X X X X.X}.}.}.}.}.}.}.}.}.}.}.{.{.{.}.}.^.^.^.^.^.^.^.Y.U.U.H.G.F.F.N.N.Z.F.F.e.w.'.#X$X.X^.!.c.F.}..X^.a.Y.|..X|.|.|.}.}.}.|..X}.U.H.H.G.F.D.A.A.Z.Z.b.N.Z.A.Y.U.H.H.H.H.H.U.U.U.U.U.U.U.H.H.U.U.H.H.H.H.G.G.A.A.A.Z.N.N.Z.Z.Z.k.5.9.M.M.<.8.F.M.s.,.<.8.e.w.e.8.{ B Z E >.<.^ Z G W E ) -.-.=.<.+.y @ w n 1 ~ @.n J N.F.H.A.N.G.Y.Y.H.!.}.}.}.^.}.XX6X>X}.,X;X;X*X*X*X*X;X;X>X>X>X,X<XwXwX<X6X;X<.9 $ t r.=X;X,X,X5XwX0XwXwXwX6XwX>X",
"f.].7XqXaXrX0X0X<X<X<X<X0XwXb.t * u r.;X;X,X6X6X>X>X>X;X;X;X;X;X*X*X*X$X$XU.Z.0X5X;X}.'.'.'.'.'.'.^.'.^.}.G.N.N.] D =.m N 5 : U >.9.e.5.-.=.>.[ B x U ^ ) ] U h Z W >.e.s.x.8.<.v.Z.N.k.5.+.v.M.9.<.j.F.Z.N.M.Z.A.D.F.F.F.F.F.F.G.G.G.G.H.H.H.H.H.U.U.U.U.U.U.U.U.U.U.H.U.U.U.H.N.b.C.F.H.H.H.U.U.^.}.}.}.}.}.}.}.}.}.}. X}.b.N.}.{.^.F.Z.U.!.^.}.}.b.c.N.c.b.Z.F.H.H.H.H.H.U.U.J.J.U.U.J.J.H.Y.!.!.!.!.!.!.!.!.!.!.^.^.^.^.^.^.^.^.^.^.^.^.^.^.^.^.^.^.}.}.}.}.}.}.}.}.^.^.^.^.^.^.^.^.^.^.^.^.{.{.{.{.{.{.{.{.}.}.}.}.}.}.^.^.}.}.}.{.{./.(.(.{.{.}.}.}.}.}.}.}.}.|.|.|.}.}.}.}.}.}.}.}.}.}.}.}.}.}.}.}.}.}.(.{.{.{.{.{.{.{.{.^.^.^.!.!.!.!.!.Y.Y.Y.Y.Y.Y.Y.Y.!.U.U.H.U.U.H.H.U.U.U.Y.U.F.Z.b.a.c.Z.H.r.e.}..X$X.X^.U.b.F.^..XY.r.Y.|.|.|.|.|.}.}.}.}.XX|.^.!.U.U.H.H.H.H.H.H.H.H.U.U.U.H.H.H.H.H.H.H.U.U.U.U.H.H.H.H.H.H.F.F.G.G.F.A.Z.Z.A.Z.M.b.N.C.Z.c.4.8.v.m.<.<.A.c.s.5.<.9.a.s.j.s.#.N H A E #.^ G Z U U Y { 5.<.-.>.W 1 : x 1 R @.n J Z.A.F.F.N.G.Y.Y.H.!.}.^.(.^.}.*X<XJ. X;X*X*X*X*X*X*X;X;X;X;X;X,XwXwX<X<X6Xd.d * 1 <.$X,X,X,X<X6XwX6X6XrXtX5X|.n.",
"~ +.9.R.5XrXwX0X6X<X>X;X<X<XwXe.6 * v D.;X>X<X6X<X>X;X;X;X%X;X;X*X*X$X$X$X^.s.*X>X>X}.Y.'.'.'.'.'.'.^.^.U.Z.M.b.] H } q c > n <.r.a.r.8.=.=.[ N d h E =._ Z s 9 N J #.e.v.s.) E =.<.9.s.<.{ c.k.8.5.k.A.Z.N.N.Z.Z.Z.A.F.F.F.F.F.F.F.F.F.G.G.H.H.H.H.U.U.U.U.U.U.U.H.H.H.H.H.U.U.^.U.U.^.H.H.U.!.^.^.^.^.^.^.^.^.{.{.{.{.}. XZ.Z.}.Y.Y.J.C.U.!.^.^.^.N.c.Z.8.b.{.U.!.U.U.U.U.!.^.^.^.}..X}.}..X.X.X}..X.X.X.X.X.X.X.X.X.X.X.X.X.X.X.X.X.XXX.XXX.X.X.X.X.X.X.X.X.X.X.X.X}..X.X.X.X.X.X.X.X.X.X.X.XXXXXXXXX.X.X.X.X.X.X.X.X.X.X.X.X.X.X.X.X.X.X.X.X.X.X.X.X.X.X.X.X$X$X$X$X$X$X$X$X$X$X$X$X$X$X$X$X$X$X$X$X$X$X$X$XXXXXXXXXXXXXXXXX.X.X.X.X.X.X.X.X X X X X X X X X.X}.}.}.}.}.}.(.'.'.}..X}.Y.H.Z.a.r.v.G.r.e.^.}..X}.^.H.b.F.^.}.G.r.Y.|.}.'.'.'.^.^.^.^..X}.(.^.^.^.!.U.U.U.U.U.U.U.U.H.F.G.H.H.H.H.H.H.H.H.H.H.H.H.H.G.G.F.F.F.F.F.A.A.A.Z.N.N.s.k.N.C.Z.v.5.4.x.k.<.=.v.r.,.,.+.<.a.j.s.s.=.Z H x d U ^ U c m A G ~ ,.e.8.8.<.U < q 5 G { x A Z.N.A.F.N.F.Y.U.H.^.}.^.^.(..X*X;Xj..X$X$X$X$X*X;X;X;X;X;X;X;X6XwX<X<X<XD.D = : ^ U.*X;X,X5X6X0X6XrXyXrX*XM.8.@.",
"s A _ :.M.%XrXyXwX0X<X>X;X>X0X;X>.- > ) .X;X,X6X6X<X;X$X$X%X;X;X*X*X$X$X$X}.s.H.;X>X}.U.'.'.'.'.'.'.^.^.N.b.b.N.) ^ H r C x ) 5.e.9.5.-.{ U j 8 9 G @.+.n 9 > 4 c Z [ 9.x.e.A m B B W <.-.{ k.j.5.5.k.F.Z.N.N.Z.b.b.C.Z.F.F.F.F.F.F.F.F.F.F.F.G.H.H.H.H.U.U.H.H.H.H.H.H.H.H.H.H.U.H.H.H.H.U.^.^.^.^.^.^.^.^.^.^.{.{.{.{.{. XF.Z. X{.{.^.C.U.!.^.^.^.N.b.c.2.N.{.!.!.^.^.^.^.^.^.U.^.}..X{.}..X.X}.}.}.}..X.X.X.X.X.X.X.X.X.X.X.X.X.X.X.X.X.X.X.X.X.X.X.X.X.X.X.X.X.X}.}..X.X.X.X.X.X.X.X.X.X.X.X$X$XXXXXXXXXXX.XXXXXXXXX.X.XXXXX.X.X.X.X.X.X.X.X.X.X.X.X.X.X.X.X.X.X.X.X.X.X.X.X.X$X$X$X$X$X$X$X$X$X$X$X$X$X$X$X$X$X$X$XXXXXXX$X$X.X.X.X.X.X.X.XXXXXXXXX X X X.X.X.X}.}.}.}.}.}.|.|.'.^.Y.U.U.F.M.r.s.Z.r.w.Y.^..X}.U.H.N.G.^.}.F.r.'.|.'.'.^.^.^.^.^.^.^.^.!.!.^.^.U.U.H.H.H.H.H.H.F.F.Z.F.G.H.H.H.H.H.G.G.H.H.H.H.H.F.F.F.F.F.A.A.A.A.Z.M.v.k.5.j.N.N.Z.v.5.<.j.s.,.{ @.) n G ~ @.9.s.j.e._ c c t = d U E n d j n B W ,.9.r.9.8.~ y 8 B [ x Z Z.N.N.F.M.F.U.U.H.^.^.^.^.^..X;X$Xj.$X.X$X$X*X*X;X;X;X;X;X;X>X6X<X;X<X X@.4 % A N.*X;X*X5X6X0XqXrXaX5XU.,.^ G x ",
"5 4 f J %.a.=XwX0X,X,X6X>X;X;X<X}.S * 5 s.>X;X6X0X6X>X;X*X*X*X;X*X$X$X$X.X}.j.s.5X;X#XY.}.|.}.Y.U.Y.}.Y.v.c.N.c.] [ H U { =.<.8.8.<.{ U j 5 : 8 B =.<.A = : < 4 d n U @.9.@.^ _ W U G ) _ +.k.s.<.5.b.A.Z.M.M.F.j.b.H.Z.Z.D.F.F.F.F.F.F.F.F.F.H.H.H.H.H.H.H.U.U.H.H.H.H.H.H.H.H.H.H.U.U.U.U.U.!.^.^.^.^.^.^.^.^.{.{.{.{.^. XU.c.^.{.{.}.H.G.^.^.^.!.j.5.8.>.j.!.H.U.!.^.^.^.(.}.(.'.}.F.^.}.|.}.}.}.}.}.|.}.}.}..X.X.X.X.X.X.X.X.X.X.X.X.X.X.X.X.X.X}.}..X.X.X.X.X.X.X}..X.X.X.X.X.X.X.X.X.X.X$XXXXX.X.XXXXXXXXXXXXX.X.X.X.X#X#X.X.X.X.X.X.X.X.X.X.X.X.X.X.XXXXX.X.X.X.X.X.X.X.X.X.X.X.X.X$X.X.X.X.X.X.X.X.X$X$X$X$X$X$X$XXXXXXX.X.X.X.X X X.X.X X X X X X X X X^.}.}.!.^.}.}..X|.}.'.^.Y.U.F.A.N.r.<.e.r.8.U.}.^.}.U.!.F.U.^.^.N.b.|.}.^.^.^.^.^.^.^.^.^.!.U.H.H.H.H.H.H.H.H.H.H.H.H.H.H.G.H.H.G.G.G.G.H.H.H.H.H.H.G.F.F.F.F.F.F.F.A.A.Z.N.v.b.r.a.N.C.Z.b.9.,.s.a.<.) A t s ~ [ ~ @.e.9.-.U s 4 4 < = d W G y 5 t d h A { 9.r.r.a.5.Y x ^ N B b.A.N.N.b.D.H.J.H.^.^.!.!.^..X<XH.N..X}..X.X$X$X*X*X*X*X;X;X<XwX<X<X>Xt.t X t j..X;X;X,XqX6X0X5XrX*Xs.R x w , 4 ",
") y , 5 B O.0.$XqX6X6X6X,X;X;X>X6Xj.q @ Z J.<X>X6X<X>X;X*X*X*X$X$X$X.X.X.X.Xc.w.>X;X$XY.^.}.'.Y.U.^.^.F.j.v.b.s.=.<.>.e.s.e.5.<.<.) m q : $ 1 N { @.E B R G A J G c h x J =.s.j.8.{ U E ) +.k.a.<.8.M.A.Z.M.b.N.c.Z.G.N.Z.Z.D.F.F.F.F.F.F.F.F.F.H.H.H.H.H.H.G.G.H.H.H.H.H.H.H.H.H.H.U.U.U.U.!.!.!.!.^.^.^.^.^.^.{.{.{.{.}. XF.r.Y.Y.{.}.H.F.U.^.{.U.t.<.5.=.t.F.H.H.U.!.!.^.^.(.!.(.!.c.!.}.|.'.}.}.}.}.}.}.}.}.}.}.}.}..X.X.X.X.X.X.X.X.X.X.X.X.X.X}.}.}..X.X.X}.}..X.X.X.X.X.X.X.XXX.X.X.X.X.X.X.X X X.X.X.X.X.X.X.X.X.X.X.X.X.X.X.X.X.X.X.X.X.X.X.X.X.X.X.X.X.X.X.X.X.X.X.X.X.X.X.X.X.X.X.X.X.X.X.X.X.X.X.X.XXXXXXXXXXX.X.X.X.X.X}.}.}.}.}.}.}.}.}.}.}.}.}.}..X}.^.H.D.^.}.^.}.'.'.Y.U.U.H.F.Z.w.[ #.r.e.G.Y.^.^.U.^.H.U.^.^.b.N.}.'.^.^.^.^.^.^.^.^.^.!.U.H.H.H.H.H.H.H.H.H.H.H.H.H.H.H.H.H.F.F.F.F.F.F.F.F.F.F.F.D.Z.A.A.A.A.A.Z.Z.M.N.c.N.a.a.C.Z.Z.M.e.,.a.a.<.[ Z q G r.r.+.~ ^ { _ { { { ^ W E H U _ U s 5 4 q q j ~ -.5.9.a.j.{ [ [ E s.N.N.Z.N.F.U.U.H.!.^.U.H.U.$X,XC.F.}.^.}. XXX$X*X*X*X*X;X;X6X0X>X;XH.E % < ,.|.=X;X,X6X0X6X7X,X#X5.B y < : q c ",
"D.x.W < 1 k ~ 9.$X6X0X6X6X;X*X;X>X;X) @ < <.$X;X<X<X>X;X*X*X*X$X$X.X.X.X^.U.D.r.$X;X$XU.U.^.'.Y.U.}.U.b.k.x.s.a.e.r.w.8.w.s.8.{ Y y < = = 5 N _ [ ) =.-.=.-.<.8.5.[ E G { s.F.Z.b.5.^ G ) @.v.r.5.9.N.Z.N.M.k.j.5.b.Z.Z.C.Z.Z.D.D.D.D.D.F.F.F.F.F.G.H.H.H.H.H.H.H.H.H.H.H.H.H.H.H.H.U.U.!.!.!.!.!.!.^.^.^.^.^.^.{.{.{.{.}.{.N.5.H.J.{.}.U.Z.H.U.Y.H.c.j.x.w.x.D.H.H.H.U.U.U.!.].U.(.'.F.U.^.'.^.(.(.(.(.^.^.^.^.}.}.}.}.}.}.}.}.}.}.}.}.|.|.}..X.X.X}.}.}.}.|.|.}.}.}.}.}.}..X.X.X.X.X.X.X.X}.^.{.{.}. X X X X X.X.X.X.X.X.X.X.X.X.X}.}.}.}..X.X.X.X.X.X.X.X.X.X.X.X.X.X.X.X.X.X.X.X.X.X.X.X.X.X.X.X.X.X.X.X.X.X.X.X.X X X X X X}.}.}.^.{.{.{.{.{.{.{.{.{.{.{.{..X}.^.H.C.H.^.U.'.'.Y.Y.U.H.H.H.F.e.@.8.j.c.F.H.!.U.H.}.H.!.^.U.j.Z.^.Y.^.^.^.^.^.!.^.^.^.!.U.H.H.H.H.H.G.G.G.G.H.H.H.H.H.H.G.G.G.F.F.F.F.F.F.F.F.F.D.Z.Z.Z.Z.Z.Z.Z.Z.C.N.N.k.s.9.j.Z.Z.Z.M.e.-.e.y.<.[ U y ' v.A.a.5.<.5.r.j.v.v.r.<.=.) ~ W _ W d 1 < 5 5 0 N [ -.8.5.s.5.e.=.5.c.b.b.M.D.H.U.H.U.U.H.H.U.$X;Xk.!.}.^.^.}. XXX*X%X*X*X$X<X0X6X,X$Xw.6 X G U.XX;X,X6X0X,X,X>X.Xr.U y 5 q Q s.F.",
"L.J.J.} 5 % e T j.=X6X0X<X;X*X*X>X>XF.t * v N.;X>X,X>X;X$X*X*X$X$X.X.X.X^.^..Xr.#X=X$XU.H.Y.'.Y.Y.'.F.c.c.s.8.s.j.2.{ @.<.1.{ A q % = % q B ) ) ) ,.<.>.8.j.b.c.v.b.M.x.M.H.F.H.Z.9.^ G ^ =.v.r.5.r.Z.N.N.b.j.r.>.c.Z.Z.Z.C.Z.Z.Z.Z.Z.Z.D.D.F.F.F.F.G.H.H.H.H.H.H.H.H.H.H.H.H.H.H.H.U.U.!.!.!.!.!.!.^.^.^.^.^.^.{.{.{.{.Y.Y.b.1.F.J.^.}.^.Z.F.H.F.F.x.c.t.5.c.F.G.H.H.H.H.U.!.!.].H.].U.H.].(.].^.].^.^.^.^.^.^.^.^.^.^.}.}.}.}.}.}.}.}.{.{.}.}..X.X}.}.}.}.|.|.}.}.|.}.}.}..X}.}.}.}.}.}.^.U.U.Y.{.}. X X X X X.X.X.X.X.X.X.X.X.X.X|.|.|.}..X.X.X.X.X.X.X.X.X.X.X.X.X.X.X.X.X.X.X.X.X.X.X}..X.X.X.X.X.X.X.X.X.X X X X X X}.}.}.}.}.^.^.{.{.{.{.{.{.{.{.{.^.^.{.^.}.}.!.H.J.U.U.'.Y.Y.U.H.H.H.U.F.e.>.a.M.F.G.U.U.H.G.}.U.^.!.H.k.M.U.Y.^.^.^.^.!.!.!.^.^.!.U.H.H.H.H.H.F.F.G.G.H.H.H.H.H.H.G.G.F.F.F.F.F.F.F.F.D.D.Z.Z.Z.Z.Z.Z.Z.Z.C.C.C.b.k.=.=.k.Z.Z.C.N.r.-.w.e.,.[ U c ) v.A.C.k.j.k.Z.Z.A.Z.N.k.a.9.<.+.+._ W c 5 < 1 5 5 y G _ @.,.<.,.{ >.s.s.r.x.N.D.F.H.U.H.G.H.!.$X.Xv.(..X}.Y.{. X X*X%X*X*X;X<X6X>X>XY.Z o 4 x.$X*X,X6X0X0X*X*X*Xb.Q h 9 q { F.H.H.",
"K.D.F.F.=.8 : j _ M.;X0X0X,X;X$X*X,X*X{ $ 3 >.%X;X;X*X;X$X.XXX$X$X#X.X|..X.X}.a.Y.;X|.U.H.H.U.U.Y.H.N.v.b.a.s.r.>.[ { [ R N t > : @ = y Z ^ [ { @.#.3.r.c.v.b.b.Z.F.U.U.G.U.G.A.a.{ W G R =.c.s.9.j.N.N.N.x.s.e.5.v.N.N.N.N.N.Z.Z.Z.Z.Z.Z.Z.Z.N.Z.F.F.F.F.F.F.F.F.F.F.F.H.H.G.F.H.H.H.H.F.F.F.F.G.H.U.U.H.H.U.U.U.U.H.H.F.U.x.,.M.F.Y.'.'.B.N.F.F.b.d.a.9.#.k.N.Z.Z.A.F.F.H.Z.G.H.H.U.Y.U.U.Y.Y.^.^.^.^.!.!.!.!.Y.Y.].].].!.U.U.Y.{.{.{.{.{.{.{.^.^.}.}.}.}.{.{.^.^.^.}.}.}.^.}.}.^.!.U.}.^.}.^.^.F.'.|.'.'.'.'.'.^.'.'.'.'.'.'.^.^.].].T.Y.Y.Y.^.'.|.|.}.{.!.{.{.}.!.}.^.^.}..X.X.X.X.X.X}.}.}.}.}.}.}.}.}.}.}. X X.X.X}.}.}.}.{.^.Y.Y.Y.Y.Y.{.{.{.^.^.{.{.{.{.^.}.^.D.F.U.U.H.H.F.A.Z.Z.N.M.N.v.e.>.8.j.A.H.F.H.N.U.|.U.U.Y.G.e.x.H.U.U.U.U.H.H.H.H.H.H.G.G.G.G.H.G.G.F.F.F.F.F.F.F.F.F.D.Z.Z.A.A.Z.Z.Z.Z.F.F.F.N.Z.Z.N.N.N.N.Z.N.N.N.M.M.c.9.3.k.N.N.Z.v.e.-.9.y.<.{ W c U a.C.M.v.j.v.Z.F.F.Z.Z.N.N.b.j.8.=._ _ W c 5 > < 1 < 4 q m ^ <.2.H { 5.j.s.5.b.A.G.H.U.U.F.F.^.*X^.N.}.}.^.Y.Q.}.}.XXXXXXXX;X6X6X;X;Xx.4 . E ]..X*X,XyX0X*X$X*XF.{ c 5 t { x.n.c.x.",
"n.b.D.D.F.) 1 , j @.^.<X0X<X;X$X;X;X<XF.0 = N J.%X,X>X;XXX XXX$X$X#X.X|..X|.'.c.H.$X'.G.F.F.H.H.U.F.N.v.x.j.c.,.{ +.) Z 5 : @ X * 1 t n H ) [ { =.5.s.k.s.k.M.B.F.H.F.Z.v.v.j.r.@.U Z B W =.s.a.5.s.N.Z.b.j.s.r.9.k.v.v.v.c.v.b.N.N.b.b.M.N.N.b.c.v.v.v.v.k.k.k.x.j.j.j.j.j.s.s.d.j.d.j.s.s.s.s.j.k.c.c.b.c.j.s.s.s.s.a.r.x.e.>.c.Z.U.^.Y.Z.N.F.U.v.a.s.@.W <.a.j.k.k.c.c.k.c.Z.F.N.Z.G.G.H.H.U.H.H.H.H.H.H.H.H.H.H.H.H.F.N.N.D.F.F.H.H.H.H.J.J.H.H.H.H.H.H.G.H.H.H.H.U.F.A.F.G.N.N.N.N.b.s.a.M.x.x.N.F.A.A.A.A.Z.Z.Z.Z.Z.Z.A.A.Z.Z.Z.Z.N.N.N.M.M.M.B.B.B.M.b.b.j.F.G.F.U.U.!.^.^.^.^.^.^.^.!.U.H.H.H.H.H.H.H.H.H.H.U.H.J.J.J.U.U.U.J.J.U.Y.Y.Y.Y.U.J.J.J.J.J.J.H.H.F.N.N.A.A.N.v.k.k.j.s.s.f.f.r.<.@.8.s.Z.H.F.H.N.H.}.U.U.U.A.<.5.b.c.x.c.c.c.c.x.x.x.x.x.j.j.c.c.c.c.c.x.k.j.k.k.k.k.x.x.x.x.c.c.c.c.c.c.c.v.b.b.v.b.b.b.v.v.v.v.v.v.v.v.k.a.a.j.v.M.M.M.a.-.9.9.<.+.W N N _ 9.r.a.9.k.N.F.H.A.Z.N.M.Z.v.s.9.+.{ ) U m y 1 = = * $ $ > Z =.Q { =.r.M.e.s.Z.A.G.H.G.A.A.Y.$XU.A.|.'.^.Y.Y.}.|.|.XX.X.X;X<X5X%X%XO.+ 1 k.}.|.XX,XrX6X*X*X.X<.m e < U a.c.N.D.F.",
"n.n.b.b.H.c.G % 1 G s.}.6X<X;XXX*X*X;X=XU = 0 j.XX,X<X;XXX X.XXX$X#X.X|.}.^.^.b.N.|.Y.F.A.F.F.G.F.A.N.b.j.v.<.@.=.[ n , @ + $ = 5 d m N H ^ ^ @.8.r.s.s.s.c.Z.H.U.U.Z.a.=.=.+.) U Z A A ^ =.w.>.+.5.x.b.k.s.s.a.e.a.s.s.a.a.a.s.j.s.s.s.j.x.x.s.e.e.e.r.e.9.9.9.w.8.8.8.5.5.<.<.,.,.<.<.<.<.<.<.<.5.5.8.5.5.<.@.=.5.3.<.3.e.3.=.s.N.H.Y.Y.Z.N.A.J.d.5.<.~ J @.8.r.a.a.s.j.j.k.v.N.v.j.j.c.N.N.N.C.C.Z.Z.Z.Z.Z.Z.Z.Z.Z.Z.N.b.b.N.N.N.N.N.N.N.N.N.N.N.N.N.N.N.C.C.N.Z.Z.Z.x.a.s.M.M.v.c.k.6.5.5.s.k.m.k.k.s.s.s.s.s.s.s.s.s.s.s.s.s.s.d.f.a.a.a.a.p.p.f.f.a.a.s.c.6.Y.U.A.A.A.F.F.H.H.H.G.G.G.G.G.F.F.F.F.D.D.D.D.D.Z.D.D.N.N.N.Z.F.F.F.D.D.D.D.D.D.Z.Z.N.N.N.N.N.C.Z.b.j.c.b.b.c.k.k.k.k.a.a.r.r.w.<.{ #.r.N.G.G.F.N.G.'.U.G.G.N.5.=.8.r.j.a.,.-.3.3.<.<.<.<.<.<.3.5.5.5.5.5.<.<.<.<.3.3.3.3.5.5.5.5.8.8.8.8.5.5.5.a.s.r.r.e.e.e.e.r.r.r.r.a.r.r.r.r.a.s.s.j.e.@.5.5.>.@.) U B G ~ +.=.=.8.v.A.G.F.A.M.v.v.c.k.a.<.{ ^ W Y Z s 5 * $ $ $ * * x { >.>.8.a.j.s.b.N.A.F.F.N.N.U..XH.F.'.Y.Y.Y.Q.}.}.|.|. XoX;X,X;X@XI.x   m }.^.{.XX<XwX,X*X$Xb.Y y , d 9.M.D.G.{.XX",
"F.Z.b.b.M.N.3.0 % f [ A.;X<X;X$X{.*X=X5X9.: : @.}.,X;X;X.X}. XXX$X#X.X|.}.Y.Y.N.b.^.U.Z.Z.Z.F.F.A.N.N.b.s.<.[ { +.Z : X @ @ = 3 d m Z H E [ +.<.5.5.e.s.b.N.G.U.G.G.b.5.U Y U G U U ^ ^ [ { #.E Z ~ >.3.5.3.5.5.8.e.e.e.e.w.e.e.e.e.9.8.e.a.a.e.e.w.9.r.r.r.r.r.r.r.r.r.r.e.e.w.r.r.a.a.a.a.a.a.s.s.j.k.x.b.x.r.<.M.M.M.N.Z.x.r.a.b.G.Y.'.N.k.N.M.d.w.5.^ ) 3.r.k.k.c.v.M.N.A.v.a.r.3.{ =.r.j.k.j.k.j.j.j.j.j.j.j.j.j.j.j.j.x.c.x.k.k.j.j.s.j.s.s.s.s.s.s.s.s.s.e.e.e.e.a.d.v.v.d.d.d.d.m.M.N.d.d.N.s.a.y.y.y.y.y.y.y.e.e.e.e.y.y.a.a.a.e.e.e.e.e.p.p.p.p.a.m.A.m.M.M.k.v.v.b.M.Z.Z.Z.Z.s.j.j.x.x.x.x.x.j.j.j.j.j.j.j.j.x.x.x.x.x.x.j.j.x.x.x.x.x.x.j.s.s.s.s.s.s.s.e.>.@.<.r.j.N.N.Z.Z.v.v.k.k.b.x.,.{ e.M.G.G.F.M.F.^.H.F.F.v.s.j.s.c.Z.N.5.,.s.s.s.s.s.s.a.a.a.a.a.s.s.s.a.a.r.r.r.r.a.a.a.a.a.a.a.a.s.a.r.e.>.e.s.r.5.5.8.8.5.5.5.<.>.<.5.8.8.5.5.5.5.5.3.@.@.{ ) ) +.{ _ ' U W Y W [ 9.M.A.G.A.M.c.j.j.a.a.8.=.) ~ W G x 8 9 4 = * * * * S =.5.e.3.r.b.c.N.Z.A.Z.N.N.H..XF.U.'.Y.Y.Q.}.}.}. X X XoX;X>X;X}.y.5 $ -.*X$X.X$X<X6X*X$XU.>.B q 1 U v.U.}.{.oX;X",
"H.Z.Z.N.N.M.j.G % , B d.#X5X>X$X{..X*X,XF.d = R U.*X;X;X$X}.}.XX#X#X.X}.^.H.H.N.c.Y.U.N.N.N.Z.Z.b.N.N.j.,.@.=.#.A 9 $ $ $ 4 m ^ R U N Z H ) { ,.=.5.a.x.N.F.G.F.Z.k.5._ A G Y ) +.@.@.@.[ ^ J J G ^ @.>.=.>.8.5.8.e.9.9.8.e.r.r.a.s.c.b.N.w.+.<.M.b.v.c.k.k.c.c.c.c.c.c.N.C.C.C.A.N.Z.Z.Z.N.N.M.M.N.N.N.N.A.N.w.a.A.G.G.H.U.N.v.e.k.F.Y.U.M.s.s.x.n.M.5.[ 5.j.M.Z.F.G.G.U.U.G.8.r.c.-.Z a.N.N.N.N.N.N.N.N.N.Z.Z.Z.Z.A.A.F.F.F.F.F.G.G.G.G.F.F.F.G.F.F.F.D.D.D.D.N.c.e.@.w.U.Y.U.U.U.U.U.D.A.A.F.U.Y.D.A.B.A.A.A.D.D.G.G.F.F.F.F.G.H.G.B.B.F.U.H.H.G.U.U.U.U.Y.Y.^.c.v.A.U.U.H.H.Y.U.H.b.=.>.j.x.c.c.b.b.b.b.b.b.N.N.N.N.N.N.C.C.N.N.N.N.N.N.N.N.C.C.C.N.N.N.N.N.b.b.b.=.N =.5.s.F.U.H.H.U.G.A.Z.U.U.j.{ 5.N.F.Z.N.N.F.U.G.A.F.s.j.G.C.C.Z.D.N.a.p.m.M.M.M.M.M.M.M.M.M.M.M.N.N.N.M.M.M.M.N.N.N.N.N.N.N.N.N.M.b.v.c.8.3.j.v.c.x.j.a.e.8.5.5.5.5.5.8.8.5.<.<.=.#.@.^ U E ) +.*.-.;.+._ U A U { 9.c.N.A.F.M.k.r.8.5.9.<.{ ) U Z N n U A 5 $ > $ $ h [ 3.r.9.,.e.c.c.N.N.M.c.b.F.'.Z.F.'.G.^.{.}.|.|.}.|.}.XX>X*X.X|.{ = 9 v..X.XXX;X0X<X*X.Xb.W d < h 3.Z.^. XH.{.w.",
"Z l.H.F.M.v.v.{ , : s #.R.;X,X%X(.{.XX;X.XZ % j N.$X;X;X$X}.}.XX#X.X|.'.U.H.Y.x.c.U.H.N.N.N.M.v.c.x.e.@.>.<.>.^ c 9 5 d Z [ e.b.a.j.>.U m Z ) +.e.x.N.Z.A.F.Z.M.j.<.) E Y ) @.=.<.=.{ ) E J R ^ =.5.8.e.r.s.c.k.j.c.k.k.k.x.x.j.j.x.c.v.a.<.=.a.N.N.b.v.v.v.v.v.b.b.b.b.Z.Z.Z.Z.H.F.H.A.H.F.F.F.F.F.F.F.F.N.s.e.N.H.U.U.Y.G.x.a.8.s.F.Y.U.D.N.A.G.D.x.{ <.c.F.F.U.Y.].].'.].k.a.F.N.{ 3.H.^.U.Y.^.^.^.^.^.^.^.^.^.^.'.'.'.'.'.'.'.'.}.}.'.'.'.'.}.'.^.^.^.^.^.^.U.A.r.[ k.|.#X|.'.^.^.'.}.Y.'.F.U.'.Y.Y.Y.Y.'.^.}.}.}.}.}.}.}.^.Y.Y.Y.J.J.Q.}.{.{.{.^.^.U.U.H.H.H.F.F.Y.|.}.}.}..X|.}.D.{ 5.F.U.!.!.^.^.^.^.^.^.^.^.}.}.}.}.}.}.}.}.}.}.}.}.}.{.(.^.^.^.^.!.!.!.^.^.^.Z.{ =.j.8.k.U.U.Y.^.].Y.U.U.U.H.r.{ s.F.A.N.b.N.Z.G.H.U.j.s.F.H.H.F.Z.F.N.a.s.B.F.A.A.A.A.A.A.A.A.A.F.F.A.B.N.N.N.M.b.v.c.c.x.x.s.s.j.x.v.M.c.8.=.x.N.M.c.b.v.k.j.j.j.a.a.a.a.r.r.e.q.3.>._ U G U { +.;.8.8.<.+.^ H U _ 5.a.v.Z.Z.A.v.s.e.5.5.+.W E +.r.k.c.8.Q t < * 4 x U [ 3.a.w.3.9.j.v.b.b.v.c.Z.U.b.F.].F.U.{.}.}.|.}.|.}.XX;X*XXXY.Z % c '.}.}.XX>X0X,X.XH.5.Z q < T k.U.^.Z.x.] u ",
"$ B k.A.N.c.N.r.h # , J m.%X6X;X!.!..X*X%X+.* 9 e.|.*X;X$X}.}..X.X.X}.Y.H.U.H.s.c.H.F.N.v.b.j.e.r.8.5.9.e.5.=.>.w.r.k.N.N.v.e.9.a.Z.F.s.<.U ^ <.b.A.F.F.N.b.s.8.@.{ [ =.>.<.<.<.<.#.^ R H E [ =.9.e.r.r.s.s.x.j.s.j.s.s.s.s.s.a.r.e.e.w.a.v.N.N.v.c.k.k.j.j.j.j.j.j.j.j.c.x.c.x.b.b.F.G.H.U.U.U.U.U.U.F.N.s.r.M.U.G.H.U.Y.Z.s.j.M.A.U.Y.U.U.G.U.Y.D.6.1.v.H.!.!.}.}.'.'.].Z.j.G.U.8.^ M.|.^.^.}.}.}.|.|..X.X|.|.|.}.}.|.}.}.}.|.|.|..X.X.X.X|.|..X.X.X}.{.{.{.}..XU.r.@.A.#X.X|.|.|.|.|.}.$X}.j.t.j.s.s.k.k.k.j.x.x.x.x.x.x.x.j.s.d.s.y.w.e.r.w.w.w.w.e.e.e.w.8.j.H..X.X#X.X.X.X.X$X$XU.=.w.U.$X.X.X.X.X.X.X.X.X.X.X.X.X.X.X.X.X.X.X.X.X.X.X.X}.|.}.}.'.'.(.(.(.}.}..X.XD.^ e.c.e.A.^.^.'.(.(.].^.Y.U.Z.8.<.N.U.U.G.H.U.U.Y.Y.N.r.x.Z.^.U.F.Z.G.b.a.c.A.I.I.F.F.F.F.F.F.F.A.N.b.v.v.v.v.b.b.b.b.M.M.M.M.N.N.N.N.N.N.N.e.-.5.s.c.k.k.k.k.k.k.j.a.a.a.s.l.r.9.8.<.<.{ E A ~ _ =.5.9.8.5.<.+.~ W _ =.9.j.c.A.A.N.c.e.-.[ -.k.Z.Z.v.Z.H.F.c.e.@.{ ^ E ^ { >.9.5.<.9.s.x.c.c.x.M.F.j.A.U.Z.F.Y.^.}.}.{.}.}.*X;X$XXXB.d @ ) .X'.}.#X;X6X;XU.c.) h * 9 @.N.H.b.t.r.u - ",
"< + B c.N.c.b.s.J : % j 3.}.,X;X!.!.{.$X*Xe.< 4 -.{.$X;X$X}.}..X.X|.'.U.G.U.M.a.c.F.A.N.x.c.a.5.8.5.,.-.+.=.<.s.N.N.F.U.^.U.U.F.a.e.s.j.v.c.j.M.N.F.F.N.s.e.,.[ +.-.5.5.9.8.5.5.@.[ W U ^ @.<.8.e.s.s.r.e.e.a.e.e.r.e.e.e.r.s.a.s.j.b.N.Z.Z.F.F.F.F.A.A.G.G.G.G.G.G.F.F.F.D.D.D.M.s.b.F.H.U.U.Y.U.U.F.N.s.a.c.G.U.U.^.^.G.M.k.A.U.^.Y.^.}.^.Y.Y.U.a.1.M.U.'.(.'..X.X'.'.U.M.G.Y.N.W 5.Y.}.}..X.X}.}..X.X.X.X.X.X.X.X|.|. X}.|.|.|..X.X.X.X.X.X.X.X.X.X.X.X|.|.|..XH.s.8.U.$X.X%X.X.X.X.X.X*X}.F.F.H.F.Z.Z.Z.Z.Z.D.D.D.D.Z.Z.Z.Z.D.D.D.B.N.B.N.b.n.n.b.b.N.b.n.x.Z..X.X$X$X$X$X$X$X$X*X^.r.r.H..X.X.X$X$X$X$X$X$X$X$X$X.X.X.X.X.X.X.X.X.X.X.X.X.X.X.X.X.X.X|.|.|.}..X.X.X.Xw.{ b.l.c.].].'.'.|.}..X'.H.U.U.9.e.H.}.^.'..X'.Y.U.H.H.c.b.H.^.!.H.G.U.k.e.b.F.F.F.F.G.G.G.F.Z.F.Z.M.G.G.G.G.H.H.U.U.U.U.U.U.U.U.H.H.H.H.F.A.N.k.8.8.8.9.e.e.e.e.e.9.9.9.e.r.r.e.9.9.8.8.>.) U Y _ =.4.<.5.9.9.5.+.) ) =.<.9.k.N.G.F.N.s.9.N.F.j.,.5.b.Z.G.D.H.F.b.s.8.<.@.) +.8.9.5.e.a.d.x.x.M.A.s.A.U.N.Z.U.Y.{.}.Y.}. X;X;X$XXXx.9 = 5..X'.}.XX&X6X;XF.e.H q $ x a.A.Z.r.e.Q 3 t ",
"n = % +.b.b.v.b.=.8 @ w O.F.>X;XXXU.^.$X;XZ.9 = ^ U.$X*X$X^.Y..X}.^.U.A.A.F.e.b.M.Z.M.j.j.a.8.e.e.>.[ { >.e.c.b.N.D.H.!.}.}..X*XU.-.5.-.s.A.G.Z.H.F.b.e.<.#.@.5.e.a.s.j.e.a.e.<._ ) _ -.<.8.e.a.s.j.f.e.r.f.k.M.M.Z.A.A.Z.Z.A.Z.Z.Z.A.F.F.F.G.G.G.G.F.H.H.H.G.G.G.U.!.U.H.H.H.N.G.s.s.Z.H.U.U.!.^.H.Z.c.x.b.F.H.U.^.Y.H.N.N.U.'.}.}..X.X^.#X}.Y.v.5.A.'.|.}.}.}.}..X|.Y.Z.F.'.F.[ ) F..X.X.X.X.X.X.X.X.X.X.X.X.X.X.XXXXXXX.X.X.X.X.X.X.XXXXXXXXXXXXXXXXX$X$X$X$X.XC.e.c.$X$X$X$X$X$X$X$X$X$X$X$X$X$X*X*X*X*X*X*X*X*X*X*X*X*X*X*X$X*X$X$X*X*X*X*X*X*X*X*X*X*X*X*X*X$X$X$X*X*X*X*X*X*X*X*Xb.a.N.#X$X$X$X$X$X$X$X$X$X$X$X$X$X$X$X$X$X$X$X$X$X$X$X$X$X.X.X.X.X.X.X.X#X#X#X#X.XU.[ 8.N.j.A.}..X}.}..X.X.X}.^.^.Z.8.x.^..X}.$X}.}.}.}.^.^.G.c.H.^.^.U.U.Z.k.s.b.F.H.U.H.H.H.H.Z.j.H.U.Z.U.U.G.F.F.G.H.U.U.H.H.H.H.J.H.H.H.H.G.F.N.b.C.Z.A.A.Z.Z.N.N.N.N.M.v.j.9.9.a.j.j.r.8.5.=.{ ) ) -.8.e.s.k.j.r.5.=.+.{ =.5.a.b.G.F.Z.N.F.k.>.@.r.A.F.F.G.U.U.H.F.N.j.9.<.+.+.-.,.<.e.s.s.k.v.N.j.b.F.j.x.D.U.Y.Y.!.U.^.$X=X.X%X4.1 > k..X!.^.XX*X,X.Xa.-.c * $ U v.Z.k.8.w.y = s ",
"O.8 % d j.c.j.j.8.c = , G e..X,XXXU.!.XX.XH.d $ E U.$X*X*X^.Y.|.}.^.U.A.b.s.k.v.v.N.v.s.9.e.e.r.>.^ +.e.s.M.F.F.H.^.}..X$X.X.X*X.Xc.5.-.e.Z.H.A.Z.k.8.=.+.@.w.j.c.v.b.b.s.e.,.{ [ +.,.9.e.a.j.k.k.s.a.f.k.M.Z.A.A.A.G.G.Z.Z.Z.N.N.Z.F.F.G.H.H.H.H.H.H.H.H.H.H.H.H.U.H.D.D.Z.b.Z.H.b.c.D.U.U.U.U.U.D.b.c.N.H.U.!.^.'.'.N.Z.Y.|..X.X.X.X.X.X|.'.N.9.v.'..X|. X.X.X.X.X'.G.N.U.|.e.E k.#X.X#X#X#X#X.X.X.X.X.X.X.X.X.X.XXXXXXX.XXXXX#X#X$X$XXXXX#X#X$X$X$X$X$X$X$X$X}.b.e.C.$X$X$X$X$X$X$X$X*X*X$X$X*X*X*X*X*X*X*X*X*X*X*X*X*X*X*X*X*X*X$X$X*X*X*X*X;X*X*X*X*X*X*X*X*X*X*X*X*X*X*X*X*X*X*X*XF.s.M.}.$X$X$X$X*X*X*X*X*X*X*X*X$X$X$X$X$X$X$X$X$X$X$X*X$X$X$X$X$X$X$X$X$X$X$X$X$X#Xs.[ N.A.c.U.}.'.|..X.X.X.X.X^.^.F.e.Z..X.X.X}.}.}.}.}..X!.Z.Z.H.}.^.U.U.F.x.x.N.H.U.U.H.H.J.F.j.b.F.M.k.N.Z.F.F.G.U.Y.Y.U.U.U.U.H.H.H.H.H.H.F.Z.C.Z.A.A.A.A.Z.Z.Z.Z.A.A.N.c.j.j.j.k.c.j.a.e.9.5.>.+.@.5.j.v.b.c.c.j.a.5.=.+.+.<.e.N.Y.A.N.v.<.@.r.F.Y.Y.'.}.}.'.Y.H.].F.M.j.8.=.+.=.>.5.e.a.k.v.M.k.v.F.c.a.N.F.U.Y.U.H.^.$X$X@X$X-.< 5 N.}.!.^..X*X<XU.5.{ t & 7 <.M.M.a.j.W < 8 G ",
"e.m % : ,.c.a.a.r.U : # c -.Y.;X#XH.H.|.}.^.m $ G H..X*X*X^.U.].Y.U.F.N.k.c.F.s.k.b.k.a.a.r.9.-.~ @.s.Z.F.F.Y.'..X.X$X$X$X.X}..X^.Y.k.9.8.s.A.F.v.5.#.@.=.e.v.N.Z.Z.N.M.s.3.@.{ -.5.9.9.a.s.k.k.s.s.k.M.A.F.I.I.G.G.H.H.F.A.A.Z.A.F.G.G.H.H.U.U.H.U.U.U.U.U.U.U.U.U.G.Z.D.C.G.G.b.N.H.^.^.^.U.H.F.b.b.Z.U.^.^.}.}.}.F.G.Y..X#X#X#X#X#X#X.X.XY.e.v.'..X.X.X.X.X.X#X#X'.Z.G.U.F.=.j.}.#X$X$X$X$X$X$X$X$X$X$X$X$X$X$X$X$X$X$X$X$X#X*X*X$X$X$X$X*X*X*X*X*X*X*X*X*X*XY.v.a.Y.*X*X*X*X*X*X*X*X*X*X*X*X*X*X*X*X*X*X*X*X*X*X;X*X*X*X*X*X*X*X*X*X*X*X*X*X;X*X*X*X=X=X=X;X;X;X*X*X*X*X*X*X*X*X*X*X}.s.M.Y.*X*X*X*X=X=X=X=X*X*X*X*X*X*X*X*X*X*X*X*X*X*X*X*X*X*X*X*X$X$X$X$X$X$X$X$X#X$X}.j.8.F.c.v.Y.}..X.X.X.X$X$X$X^.}.Z.s.G..X$X.X.X.X.X.X.X}.^.H.F.U.}.}.^.Y.F.b.b.A.U.U.H.U.U.U.H.s.b.F.N.j.c.G.U.U.Y.Y.Y.Y.Y.Y.U.U.U.H.H.H.U.H.F.A.A.F.F.F.A.A.A.A.A.Z.A.Z.N.M.c.k.j.k.c.v.k.s.r.e.5.-.-.9.k.v.v.M.M.b.j.a.5.+.+.-.v.G.M.k.9.{ 8.F.^.'.}.|..X|.'.^.^.'.].U.F.M.e.-.+.@.=.<.9.a.c.M.k.a.N.N.s.j.N.F.U.H.J.^.#X#X@X@X_ > t Z.^.!.^..X*X;XZ.<.U 3 & x a.M.f.j.t.y < k O.",
"a.-.8 = U j.a.f.k._ 0 # f { M.$X#XH.H.(.}.}.Z $ B H..X*X=XY.H.Y.U.H.A.b.c.N.v.6.j.v.j.e.8.5.-.E ) s.Z.U.Y.U.'.$X*X*X*X*X$X}.^.^.|..XA.a.5.9.j.Z.s.=.{ ,.s.M.N.F.F.A.N.M.r.>.@.<.e.a.j.a.a.a.j.j.a.v.Z.A.I.I.U.I.G.G.U.U.U.H.G.G.H.H.H.H.U.U.U.U.U.U.^.^.^.^.!.].!.^.!.H.b.U.^.F.N.H.}.}.}.^.U.H.N.b.Z.U.}.}.}.}..XF.F.}..X$X$X.X#X#X#X#X$X'.x.s.|.#X$X.X#X#X#X#X$X.XU.A.].Y.e.9.'.#X$X$X$X$X$X$X$X$X$X$X$X$X$X$X$X$X$X$X$X$X*X*X*X*X$X$X*X$X*X*X*X*X=X=X=X*X*X*XH.x.s..X*X*X*X*X*X*X*X*X*X*X*X*X*X*X*X*X*X*X*X*X;X;X;X;X*X*X*X*X*X*X*X*X*X*X*X*X;X*X;X;X=X=X=X;X;X;X*X*X*X*X*X*X*X*X*X*X$Xs.M.H.=X=X=X=X=X;X;X;X*X*X*X*X*X*X*X*X*X*X*X*X*X*X*X*X*X*X*X*X*X*X*X*X*X*X*X*X$X$X*X}.5.x.A.v.A.|..X.X.X$X$X$X.X.X.X}.b.s.^..X.X.X.X.X.X}.}.}.}.H.F.!..X}.Y.Y.H.N.N.F.H.!.^.^.^.!.G.c.Z.F.F.N.G.^.}.}.'.'.^.Y.Y.U.U.U.U.U.U.U.H.G.F.F.H.H.G.F.G.G.G.F.F.F.F.A.A.Z.v.j.k.v.b.M.v.k.j.a.j.9.9.a.a.v.N.Z.Z.M.b.j.5.=.=.j.k.e.e.@.=.M.U.Y.U.Y.^.'.}.}.}.}.}.}.|..XU.Z.a.=.[ _ { >.6.a.v.j.w.j.F.b.a.c.N.U.J.H.U..X|.@X|.E : d N.!.!.^..X*X;Xb.+.m - * H k.k.r.v.=.< t O.a.",
"f.f.U % w a.9.f.c.=.t + 0 ^ r.}.*XH.C.H.'.}.Z X c F..X$X*XU.F.U.H.Z.N.v.j.N.d.8.b.k.e.5.=.@.U ~ e.N.Y..X|.$X*X$X$X$X.X.X.X}.^.^.'.].G.k.5.=.<.v.<.{ <.j.M.A.F.F.A.N.c.e.5.5.e.s.c.b.M.M.Z.v.k.k.k.N.A.F.G.G.G.G.G.G.U.U.U.U.U.U.U.U.U.U.Y.U.U.U.!.^.^.^.^.^.^.^.^.}.H.F.U.U.F.Z.U.}..X.X}.!.G.N.b.Z.U.}..X}..X$XU.U.'..X$X$X$X$X$X$X#X#X#Xb.a.'.$X$X$X$X$X$X$X$X#X].A.G.].N.8.F.#X$X$X*X*X*X*X*X$X$X$X$X*X*X*X*X*X*X$X$X$X*X*X*X*X*X$X$X*X$X*X*X*X=X=X=X;X=X;X$XN.j.N.$X*X*X*X*X*X*X*X*X*X*X*X*X*X*X*X*X*X*X;X;X;X;X;X;X;X*X*X*X*X*X*X*X;X;X;X;X;X;X;X;X;X;X;X;X;X;X;X;X;X;X;X;X;X;X;X;X;XZ.v.F.*X=X$X;X;X;X;X;X;X;X;X;X;X;X*X$X*X*X*X*X*X*X*X*X*X*X*X*X*X*X*X*X*X*X*X*X*X$X$X$XH.5.Z.F.v.U..X}..X$X$X$X$X$X.X.X}.C.c.$X*X$X.X.X.X.X.X.X.X}.H.F.}..X}.^.^.H.N.N.F.U.^.^.^.^.^.H.G.U.U.U.H.F.Y.^.Y.^.'.^.Y.Y.U.U.U.U.U.U.U.H.H.H.H.H.H.H.H.U.H.H.H.H.G.G.F.A.N.v.k.k.v.N.M.N.M.k.j.k.a.<.<.k.Z.Z.Z.Z.N.v.a.5.<.9.<.8.5._ e.G.U.G.U.U.U.U.'.}.|..X#X#X#X#X|.}.G.b.[ _ +.{ -.9.j.j.8.e.M.Z.j.s.M.F.U.H.U.$X#X}.`.U = y b.H.H.^..X$X$Xs._ t - - [ c.p.9.v.V < E A.p.",
"a.j.3.w = ,.9.5.M.<.s % 1 E w.^.#XH.C.G.(.!.N X n F.|.$X.XH.F.G.F.N.b.x.k.b.8.8.k.5.+._ _ U U -.a.Z.Y..X$X*X=X*X.X.X}.^.^.^.^.^.].Y.U.v.5.@.=.j.#.,.k.Z.D.U.I.F.N.v.a.5.e.s.b.M.v.N.Z.Z.k.v.N.A.Z.F.G.H.U.U.U.U.U.U.U.U.U.U.U.Y.Y.Y.Y.Y.U.U.U.U.!.^.^.^.^.}.}.}.^.G.U.!.H.F.F.U.}..X.X.X}.H.Z.b.Z.U.}..X.X*X.XH.U.}.#X$X$X$X$X$X#X.X$X#XN.a.U.$X$X$X$X$X$X$X$X$X.XU.F.Y.Z.8.v.#X$X*X*X*X*X*X*X*X*X*X*X*X*X*X*X*X*X*X*X*X*X*X*X*X*X*X*X*X*X*X$X#X$X*X*X*X;X=X;X.Xb.j.F.=X*X*X*X*X*X*X*X*X*X*X*X*X*X*X*X*X;X;X;X;X;X;X;X;X;X;X;X;X;X;X;X;X;X;X;X;X;X;X;X;X;X;X;X;X;X;X;X;X;X;X;X;X;X;X;X;X,XH.v.A..X=X=X;X;X;X;X;X;X;X;X;X;X;X;X*X*X;X;X;X*X*X*X*X*X*X*X*X*X*X*X*X*X*X*X*X*X*X*X$X*Xc.s.Y.Z.N.^..X.X.X$X$X*X$X$X$X$X}.b.F.$X$X.X.X.X.X.X.X$X.X}.H.A.}.$X|.}.^.U.N.N.F.U.^.^.^.^.^.|.U.Y.Y.H.A.M.Y.}.^.Y.'.^.^.^.!.!.!.!.!.U.U.U.U.U.U.U.U.U.U.U.U.U.U.H.G.G.G.A.Z.b.c.k.k.N.Z.A.N.N.M.k.e.5.r.v.Z.Z.Z.Z.M.M.a.=.<.,.<.@._ s.G.G.A.U.U.U.U.}.|..X.X#X#X#X#X.X}.Y.J.k.[ ~ _ _ =.8.s.e.e.j.N.v.j.v.Z.H.G.U..X|.T.`.E : t j.H.H.^..X$X.Xa.^ 9 > 6 #.a.8.s.r.t c s.N.9.",
"a.f.s.H % U 9.4.N.<.d % : J 5.Y.|.H.C.A.^.H.m X N H.|.#X^.F.A.F.Z.b.x.s.k.s.3.e.a.{ U G G U =.9.x.Z.U.}.$X%X$X.X}.!.^.^.^.^.{.^.Y.U.A.j.,._ ) 8.-.r.Z.F.U.U.F.N.c.a.9.9.c.M.N.v.v.F.A.k.j.M.F.U.F.H.U.U.U.U.!.U.Y.Y.].].].].].].^.^.^.^.Y.Y.Y.Y.^.}.}.}.}..X|.^.H.U.}.H.Z.G.^.^..X.X.X^.H.Z.C.D.U.}..X$X*X.XH.F.|.$X*X*X$X$X$X$X$X$X$XY.j.F..X*X*X*X*X=X*X%X$X$X'.F.U.U.s.r.'.*X=X;X;X;X;X;X;X;X*X*X*X*X;X;X;X;X;X;X;X;X;X;X;X=X=X;X;X;X;X;X$X$X*X*X*X*X;X*X>X'.s.c.}.;X=X=X;X;X=X=X;X;X;X;X;X;X=X=X=X=X=X=X=X=X;X;X;X;X;X;X;X;X;X;X;X;X;X;X;X;X;X;X;X>X>X>X>X>X;X;X;X;X;X;X;X;X;X;X;X;X;X|.v.A.Y.=X>X;X>X>X>X>X;X;X;X;X>X;X,X;X;X;X;X;X;X;X;X;X;X;X;X;X;X;X;X;X=X=X=X=X=X*X*X*X=X.Xs.A.Y.b.G..X}..X$X*X*X$X$X$X$X.X^.N.!.$X$X.X$X$X$X$X$X$X.X.XG.U.|.$X.X|.}.Y.Z.Z.H.U.^.}.}.}.|.^.F.Y.U.Y.N.N.'.'.'.}.}.'.^.^.^.^.^.^.^.^.^.^.Y.Y.Y.Y.Y.Y.Y.U.U.U.H.H.H.H.G.F.A.Z.M.k.k.M.Z.F.A.Z.v.a.9.8.r.c.N.Z.Z.Z.Z.k.5.5.<.<._ _ a.Z.A.F.U.H.U.H.Y.^.}.}.|.|.|.|.|.Y.Z.v.A.4.B U I I _ 9.r.9.e.c.N.v.v.M.A.G.H.^.|.Y.'.^ > 9 r.F.F.!..X.X|.9.E 3 > p -.9.-.k.+.4 Q A.5.~ ",
"8.s.r.O.= d 4.4.M.<.s % % D 3.U.}.H.C.Z.^.F.c X N H.}..XU.F.A.Z.N.x.s.r.j.w.8.s.<.U c h n ^ <.a.c.N.H.}.#X#X|.^.!.!.^.^.^.^.{.^.Y.G.b.8.{ ~ E =.3.j.F.F.U.I.B.v.e.5.9.s.x.j.c.M.G.N.k.a.v.A.G.G.H.U.U.U.!.!.!.!.].].].].].].].].^.^.^.'.'.'.'.'.^.}.}.}.}..X^.G.H.}.^.H.H.H.!..X.X.X}.U.N.b.Z.^.}..X$X$X*XG.D..X$X*X*X*X$X$X$X$X;X*X|.k.F.#X$X*X*X*X*X=X*X%X$X$XU.G.].v.r.Y.*X$X;X;X;X;X;X;X;X;X;X;X;X;X;X;X;X;X;X;X;X;X;X;X;X=X=X;X;X;X;X;X;X=X;X;X;X;X;X*X;XY.j.Z..X*X;X;X;X;X;X;X;X;X;X;X;X;X;X;X;X=X=X=X=X=X;X;X;X;X;X;X>X>X;X;X;X;X,X,X>X>X;X;X>X>X>X>X>X>X;X;X;X;X>X>X>X>X;X;X;X;X,X*XM.A.F.=X5X;X>X>X>X>X>X>X>X;X;X;X,X,X;X;X;X;X;X;X;X;X;X;X;X;X;X;X;X;X;X;X;X;X=X=X=X*X;X*XH.j.^.F.N.'.^.}.$X*X*X*X*X$X$X*X.XH.b..X*X$X$X$X$X$X$X$X*X$X$XH.F.#X$X#X.X.X}.H.H.H.^.}.}..X|..X.XY.U.F.'.A.F.|.#X#X}.}.^.^.^.^.^.^.^.^.(.^.{.}.^.^.Y.Y.Y.Y.U.U.U.U.U.U.H.H.Y.H.F.Z.j.s.M.F.F.N.v.j.9.8.8.9.k.M.Z.Z.Z.v.k.s.@.@.~ _ 9.c.M.A.H.H.H.H.G.H.U.U.Y.Y.Y.Y.}.D.s.3.5.3.N s h s m =.9.e.9.a.N.N.v.c.M.F.H.Y.'.U.`._ > 5 8.Z.F.!.}..X'.8.J : * 6 @.9.-.p.U 5 =.9._ ~ ",
"5.5.,.5.8 > =.,.v.@.4 % @ U w.U.'.U.Z.F.Y.v.t . G U..X}.H.Z.N.N.k.a.9.8.9.a.a.5.W N d 5 9 Z @.6.s.v.F.'.}.Y.Y.U.J.J.H.H.H.J.J.H.Z.c.8.{ W ~ E U ,.k.M.A.A.v.k.5.>.5.a.k.v.Z.F.A.N.j.j.N.H.U.Y.^.^.^.Y.^.^.^.^.^.^.^.(.(.(.(.(.(.}.}.}.}.}.}.}.}.}.}.}..X.X(.F.H.'.^.Y.U.U.^..X$X$X}.H.Z.F.U.Y.}.$X;X*X;XG.Z.#X$X*X*X*X*X*X*X$X$X*X#XM.B.$X$X$X$X=X=X=X=X*X=X.XU.A.U.G.w.G.*X>X*X*X;X;X;X;X;X;X;X;X;X;X;X;X;X;X;X;X;X;X;X;X;X;X;X;X;X;X;X;X>X>X>X,X,X,X,X;X*X*XY.c.(.*X*X=X=X;X>X>X>X,X,X>X,X>X>X>X>X;X>X>X;X;X;X;X;X,X>X,X,X,X,X>X>X>X>X>X>X,X,X,X,X>X>X,X,X,X,X,X,X,X,X,X,X,X,X,X,X,X,X,X$XF.F.A..X,X;X,X,X,X,X,X,X,X5X>X>X,X,X,X>X>X>X>X>X>X>X,X>X>X>X>X;X;X;X;X;X;X;X;X;X=X=X=X>X$XZ.M.'.M.Z.}..X$X;X;X;X;X;X;X=X*X*XD.Z.$X;X;X*X$X$X$X$X$X$X;X.XH.F.$X$X.XXX$X}.G.Z.U.}.#X$X.X.X.X!.H.Z.Z.U.H.H.}..X.X.X.X.X.X.X.X}.}.}.}. X}.}.}.^.^.].].].!.!.!.!.!.U.U.U.U.U.U.U.Z.k.e.v.F.N.b.b.b.a.5.,.3.e.k.v.G.j.9.9.^ [ ^ ^ #.8.s.b.Z.F.F.F.H.G.F.F.F.H.U.U.U.N.s.6.4.@.H 8 2 w 0 N @.8.e.e.k.Z.v.p.d.N.U.H.'.U.T.-.1 4 =.Z.D.U.}.}.H.e.Z 1 * 6 { 8.-.=.w d =._ N 4.",
"M.5.) e.y $ ) =.c.^ 0 = . U r.U.'.U.Z.F.H.s.9 X ^ ^.'.^.N.b.b.c.a.r.e.e.k.a.r.^ N m q = : s G [ 3.y.v.N.G.I.U.G.G.G.G.G.H.H.F.N.j.<.{ ^ { -.@.T ~ -.e.k.k.e.,.[ +.,.a.v.A.A.Z.k.a.k.A.Y.U.Y.^.'.'.'.'.^.^.^.^.^.(.(.'.'.'.'.'.'.}.}.}.}..X.X.X.X}..X.X.X}.F.H.}.}.'.'.'.}.#X$X$X'.H.N.N.U.'..X#X%X*X;X}.Z.#X$X*X*X*X*X=X=X*X=X%X=XF.N.#X*X*X*X*X=X=X=X=X;X#X}.N.G.}.x.r.#X>X,X;X;X;X;X;X;X;X>X>X>X;X;X>X>X>X>X>X>X>X>X>X>X>X,X,X,X,X,X,X,X,X,X,X,X,X,X,X,X*X*XU.N..X=X=X=X;X>X,X,X,X,X,X>X,X,X,X,X,X>X>X,X,X,X,X,X,X,X,X,X,X,X,X,X,X,X,X,X,X,X,X,X,X,X,X,X,X,X,X,X5X5X5X,X,X,X,X,X,X,X,X,X;X^.Y.G.Y.,X;X,X,X,X,X,X,X,X5X>X>X>X>X,X>X,X>X>X>X>X>X,X,X>X>X>X>X>X;X;X;X;X;X;X;X>X>X>X>X;X}.v.U.^.b.U..X}.*X;X;X;X;X;X;X;X*XXXC.Z.*X>X;X*X$X$X$X$X$X;X*X}.H.H.$X.X#X}.Y.U.F.F.U.|.#X$X$X.X^..X.XU.D.Y.U.G.^.}..X.X.X.X.X.X.X.X.X X X.X X X}.(.(.(.(.(.(.^.^.^.^.].].Y.Y.U.U.U.A.v.e.x.A.F.A.N.s.5.=.+.=.5.a.j.,.) ^ ^ =.@.[ ^ { ,.w.k.Z.F.F.H.F.F.A.Z.G.H.F.M.v.s.5.+.~ Z s e w 8 0 G @.5.5.a.M.M.j.a.v.B.F.U.F.I.5.4 > ^ Z.Z.U.}.^.^.r.H < - 4 _ 5.<.U : h +.~ ~ p.",
"A.5.W 9.s + G =.a.B 5 = + ^ j.H.^.H.N.A.U.5.: . >.}.U.H.N.b.k.r.5.j.M.Z.a.5.) d h 9 % % = 4 d B ~ @.e.v.N.D.G.H.G.G.F.G.F.N.x.8.-.+.{ -.8.a.s.r.5.3.5.e.5.[ ~ +.e.a.j.M.Z.v.a.r.M.F.Y.Y.Y.^.}.}.}.}.}.'.'.'.}.}.}.}.|.|.}.}.}.}..X.X.X.X.X.X$X.X.X.X$X.XH.H..X}.}.|..X.X$X*X*X$X^.H.G.U.'.#X$X$X*X>X#XA.'.;X=X*X*X*X=X=X=X=X=X=X'.N.#X;X=X=X*X*X=X=X=X=X*X'.G.Z.|.F.e.H.=X>X>X>X>X>X>X>X>X>X>X>X;X;X;X;X>X>X>X>X,X>X>X>X>X,X,X,X,X,X,X,X,X,X,X,X<X<X,X,X<X*X$XU.F.*X;X>X;X,X,X,X,X,X>X>X>X>X,X,X,X,X,X,X,X,X,X,X<X<X,X,X,X,X,X,X<X<X<X<X<X<X<X<X<X<X<X<X<X<X,X,X<X<X<X<X<X<X<X<X,X,X,X,X5X5X$X'.^.H.;X<X,X,X,X,X,X,X,X,X,X,X,X>X>X>X,X,X>X>X;X;X,X,X,X>X>X>X>X>X>X>X>X>X>X>X>X,X,X>X,X=XY.v.^.A.A.'.^..X*X*X;X;X;X;X;X;X;XXXb.H.=X>X;X*X*X*X*X*X;X*X*X.XH.U.}.XX}.}.'.Y.G.F.U.}.$X$X$XXX$X*X$X^.U.|.!.H.^..X$X.X.X.X.X.X.X.XXXXXXX.X X}.}.}.}.}.'.'.}.}.^.^.(.(.^.^.Y.Y.Y.U.U.A.a.k.F.U.Z.k.8.=.+.{ [ @.@.<.8.8.9.k.a.8.@.[ [ @.<.a.b.N.F.F.A.A.Z.F.A.M.k.k.3.R m s s d s d s 1 4 m [ >.4.s.v.s.9.a.c.A.I.A.B.k.w = N b.Z.H.^.^.^.t.W 3 < < ~ 5.4.N + t { <.r.r.",
"a.-.{ 9.q @ n >.5.s 1 * = +.b.F.U.F.N.N.N.[ @ = e..XF.F.N.c.e.=.9.F.M.e.5.) y w 5 % 4 x N H E ^ U / +.5.M.N.Z.F.F.G.F.F.b.s.<.[ ^ @.9.a.k.N.F.A.v.7.3.,.-.@.@.p.s.M.N.N.v.a.a.M.U.Y.'.}.^.}.}.}.|.|.|.|.|.|..X.X.X.X.X.X.X.X.X.X.X.X.X.X.X$X.X.X.X*X.X^.^.}.U.^.|..X#X$X=X=X$X.XG.G.U.Y.#X$X*X=X,X#XH.Y.*X;X*X=X*X*X=X=X=X=X=X=XM.@X;X>X;X;X;X;X=X=X=X=X]..Xk.G.}.s.v.$X;X;X;X>X>X>X>X>X>X>X>X>X;X;X>X>X,X,X<X<X<X<X<X,X,X,X,X,X,X,X,X,X,X,X,X,X<X<X,X,X<X*X#XH.U.*X;X,X,X,X,X,X<X,X>X>X>X,X<X<X<X<X<X<X<X<X<X<X<X<X<X<X<X<X<X<X<X<X<X<X<X<X<X<X<X<X<X<X<X<X<X<X<X<X<X,X,X<X<X<X<X<X6X6X5X5X=XY..X^..X;X,X,X,X,X,X,X,X,X,X,X>X>X>X,X,X,X>X>X>X;X,X,X>X>X>X>X>X>X>X>X>X>X>X>X>X,X5X>X5X>X$XF.N.'.N.F.|.^..XXX*X*X;X>X;X>X<X;X}.c.'.=X>X;X;X;X;X;X;X;X;X;X.XZ.U.}.#X.X.X|.Y.G.F.U.}.$X*X;X*X*X*X$X'.'..X}.U.}..X$X$X$X$X$XXX$X$X$XXXXX.X|..X|.|.|.|.|.}.}.}.}.}.}.'.'.^.^.U.Y.H.H.F.a.r.v.F.N.a.5.<.>.@.{ +.=.9.k.F.H.M.c.a.<.[ ^ ^ =.9.j.N.A.A.A.Z.F.N.s.5.5.-._ [ _ ^ Z M M x 0 4 s Z ) -.9.r.9.8.9.a.M.I.B.A.v.h = u s.N.H.^.U.U.t._ 9 3 > E 5.9.B + 1 =.Z.Z.0.",
"8.5.5.-.> $ Z 5.@.q 4 $ q e.b.Z.Y.F.N.N.N.Z X y Z.^.F.A.c.e.@.=.b.j.5.{ W n W _ d B @.e.s.c.N.A.b.e.-.,.r.N.A.F.F.H.N.a.5.{ ~ ^ -.e.k.M.Z.U.'.U.e.3.3.7.5.e.s.x.j.k.N.M.j.v.Z.Y.'.'.'.}.}.}.|.|.|.|..X.X.X.X.X#XXXXXXXXXXXXXXXXX.X.X.X$X$X$X$X$X$X$X^.^..X^.U.}.$X$X*X;X*X$X}.H.H.U.^..X*X=X=X>X$XU.U.*X;X;X;X;X;X;X;X>X;X>X%XB.@X=X;X=X;X*X*X*X=X*X#XU.|.F.k.|.N.s.}.;X;X;X,X,X>X>X>X>X<X<X<X<X>X>X>X>X<X<X<X<X<X<X<X<X<X,X,X,X,X,X,X,X<X,X<X<X<X<X<X,X,X#X.XH.!.*X,X,X5X5X<X<X<X,X,X>X>X,X<X6X<X<X<X6X<X<X<X<X<X<X<X<X<X<X<X<X<X<X<X5X6X6X6X<X<X<X6X6X6X6X6X6X6X6X<X>X,X<X<X<X<X<X<X<X5X7X4XR.#X.X}.;X<X6X6X6X5X5X5X5X5X5X5X5X,X,X,X,X,X,X,X,X,X,X,X,X>X,X>X>X,X,X,X,X,X,X,X,X5X5X5X5X,X.XM.'.U.s.Y.#XXXXXXX|.;X;X<X0X;X6X;X!.N..X>X>X;X;X;X;X;X;X;X;X;X XH.H.#X$X$X$X.X^.U.U.^.$X;X*X,X;X$X.X$X}.^.^..X^..X$X;X*X$X$X$X$X$X$XXXXX.X.X.X.X.X.X.X.X}.}.}.}.}.}.|.|.}.'.^.^.Y.U.H.F.v.e.a.c.b.k.j.j.e.5.<.=.-.k.U.U.Z.N.M.c.r.<.W E ~ =.9.c.N.N.F.Z.w.-.,.a.c.c.N.B.M.e.-._ J J H U G U ^ ,.5.5.,.7.e.M.A.B.m.A.m = 3 <.Z.D.U.H.U.x.<.x > > N <.9.Z $ 1 =.G.j.+.",
"5.a.k.) % 9 W <.^ r < * A s.n.D.U.F.A.A.9.q X U H.F.N.N.r.@.{ w.j.5.[ E Z W <.W E -.a.b.A.U.'.}.$X*X.Xc.e.k.N.Z.Z.k.5.[ T U _ 3.e.k.M.A.U.'.U.v.6.9.e.a.s.M.F.Y.U.S.k.s.N.F.].^.}.|.|.|.|.|..X.X.X.X.X.X.X.X#X#XXXXXXXXXXXXXXXXX$X$X$X$X$X$X.X.X$X^.^..XU.U.}.$X$X*X;X;X$X}.H.H.U.^..X$X$X;X;X*XG.U.*X=X;X>X>X>X,X,X,X,X>X>XF.U.>X4X>X=X}.{..X;X=X$X'.#X#XM.G.].s.H.;X5X,X5X5X5X<X<X<X<X<X<X<X<X,X,X<X<X<X<X<X<X<X<X<X<X<X,X,X,X<X,X,X,X<X<X<X<X<X5X<X5X5X#X.XU..X;X<X,X5X5X<X<X,X,X5X>X;X;X,X<X6X<X6X6X6X<X,X<X<X<X6X6X<X<X<X6X<X<X<X5X6X6X6X<X<X6X6X0X6X6X6X6X6X6X6X,X<X<X6X6X6X6X6X6X6X7X5X}.}..X.X=X6X0X0X0X7X7X7X7X6X6X6X6X6X6X6X6X6X6X6X6X6X6X6X<X<X<X<X<X<X<X<X<X<X<X,X<X7X7X6X6X5X$XM.A.|.x.x.{.*X;X;X=X*XXX*X;X;X,X6X;XY.G.$X5X;X;X;X;X;X;X;X;X>X*X}.H..X*X$X;X*X.X^.U.H.^.$X;X;X;X*X$X$X$X}.^.^.}.!.}.$X$X$X$X$X$X$X$X$X$X$X$X$X$X#X#X.X.X.X.X.X.X.X.X.X|.|.|.}.'.^.^.^.U.H.F.x.j.N.U.U.G.N.k.a.8.-.8.N.G.U.F.A.N.v.k.>.) U U _ 5.k.N.N.x.,.<.b.U..X}.|.@X|.U.k.-.^ E +.{ ) G G ~ -.5.5.@.3.k.B.B.M.A.W > $ E N.N.G.H.U.k.w.^ : > x ,.r.U @ % ) Z.j.@.",
"9.j.j.A + y ) @.H t < q <.c.c.Z.F.F.N.b.E @ : 3.H.N.b.s.=.[ =.5.<._ Y U Y ~ E ~ 9.x.N.H.U.^.}..X;X6X0X.X8.t.v.v.r.=.~ J G _ 5.f.k.N.F.U.Y.U.M.e.e.a.k.N.A.U.'.|.U.v.j.F.].^.'.^.|.|..X.X.X.X.X.X.X.X#X#X#X#X$X$X$X$X$X$X$X$X$X$X$X$X$X$X$X$X$X.XG.^.}.H.^.}.$X;X*X;X;X*X}.H.H.U.^..X$X*X*X;X>XG.G.*X=X;X,X>X>X>X,X,X>X>X;XY.B.%X7X5X>X;X}.}..X$X$X|.$X#XF.Z.^.v.b.*X5X;X,X,X,X,X>X,X>X>X<X<X<X<X<X<X<X<X<X,X<X<X<X<X<X<X<X<X<X<X<X<X,X,X,X,X,X<X<X<X,X,X$X].$XU.;X,X<X,X,X5X<X<X,X,X,X,X,X,X<X<X6X6X>X>X<X6X<X<X<X6X6X6X5X5X5X<X6X<X<X5X6X6X6X6X<X<X6X6X6X6X6X6X<X<X<X<X<X<X<X<X<X<X<X6X6X7X7X%X^..X.X.X6X6X6X6X6X6X6X6X5X5X5X5X,X,X,X,X<X<X<X,X<X<X<X,X>X>X>X>X>X>X,X>X,X>X,X,X,X,X,X,X,X*XA.A.N.F.r.F.$X;XXX(.}.!.^.#X;X,X,X<X>XY.Y.*X>X>X>X>X;X;X;X;X>X;X*X{.U.$X;X$X;X*X.X^.H.H.^.$X;X;X*X*X$X$X$X.XH.Z.F.D.{.$X$X*X$X$X$X$X$X$X$X$X$X$X$X$X$X$XXX.X.X.X.X.X.X.X.X|.|.|.}.'.}.'.^.U.U.N.Z.U.'.}.].G.N.j.8.<.a.N.U.H.H.F.N.M.v.8.{ U A ~ ,.j.x.e.<.M.'..X#X.X.X.X}.Y.F.k.9.{ { +.+.W H Z E @.3.@.+.5.M.D.M.N.>.5 @ h j.b.Z.H.U.v.a.5.q : q { a._ % @ G c.k.=.",
"r.k.e.y . 4 ^ [ Z r < N x.N.b.Z.F.A.c.e.t $ x j.M.N.v.>.[ { >.{ ^ H Z G G W +.a.k.N.U.'.}..X$X;X*X,X6X,Xj.r.k.a.O.J B A -.9.k.N.Z.G.Y.].F.k.0.9.e.s.M.U.Y.Y.Y.Y.k.s.N.].^.^.'.}..X.X.X.X.X.X.X.X.X.X#X#X$X$X$X$X$X$X$X$X$X$X$X$X$X$X$X$X$X.XU.Z.^.}.D.^.$X$X*X*X;X;X*XXXH.H.U.^..X$X*X*X5X,XU.A.=X>X>X;X,X,X,X>X>X>X,X,X'.M.$X5X7X5X,X>X;X,X*X^.U.;X=X.XZ.Y.Y.M.H.|.#X$X=X=X=X;X;X;X;X;X$X$X$X$X$X$X$X$X$X$X$X$X$X$X*X*X;X;X;X;X;X;X;X;X;X;X>X,X>X>X;X*XF.(..X^.;X6X<X<X<X5X<X<X<X,X,X,X<X<X<X<X6X,X=X$X=X<X5X,X,X5X5X5X,X,X,X,X,X,X<X<X<X<X<X6X6X,X=X;X<X6X6X6X<X;X,X<X<X<X<X<X<X<X<X6X,X5X7X>X}.$X|.!.;X>X>X>X>X>X>X>X>X>X;X;X;X;X;X;X>X>X>X>X;X>X;X;X;X;X;X;X*X;X;X=X=X=X>X>X;X;X;X;X;X#XU.#XY.^.G.c.Y.XX*X.X.X.X$X;X,X;X;X;X7X=XY.Y.,X,X,X,X;X;X;X;X>X;X;X$XH.F.$X*X*X;X*X.X^.H.H.^.$X*X;X;X*X*X*X*X$XU.H..XJ.{.$X;X$X$X$X$X$X$X$X$X$X$X$X$X$X$X$X$X$X$X$X$X#X#X.X.X.X|.|.}.'.^.^.^.Y.U.Z.v.U.'..X|.U.M.a.8.8.s.b.F.H.G.F.Z.N.Z.k.<.U m U -.8.>.<.H.$X#X#X$X=X#X'.U.G.U.A.a.=.+._ ~ ~ B j A @.3.[ +.k.D.M.M.j.h $ > >.j.b.F.U.M.s.e.A < 4 U a.=.< % n j.k.-.",
"j.j.{ > X 5 ^ ^ B 9 t <.N.c.b.N.M.M.k.^ : < ^ v.c.C.q.) Y Q T Z c y j H +.5.a.v.Z.H.^..X*X;X;X;X=X>X.X$Xv.8.e.{ m j G 4.s.M.A.G.Y.|.].M.r.8.8.a.x.N.U.'.|.'.F.a.c.Z.Y.}..X.X.X.X.X.X.X.X#X#X#X#X#X#X$X$X$X$X$X*X$X$X$X$X$X$X$X$X*X$X$X$X.XU.j.^.^.H..X*X;X*X*X;X;X*X XJ.Y.Y.}.XX;X*X;X<X<XU.F.;X5X5X5X5X,X,X,X,X,X>X6X.XZ..X6X7X5X5X5X5X6X6X>X$X#X;X=XY.F.U.^.^.Y.{.XX$X$X*X;X>X;X;X;X;X;X;X;X;X;X;X;X;X;X;X;X;X;X;X>X>X;X;X,X,X,X>X,X>X>X>X>X>X>X>X5X$XH.*X(.'.,X<X<X,X;X$X$X;X<X<X<X,X,X<X,X,X,X;X=X>X=X>X>X=X;X>X>X>X;X;X;X;X;X;X;X>X>X;X;X<X,X;X*X,X0X0X,X>X,X<X<X<X<X<X<X<X,X>X;X*X;X5X7X5X^..X.X^.}.>X0X0X,X,X,X,X>X>X>X>X;X;X;X;X;X;X;X;X;X;X;X;X;X;X;X;X*X;X;X=X=X=X;X;X;X;X;X*X;X.X#X;X|.|.$XF.b. X<X$XXX;X6X6X,X,X,X,X,X6X;XH..X,X<X,X>X>X>X;X>X>X>X;X$XH.U.=X;X;X$X.X.X'.Y.U.}.$X>X5X>X;X;X;X>X$XY.^.*X^.^.*X*X*X*X*X$X$X$X$X$X$X$X$X$X$X$X$X$X$X$X$X$X$X#X.X.X.X.X}.}.}.^.^.!.U.H.Z.x.F.^.'..XU.N.x.y.9.8.r.N.H.Y.G.H.F.Z.v.5.E B U [ { 5.'.,X#X$X=X=X=X$X#XY.G.G.M.k.8.{ U A G B y f Z ^ ) +.a.M.k.b.{ 4 * N e.c.Z.H.N.j.a.5.j < n <.5.q X q <.a.9.",
"N.s.Z @ $ x [ ^ N t ) b.c.c.b.C.k.M.5.h % N 8.j.j.8.@.G j e q q y c U _ <.s.b.Z.F.^..X;X,X;X;X;X*X.XA.G.v.-.) N x E 9.M.Z.G.Y.'.'.U.v.8.<.5.a.v.Z.U.Y.U.Y.N.s.M.A.^.|..X.X.X#X#X#X#X#X#X#X#X$X$X$X$X$X$X$X*X*X*X$X$X$X$X$X$X%X$X*X*X$X$X.XD..XD.M.*X>X*X*X*X;X;X;XXXY.J.Y.}.XX*X*X;X<X,XH.H.;X,X5X5X5X5X,X,X,X,X5X7X$XZ.}.,X6X,X<X<X5X5X<X,X;XXX;X;X}.A.H.|.=X;X;X>X<X<X;X;X;X;X>X>X>X>X>X>X>X>X;X;X;X;X>X>X>X>X;X;X;X;X;X;X;X;X;X;X;X>X,X<X<X<X6X<X,X$X^.;X(.}.;X;X;X;X$X X XXX$X$X$X$X$X$X$X$X*X*X*X=X=X*X#X*X;X%X%X%X%X%X%X%X$X$X$X$X$XXX$X$X*X$X*X*X$X#X+X+X$X$X*X*X*X$X$X$XXXXX.X X;X,X5X,X;X>X;X.X$X;X;X;X;X;X;X;X;X;X;X;X;X;X*X*X$X$X$X*X%X%X%X%X;X;X;X;X*X*X*X*X*X*X*X*X*X*X*X$X}.Y.}.#X%X;X>X$XZ.J.*X;X X>X6X,X,X,X,X,X,X6X<X.XH.$X6X,X>X>X>X>X>X>X;X;X;X*XU.U.*X;X*X*X*X.X'.^.Y.}.*X>X,X>X;X;X;X=X$XH.^.*X^..X*X;X;X;X;X;X$X$X$X$X$X$X*X$X$X$X*X$X$X$X$X$X$X$X.X.X.X.X.X}.}.}.}.^.!.H.F.k.j.F.U.Y.U.F.v.a.8.<.8.c.H.}.Y.H.F.F.N.8.W N A E @.G.;XN..X>X;X>X=X=X#X].G.S.F.v.5.{ Z j h N x t d R ^ _ e.a.M.e.N : < @.x.N.F.Z.v.s.s.[ t q _ 8.B X 1 +.9.e.",
"j.<.9 @ y ) [ J x W s.v.c.v.b.v.j.9.Z * y { a.9.<.[ U y : 4 t N E W [ <.r.v.N.H.^..X;X,X,X;X*X*X#X.XA.F.j.U x x { k.H.G.Y.^.|..XG.k.8.5.8.j.N.F.U.|.|.Y.v.s.N.Y.'..X#X#X#X#X$X$X$X$X$X$X$X$X$X$X$X$X*X*X*X*X*X*X$X$X$X$X$X$X$X$X*X*X*X$X!.;XH.c.*X;X*X*X*X*X;X;XXX{.Y.^.}.XX*X;X;X,X;X}.F.;X<X5X5X5X5X,X,X,X,X5X7X>XF.}.,X<X0X<X<X<X<X<X,X*XXX X;X.XZ.F.*X>X5X>X<X<X;X}.}.*X,X<X<X<X<X<X<X<X,X,X,X,X,X,X>X;X;X;X;X;X;X;X;X;X,X,X,X>X>X>X,X,X,X<X<X>X;X*X;X<X<X>X,X,X,X,X>X>X>X>X;X;X>X>X,X,X,X>X;X;X;X;X>X>X.X*X;X;X;X;X;X;X;X;X;X;X;X;X;X;X;X>X;X*X>X;X;X;X,X<X,X,X<X<X<X,X,X,X<X,X,X>X,X5X6X5XqX0X6X,X6X6X,X,X>X,X,X>X>X>X>X>X,X,X,X,X,X,X,X,X>X>X>X>X,X,X,X>X,X,X,X,X,X,X,X<X6X6X6X,X,X;X;X;X>X0X6X<XJ.b.{.*X X;X,X,X,X,X,X,X,X,X,X,X.XU.*X,X>X>X>X>X>X>X;X;X5X>X*XH.!.*X,X;X;X*X.X'.^.^..X*X,X,X>X;X;X*X$XU.j.^.;XU..X*X;X;X;X;X;X;X;X;X;X;X*X*X*X*X*X*X*X$X$X$X$X$X$X$X.X.X.X.X.X.X.X}.}.^.^.F.b.j.N.G.Y.U.G.N.j.e.<.8.s.F.Y.Y.U.H.U.Z.e.^ N A ^ a.^.3.U.>X=X=X;X>X=X#X^.U.U.A.k.8.{ B w q 0 < 8 q y m ) <.9.s.@.y $ d 8.v.N.Z.N.j.s.a.^ y ^ 5.W = + n =.e.",
"j.Z > t E 5.^ N E s.Z.M.b.M.c.a.5.U < 5 Y >.<.+.E j 5 < c E H W ~ _ ,.a.k.N.H.Y..X;X,X;X;X;X*X*X.X#XN.s.-.x n +.k.F.U.U.|.'.|.H.j.<.<.a.c.G.^.^.}.}.G.k.r.F.'.}..X#X$X$X$X$X$X$X$X$X$X$X$X$X*X*X*X*X*X*X*X*X*X*X;X$X$X$X$X$X$X$X*X*X*X}.6XU.b..X*X$X$X*X;X;X;X$X^.Y.{.}.XX*X;X>X,X;X}.Z.;X,X<X>X5X5X5X,X,X,X5X5X4XI.'.5X,X,X<X<X<X<X<X<X>X#X}. X$XF.k..X,X6X6X,X<X6X;X.X$X6X0X6X6X6X6X6X5X5X5X5X<X<X<X6X<X<X0X0X0X0X0X0X0X0XqX0XwXwXwX6X6X6X6X6X6X5X0X6X6X0XqX0X0X0X0X0X0X0X0X6X0X0X0X0X0X0X0X6X6X6X6X6X,X6X*X*X>X>X>X>X>X<X<X<X;X;X>X>X;X;X;X,X$X.X6X0X0X0X0X0X0X0X0X0X0X0X0X0X0X0X0X0X6X6XrX0X0X0X0X0X0X0X6X0X0X0X0X0X0X0X0X0X0X0X0X0X0X6X0X6X6X<X<X<X5X6X6X<X<X<X<X<X,X,X<X<X6X0X6X,X;X;X,X,X0XwX6X6X$Xs.N. XXXXX*X6X,X,X,X,X;X;X,X6X6X.XH.;X>X>X>X>X>X>X>X;X;X,X;X$XH..X,X,X;X;X;X#X}.'.'..X;X,X5X>X>X$X'.|.H.N.^.;X^.}.$X*X;X;X;X;X;X;X;X;X*X*X*X*X*X*X*X*X*X$X$X$X$X$X$X$XXX.X.X.X.X.X.X}.}.'.H.M.k.M.G.U.'.U.Z.c.9.3.5.r.A.^.'.Y.U.H.H.M.#.Z A _ c.>.F.^.#X$X=X=X=X=X*X.XU.G.A.v.8.@.Y n t t c x > 1 h ^ @.5.9.W 4 = B 9.b.N.N.v.d.s.9._ _ 5.{ B s h ~ ,.",
"+.x f U 5.e.@.[ x.A.Z.F.b.a.a.<.A < < N ) +.) n q $ $ < h Z U ) #.>.<.w.j.A.'.#X;X,X,X;X;X*X*X$X$X'.9.U A J >.x.F.H.U.}..XY.N.e.>.3.e.v.G.].|.|.Y.Z.c.c.F.Y.|..X$X$X$X$X$X$X*X*X*X*X=X=X*X*X*X*X*X*X*X*X*X*X*X*X*X;X;X;X;X;X;X*X$X;X$X;X.XH.}.$X*X$X*X;X;X,X*X'.Y.{. XXX$X;X;X,X,X}.F.*X<X<X<X<X5X5X<X<X6X5X7X5XI.`.4X5X6X6X<X<X<X<X6X5X,XU.F.#X|.x.G.>X6X6X6X7X,X<X>X$X;X<X,X>X<X<X<X<X<X<X<X<X,X,X,X,X,X,X,X,X6X6X6X6X6X6X6X6X6X6X<X6X6X6X6X6X6X6X6X6X6X6X6X6X0X0X0X0X6X0X0X6X6X6X6X6X6X6X6X6X0X0X0X0X<X0X*XH.;X>X>X>X>X$X;X;X>X>X>X>X;X;X>X>XH.U.6X6X0X0X0X0X0X0X0X0X0X0X0X0X0X0X0X0X0X0X0X0X0X6X6X<X6X6X0X0X6X6X6X6X6X6X6X6X6X6X<X<X<X<X<X,X,X<X<X<X<X,X,X,X,X<X<X,X,X,X,X<X<X,X,X;X.X.X*X6XwXwX6X0X;XF.s.U.$X$X$X$X<X<X>X>X,X,X,X<X<X;X^.U.,X,X;X<X>X>X,X,X,X,X,X;X.XH.}.>X,X<X>X*X.X}.^.^.^.$X>X<X,X;X*X.X$X}.H.U.$X^.D.{.;X;X;X;X;X;X;X;X*X*X*X*X*X*X*X*X*X*X*X*X$X$X$X$X$X$X.X.X.X.X.X.X}.}.'.Y.F.b.c.Z.U.Y.U.H.N.j.9.9.5.s.G.^.^.Y.U.F.Z.8.E c [ >.F.'.|..X$X$X=X=X=X=X#X].U.F.j.r.8.-.) U h q 4 4 : 5 Z [ =.{ A < 3 A 9.c.b.v.k.s.r.9.9.5.>.=.) B h n ",
"B m R 3.j.j.a.b.N.G.G.Z.r.<.@.G 1 5 m ~ ) Y j < = - 1 q q h ) >.>.#.>.r.N.U.#X=X*X;X;X*X*X*X$X$X.XH.) m ^ 5.M.G.U.U.^.|.U.k.5.<.5.s.Z.U.'.}.|.'.N.b.N.^.|..X$X$X$X$X$X$X$X$X*X*X*X*X=X=X=X=X=X=X*X*X*X*X*X*X*X*X*X;X>X<X>X>X;X;X*X*X.X!.^..X$X*X;X*X;X;X,X*X}.^.{. XXX$X;X>X<X<X$XG.$X;X<X<X<X<X5X5X<X,X,X>X5X@XT.=X7X5X6X6X6X<X<X<X5X,XQ.U. X;XF.N.}.,X6X6X6X5X,X<X<X<X<X<X,X<X<X<X<X<X<X<X<X<X<X<X6X6X6X6X6X6X6X6X6X6X6X6X6X6X6X6X<X<X<X6X6X6X6X6X6X6X<X<X<X<X6X6X6X6X<X6X6X6X6X6X6X6X6X6X6X6X6X6X6X6X,X6X;X}.>X>X>X>X>X>X>X>X>X>X>X>X>X>X>X>X.X$X>X<X6X6X6X6X6X6X6X6X6X6X6X6X6X6X6X6X0X0X0X6X6X6X6X0X6X6X0X6XwXwXwXwX0X0X6X6X6X6X6X6X6X6X6X6X6X6X6X0X6X6X0X6X6X6X6X6X6X6X6X6X6X6X6X6X,X;X,X6X0X0X6X6X0X}.c.N.^. X;X^..X*X>X>X,X,X<X<X>X<X;X^..X<X>X>X>X>X,X,X,X,X,X,X;X.XY.|.;X<X,X;X$X.X}.^.^.^.#X,X6X,X;X*X;X*X.X}.}..XF.J.$X;X>X;X;X;X*X;X*X*X*X*X*X*X*X*X*X*X*X*X*X*X$X$X$X$X$X$X$X$X$X.X.X.X}.}.^.F.N.v.N.G.^.}.Y.Z.v.s.8.3.e.N.Y.^.Y.U.F.Z.r.^ J -.Z.}..X#X#X$X$X*X=X=X#X|.^.F.j.5.-.<.+.W B s 8 = : = = c ) { ) c 3 4 x [ s.k.x.d.s.s.a.a.a.r.=.{ ) ^ ",
"U ^ ,.a.v.s.j.N.F.U.F.s.-.E x 4 : c Y U V t < 5 c S Q { -.=.-.@.3.a.b.b.N.U..X$X$X*X*X$X$X$X.X.X#XZ.=.,.s.F.Y.^.U.Y.U.F.a.5.3.r.N.F.^.|.#X.XU.M.M.G.'..X#X#X$X$X$X$X$X$X$X$X*X*X*X*X=X=X;X;X;X;X*X*X*X*X*X*X*X*X*X;X>X,X<X<X>X>X^.H.}..X*X*X;X;X;X,X,X;X$X^.'.^.|.#X$X;X<X<X<X;XU.$X;X6X6X6X6X6X<X<X,X,X6X,X|.I.=X5X6X6X6X6X6X6X6X6X5X%XG.Q.$XH.y.H.;X$X5X5X5X5X>X>X<X6X6X6X6X6X6X6X6X6X6X6X6X6X6X6X6X6X6X6X6X6X6X0X0X0X6X6X6X0X0X0X6X6X<X<X<X<X<X<X<X<X<X<X<X<X6X6X6X6X<X6X6X6X6X0X0X0X0X0X0X0X0X0X0X6X6X6X0X6X<X<X<X6X0X0XwXwX0X0X0X6X6X6X6X6X6X6X6X6X6X6X6X6X6X6X6X6X6X6X6X6X6X6X6X6X0X0X0X6X<X<X6X0X0X0X6X6XwXwXwXwX0X0X6X,X,X<X<X<X<X<X<X<X<X<X<X0X6X6X6X<X6X6X6X6X6X6X6X6X6X<X6X6X6X6X<X,X6X6X,X<X6X<XJ.r.N.U.*X}.!..X;X,X<X,X,X,X>X6X<X*XH.$X6X6X,X,X,X<X,X,X,X,X,X,X#XY..X;X<X;X;X$X.X!.^.H.U.$X,X6X,X;X;X*X;X;X.X^..X*X;X$X;X;X>X>X;X;X;X;X;X;X;X*X*X*X*X*X*X*X*X*X*X*X*X$X$X$X$X$X$X$X#X.X.X.X}.'.U.A.M.N.U.}.}.Y.G.b.j.a.e.9.c.H.Y.Y.H.G.Z.b.k.3.N..X$X#X#X.X.X#X$X*X#X$X}.F.5.=.=.-.<.-.=.) U g 5 4 < q n E W G s > 4 q U e.s.s.s.s.a.a.s.j.<.@.@.-.",
"-.5.e.s.r.r.k.N.G.N.w.{ E j = % q n c y q w n Q <.r.k.v.b.b.r.v.H.Y.Y.F.b.F.^.}..X.X$X.X.X.X.X}.^.H.Z.U.Y..X}.}.Y.Y.N.r.,.5.s.A.Y.'.|..X'.Z.k.M.|.|.|..X#X#X$X$X$X$X$X$X$X$X*X*X*X*X=X=X;X;X;X;X*X*X*X*X*X*X*X*X*X;X;X;X$X$X$XXX.X.X$X$X$X*X*X;X,X6X,X;XY.U.Y.'.#X%X;X;X,X,X;XY..X,X<X<X6X6X6X6X<X<X,X,X,X|.F.=X5X0X0X6X6X6X6X6X6X<X,XXXY.XXY.w.y.H.|.#X>X,X,X,X;X;X;X,X;X;X;X;X;X;X;X;X;X;X;X;X;X;X;X;X;X;X;X;X;X;X>X>X;X;X;X,X>X>X;X;X>X>X,X<X<X<X<X<X<X0X0X0X0X0X0X0X6X0X0X6X6X0X0X0X0X0X0X0X0X0X0X0X0X0X6X0X0X0X0X0X6X0X6X6X6X6X6X6X6X6X6X0X0X6X0X0X0X0X0X0X0X0X0X0X0X0X0X0X0X0X0X0X0X0X0X0X0X0X6X<X6X6X6X6X6X6X6X6X6X<X;X;X*X$X$X$X$X$X$X$X*X*X*X;X;X*X*X*X*X;X=X;X;X;X;X;X;X;X;X;X;X,X,X;X>X>X;X;X>X<X$Xx.j.N.U..X.X.X*X;X<X<X,X,X6X>X,X<X;XJ.$X6X,X,X<X<X<X<X,X,X;X5X5X$X^.XX,X,X,X;XXX(.^.U.H.U.$X,X6X,X;X*X;X,X;X$X*X,X6X$X XXX$X*X;X;X;X;X;X;X;X;X;X*X*X*X*X*X*X*X*X*X*X*X*X$X$X$X$X$X$X#X#X.X'..X#X}.G.b.N.G.U.}.}.H.A.b.s.8.<.j.F.U.^.H.G.H.U.N.Y.$X*X#X.X|..X.X#X#X$X#XA.5.<.r.s.r.j.k.s.9.a.8.` W ~ R c x m N j t : > 4 A <.r.a.s.a.a.r.r.,.@.+.=.",
"e.8.w.s.e.a.x.M.j.8.^ h 9 = > 4 < : < e Z ) q.r.v.M.N.A.F.G.U.Y..X#X^.^.Y.N.v.A.^..X.X|.$X|.^.^.'.}.|..X.X$X$X#X|.N.e.3.e.k.N.J.^..X.X}.b.k.U.}..X.X$X$X$X$X$X*X*X*X*X*X*X*X*X*X;X;X;X;X;X;X;X;X;X;X;X;X;X*X;X;X;X;X;X;X$XY. X;X;X;X;X;X;X;X,X<X,X6X;X^.U.Y.^..X;X;X;X,X6X;X^.|.,X6X6X6X6X6X6X6X<X6X6X6X$XH.$X6X6X6X6X6X6X6X6X,X$X#X%X|.#X}.N.D.$X>X0X0X>X$X$X;X;X*X*X$X;X;X;X;X;X;X;X;X;X;X;X;X;X;X;X;X;X;X;X;X;X;X*X*X*X*X*X;X;X$X*X>X<X6X6X<X<X6X6X6X6X0X0X0X0X0X0X0X0X0X0X0X0X0X0X0X0X0X0X0X0X0X0X0X0X0X0X0X0X0X0X0X0X0X0X0X0X0X6X6X<X<X0X0X0X0XwX0X0X0X0X0X0X0X0X0X0X0X0X0X0X0X0X0X0X0X0XwXwX0X6X6X6X6X6X6X6X6X6X<X<X6X,X;X;X;X,X,X;X;X;X;X;X>X;X;X;X;X;X;X;X;X;X;X;X;X;X;X$X$X*X;X*X*X*X*X,X,X;X$X$XXX}.G.J.N.N.^.$X*X*X^.>X6X<X,X6X6X6X6X6X$XH.}.,X6X,X,X<X<X<X<X<X<X6X,X$X.X$X,X<X<X;X*X.X^.!.U.!.*X<X,X6X<X,X;X;X;X;X,X,X*X}..X*X*X;X;X;X;X;X;X>X;X;X;X;X;X;X;X;X;X;X;X*X*X*X*X$X$X$X$X$X$X#X#X#X.X|..X'.U.N.k.I.`.'.#XY.G.M.j.r.5.r.Z.U.'.^.^.Y.U.}.*X$X#X.X}.}..X$X#X.Xv.>.r.Y.'.Y.F.N.M.M.Z.Z.M.j.r.=.{ ^ H c d t 9 5 1 < 1 m { e.j.s.t.r.w.<.<.<.5.",
"<.5.e.a.a.a.s.e.,.U 9 @ + > > : = 8 N ' <.9.k.v.b.N.F.H.^.^.^.^.Y.$X;X,X7X|.s.e.Z.Y.}..X#X|.'.}.|..X#X#X*X*X*X|.N.e.5.a.v.F.U.Y.}..XF.c.b.].'.#X.X#X$X$X$X*X*X*X*X*X*X*X*X*X;X;X;X;X;X;X;X;X;X;X;X;X;X;X>X>X>X>X<X<X<X<X>XXX.X*X;X;X;X;X;X;X,X<X<X;X|.!.^.'.#X*X;X,X6X0X>XU.|.6X6X6X6X6X6X6X6X6XwX9X6X,XJ.XX,X,X6X6X6X6X0X0X,X$XH.XX;X#XJ.D.*X>X,X<X<X<X<X>X>X>X,X,X,X,X>X>X>X>X>X;X;X;X;X;X;X;X>X>X>X>X>X>X>X>X,X<X<X<X<X<X<X<X;X.X$X0XwX0X6X6X6X0X0X0X6X0X0X0X0X0X0X0X0X0X0X0X0X0X0X0X0X0X0X0X0X0X0X0X0X0X0X0X0X0X0X0X0X0X0X0X0X0X0X0X0X0X0X0X0X0X0X0X0X0X0X0X0X0X0X0X0X0X0X0X0X0X0X0X0X0X0X0XwXwX0X0X0X6X6X0XwXwX0X6X6X6X;X>X,X,X<X<X<X,X,X,X<X<X<X,X,X>X>X>X>X,X,X,X,X,X,X<X6X6X6X6X<X<X<X<X;X*X$X$X;X;X,X<X6X$Xb.Z.^.$X*X$X.X6X,X,X6X6X6X6X6X6X$XU.$X6X;X0X<X<X<X6X6X<X5X6X,X$X.X$X<X6X6X,X*X.X^.!.U.}.*X,X<X,X,X;X;X;X;X;X>X;X;X<X<X<X<X,X,X>X>X>X;X;X;X>X>X;X;X;X;X;X;X;X;X*X*X*X*X$X$X$X$X$X$X#X#X#X#X.X|.'.Y.A.f.A.'.#X.X^.U.F.k.e.5.r.N.U.}.|..X}..X*X*X$X.X}.}.#X#X.Xc.@.s.*X5X;X#X'.H.G.G.H.U.F.N.c.e.-.[ ) E Z h 0 < > : = : h ^ 5.r.r.e.e.<.>.=.>.",
"5.5.8.9.8.e.5.{ A ,   X + + @ 4 h A O.3.e.f.k.v.Z.G.].'.}..X.X}.^..X;X,X5X6XY.e.k.U.'.#X#X|.|..X#X#X$X$X$X$X'.N.a.e.s.A.H.}.}.}.#XF.c.A.^.}..X$X$X$X$X$X$X*X*X*X*X*X;X;X;X;X;X;X;X;X>X>X;X;X;X;X;X;X>X>X>X>X<X<X<X<X<X<X<X$X.X$X;X;X;X;X;X;X,X,X;X}.Y.'.|.$X;X>X,X6X0X,X^.}.<X0X6X6X6X6X6X6X6X6XwX6X<X}.{.<X6X6X6X6X6X6X0X<X*X.X$X<X;XD.x.}.<X6X<X<X,X>X;X<XwXwXwXwX0X0X0X6X0X0X0X0X0X0X0X0X0X0XwXwXwXwXwXwXwXwXwXwXwXwXwXwXwXwX6X$X X*X<X<X6X6X0X0XqX0X0X0X0X0X0X0X0X0X0X0X0X0X0X0X0X0X0X0X0X0X0X0X0X0X0X0X0X0X0X0X0X0X0X0X0X0XwXwXwXwX0X0XwXwX0X0X0X0X0X0X0X0X0X0X0X0X0X0X0X0X0X0X0X0X0X0X0XwXwX0X6X6X0X0X0XwX0X6X>X;X$X}.^.;X6X6X6X6X6X6X6X6X6X6X6X6X0X0X0X0X0X0X0X0X0X0X0X0X6X6X0XwXwX0X0X0X6X,X,X<X6X6X0X0X0X0X$Xs.c.^.$X;XXX$X;X6X6X6X6X6X6X6X6X$XH.;X0X<X<X<X6X6X6X6X<X<X6X,X$X.X*X<X0X6X5X=X.X'.'.Y.|.>X,X;X;X;X;X*X$X$X*X*X;X<X<X<X<X<X<X<X<X<X<X>X;X;X>X>X;X;X;X;X;X;X;X;X;X*X*X*X$X$X$X$X$X$X$X#X#X.X.X#X$X#XA.s.M.Y..X.X.X'.I.M.r.8.a.N.Y.}..X.X$X*X=X$X#X.X.X#X.XY.<.r.$XqX5X%X.X#X#X*X*X'.^.H.F.Z.c.e.<.{ ^ E H h 5 : @ % $ = w Z <.s.s.e.5.>.=.>.",
"#.+.=.5.5.3.) N >   X . . % q j U _ <.e.r.s.M.A.U.].|.#X*X5X7X5X.X^.*X,X;X7X6XN.r.H.'..X#X.X.X$X$X$X$X$X|.Y.b.9.e.m.U.'..X#X.X.XA.b.Y.}..X.X#X$X$X$X$X$X*X*X*X*X*X*X;X;X;X;X>X;X>X>X>X>X>X;X;X;X>X>X,X>X,X,X,X,X<X<X,X,X>X;X}.$X;X;X;X;X;X,X;X;X.XU.Y.}.*X;X,X5X,X0X6X.X^.;X<X0X6X6X6X6X6X6X6X6X6X<X$XH.;X6X6XwX6X6X6X6X0X*X.X$X6X>XB.<.B.;X6XrX0X0X6X6X>X6X0X6X0X0X0X0X0X0X0X0X0X0X0X0X0X0X0X0X0X0X0X0X0X0X0X0X0X0X0X0X0X0X0X0X6X6X>X$X}. X$X;X0X0X0X6X6X0X0X0X0X0X0X0X0X0X0X0X0X0X0X0X0X0X0X0X0X0X0X0X0X0X0X0X0X0X0X0X0X0XwXwXwXwXwXwXwXwXwXwXwX0X0X0X0X0X0X0X0X0X0X0X0X0X0X0X0X0X0X0X0X0X0XwXwX0X>X;X<XwXwX6X$XXXXX$X$X}.}.>XrXrX0X0X0X0X0X0X0XwX0XwXwXwXwX0X0X0X0X0X0X0X0X0X6X<X>X>X<X6X6X6X<X6X0X6X6X6X0X0XwX0X0X!.8.C..X*X>X^.$X<X6X6X6X6XwX,X0X6X.X^.,X,X<X<X6X6X6X6X6X<X6X6X,X$X}.;X6X6X6X5X=X.X.X^.'.$X;X*X*X$X*X$X.X}./.(..X;X<X<X<X<X6X6X6X6X<X<X>X;X>X>X;X;X;X;X;X;X;X;X;X;X*X*X*X$X$X$X$X$X$X$X$X$X$X$X#X$X$X^.e.e.F.^.#X$X#X].Z.k.a.s.N.H.Y.|.$X*X;X*X$X#X.X#X.Xx.,.|.0X0X,X#X|.XX*X,X5X=X.X(.!.H.F.N.s.<.=.) U N c q = + X @ % 4 d @.t.e.w.<.>.>.",
"W ^ >.<.-.W d X .   . . < s m U _ =.9.a.v.N.H.^..X$X;X<X6X<X,X;X$X}.U.>X=X,X7X}.5.N.|.$X$X$X$X$X$X#X.X}.F.r.>.5.M.Y.#X$X.X$X}.N.a.U..X$X$X$X$X*X*X*X*X*X*X*X*X*X*X*X;X;X;X;X;X;X>X>X>X>X>X>X>X>X,X<X,X<X<X<X<X>X>X>X;X;X$X.X^.U.}..X$X*X$X.X$X.X!.^..X.X;X;X,X,X6X6X.XU.;X6X0X6X6X6X6X6X6X6XwXwX5X{.F.$X6X6X6X6X0X0X0X0X;X.X*X,X>XY.@.,.|.,X6X0X0X0X0X0X6X6X6X6X0X0X0X0X0X0X0X0X0X0X0X0X0X0X0X0X0X0X0X0XwXwX0X0X0X0X0X0X0X0X0X0X0X0X6X<X;X$X.X.X;X0X0X;X*X0X0X0X0X0X0X0X0X0X0X0XwXwX0X0XwXwXwXwX0X0X0XwXwXwXwX0XwXwXwX0X0X0XwXwXwXwXwXwXwXwXwXwXwXwX0X0XwXwXwXwX0X0X0XwXwXwXwX0XwXwXwXwX0X0XwXwXwX0X>XXX;X0X0XXX}.>X<X>X>X>X>X<XqXrX0X0X0X0X0X0XwXwXwXwXwX0X0X0X0X0X0X0X0X0X0X0X0X6X;X$X6X6X0X0X0X0X0X0X0X6X6X0X0XwX0X0Xx.<.F.*X6X;XXX>X6X9X6X6X6X6X0X0X6X|.}.,X6X6X6X0X6X6X6X6X6X6X6X6X$X.X;X6X6X5X;X$X.X.X'.Y..X*X;X;X*X*X$X.X|.{.{.{.*X;X<X<X<X<X<X,X>X<X,X>X>X>X>X>X>X;X;X;X;X*X*X*X;X;X*X*X*X*X*X*X*X*X*X$X%X%X#X.X.X.XU.a.c.Y.$X$X#X#X'.F.M.k.j.k.b.A.^.*X;X#X#X#X$X*X|.r.e.*X0XwX>X}. X$X$X*X;X;X*X*X.X!.H.D.N.s.w.<.[ U N c y : X $ @ @ . < ^ 8.t.8.5.<.",
"[ @.=.[ G < . .     . 9 x H ^ +.<.0.k.M.F.U.|.#X=X>X<X6X,X,X;X*X$X|.F.}.>X;X>X.X9.b.|.#X$X$X$X$X.X}.G.k.8.=.<.j.U.|.%X=X.X}.H.N.v.Z.^.#X=X=X;X;X;X;X>X>X;X;X;X;X;X;X;X;X>X;X,X,X,X,X<X<X<X<X<X<X<X<X5X5X<X,X;X;X$X$X$X$XXXXX.X.X*X;X,X,X;X*X^.!..X.X$X;X;X;X,X,X<X$XU.;X6X0X6X6X6X6X6X6X6X0XwX0X|.J.$X<X6X6X6X6X0X0X6X,X.X.X,X;X{.1.#.G.,X6X6X0X0X0X0X0X6X6X6X6X0X0X6X0X0X0X0X0X0X0X0X0X0X0X0X0X0X0X0X0XwXwX0X0X0X0X0X0X0X0X0X0X0X0X0X0X6X<X;X^.}.0X6X$X;X0X0X0X0X0X0X0X0X0X0X0XwXwXwX0XwXwXwXwX0X0X0XwXwXwXwX0XwXwXwXwX0X0XwXwXwXwXwXwXwXwXwXwXwXwX0X0XwXwXwXwX0X0X0XwXwXwXwX0XwXwXwXwX0X0XwXwXwXwX6X;X$X6X<XJ.}.6X0X0X6X6X0X0X6X6X0X0X0X0X0X0X0X0X0X0XwXwX0X0X0X0X0X0X0X0X0X0X0X0X0X0X0X6X0X0X0X0X0X0X0X0X6X6X0X0X0X0X$X<.5.}.<X,X$X X<X6X6X6X0X0X0X0X6X6X.X.X,X6X6X6X6X6X6X6X6X6X6X6X<X$X}.,X6X6X5X;X$X$X$X.XG.*X,X<X,X>X;X;X>X;X=X*XXXXXXX*X;X;X;X;X;X,X<X,X<X<X<X<X<X<X<X<X,X,X,X;X;X;X;X*X*X*X*X*X*X*X*X*X*X%X#X|.|..X.X'.G.F.^..X.X$X#X^.U.k.9.e.s.N.G.^.#X#X%X%X*X#XG.3.s.*X6X5XXXY.{..X$X$X*X=X;X;X*X.X^.H.G.C.b.a.5.=.^ U N h 5 $ . + @ O $ 5 m W S D ",
"j d 9 9 < X     . = d Z E { -.5.a.k.N.F.Y. X$X;X<X,X,X,X;X;X*X$X$X#XG.H.;X=X*X.Xa.r.Y..X.X.X.X.X'.F.a.,.-.5.s.N.'.$X=X%X$X}.(..X}.U.]..X$X$X$X%X;X;X*X*X*X*X*X*X*X*X;X;X;X;X;X;X>X>X,X>X>X>X>X>X>X<X>X$XXX X XXXXX$X$X$X*X;X;X,X6X0X0X0X6X;X}..X$X*X;X<X<X<X,X>X*X!.*X<X0X6X6X6X6X6X6X6X6X0X5X*XY.*X<XwXwX9X9X9XwX0X,X.X$X;X,X.Xs.} M.;X6X7X0X0X0X0X0X0X6X6X6X6X0X0X0X0X0X0X0X0X0X0X0X0X0X0X0X0XwX0XwXwXwXwX0X0X0X0X0X0X0X0X0X0XwXwXwXwXwXwX6XH.^.0X<X$X,XwX0X0X0X0X0X0X0X0X0X0XwXwX0X0XwXwXwXwX0X0XwXwXwXwX0X0XwXwXwXwX0XwXwXwXwXwXwXwXwXwXwXwXwXwX0X0XwXwXwXwX0X0XwXwXwXwX0X0XwXwXwXwX0X0XwXwXwXwX0X<X$X,X6XJ.J.0XwXwXwXwX0X0XrXrX0X0X0X0X0X0X0X0X0X0X0X0X0X0X0X0X0X0X0X0X0XwX0X0X0X0X6X0X0X0X0X0X0X0X0X0X0X0X0X0X0X0X6XG.=.s.;X6X>XXX$X>X6X0X0X0X0X0X6X0X0X.X$X<X0X6X6X6X6X6X6X6X6X6X0X,X.X$X5X7X6X5X;X*X*X;X}.!.,X6X<X6X6X6X0X6X,X,X;X$X.X.X X X X XXX*X;X>X;X;X;X;X;X;X;X;X;X;X;X*X*X*X*X$X$X$X$X$X$X#X#X#XXX$X$X$X$X$X$X.X.XU.N.F.U.'.|.].G.b.a.r.r.j.N.Z.U.}..X.X.XY.v.,.c.#X,X;XY.J.^..X$X$X*X*X=X;X;X;X$X}.Y.U.F.M.j.e.<.+.W B c t : X $ * X   = q = > ",
"9 d y s m x 4 > t m H W [ >.8.s.v.N.F.H.}.XX;X,X<X,X;X;X*X*X*X$X$X*XY.U.*X;X*X|.a.w.G.^.Y.Y.Y.Y.M.r.5.5.a.N.A.M.G.'.'.'.c.s.k.A.G.Y.U.U.H.H.H.U.U.U.U.U.^.^.^.^.^.^.^.^.^.^.{.}. X X|.|. X X X X$X;X$X X^.}.$X;X>X>X>X>X,X<X6X0X6X6X6X6X;X.X$X*X X;X<X6X6X6X<X>X^.;X0X<X6X6X6X6X6X6X6X6X0X6X*XU.;X<X0XwXwXiXiXiXwX0X;X^.;X,X;XH.@.j.%X5X6X6X0X0X0X0X0X0X6X6X6X6X0X0X0X0X0X0X0X0X0X0X0X0X0X0X0X0XwXwXwXwXwXwX0X0X0X0X0X0X0X0X0X0XwXwXwXwX6XwX0XN..X0X;X*X6XwXwXwX0X0X0X0X0X0X0X0XwXwX0X0X0XwXwXwX0XwXwXwXwXwX0X0XwXwXwXwX0X0XwXwXwXwXwXwXwXwXwXwXwXwX0X0XwXwXwXwX0XwXwXwXwXwX0X0XwXwXwXwX0X0XwX0XwXwXwX6X$X;X0X^.D.6XwXwXwXwX0X0XrXrX0X0X0X0X0X0X0X0X0X0X0X0X0X0X0X0X0X0X0X0X0X0X0XwXwXwX0X0X0X0X0X0X0X0X0X0X0X0X0X0X0X0X0X<Xr.@.G.;X6X>X{.;X6X0X0X0X0X0X6X0X6X,X}.;X0X0X6X6X6X6X6X6X6X6X0X6X<X.X;X5X6X6X6X;X*X=X*X^.*X,X,X6X6X6X0X6X6X6X<X,X;X*X$XXX.X}.{..X;X>X*X$X$X$X.X X X X.X.X.X}.}.{.^.^.Y.Y.Y.Y.Y.U.U.H.F.F.F.F.F.F.Z.N.A.N.b.s.9.a.a.e.a.A.G.Z.j.r.a.j.c.Z.G.H.G.N.a.<.x.}.,X;XJ.J.}..X.X$X*X*X$X;X,X;X;X$X|.^.G.Z.N.x.9.5.=.~ U B j q q 9 9 9 c A d q ",
"Z Z Z Z Z Z A G R W ) @.>.5.y.d.Z.H.Y.}.$X$X;X,X;X;X*X*X*X$X$X#X#X#X|.F.|.*X*X#Xs.) 5.c.j.k.M.e.3.8.r.v.Y.'.^.U.j.r.s.e.>.5.a.N.G.H.U.U.H.H.H.U.U.U.^.^.^.(.}..X#X$X*X*X$X$X$X$X$X$X$X$X$X$X$X;X>X<X<X>X;X;X;X>X<X,X,X5X6X6X<X<X6X6X6X;X X$XXX{.;X<X6X6X6X5X;X^.;X7X0X0X6X6X6X6X6X6X0XwX6X>XH.*X,X6X9X9XwXwXwXrXwX,X^.$X5X>X^.9.1.}.6XrX0X0X0X0X0X0X0X0X0X0X0X0X0X0X0X0X0X0X0X0X0X0X0X0X0X0XwXwX0X0XwXwXwXrXwXwXwXwX0X0XwXwXwXwXwXwX0X0XwXwX;Xb.<X0X.X;XwXwXwXwXwXwXwX0XwXwXwXwXwXwXwXwXwXwXwXwXrXrXwXwXwXwXwXwXwXwXwXwXwXwXwXwXwXwXwXwXwXwXwXwXwXwXwXwXwXwXwXwXrXrXwXwXwXwXwXwXwXwXwXwXwXwXwXwXwXwXwXwX;X$X0X$XB.;XwX0XwXwXwXwX0X0X0X0XwXwXwXwXwXwXwX0X0X0X0X0XwXwXwXwXwX0XwXwXwXwXwXwX0X0X0X0X0X0X0X0X0X0X0X0X0X0X0X0X0X0X.X>.5.^.6X<X>XXX;X6X0X0X0X0X0X0X0X0X6X^.;XrX6X5XqX6X6X6X6X6X6X0X6X,X$X*X0X<X0X6X;X*X*X!.b..X6X6X6X0X0X6X6X6X<X>X>X;X;X;X;X;X;X>X;X>X;X;X;X$X;X;X;X;X;X;X%X%X%X$X#X#X.X.X.X.X.X.X.X.X^.F.C.C.N.C.Z.N.N.C.Z.D.N.b.<.=.G.'.}.Y.F.N.a.8.6.6.9.a.s.e.3.5.Z.$X<X;XH.U.^..X.X.X$X$X$X*X*X;X=X=X*X.X}.U.Z.c.r.9.-.{ ) Y G Z N v N N c h x m ",
"U U U U W ) [ +.<.5.8.r.s.k.M.B.J.Q.}.XX;X;X;X*X*X*X*X$X$X$X#X.X#X.X}.F.'.#X*X#Xc.U U [ -.<.<.>.w.k.F.U.}.#X#X|.U.s.e.N.U.Y.^.#X.X.X$X$X*X*X*X*X*X*X;X;X*X*X;X;X;X;X;X;X;X;X,X,X,X<X<X<X<X<X<X<X<X>X;X;X;X;X>X>X,X;X;X5X6X6X<X<X6X6X;X$X$X*X$X$X<X6X6X6X5X=X|.=X7X0X0X0X6X6X6X6X6X6XwXwX<XH..X0X0X0X9XwXwXwXwXwX6X{.'.=X5X*Xc.<.B.;X6X6X0X0X0X0X0X0X0X0X0X0X0X0X0X0X0X0X0X0X0X0X0X0X0X0X0X0XwXwX0X0XwXwXrXrXwXwXwX0X0X0XwXwXwXwXwXwX0X0XwX0X{.J.3X,XXX<XwXwXwXwXwXwXwX0XwXwXwXwXwXwXwXwXwXwXwXwXrXrXwXwXwXwXwXwXwXwXwXwXwXwXwXwXwXwXwXwXwXwXwXwXwXwXwXwXwXwXwXwXrXrXwXwXwXwXwXwXwXwXwXwXwXwXwXwXwXwXwXwX,XXX6X;XB.#XwXwXwXwXwXwX0X0X0X0XwXwXwXwXwXwXwXwX0X0X0X0XwXwXwXwX0X0XwXwXwXwXwXwX0X0X0X0X0X0X0X0X0X0X0X0X0X0X0X0X0X0X<XF.=.s.$X>X,X*X}.6X0X0X0X0X0X0X0X0X6X,X{.,XrX6X6XrX6X6X6X6X6X6X0X6X;X.X;X6X0X6X6X;X}.$X*XU.$X,X6X6X0X0X6X6X<X<X<X<X,X>X>X>X;X;X>X>X>X>X>X>X>X>X;X;X;X;X;X%X;X;X*X;X*X;X;X;X;X;X;X*XXX X{.{.{.}.}.}.!.U.H.H.U.N.r.Z.'..X#X|.|.Y.F.M.e.,._ ~ ^ _ -.e.H.%X>X$XG.H.^.}..X.X.X$X$X$X*X*X*X*X*X*XXX}.!.G.v.k.a.e.5.,.>.=.{ ^ W R U C N C ",
"U U E W ^ +.8.j.N.F.H.U.U.U.Y.^.}..XXX$X;X;X*X*X*X*X$X$X$X#X.X.X.X|.'.A.].#X$X#XF.=.U E _ { 3.j.A.H.}.|.|.#X$X$X#X}.N.k.N.U.}.|.}.}.^.^.^.^.^.^.^.}.}..X^.^.}.}.(.^.^.^.^.}.}.}.{.{.}.}. X X.XXXXX XXX*X;X>X<X<X>X;X;X<X6X6X6X6X6X;X$X$X*X*X;X<X6X6X6X5X;X}.*X5X0X0X0X0X0X0X0X0X0X0X0X6X}..X0X6X0XwXwXwXwXwXwX6XXX^.$X>X=XG.8.a.#X6X6X6X0X0X0X0X0X0X0X0X0X0X0X0X0X0X0X0X0X0X0X0X0X0X0X0X0X0XwXwX0X0XwXwXrXrXrXwXwXwX0X0XwXwXwXwXwXwXwXwXwX,XD.#XwX*XXXwXwXwXwXwXwXwX0X0X0X0XwXwXwXwXwXwXwXwXwXwXrXwXrXrXwXwXwXwXwXwXwXwXwXwXwXwXwXwXwXwXwXwXwXwXwXwXwXwXwXwXwXwXrXwXrXrXwXwXwXwXwXwXwXwXwXwXwXwXwXwXwXwX6XXX;X<XG.Y.6XwXwXwXwXwXwXwX0X0XwXwX0XwXwXwXwXwXwXwXwXwXwXwXwX0X0X0X0X0XwXwXwXwX0X0X0X0X0X0X0X0X0X0X0X0X0X0X0X0X0X3X0X;Xs.=.b.;X,X;XXX*X6X0X0X0X0X0X0X0X6X6X%X|.5XrX6X6X6X0X0X0X6X6X6X0X6X;X.X*X6X6X6X<X*X$X*X*X|.$X,X6X6X0X0X6X6X6X6X6X6X<X<X>X;X$X$X$X$X$XXX$X$XXX^.J.U.U.Y.Y.Y.Y.U.Y.U.!.!.!.^.!.^.!.H.H./.!.^.^.^.^.H.Z.c.j.a.a.F.#X$X%X%X#X%X#X}.Y.N.v.5._ G R ,.M.}.%X*X.XF.H.!.'.}.|..X.X.X.X#X$X$X$X$X$X$X.X.X}.Y.G.Z.N.Z.M.Z.Z.j.<.[ E R S Z N ",
"Z A U U W [ ,.9.M.U.'.}.$X#X.X.X$X$X;X;X$X$X$X;X*X$X$X$X#X.X.X|..X}.^.A.U..X$X#XY.N.e.a.s.j.Z.H.Y.^.|.#X.X$X*X#X$X*X.XY.A.U.|..X.X}.^.^..X.X.X.X.X.X$X$X.X.X$X*X*X*X$X#X$X$X$X$X$X$X*X*X*X*X;X;X;X;X>X>X>X<X<X,X>X;X,X6X6X6X6X6X;X$X$X$X$X;X<X6X6X6X5X,X^.*X5X7X0X0X0X0X0X0X0X0X0X0X0X*X!.,X0X0XwXwXwXwXwXwXwX;X}.|.*X6X}.r.5.Y.5XrX6X0X6X0X0X0X0X0X0X0X0X0X0X0X0X0X0X0X0X0X0X0X0X0X0X0X0X0XwXwX0X0XwXrXrXrXwXwXwXwX0X0X0XwXwXwXwXwXwXwXwX%XM.>X<XXX;XwXwXwXwXwXwXwX0X0X0X0XwXwXwXwXwXwXwXwXwXwXrXrXrXrXwXwXwXwXwXwXwXwXwXwXwXwXwXwXwXwXwXwXwXwXwXwXwXwXwXwXwXwXrXrXrXrXwXwXwXwXwXwXwXwXwXwXwXwXwXwXwXwXwXXX*X0X}.D.>XwXwXwXwXwXwXwX0XwXwXwXwX0XwXwXwXwXwXwXwXwXwXwXwX0X0X0X0X0X0XwXwXwX0X0X0X0X0X0X0X0X0X0X0X0X0X0X0X0X3X<X0X<X*X5.<.G.;X;X;X.X;X6X0X0X0X0X0X0X6X6X6X|.#X6X6X5X6X0X0X0X6X6X6X6X0X0XXX!.;X<X6X6X,X$X*X*X.X.X$X6X6X0X0X0X6X6X6X<X6X6X6X6X<X<X>X>X;X;X;X;X;X$XXXXX#X%X;X;X;X%X%X$X$X$X$X$X.X.X.X.X.XoX{.}.}.}.}.}.U.D.c.s.Z.}.$X#X;X%X#X#X%X#X#X|.'.Y.F.v.e.6.j.U.XX%X$X}.D.H.U.(.}.}..X.X|.|..X.X.X.X.X.XXX$X$X$X$X.X.X'.'.G.N.k.e.-.^ U H A m c ",
"U H W E ^ [ @.-.8.j.A.]..X#X*X*X;X*X*X$X$X$X$X$X#X#X.X.X.X.X|.|.].'.].M.A.'..X.X.X}.Y.U.U.^.'.}.'.|..X.X$X$X$X$X=X*X$X$X#X.X.X.X*X*X*X*X*X*X;X;X;X;X;X;X;X;X;X;X;X;X>X>X,X,X,X,X<X<X<X<X<X<X<X<X<X<X<X<X<X<X<X,X,X>X6X6X6X0X6X,X*X$X$X$X,X,X5X6X6X0X>XU.=X,X6XrXwX0X0X0X0X0X0X0XwX0X*X^.6X6X6X6XrXrXwXwXrXrX0X;X#X$X6X*Xb.<.b.;X0X0X0X0X0X0X0X0X0X0XwXwX0X0X0X0X0X0X0X0X0X0X0X0XwXwX0X0XwXwXwXwXwXwXwXrXwXwXwXwXwXwXwXwXwXwXwXwXwXwXwXwX0X{.J.wX<X.X,XwXwXwXwX0XrXwXwXwXwXwXwXrXwXwXwXwXwXwXwXwXwXwXwXwXwXwXwXwXwXwXwXwXwXwXwXwXwXwXwXwXwXwXwXwXwXwXwXwXwXwXwXwXwXwXwXwXwXwXwXwXwXwXwXwXwXwXwXwXwXwXwXwXwX;X.X6X;XB.;XwXwXwXwXwXrXrXrXrXwXwXwXwXwXwXwXwXwXwXwXwXwXwXwXwXwXwXwXwXwXwXwXwX0X0X0XwXwXwX0X0XwXwXwXwXwXwXwXwXwXwXwXwX6XU.>.e..X;X<X;X.X,X0XwX0X0X0X0X0X0X6X,X{.XX6X0X0X0X0X0X0X0X0X0X0X0X6X*X^.;XqX0X0X,X;X;X;X*X$X$X,X6X6X0X6X6X6X<X6X6X6X6X6X<X<X<X<X<X<X>X<X>X>X>X5X5X5X,X,X,X,X,X;X;X;X;X;X;X;X;X;X;X;X;X*X*X=X=XXX.X(.^.*X*X*X*X%X%X%X%X$X#X#X.X.X|.'.U.Y.Y.^.|.$XXXXXJ.C.F.H.H.Y.^.'.}.|.|.}.}..XXXXXXX*X$X$X$X*X*X$X|.G.v.9.-.{ _ E W E U U J ",
"[ _ { { { @.-.,.,.8.a.k.Z.G.|.$X*X$X$X$XXX#X#X#X#XXX.X.X.X.X}.}.}.'.U.v.Z.'..X.X.X|.}.'.'.}.|.|.|..X.X$X$X$X$X$X=X*X$X$X$X$X$X*X*X*X*X*X;X;X;X;X;X;X;X;X;X;X;X;X;X;X,X>X,X,X,X,X<X<X<X<X<X<X<X5X<X<X<X<X6X6X6X<X<X6X6X6X6X<X;X*X*X*X$X;X5X6X7X7X6X,XY..X6X6XrX0XwX0X0X0X0X0X0X0XqX>XU.;X0X0X0XwXwXwXwXwXrXwX,X$X%X5X6XU.8.s..X0X0X0X0X0X0X0X0X0X0X0XwXwX0X0X0X0X0X0X0X0X0X0X0X0XwXwXwX0XwXwXwXwXwXwXwXrXwXwXwXwXwXwXwXwXwXwXwXwXwXwXwXwX0XH..XrX;XXX<XwXwXwXwX0XrXrXwXwXwXwXwXwXwXwXwXwXwXwXwXwXwXrXwXwXwXwXwXwXwXwXwXwXwXwXwXwXwXwXwXwXwXwXwXwXwXwXwXwXwXwXwXwXwXrXwXwXwXwXwXwXwXwXwXwXwXwXwXwXwXwXwXwXwX<X}.;X6XD.}.wXwXwXwXwXrXrXwXrXwXwXwXwXwXwXwXwXwXwXwXwXwXwXwXwXwXwXwXwXwXwXwXwX0X0X0X0XwXwX0X0XwXwXwXwXwX0XwXwXwXwXwXwX0X6XZ.@.b.*X<X;X$X*X6X0X0X0X0X0XwX0X0X6X;XU.$XwX0X0X0X0X0X6X0X0X0X0X0X6X$X.X;X0XwX0X<X;X;X;X;X*X;X,X6X6X0X0X6X6X6X6X6X6X6X<X<X<X<X<X<X5X<X<X<X<X5X5X5X,X,X,X,X,X;X;X;X;X;X;X;X;X;X;X;X;X*X*X=X=X=X*X$X.X*X*X*X*X*X%X%X%X$X#X#X.X.X.X.X|.Y.Y.'..X$X$X Xb.x.F.H.H.Y.^.'.}.'.'.'.'.|..XXXXX$X*X*X*X*X#XU.v.<.+.) { _ { @.@.-.#.@.@.",
"8.5.r.e.8.w.e.r.9.9.5.5.9.a.N.].XX$X.XXXXX.X X.X.X.X|.|.}.}.'.^.].G.Z.j.c.'..X'..X.X.X|.}.}.|.|..X#X$X$X$X$X$X$X=X*X$X$X$X$X$X$X;X;X;X;X;X;X;X;X;X;X;X;X;X;X>X>X,X,X>X>X,X,X,X,X<X<X<X<X<X<X5X5X5X<X<X<X6X6X6X6X6X0X6X6X<X;X*X*X*X=X;X>X6X6X0X0X5X].Y.7XwXwX6X6X0XwXwXwX0X0X0X0X5X].*X0XwXwXwXwXwXwXrXrXrX6X*X$X;X6X$Xa.e.H.0X0XwXwXwXwXwXwXwXwXwXwXwXwXwXwXwXwX0X0X0X0X0X0X0X0XrXwXwXwXwXwXwXwXwXwXwXwXwXwXwXwXwXwXwXwXwXwXwXwXwXwXwXwX;XN.6XwXXX$XwXwXwXwXwXwXrXrXrXrXwXwXwXwXwXwXwXwXwXwXwXwXwXrXwXwXwXwXwXwXwXwXwXwXwXwXwXwXwXwXwXwXwXwXwXwXwXwXwXwXwXwXwXwXwXrXwXwXwXwXwXwXwXwXwXwXwXwXwXwXwXwXwXwXwXwX.X$XrX}.F.<XwXwXwXrXrXrXwXwXwXwXwXwXwXwXwXwXwXwXwXwXwXwXwXwXwXwXwXwXwXwXwXwXwX0XwXwXwXwX0X0XwXwXwXwX0X0X0X0XwXwXwXwX0XwX;Xs.<.H.;X6X;X*X,X6X0XqXqXqXwXwXwX0X<X;X!.>X0X0XwXwX6X6X0X0X0X0X0X0X0X$X.X;X0XwX0X,X<X,X;X;X;X;X,X6X0X0X0X6X6X6X6X6X6X6X6X6X6X6X5X5X<X<X<X<X5X5X5X5X,X,X5X5X>X>X>X>X;X;X;X;X;X;X;X;X*X*X=X=X=X*X*X*X*X*X*X*X*X$X$X*X$X$X.X.X.X.X.X.X'.Y.!.}.XX$X^.x.s.C.H.G.U.Y.Y.^.}.}.{.{.}.|..XXX.X$X$X X^.v.<._ ~ _ =.4.w.a.s.s.k.s.a.a.",
"a.j.Z.A.M.N.N.N.N.M.k.a.9.5.5.k.H..X.XXX X X X X.X|.|.}.}.}.^.^.A.M.v.a.k.'.#X|.|.|.|.|.}.}.|.|.#X$X$X$X$X$X$X$X=X*X$X$X$X$X$X$X;X;X;X;X;X;X;X;X;X;X;X;X;X;X>X>X,X,X>X>X>X>X,X,X<X<X<X<X<X<X5X5X<X<X<X<X6X6X6X6X6X0X6X6X,X;X=X;X;X;X>X,X0X0X0X0X'.Y.7X6XrXwXwX8XwXwXwXwX0X0X0X0XY..X7XwXwXwXwXwXiXwXrXrX9X>X$X>X;X%XM.9.b.;XwX0XwXwXwXwXwXwXwXwXwXwXwXwXwXwXwXwXqX0X0X0X0X0X0X0XwXwXwXwXwXwXwXwXwXwXwXwXwXwXwXwXwXwXwXwXwXwXwXwXwXwXwXwX}.Z.wX0XXX*XwXwXwXwXwXwXrXrXrXrXwXwXwXwXwXwXwXwXwXwXwXwXwXwXwXwXwXwXwXwXwXwXwXwXwXwXwXwXwXwXwXwXwXwXwXwXwXwXwXwXwXwXwXwXwXwXwXwXwXwXwXwXwXwXwXwXwXwXwXwXwXwXwXwXwXrX,X.X0X,XD.$XwXwXwXrXrXrXrXwXwXwXwXwXwXwXwXwXwXwXwXwXwXwXwXwXwXwXwXwXwXwXwXwXwXwXwXwXwXwX0X0XwXwXwXwX0X0X0X0X0XwXwXwX0X,XwX.X5.e.}.6X<X*X*X,X0XqXqXwXwXwXwX0XwXwX;X{.0X0X0X0X6X0X0X0X0X0X0X0XwX6X*X.X,X0XwX0X0X6X,X,X>X;X;X>X6X6X0X6X6X6X6X6X6X6X6X6X6X6X6X6X6X<X<X<X5X5X5X5X,X,X5X5X,X,X,X,X;X;X;X;X;X;X;X;X*X*X*X*X*X*X*X*X*X*X*X*X*X*X*X*X$X$X.X.X.X.X.X.X.XY.H.U.}. X^.b.c.c.N.Z.A.F.F.G.T.T.^.^.{.}. X.X XXX}.H.8.{ ) =.8.f.k.v.v.M.N.A.A.B.N.M.",
"M.b.^.H.U.U.U.U.H.H.H.H.Z.c.e.5.8.b.!.}.#X|.{.Y.^.Y.Y.}.'.Y.B.a.,.5.c.v.x.F.^.'.^.^.^.}.Y.'..X$X#X$X*X*X*X*X*X*X=X=X*X*X*X*X=X=X;X;X;X;X;X;X;X;X;X;X;X;X;X>X,X,X,X>X,X,X<X<X<X<X<X<X<X<X6X6X6X6X6X6X6X6X6X6X<X<X6XwXwX<X;X;X;X;X,X5X6X0X0X0X0X'.'.5XwXqXwXwX0X0XwXwXwX0X0XwXwX}..X,XwXwXrXrXwXrXrXwXrX6X$X;X6X6X,XH.w.a.%XwXwXwXwXwXwXwXwXwXwXwXwXwXwXwXwXwXwXwXwXwXwXwXwXwXwXwXwXwXwXwXwXwXwXwXwXwXwXwXwXwXwXwXwXwXwXwXwXwXwXwXwXwXwXwXZ.^.rX6X{.<XrXwXwXwXwXwXwXwXwXwXwXwXwXwXwXwXwXwXwXwXwXwXwXwXwXwXwXwXwXwXwXwXwXwXwXwXwXrXwXwXwXwXwXwXwXwXwXwXwXwXwXwXwXrXrXwXwXwXwXwXwXwXwXwXrXwXrXwXwXwXwXwXwXwXwXyXwX}.6XwXH.{.0XwXwXrXwXwXwXwXwXwXwXwXwXwXwXwXwXwXwXwXrXrXwXwXwXwXwXwXwXwXwXwXwXwXwXwXwXwXwXwXwXwXwXwXwXwXwXwXwXwXwXwXrXwXwXwXF.>.b.;X,X<X,X;X6XwX6X6XwXwXwXwXrXwX0X;X}.6XwX0X0X0X0XwXwXwX0X0XwX0X<X*XXX,XrXwX0X<X>X<X,X;X*X;X0XwX6X0X0X6X6X6X6X6X6X6X6X6X6X6X6X6X6X6X<X<X<X<X<X,X,X,X,X,X,X,X>X>X>X;X;X;X;X;X;X;X*X*X=X*X*X$X*X*X*X*X*X*X*X*X$X$X$X#X$X$X#X.X#X.XY.G.H.Y.C.N.Z.j.8.w.e.a.M.A.I.U.Y.T.^.U.|.|.}.H.s.) ) 5.j.b.N.A.G.H.H.H.H.H.Y.U.U.F.",
"Z.b.Y.Y.^.^.Y.Y.!.!.!.!.!.G.Z.b.s.5.s.H.}.|.{.U.Y.Y.Y.U.M.s.5.-.@.8.N.N.e.s.b.N.H.^..X$X}..X#X$X=X;X;X;X;X;X;X;X;X;X=X=X=X;X=X=X;X;X*X*X;X;X;X;X,X,X,X,X,X,X,X,X>X>X<X<X<X<X<X<X6X6X<X<X<X6X6X6X6X6X6X6X6X6X<X<X<X<X,X;X*X*X;X;X5X6X0X0XwX6X*XU.;XqXrX7XwXwX0X0XwXwX0X0X0XrX.X}.,XwXwXwXrXrXwXwXrXwX6X>X*X>X6X5X|.s.r.Y.wXwXwXwXwXwXwXwXwXwXwXwXwXwXwXwXwXwXwXwXwXwXwXwXwXwXwXwXwXwXwXwXwXwXwXwXwXwXwXwXwXwXwXwXwXwXwXwXwXwXwXwXyXyXyX0XA.;XwX;X.XwXyXwXwXwXwXwXwXwXwXwXwXwXwXwXwXwXwXwXwXwXwXwXwXwXwXwXwXwXwXwXwXwXwXwXwXwXwXwXwXwXwXwXwXwXwXwXwXwXwXwXwXwXwXwXrXwXwXwXwXwXwXwXwXwXrXwXwXwXwXwXwXwXwXwXwXyXwXXX>XyXXXF.5XwXrXrXwXwXwXwXwXwXwXwXwXwXwXwXwXwXwXwXrXrXwXwXwXwXwXwXwXwXwXwXwXwXwXwXwXwXwXwXwXwXwXwXwXwXwXwXwXwXwXwXrXrXwXwX,Xd.1.^.,X6X6X,X$X6X0X6XwXwXwXwXrXwXwX0X.X.X6XwX0X0XwXwXwXwXwXwX0XwX0X<XXX$X<XrXwX6X<X,X,X,X;X*X;X0XwX0X0X6X6X6X6X6X6X6X6X6X6X6X6X6X6X6X<X<X<X<X<X<X,X,X,X,X,X,X>X>X>X>X;X;X;X;X;X;X;X;X;X;X;X=X=X=X=X=X*X*X*X*X$X$X*X*X;X;X*X$X$X#XY.A.M.Z.c.s.c.x.s.e.,.3.6.a.M.A.U.Y.^.Y.}.U.F.<.~ { s.M.F.F.H.U.Y.U.^.^.^.^.'.'.Y.I.",
"Y.M.Y.'.}.}.}.}.^.^.{.{.^.{.}.Y.^.D.r.s.F.Y.Y.U.H.F.Z.b.e.5.,.,.9.j.N.c.5.5.8.r.A..X=X;X;X;X>X,X>X>X;X;X;X;X;X>X>X>X;X;X;X;X;X;X;X;X;X;X;X;X>X>X,X,X,X,X,X,X,X,X<X<X<X<X6X6X6X6X6X6X6X<X<X<X6X6X6X6X6X6X6X6X6X6X<X;X;X;X;X$X;X,X6X0X0X0X6X;XU.*X0XwXwX6XwXwXwX0XwX0X0X0XwX$X{.6XwXwXwXwXrXwXwXwXwX6X>X;X<X6X6X%XM.e.G.5XwXwXwXwXwXwXwXwXwXwXwXwXwXwXwXwXwXwXwXwXwXwXwXwXwXwXwXwXwXwXwXwXwXwXwXwXwXwXwXwXwXwXwXwXwXwXwXwXwXwXwXwXyXyXyX*XG.uXwX.X*XrXrXwXwXwXwXwXwXwXwXwXwXwXwXwXwXwXwXwXwXwXwXwXwXwXwXwXwXwXwXrXwXwXwXwXwXwXwXwXwXwXwXwXwXwXwXrXwXwXwXwXwXwXwXwXwXwXwXwXwXwXwXwXwXwXwXwXwXwXwXwXwXwXwXwXyXyXyX*X;XwX>XF.*XrXuXrXwXwXwXrXwXwXwXwXwXwXwXwXwXwXwXwXrXwXwXwXwXwXwXwXwXwXwXwXwXwXwXwXwXwXwXwXwXwXwXwXwXwXwXwXwXwXwXwXrXrXrXrXrX;X5.t.$X6X<X,X.X;XwXwX0XwXwXwXwXwXwXwX6X X.X6X0XwXwXwXwXwXwXwXwXwXwXwX>X$X$X<XwXwX0X<X;X;X;X;X$X;X0XwX0X0X0X0X6X6X6X6X6X6X<X,X<X6X6X6X6X6X6X<X<X<X<X<X<X<X,X,X,X,X,X,X>X>X>X>X>X>X>X>X;X;X;X;X;X;X;X;X;X;X;X;X*X%X*X%X$X*X=X;X=X=X.XU.k.e.8.e.s.x.c.j.9.5.,.,.9.k.N.I.U.'.}.Z.-.-.e.j.b.N.H.Y.Y.Y.^.'.|.|.|.|..X'.Y.H.",
"}.M.Y..X|.|.|.|.}.}.}.}.}.{.}.}.{.}.^.C.c.B.H.U.A.N.j.w.9.9.e.k.j.M.c.s.r.8.3.5.v.$X;X=X;X;X;X;X;X;X>X>X>X>X>X>X>X>X;X;X;X>X>X>X>X>X>X>X>X>X>X>X,X,X,X,X,X,X,X,X<X<X<X<X6X6X6X6X6X6X6X<X,X,X<X6X6X6X6X6X6X6X0X6X<X;X;X;X;X$X*X<X0X0X0X0X;X^.$X0X0XwXwXwXrXwX0X0XwXwX0X0X;X}.6XrXwXwXwXwXwXwXwXwX6X>X;X;XwXwX6XG.e.j.,X6XwXwXwXwXwXwXwXwXwXwXwXwXwXwXwXwXwXwXwXwXwXwXwXwXwXwXwXwXwXwXwXwXwXwXwXwXwXwXwXwXwXwXwXwXwXwXwXwXwXwXwXwXwXwXwX{.|.sXwX}.;XrXwXwXwXwXwXwXwXwXwXwXwXwXwXwXwXwXwXwXwXwXwXwXwXwXwXwXwXwXrXrXwXwXwXwXwXwXwXwXwXwXwXwXwXrXrXwXwXwXwXwXwXwXwXwXwXwXwXwXwXwXwXwXwXwXwXwXwXwXwXwXwXwXwXwXyXyXwX;X$X0X6XJ.XXwXyXrXwXwXwXrXwXwXwXwXwXwXwXwXwXwXwXwXrXrXwXwXwXwXwXwXwXwXwXwXwXwXwXwXwXwXwXwXwXwXwXwXwXwXwXwXwXwXwXwXrXrXrXrXrX0XJ.>.Z.;X,X,X,X*X6XrX0X0XwXwXwXwXrXwX6X6XXX XwXwXwXwXwXwXwXwXwXwXwXwXwX>XXXXX6XwXwX<X;X;X;X;X;X|.;X0X0X0X6X6X6X6X6X6X0X6X>X>X<X6X6X6X6X6X6X<X<X<X<X<X<X<X,X,X,X,X,X,X>X>X>X>X>X>X,X,X>X>X;X;X;X;X;X;X>X>X;X;X;X;X$X.XU.'.$X>X>X>X>X$XN.<.5.N.v.s.r.r.k.d.e.,.,.9.a.M.F.U.N.3.v.U.U.F.F.H.U.H.U.Y.}..X.X.X#X#X.X}.Y.H.",
"}.Z.H..X.X|.|.|. X X X X X X X X.X.X.X.XF.e.b.N.b.y.w.a.k.c.v.c.j.j.e.b.Y.e.,.,.8.b.G.'..X.XU.b.r.v.#X>X>X>X>X>X>X>X>X,X,X,X5X>X>X,X,X,X,X,X<X<X,X,X,X,X,X,X<X<X<X5X<X<X6X6X6X6X6X6X6X6X<X<X<X6X6X6X6X6X6X6X0X6X>X;X;X;X;X;X6X6X0X6X0X;XH.*X0X0XwXwXwXwXwXwXwXwXwX6X0X6XY.;XwXrXrXrXrXrXyXwXyXwX<X;X;X0XrX6XXXj.w.#XrXyXwXwXwXwXwXwXwXwXwXwXwXwXwXwXwXwXwXwXwXwXwXwXwXwXwXwXwXwXwXwXwXwXwXwXwXwXrXwXwXwXwXwXwXwXwXwXwXrXwXwXwXwXyXwX6XZ.;XhX,X}.wXyXyXwXwXwXwXwXrXyXyXyXrXrXrXrXyXyXrXrXrXrXrXrXrXrXrXrXyXyXyXyXrXrXyXyXrXrXrXrXrXrXrXrXyXyXyXyXrXrXyXyXrXrXrXrXyXyXrXrXrXrXrXrXrXrXrXrXyXyXyXyXrXrXrXyXrXyXrX<XXX6XyX XJ.0XyXwXyXyXyXyXwXwXwXwXwXwXwXrXwXwXwXwXrXrXrXrXrXrXrXrXwXwXwXwXwXwXwXwXwXwXwXwXwXwXwXwXwXwXwXwXwXwXwXwXwXwXwXwXwXwX<Xb.5.Y.;X<X6X,X;X,X0X6X5XwXwXwXwXwXrXwX,X X X0XyX0XwXwXwXwXwXwXwXwXrXwX,X$X;X6XrXwX6X;X;X>X*X*X}.,XwXwX6X6X6X0X0XwX0X6X<X,X6X6X6X6X6X6X6X6X<X<X<X<X<X<X,X,X,X,X,X,X<X<X,X,X,X>X,X,X>X;X;X>X>X;X>X>X>X>X>X>X;X;X.X.X.X'.|.$X#X|.F.a.e.r.A.'.U.x.9.e.s.s.a.a.5.#.@.5.M.v.r.M.U.U.Y.^.^.Y.U.Y.U.Y.'.|.#X#X$X$X.X}.^.}.",
"].U.F.|.#X.X X X X X X X.X.X.X.X.X.X.X.XU.b.a.c.e.a.k.c.m.v.c.s.a.e.9.N.,X$XU.c.r.#.#.9.s.k.j.e.8.8.H.;X>X>X>X>X>X>X;X;X$X,X*X*X;X,X,X,X,X,X<X<X,X,X,X,X,X,X<X<X<X5X<X<X6X6X6X6X6X6X6X6X6X6X6X6X6X6X6X6X6X6X6X>X;X*X;X;X;X<X0X0XwX0X,XU..X6XrXwXwXwXwXwXwXrXrXrXwXwX<XY.$X0XrXrXrXrXyXrXwXrXrX<X;X;X0XrX0X;XM.6.U.6XwXrXwXwXwXwXwXwXwXwXwXwXwXwXwXwXwXwXwXwXwXwXwXwXwXwXwXwXwXwXwXwXwXwXwXwXwXwXrXwXwXwXwXwXwXwXwXwXrXrXwXwXwXwXyXwX;XH.6XsX*X|.yXyXyXwXwXwXwXwXrXrXyXyXrXrXrXrXyXyXrXrXrXrXrXrXrXrXrXrXyXyXyXyXrXrXyXyXrXrXrXrXrXrXrXrXyXyXyXyXrXrXyXyXrXrXrXrXyXyXrXyXrXrXrXrXrXrXrXrXyXyXyXyXrXrXrXrXrXrXrX0XXX<XrX$XH.,XuXrXyXyXyXyXwXwXwXwXwXwXwXrXwXwXwXwXrXrXrXrXrXrXrXrXwXwXwXwXwXwXwXwXwXwXwXwXwXwXwXwXwXwXwXwXwXwXwXwXwXwXwXwXwXwXrX$X8.s.XX,X6X6X;X*X6X0X0X0XwXwXrXrXwXwXwX,XJ.;XrXrX0XwXwXwXwXwXwXwXwXrXwX,X$X$X6XyXwX0X,X*X*X*X*X$X;X6X0X0X0X0X0X0X6X6X6X6X6X6X6X6X6X6X6X6X<X<X<X6X<X<X,X,X<X,X,X,X<X<X,X,X,X,X,X,X;X*X$X;X;X;X;X>X>X>X>X>X;X*X.XA.N.k.s.s.9.-.=.<.v.G.^.^.N.e.3.9.a.a.k.k.s.5.-.#.e.e.k.F.F.H.Y.}..X}.^.Y.Y.Y.^.'.#X$X$X$X$XY.Y..X",
"U.}.G.Y.#X#X#X#XXXXXXXXXXXXXXXXX.X.X}.^.U.U.A.-.5.k.b.b.c.k.s.a.a.9.5.a.A.#X>X,X;X'.b.3.@.#.@.+.a.N.A.H.;X;X;X;X,X;X#X}.}.'.^.$X<X<X<X<X<X<X<X<X<X<X6X6X<X<X<X<X6X6X6X6X6X6X6X6X6X6X6X6X6X6X6X6X6X6X6X0X6X<X;X;X*X*X=X;X,X8XwX0XwX6X^.}.6XwXwXwXwXwXwXwXwXrXrXrX0XwX{.}.6XwXrXwXrXyXyXyX0XwX<X$X;X<XrXwX>XJ.e.B.<XrXwXrXwXwXwXwXwXwXwXwXwXwXwXwXwXwXwXwXwXwXwXwXwXwXwXwXwXwXwXwXwXwXwXwXwXwXwXwXrXwXwXwXwXwXwXwXwXwXwXwXwXwXwXwXyXrX.X}.yXwX$X=XyXrXyXyXwXwXwXwXrXrXrXrXrXrXrXrXyXyXyXyXrXrXrXrXrXrXrXrXrXrXyXyXrXrXrXrXrXrXrXrXrXrXrXrXrXrXyXyXrXrXrXrXrXrXrXrXyXyXyXyXrXrXrXrXrXrXrXrXrXrXyXyXrXrXrXrXrXrXyXrX$X;XwX6XY.$XyXyXrXrXyXyXwXwXwXwXwXwXwXwXwXwXwXwXrXrXrXrXrXrXrXrXwXwXwXwXwXwXwXwXwXwXwXwXwXwXwXwXwXwXwXwXwXwXwXwXwXwXwXwXrXwXyX0X{.r.D.;X6X6X,X*X*X,X0X0XwXwXwXrXwXwXwXwX;XU.;XyXwX0XwXwX0X0X0X0XwXwXrXwX>XXX$X0XqXwXwX6X$X$X;X$X$X;X6X0X0X0X0X0X6X0X0X0X0X0X0X0X0X6X6X6X6X6X<X<X<X<X<X,X<X<X,X,X<X<X,X,X,X,X,X,X>X*X.X{.}.$X*X;X;X;X;X;X;X*X].s.<.,.5.e.3.a.N.F.'.|.Y.F.e.w.e.e.e.a.s.d.v.s.e.5.@.3.v.N.Z.F.U.^..X.X.X}.'.'.'.'.#X#X#X$X.XY.Y.$X",
"H.|.Y.F.#X$X#X#XXXXX$X$X$X$X$X$X.X.X^.U.^.Y.Z.,.5.k.c.x.d.s.a.a.s.j.c.v.c.j.k.^.>XaXwX}.e.a.k.b.Z.N.N.'.$X;X;X;X,X;X;X=X.X.X;X5X<X<X<X<X<X<X<X<X<X<X6X6X<X<X<X<X6X6X6X6X6X6X6X6X6X6X6X6X0X0X0X0X6X6X0X6X6X;X;X;X*X=X;X>X6XwXwX0X0X.X}.,XrXrXwXwXwXwXwXwXwXrXrXrX0XXXJ.0XwXrXrXwXyXyXyXrXwX0X$X$X<X6X6X;XXXc.a.;XrXrX0XwXwXwXwXwXwXwXwXwXwXwXwXwXwXwXwXwXwXwXwXwXwXwXwXwXwXwXwXwXwXwXwXwXwXwXwXwXwXwXwXwXwXwXwXwXwXwXwXwXwXwXwXwXyXwX^.$XuX0X.X6XrXrXyXyXwXwXwXwXrXrXrXrXrXrXrXrXyXyXyXyXrXrXrXrXrXrXrXrXrXyXyXyXrXrXrXrXrXrXrXrXrXrXrXrXrXrXrXyXrXrXrXrXrXrXrXrXyXyXyXyXrXrXrXrXrXrXrXrXrXyXyXyXrXrXrXrXrXrXrXrX>X*X6XwX.X}.0XyXrXrXyXyXwXwXwXwXwXwXwXwXwXwXwXwXrXrXrXrXrXrXrXrXwXwXwXwXwXwXwXwXwXwXwXwXwXwXwXwXwXwXwXwXwXwXwXwXwXwXwXwXrXwXyXrX0XN.w.F.*X,X,X;X^.XX,X0XwXwXrXrXrXwXwXrX0X%X{.6XwXrX0X0X0X0X0X0XwXwXwXrXwX;XXX;XwXrXwXwX,X*X$X*X$X$X;X6X0X0XwXwXwXwX0X0X0X0X0X0X0X6X6X6X6X6X<X<X<X<X<X<X<X<X<X,X<X<X<X,X,X,X,X,X>X<X>XXX{.XX;X,X,X,X<X>X*X.XF.Z.c.s.a.s.k.U.$X|.'.U.A.v.s.s.s.s.e.y.a.a.d.x.v.k.9.a.M.A.F.G.H.U.}.|..X.X.X|.|.|.|.|.|.|.}.^.}..X",
"}.U.H.b.U.$X;X$X$XXXXX$X$X$XXXXX^.U.U.U.Y.U.'.}.d.c.j.v.k.x.x.M.M.B.A.F.A.F.N.N.U.|.U.r.a.M.A.U.H.U.H.}.;X;X,X,X<X,X;X$XXX;X<X<X<X<X<X<X<X<X<X<X<X<X6X6X6X6X6X6X<X<X<X<X6X6X6X6X0X0X0X0X0X0X0X0X0X0X6X6X>X;X;X;X;X;X,X6XwX0XrX0X.X.X,XwXwXwXwXwXwXwXwXwXrXwXwXwX;XY.,XwXrXwXwXwXrXrXrXwX0X;X;X6X;X0X$X^.A.d.`.7XwXwXrXwXwXwXwXwXwXwXwXwXwXwXwXwXwXwXwXwXwXwXwXwXwXwXwXwXwXwXwXwXwXwXwXwXwXwXwXwXwXwXwXwXwXwXwXwXyXyXyXyXrXrXrXrXyX6XH.<XsX,X$X0XyXyXyXyXrXrXrXrXyXyXyXyXyXyXyXyXyXyXyXyXyXyXyXyXyXyXyXyXyXyXeXeXyXyXyXyXyXyXyXyXyXyXyXyXyXyXyXyXyXyXyXyXyXyXyXyXyXyXyXyXyXyXyXyXyXyXyXyXyXyXyXyXyXyXyXyXyXyXyXyXwXXX,XwX*XG.<XyXyXyXyXyXrXrXrXrXrXrXrXrXyXyXyXrXrXrXrXrXrXrXrXrXrXrXrXyXrXrXrXrXwXwXwXwXwXwXwXwXwXwXwXwXwXwXwXwXwXwXwXrXrXrXwXwXwX;Xw.5.^.>X<X0X;X$X;X0X0XrXwXwXwXwXwXwXyX6X$X}.7XaXyX0XwXwXwXwXwXwXwXwXwX6X;XXX;XwXwX0X0X,X*X*X%X#X$X;X<X0X0X0X0X0X0X0X0X0X0X0X0X0X0X0X<X<X<X<X6X6X6X6X6X<X<X<X<X<X<X<X<X,X,X,X>X,X,X,X*X*X>X0X6X6X<X,X.XU.F.U.'.F.N.N.C.H.{.}.U.N.N.A.N.N.b.b.c.j.a.a.a.s.d.c.b.U.U.F.F.F.G.H.Y.'.|.#X|..X.X.X.X}.^.^.U.}..X.X",
".X^.Z.Z.H.}.$X*X$X$XXXXX.X X X}.H.U.U.^.|.|.$X;XG.v.v.v.k.v.M.A.F.I.U.Y.Y.U.U.A.s.e.e.j.N.U.Y.U.Y.U.U.$X;X>X,X,X6X;XXX.X;X<X<X<X<X<X<X<X<X<X<X<X<X<X6X6X6X6X6X6X0X0X<X<X6X6X6X6X0X0X0X0X0X0X0X0X0X0X6X>X;X;X;X;X;X,X6XrXwX0XrX X X;XqXwXrXrXwXwXwXwXwXwXwXwX0X;XJ.,XrX0XwXwXwXwXrXrXrXwX;X;X6X0X6X0X.Xa.5.I.7XqXrXwXwXwXwXwXwXwXwXwXwXwXwXwXwXwXwXwXwXwXwXwXwXwXwXwXwXwXwXwXwXwXwXwXwXwXwXwXwXwXwXwXwXwXwXwXwXwXyXyXyXyXrXrXrXrXyX;XH.wXrX*X*XwXyXyXyXyXrXrXrXrXyXyXyXyXyXyXyXyXyXyXyXyXyXyXyXyXyXyXyXyXyXyXeXeXyXyXyXyXyXyXyXyXyXyXyXyXyXyXyXyXyXyXyXyXyXyXyXyXyXyXyXyXyXyXyXyXyXyXyXyXyXyXyXyXyXyXyXyXyXyXyXyXrXXX;XyX<XJ.,XuXyXyXyXyXrXrXrXrXrXrXrXrXrXrXyXrXrXrXrXrXrXrXrXrXrXrXyXyXrXrXrXrXwXwXwXwXwXwXwXwXwXwXwXwXwXwXwXwXwXwXwXwXwXwXwXwX0XwXF.=.j.$X,X<X,X;X*X,X6XwXrXwXwXwXwXwXyXwX5X#X#XrXyXwXwXwXwXwXwXwXwXwXwXwX<X;X}.;XwXyXwX6X,X*X#X#XXXXX;X6X0X0X0X0X0X0X0X0X0X0X0X0X0X0X<X<X<X<X6X6X6X6X6X6X<X<X<X<X<X<X<X<X<X,X<X,X<X<X>X*X$X;X<X6X<X,XXXU.F.U.'.Y.H.G.b.x.t.l.F.|..X^.Y.U.H.F.A.N.c.j.k.s.a.s.F.$X.X'.Y.U.U.U.Y.].'.|..X.X#X.X|.}.^.^.U.}..X|.",
"$X.X!.^.U.H.^..XXXXXXXXX}.}.{.^.U.^.}.}.#X*X;X*XF.c.v.b.N.D.I.U.Y.Y.Y.T.Y.'.U.s.5.e.c.F.^.}.'.U.F.G.}.*X,X,X,X,X;XXXXX*X<X<X<X6X<X6X6X6X6X6X6X6X6X6X6X6X6X6X6X6X0X0X6X6X<X<X6X6X0X0X0X0X0X0X0X0X0X6X,X;X;X;X;X;X>X6XwXrXyX0X$X{.,XrXwXqXrXrXwXwXwXwXwXwXrXwX<XF.XXwXwXrXwXwXwXwXrXrXrX6X;X6X6X<X;X*XU.,.j.=XrXrXrXrXwXwXwXwXwXwXwXwXwXwXwXwXwXwXwXwXwXwXwXwXwXwXyXyXyXyXrXrXyXyXyXyXyXyXrXrXyXyXrXrXwXwXwXwXwXwXrXrXyXyXrXrXrXrXyX}.}.uX0X.X,XyXyXyXyXyXrXrXrXrXyXyXyXyXyXyXyXyXyXyXyXyXyXyXyXyXyXyXyXyXyXyXyXyXyXyXyXyXyXyXyXyXyXyXyXyXyXyXyXyXyXyXyXyXyXyXyXyXyXyXyXyXyXyXyXyXyXyXyXyXyXyXyXyXyXyXyXyXyXyXyXyXwX;X*XwXwX{.XXwXyXyXyXyXrXrXyXyXrXrXrXrXrXrXrXrXrXrXrXrXrXrXyXyXrXrXyXrXwXwXwXwXwXwXwXwXwXwXwXwXwXwXwXwXwXrXwXwXwXwXwXwXwXwXwXwXrXuX5Xc.1.J.;X,X,X6X>X*X;X0XwXwXwXwXwXwXwXwXrX7X}.>XrXwXwXwXwXwXwXwXwXwXwXwXwX6X$X X<XwXrXwX6X<X$X$X$XXX$X;X6X0X0X0X0X0X0X0X0X0X0X0X0X0X6X6X6X6X<X<X6X6X6X6X6X<X<X<X<X<X<X<X<X<X<X<X<X<X,X;X*XXX*X,X>X,X;X.XH.F.Y.^.^.!.F.c.5.@.x.#X;X=X$X.X^.Y.Y.G.A.N.N.v.x.j.U.>X;X$X.X}.^.Y.].].'.'.}..X.X.X}.}.^.^.^.}..X}.",
"}.}.$X}.}.H.F.H.U.{..X.X^.Y.Y.J.}..X$X*X*X;X*X}.v.Z.A.U.Y.Y.Y.Y.T.'.'.'.|.I.a.6.a.M.U.'.}.|.'.U.b.F.*X;X,X,X,X;XXXXX;X<X<X<X6X6X6X6X6X6X6X6X6X6X6X6X6X6X6X6X6X6X3X3X0X0X6X6X6X6X0X0X0X6X0X0X0X0X6X,X;X;X;X;X;X>X6XwXwXrXwX*XY.>XwXrXqXqXrXrXwXwXwXwXwXwXwX6XY.}.wXwXwXyXwXwXwXwXrXrXwX;XwXwX6X,X,X^.e.5.|.qXrXdXwXwXwXwXwXwXwXwXwXwXwXwXwXwXwXwXrXwXwXwXwXwXwXwXyXyXyXyXrXrXyXyXyXyXyXyXrXyXyXyXrXwXwXwXwXwXwXwXrXrXyXyXyXrXrXyXwXG.,XyX6X*X<XwXyXyXyXyXrXrXrXrXyXyXyXyXyXyXyXyXyXyXyXyXyXyXyXyXyXyXyXyXyXyXyXyXyXyXyXyXyXyXyXyXyXyXyXyXyXyXyXyXyXyXyXyXyXyXyXyXyXyXyXyXyXyXyXyXyXyXyXyXyXyXyXyXyXyXyXyXyXyXyXyXyX6X.X0XwXXXH.<XyXyXrXyXrXrXyXyXrXrXrXrXrXrXrXrXrXrXrXrXrXyXyXrXrXrXrXrXwXwXwXwXrXwXwXwXwXwXwXwXwXwXwXwXwXwXrXrXwXwXwXwXwXwXwXwXrXrXwX$Xt.t.$X<X6X6X6X=X$X,XwXwXwXwXwXwXwXwXwXrX5XY.*XrXwXwXwXwXwXwXwXwXwXwXwXwX0X$X}.>X0XrXrX6X,X;X$X$X$X$X;X<X0XwX0X0X0X0X0X0X0X0X0X0X0X6X6X6X<X<X6X6X6X6X6X6X6X<X<X<X<X<X<X<X<X<X<X<X<X<X>X*X.X.X*X<X,X;X}.F.H.^.}.^.}.}.F.j.5.e.G.*X=X$X}.Y.'.Y.Y.G.G.A.N.v.H.>X5X*X$X#X|.'.^.Y.Y.Y.}.'.}.'.^.^.^.^.}.}.}.^.",
"}.}..X.X}.^.H.G.D.F.J.Y.J.J.J.Y.$X*X;X;X*X>X|.c.A.F.U.Y.`.`.`.`.'.|.|.|.A.3.5.v.F.U.'.|.|..X}.F.A..X,X,X0X,X*X.X*X;X,X6X6X6X6X6X6X6X6X6X6X6X6X6X6X6X6X6X6X6X0X0X0X0X0X0X0X0X0X0X0X0X0X0X6X0X0X6X,X;X;X;X;X;X,X6XwXwXrXwX;X^.;XrXrXrXrXrXwXwXwXwXwX0XwXrX6X}.J.0XwXwXwXwXrXrXwXwXwXrX;X$XrXwX5X;X'.v.8.F.6XrXrXrXrXrXwXwXwXwXwXwXwXwXwXrXwXwXwXwXyXyXyXyXrXrXyXyXyXyXrXrXrXrXrXyXyXyXrXrXrXrXrXrXyXyXrXrXrXrXrXrXrXrXrXtXyXrXyXuX,XN.0XyX;X$XwXwXyXyXyXyXyXyXyXyXyXyXyXyXyXyXyXyXyXyXyXyXyXyXyXyXyXyXyXyXyXyXyXyXyXyXyXyXyXyXyXyXyXyXyXyXyXyXyXyXyXyXyXyXyXyXyXyXyXyXyXyXyXyXyXyXyXyXyXyXyXyXyXyXyXyXyXyXyXyXyXyXyXwXoX<XwX;XG.,XuXyXrXyXyXrXyXyXrXrXrXrXrXrXrXrXrXrXyXyXyXrXrXrXrXrXyXyXyXyXrXrXyXyXyXyXyXyXyXrXwXwXwXwXwXwXwXwXwXwXrXwXwXwXwXwXrXrXrXrXY.1.b.,X,X<X6X,X*X;XrXwXwXwXwXwXwXrXrXrXwX,XY.>XrXrXrX0XwXwXwXwXwXwXwXwXrX6X#X{.6XrXtXwX0X,X;X;X$X$X*X,X6X0X0X0X0X0X0X0X0X0X0X0X0X0X0X0X6X6X6X6X6X6X6X6X6X6X6X<X<X<X<X<X<X<X,X,X<X<X<X;X*X$X$X$X<X,X;X#XF.F.U.}.^.}..X^.c.,.3.M.'.$X$X#X|.|.'.^.Y.U.H.F.k.G.*X;X;X;X$X'.'.}.{.Y.U.U.Y.U.U.!.{.}. X X}.}.",
"}.}..X.X.X}.H.F.J.Y.J.D.D.D.U.XX$X;X,X*X|.F.c.x.F.U.'.}.|.|.|.|.|.#X'.N.5.5.c.F.^.}..X.X|.^.G.x.^.;X,X,X,X$X.X$X>X<X6X6X6X6X6X6X6X6X6X6X6X6X6X6X6X6X6X6X6X6X0X0X0X0X0X0X0X0X0X0X0X0X0XwXwXwX6X5X;X;X;X;X;X,X6XwXrXwXrX;XU.;XwXwXrXrXrXrXwXwXwXwXwXwXyX0XY.J.6XrXwXwXwXwXrXrXwXwXrX9X$X6XwX6X=X}.M.e.F.5XwXwXwXwXrXrXwXwXwXwXwXwXwXwXwXwXwXwXwXwXyXyXyXyXrXrXyXyXyXyXrXrXrXrXrXrXyXyXrXrXrXrXrXrXyXyXrXrXrXrXrXrXrXrXrXtXyXyXrXyX$XH.wXwX$X*XwXyXyXyXyXyXyXyXyXyXyXyXyXyXyXyXyXyXyXyXyXyXyXyXyXyXyXyXyXyXyXyXyXyXyXyXyXyXyXyXyXyXyXyXyXyXyXyXyXyXyXyXyXyXyXyXyXyXyXyXyXyXyXyXyXyXyXyXyXyXyXyXyXyXyXyXyXyXyXyXyXyXtXrXXX;XrX6X!.XXrXrXrXrXrXrXyXyXyXyXrXrXrXrXrXrXrXrXyXrXrXrXrXrXrXrXyXyXyXyXrXrXyXyXyXyXyXyXrXrXwXwXwXwXwXwXwXwXwXwXrXrXwXwXwXwXrXrXrXrX0XN.5.U.;X,X6X6X;X*X,XwXwXwXwXwXwXwXwXwXwX6X;X^.<XrX0XwXwXwXwXwXwXwXwXwXrXwX<X$X X6XrXrXwX0X<X;X;X;X;X;X>X6X0XwX0X0X0X0X0X0X0X0X0X0X0X0X6X6X6X6X6X6X6X6X6X6X6X6X6X<X<X<X<X<X<X,X,X,X6X<X,X;X*X*X;X,X<X;X{.G.H.!.^.}..X.XT.v.3.3.k.T.%X%X|.|.'.'.^.^.Y.U.v.s.M.^.=X;X;X#X}.^.Y.Y.Y.Y.U.U.U.!.^.^..X.X.X.X",
".X.X$X$X*X.XU.D.J.J.J.H.F.U.XX;X;X*X}.H.M.b.N.A.^.}..X.X@X@X#X#X#X|.M.,.3.v.U.'..X.X.X.X}.H.c.H.*X;X;X*X*X.XXX,X<X6X6X6X6X6X6X6X6X6X6X6X6X6X6X6X6X6X6X6X0X0X0X0X0X0X0X0X0X0X0X0X0X0X0XwXwX6X,X;X;X;X;X;X,X6XrXrXyXyX>X{.;XwXyX0XrXrXrXrXwXwXwXwX0XwX0X$XH.;XwXrXwXwXrXrXrXrXwXwXrX>X9XrX6X<X#XH.9.M.>XaXwXwXwXwXwXwXyXyXwXwXwXwXwXwXwXwXwXwXwXwXrXrXyXyXrXrXrXrXrXrXrXrXrXrXrXrXrXrXrXrXrXrXrXrXyXyXyXrXrXrXrXrXrXrXrXtXtXtXwXwX^.$XwX6X}.5XyXyXyXyXyXyXyXyXyXyXyXyXyXyXyXyXyXyXyXyXyXyXyXyXyXyXyXyXyXyXyXyXyXyXyXyXyXyXyXyXyXyXyXyXyXyXyXyXyXyXyXyXyXyXyXyXyXyXyXyXyXyXyXyXyXyXyXyXyXyXyXyXyXyXyXyXyXyXyXyXyXyXyXuX>XXXwXyX.X!.0XrXrXrXyXyXyXyXyXrXrXrXrXyXyXrXrXrXrXrXrXrXrXrXwXwXwXeXeXwXwXwXrXrXyXyXyXyXyXyXwXwXwXwXrXwXwXwXwXwXwXwXwXwXwXwXrXrXrXrXuX<Xr.e..X;X<X0X6X;X%X6XwXwXwXwXwXwXwXwXwXwXrX#X{.6XwXwXwXwXwXwXwXwXwXwXwXwXwX6X{.XXwXwXwXwX0X<X;X;X;X;X;X,X6X0XwX0X0X0X0X0XwXwX0X0X0X0X0X0X0X0X0X0X6X6X6X6X6X6X6X6X6X<X<X6X6X6X,X,X,X<X<X,X,X;X;X;X,X<X,XXXH.H.!.'.}.|.#X'.v.5.,.k.'.#X|.|.'.^.^.'.'.^.G.c.e.k.G.|.;X;X%X}.^.|.}.{.Y.Y.U.^.}..X$X$X*X*X",
"$X*X*X;X*X.X!.F.Z.N.F.}.XX;X<X<X$XH.C.Z.U.A.Z.U..X.X#X#X#X#X#X#X'.p.-.5.M.Y.T.|.|.|.|.|.H.N.^.;X,X,X*X.X*X;X<X,X<X<X<X<X6X6X6X6X6X6X6X6X6X6X6X6X6X6X6X6X0X0X0X0X0X0X0X0X0X0X0X0X0XwXwX0X6X,X;X;X;X;X;X>X6XwXrXyXyX>X{.;XyXrXwXwXrXrXrXrXwXwXwXwX0XwX,XH.;X0XwXwXwXwXrXrXrXrXwXwX<X6XtXrX<X XU.v.6.|.rXrXwXwXwXwXwXwXyXyXwXwXwXwXwXwXwXwXwXwXwXwXrXrXyXyXrXrXrXrXrXrXrXrXrXrXrXrXrXrXrXrXrXrXrXrXyXyXyXyXrXrXrXrXrXrXrXrXtXyXyX6XG.,XyX,X}.6XaXyXyXyXyXyXyXyXyXyXyXyXyXyXyXyXyXyXyXyXyXyXyXyXyXyXyXyXyXyXyXyXyXyXyXyXyXyXyXyXyXyXyXyXyXyXyXyXyXyXyXyXyXyXyXyXyXyXyXyXyXyXyXyXyXyXyXyXyXyXyXyXyXyXyXyXyXyXyXyXyXyXyXuX6X X0XsX;XG.6XwXyXrXyXyXyXyXyXrXrXrXrXyXyXrXrXrXrXrXrXrXrXrXwXwXeXeXwXwXwXwXrXrXyXyXyXyXyXyXwXwXwXrXrXwXwXwXwXwXwXwXwXwXwXwXrXrXrXrXyXwX^.<.N.*X,X0X6X<X%X;XwXwXwXwXwXwXwXwXwXrXyXwX}. X6XrXwXwXwXwXwXwXwXwXwXwXrXrX<XY.$XrXwXwXwX6X<X>X,X;X;X;X,X6XwX0X0X0X0X0XwXwX0X0X0X0X0X0X0X0X0X0X6X6X6X6X6X6X6X6X6X6X6X6X6X6X<X,X,X<X,X,X5X,X;X;X;X,X0X,X.XH.H.Y.^.'.'.#X|.F.5.3.s.U.|.|.'.^.^.'.'.'.}.U.c.9.y.B.}.;X,X$X#X%X%XXX}.Y.F.^.$X,X*X*X*X*X",
">X;X;X;X$XXXXX{.U.Z.G..X7XwX7X#XZ.N.Z.H.F.F.Y..X|..X#X$X$X#X#XU.3.@.a.H.^.'.|.@X#X'.U.F.N.^.*X;X,X;X^.$X>X<X<X<X6X6X6X6X6X6X6X6X6X6X6X6X6X6X6X6X0X0X0X0X0X0X0X0X0X0X0X0X0X0X0X0XwXwXrXwX,X;X>X>X;X;X>X<XwXyXrXyX<XY.;XwXwXwXwXwXrXrXrXrXrXwXwXrXwX,XJ.;XwXwXwXwXwXwXrXrX0XrXwX0X<XwXtX6X;XN.S.a.Y.6XyXaXyXrXyXrXrXrXrXrXrXrXrXrXrXrXrXrXrXrXyXyXyXrXrXrXrXrXrXrXrXrXrXrXrXrXrXrXrXrXrXrXrXrXrXrXrXrXrXrXyXyXyXyXyXtXtXtXuXuXyX,XZ.wXwX6XXXyXaXyXyXyXyXyXyXyXyXyXyXyXyXyXyXyXyXyXyXyXyXyXyXyXyXyXyXyXyXyXyXyXyXyXyXyXyXyXyXyXyXyXyXyXyXyXyXyXyXyXyXyXyXyXyXyXyXyXyXyXyXyXyXyXyXyXyXyXyXyXyXyXyXyXyXyXyXyXyXyXyXyXyXyXwX{.;XyXwXJ.$XyXyXrXyXyXyXyXyXyXyXyXyXyXyXyXyXyXyXyXyXyXyXyXyXyXyXyXyXyXyXyXyXyXyXyXyXyXyXyXrXrXrXrXrXrXrXrXrXrXrXrXrXrXyXyXyXrXrXrXyXuX0XZ.5.U.,X0X6X6X;X$X<XwXrXwXwXwXwXwXwXrXrXrX0X^.XX0XyXrXwXwXwXwXwXwXrXrXrXrXrX>X}..XrXrXwXrX0X<X,X,X>X>X;X,X6X0XwXwXwXwXwXwX0X0X0X0X0X0X0X0X0X6X0X6X6X6X6X6X6X6X6X6X6X6X6X6X6X6X<X<X<X<X5X5X,X;X*X6X>X;X*X XY.G.G.Y.^.}.|..XG.s.,.k.Y.}.}.Y.'.}.}.'.#X'.F.v.s.a.c.Y.>X,X,X*X%XXX.X.X.X.X$X$X*X*X*X*X",
";X;X*X$X$X$X$X$X*X$X.X}.;X*XY.A.F.Z.N.N.F.Y..X$X$X$X*X*X#X.XN.-.>.N.Y.^.^.^.|.|.Y.U.U.G.}.;X<X,X$X^..X,X<X<X<X<X6X6X6X6X6X6X6X6X6X6X6X6X6X6X6X6X0X0X0X0X0X0X0X0X0X0X0X0X0X0X0XwXwXwX6X,X;X>X>X4X;X,X6XwXyX0XwX6X{.>XrXrXwXwXwXwXrXrXrXrX9XwXrXrX<XY.*XwXwXwXwXwXwXwXrXrXrXrXwX<XwXwX6X;XF.Z.a.Z.5XyXaXyXyXyXrXrXrXrXrXrXrXrXrXrXrXrXrXrXrXrXyXrXyXrXrXrXrXrXrXrXrXrXrXrXrXrXrXrXrXrXrXrXrXrXrXrXrXrXrXrXyXyXyXyXyXyXtXtXuXyXrX$XF.aXyX;X%XyXaXyXyXyXyXyXyXyXyXyXyXyXyXyXyXyXyXyXyXyXyXyXyXyXyXyXyXyXyXyXyXyXyXyXyXyXyXyXyXyXyXyXyXyXyXyXyXyXyXyXyXyXyXyXyXyXyXyXyXyXyXyXyXyXyXyXyXyXyXyXyXyXyXyXyXyXyXyXyXyXyXyXyXyXyXXX*XrXwX{.|.rXyXyXyXyXyXyXyXyXyXyXyXyXyXyXyXyXyXyXyXyXyXyXyXyXyXyXyXyXyXyXyXyXyXyXyXyXyXyXrXrXrXrXrXrXrXrXrXrXrXrXrXrXyXrXyXrXrXrXyXyXyX;Xe.e.#X5X6X6X<X;X>X6XwXyXwXwXwXwXwXrXrXrXsX6XY.*XwXwXwXwXwXwXwXwXrXrXrXrXrXwX;X}.$XyXrXwXwX0X5X,X>X>X;X;X,X6X0X0XwXwXwXwX0X0X0X0X0X0X0X0X0X6X0X6X6X6X6X6X0X6X6X6X6X6X6X6X6X6X6X<X<X<X,X,X,X;X}. XXX;X;X$X XJ.H.U.Y.^.'.'..XY.b.5.a.G.^..X'.'.|..X#X|.'.U.N.j.s.x.H..X$X}.#X#X$X*X*X*X*X*X*X*X*X*X",
"$X$X#X$X$X$X;X;X*X5X5X;XY.Z.F.Y.G.F.N.b.U.|.$X*X;X=X*X*X}.v.@.8.A.Y.}.'.^.'.^.Y.U.I.Y.#X,X,X>X$X}..X6X,X<X<X<X<X6X6X6X6X6X6X6X6X6X6X6X6X0X0X0X0X0X0X0X0X0X0X0X0XwXwX0XwXwXwXwXwXwX6X,X;X>X>X,X,X,X6XwXrXuXyX5XY.$XrXwXuXwXwXwXwXrXrXrXrXwXrXwX9X X XwXyXwXwXwXwXwXwXrXrXyXwX0X0XwXwX>X}.D.Z.a.#XwXrXyXyXyXyXyXyXrXrXyXyXrXyXrXrXrXrXrXrXrXrXrXrXrXrXrXrXrXrXrXrXyXyXrXrXrXrXrXrXyXyXrXrXrXrXrXrXrXrXrXrXyXyXyXyXyXyXtXtXuXyX0X^.}.yXyX$X,XyXaXuXyXyXyXyXyXyXyXyXyXyXyXyXyXyXyXyXyXyXyXyXyXyXyXyXyXyXyXyXyXyXyXyXyXyXyXyXyXyXyXyXyXyXyXyXyXyXyXyXyXyXyXyXyXyXyXyXyXyXyXyXyXyXyXyXyXyXyXyXyXyXyXyXyXyXyXyXyXyXyXyXuXyXuX,XXXwXyX*XY.6XrXyXyXyXyXyXyXyXyXyXyXyXyXyXyXyXyXyXyXyXyXyXyXyXyXyXyXyXyXyXyXyXyXyXyXyXyXyXrXrXrXrXyXyXrXrXrXrXrXrXrXrXrXrXrXrXrXrXyXrXyXwX}.<.c.*X6X0X0X6X;X<X0XyXwXwXwXwXrXrXrXrXyXuX<X{.<XrXwXyXwXwXwXwXrXrXrXrXrXrXwX>X|.;XwXrXrXwX6X5X,X;X;X;X;X,X6X0XwXwXwXwXwXwXwXwX0X0X0X0X0X0X0X0X0X0X0X0X0X0X6X6X6X6X6X6X6X6X6X6X6X<X<X<X>X>X,X.XD.Y.XX;X*XXX^.J.Y.Y.Y.^.}.^.Y.Z.5.e.F.}.|.}..X$X.X.X#X.XU.N.c.s.s.v.Z.^.#X*X;X;X*X*X*X*X*X*X*X*X",
"$XXXXX|.$X$X$X;X;X;X#XY.N.Z.N.M.A.F.A.M.^..X$X=X;X*X$X#Xa.@.9.Z.Y.'.'.}.'.^.Y.U.G.|.;X>X,X%X}.!.;X,X6X,X<X<X<X<X6X6X6X6X6X6X6X6X6X6X6X6X0X0X0X0X0X0X0X0X0X0X0X0XwXwXwXwXwXwXwXwX6X;X;X>X4X,X,X,X6XrXrXrXrX<X|.XXwXyXrXwXwXwXwXwXrXrXrXrXrXtXwXXX{.wXyXyXwXwXwXwXwXwXrXrXrX0X0XwXwX,X$XJ.'.a.U.5XwXwXyXyXyXyXyXrXrXrXyXyXrXrXrXrXrXrXrXrXrXrXrXrXrXrXrXrXrXrXrXrXyXyXrXrXrXrXrXrXyXyXrXrXrXrXrXrXrXrXrXrXyXyXyXyXyXyXtXtXuXyX6XG.*XrXwX$X5XyXuXuXyXyXyXyXyXyXyXyXyXyXyXyXyXyXyXyXyXyXyXyXyXyXyXyXyXyXyXyXyXyXyXyXyXyXyXyXyXyXyXyXyXyXyXyXyXyXyXyXyXyXyXyXuXuXyXyXyXyXyXyXyXyXyXyXyXyXyXyXyXyXyXyXyXyXyXuXyXyXyXyXuXyXsX0XXXwXuX,XG.,XwXyXyXyXyXyXyXyXyXyXyXyXyXyXyXyXyXyXyXyXyXyXyXyXyXyXyXyXyXyXyXyXyXyXyXyXyXyXrXrXrXrXyXrXrXrXrXrXrXrXrXrXrXrXrXrXrXrXyXwXyXrX0XZ.<.Y.<X0XwXrX<X,X<XwXwXwXwXwXyXyXrXrXrXrXrX>X.X0XwXyXwXwXwXwXrXrXrXrXrXrXrXrX5X{.;XwXwXrXwX6X5X>X;X;X;X;X,X6XwXwXwXwXwXwXwXwX0X0X0X0X0X0X0X0X0X0X0X0X0X0X0X6X6X6X6X6X6X6X6X6X6X6X6X6X<X,X<X>XXXY.U.XX;X;X#XY.Y.Y.Y.Y.'.Y.}.'.H.9.<.x.U..X#X$X$X*X*X$X#XH.M.s.a.r.a.N.Y..X*X*X*X*X*X*X*X$X$X$X",
"XXXX$X$X$X$X$X;X*X|.N.a.j.k.x.c.v.N.A.H.#X=X;X;X$X*XU.5.>.s.A.U.Y.^.^.^.^.H.G.U..X;X5X5X%X}.}.;X,X5X<X<X<X<X5X6X6X6X6X6X6X6X6X0X0X0X0X0X0X0X0X0X0X0X0X0XwXwXwX0XwXwXwXwXwXwXwX0X>X;X>X,X4X,X,X5XrXyXyXrX6XXX$XwXrXrXrXrXrXrXrXrXwXwXrXrXrXwX$XH.6XyXuXyXwXwXwXwXrXrXrXwX,X<XwXwX0X;X.X|.M.N.5XwXrXrXrXrXyXyXyXyXyXyXyXyXyXyXyXyXyXyXyXyXyXyXyXyXyXyXyXyXyXyXyXyXyXyXyXyXyXyXyXyXyXyXyXyXyXyXyXyXyXyXyXyXyXyXyXyXyXyXyXyXyXwX*XG.6XyX<X;XrXaXuXuXuXuXuXuXuXuXuXuXuXuXuXuXuXuXuXuXuXyXyXyXyXyXyXyXuXuXuXuXyXyXyXyXyXyXyXyXyXyXyXyXyXyXyXyXyXyXyXyXyXyXyXyXuXyXyXyXyXyXuXuXyXyXyXyXyXyXyXyXyXyXyXyXyXyXyXuXyXyXyXyXuXuXyXyX;X,XuXwX}.{.yXuXyXyXyXyXyXyXyXyXyXyXyXyXyXyXyXyXyXyXyXyXyXyXyXyXyXyXyXyXyXyXyXyXyXyXyXyXyXyXyXyXyXyXyXyXyXyXyXyXyXyXyXyXyXyXyXyXyXyXyXyXyX;Xs.r.XX6XqXwXwX<X,X<XwXyXyXwXrXrXyXyXrXrXrXrX*XXXyXyXrXwXwXwXrXrXrXrXrXrXrXrXrX>X}.,XyXyXrXwX6X>X;X;X;X;X;X,X6XwXwXwXwXwXwXwXwXwXwXwXwXwXwXwXwXwXwXwX0X0X0X0X0X0X0X0X6X6X6X6X6X6X6X6X6X<X<X<X<X;XXX{.$X;X;X$X.XU.H.U.^.^.Y.Y.^.U.x.#.6.D.|.*X*X*X*X$X|.Y.F.M.b.k.e.8.r.M.^.$X*X*X;X$X$X$X$X$X",
"XXXX$X$X$X$X$X}.F.a.e.r.r.a.s.j.N.N.U..X;X*X=X*X*XM.,.8.N.H.'.^.Y.Y.Y.U.U.H.U..X>X,X,X;X.X|.;X6X5X5X<X<X<X<X6X6X6X6X6X6X6X6X6X0X0X0X0X0X0X0X0X0X0X0X0X0XwXwX0X0XwXwXwXwXwXwX0X,X;X;X,X,X>X,X6XwXwXyXrX5X}.#X6XrXrXrXrXrXrXrXrXrXwXwXrXrXrX;XF.6XyXuXyXrXwXwXwXrXrXrXwX0X5XrXrXwX;XXX$XU.x.%X0XrXrXrXrXrXrXyXyXyXyXyXyXyXyXyXyXyXyXyXyXyXyXyXyXyXyXyXyXyXyXyXyXyXyXyXyXyXyXyXyXyXyXyXyXyXyXyXyXyXyXyXyXyXyXyXyXyXyXyXyXyXyX0X.XU.yXrX<X0XsXsXsXuXuXuXuXuXyXyXyXyXuXuXuXuXuXuXuXyXyXyXyXyXtXtXyXyXyXyXuXuXyXyXyXyXtXtXyXyXyXyXyXyXyXyXyXyXyXyXyXyXyXyXyXyXyXyXyXyXyXyXyXyXyXyXuXuXuXuXuXuXuXuXuXuXuXuXuXuXuXuXuXuXuXuXuXuX0X<XwXrX.XF.<XrXyXyXyXyXyXyXyXyXyXyXyXyXyXyXyXyXyXyXyXyXyXyXyXyXyXyXyXyXyXyXyXyXyXyXyXyXyXyXyXyXyXyXyXyXyXyXyXyXyXyXyXyXyXyXyXyXyXyXyXyXuXrXXXw.j.*X0X0XwXwX<X,X<XwXrXwXrXrXyXyXrXrXrXrXwX}.#XyXrXrXwXwXrXrXrXrXrXrXrXrXyXyX;X|.6XrXrX0X0X<X,X>X;X;X;X;X<X6XwXwXwXwXwXwXwXwXwXwXwXwXwXwXwXwX0XwX0X0X0X0X0X0X0X0X6X6X6X6X6X6X6X6X6X<X<X<X<X<X<X;XXX$X;X;X;X.XU.F.U.Y.Y.U.^.^.U.Z.-.#.c..X$X$X$X$X|.^.U.U.Z.M.s.r.e.8.r.F..X*X*X.X#X#X.X.X",
"$X$X*X;X$X$X^.b.w.5.w.a.r.a.k.c.G.^.#X*X*X#X*X}.s.>.r.U.H.U.Y.Y.Y.U.U.H.H.U.XX;X<X;X%X$X#X>X6X6X5X5X6X6X<X6X6X6X6X6X6X6X6X6X<X<X0X0X0X0X0X0X0X0XwXwXwXwXwXwXwXwXwXwXwXwXwX0X<X>X;X,X,X>X>X5XwXrXrXyX6XXX}.6XyXwXwXrXrXrXrXrXrXrXwXwXwXwX,XF.,XwXuXyXrXrXrXwXrXrXyXrX0X6X0XyXrX,X2XoX^.v.U.qXwXyXyXyXyXyXrXrXyXyXyXyXyXyXyXyXyXyXyXyXyXyXyXyXyXyXyXyXyXyXyXyXyXyXyXyXyXyXyXyXyXyXyXyXyXyXyXyXyXyXyXyXyXyXyXyXyXyXyXyXyXyXyX>X^.!.0X;X3XuXuXuXuXyXuXuXuXuXuXuXuXuXuXaXaXaXuXuXuXuXuXuXuXuXuXuXuXuXuXuXuXuXuXuXuXuXuXuXuXuXuXuXuXuXyXyXyXyXyXyXyXyXyXyXyXyXuXuXuXuXuXuXuXuXuXuXuXuXuXuXuXuXuXuXuXuXuXuXuXuXuXuXuXuXuXuXuXsXsX6X>X<X*XZ.XXyXyXyXyXyXyXyXyXyXyXyXyXyXyXyXyXyXyXyXyXyXyXyXyXyXyXyXyXyXyXyXyXyXyXyXyXyXeXeXyXeXyXyXyXyXyXyXyXyXyXyXyXyXyXyXyXyXyXyXyXtXyXyXiXH.6.A.;X0XwXwX0X<X;X6XwXrXrXrXyXyXrXrXyXyXrX<XY.>XrXrXwXwXrXrXrXrXwXwXwXwXyXyXrX$X$X6XrXwXwX0X<X<X>X>X;X;X,X5X6XwXwXwXwX0XwXwXwXwXwXwX0X0XwXwXwXwX0X0X0X0X0X0X0X0X6X6X6X6X<X<X<X<X<X<X<X<X<X<X<X<X;XXX$X;X,X;X$XY.G.G.U.U.U.^.^.U.Z.<.+.9.^.*X#X.X|.|.'.U.F.N.c.s.e.3.-.<.c.H..X$X#X#X.X.X",
"$X$X;X;X.XF.s.5.5.9.w.s.j.c.N.Z.}.;X,X$X}.U.G.e.<.c.H.Y.U.'.'.U.U.H.G.F.G..X>X<X;X.X.X*X1X6X5X5X5X5X6X6X6X6X6X6X6X6X6X6X6X6X<X<X0X0X0X0X0X0X0X0XwXwXwXwXwXwXwX0XwXwXwXwX0X<X>X,X>X,X4X,X,X9XrXrXyX0X%XY.6XyXyXwXwXwXrXrXrXrXrXrXwXwXwX6XH.*X0XwXyXrXrXrXrXwXrXrXyXrX6X<X0XrX0XXXXXXXN.A.qXqXwXrXyXyXyXyXrXrXyXyXyXyXyXyXyXyXyXyXyXyXyXyXyXyXyXyXyXyXyXyXyXyXyXyXyXyXyXyXyXyXyXyXyXyXyXyXyXyXyXyXyXyXyXyXyXyXyXyXyXyXyXyXwX;X^.|.}.l.OXrXwXwXwXwXwXwXwXwX0X0X0X0X6X6X6X6X6X6X0X0X0X0XwXwXwXwX0X0X0X0X0X0X0X0X0X0XwXwXwXwXwXwXwXwXwXwXwXwXwXwXwXwXwXwXwXwXwXwXwXwXwXwXwXwX0X0X0X0X0X0X0X0X6X<X<X<X<X<X<X<X<X<X<X<X<X<X0X0X<X{.H.$X*X{. XrXyXyXyXyXyXyXyXyXyXyXyXyXyXyXyXyXyXyXyXyXyXyXyXyXyXyXyXyXyXyXyXyXyXyXyXyXeXeXyXyXyXyXyXyXyXyXyXyXyXyXyXyXyXyXyXyXyXyXyXyXtXwXrXwXB.e.H.wXwX0XwX0X;X>X0XyXrXrXrXyXrXrXyXyXrXrX;X^.wXrXrXwXrXrXrXrXwXwXwXwXrXwXyXwX X*X0XyXrXwX0X6X5X,X;X;X;X,X5X6XwXwXwXwXwXwXwXwXwX0X0X0X0XwXwXwX0X0X0X0X0X0X0X0X6X6X6X6X<X<X<X<X<X<X<X<X<X<X<X<X<X;XXX$X=X,X,X*XY.F.F.G.F.U.Y.U.Y.Z.e.[ >.N.}..X}.}.'.U.G.Z.c.s.e.5.<.>.=.r.C.}..X.X.X.X",
";X>X$XY.j.5.2.5.8.w.r.a.j.c.N.G.^..X.X'.N.x.6.1.b.F.U.Y.Y.Y.U.U.U.A.Z.H.*X,X,X;X}.XX;X<X6X6X6X6X5X6X6X6X6X6X6X6X6X6X0X0X0X0X0X0X0X0X0X0X0X0X0X0XwXwX0X0XwXwXwXwXwXwXwX0X6X>X,X,X,X,X4X5XrXrXrXrXyX$XU.5XrXyXrXwXwXwXwXwXrXrXrXrXwXrX6XH.*X6XwXyXyXyXyXyXrXwXrXsXwX0X0XwXrX0X;X$X$XJ.M.;XrXwXrXrXrXrXrXrXrXrXrXrXyXyXyXyXyXyXyXyXyXyXyXyXyXyXyXyXyXyXyXyXyXyXyXyXyXyXyXyXyXyXyXyXyXyXyXyXyXyXyXyXyXyXyXyXyXyXyXyXyXyXyXyXwX;X}.'.*XU.D..XXX*XXXXX;X%X$X$XXX}.{.}.}.}.}.}.}.}.}.^.{.{.{.{.{.{.{.{.{.{.{.{.{.{..X.XXXXXXXXXXX X{.{.oXoXoXoXXXXXXXXX X X X XoX{. X X XoX.X.X.X.XXXXX$X$X$X$XXXXX X X}. X#X$X$X$XXX X X X XXX#X{.#X;X$X X;XwXyXyXyXyXyXyXyXyXyXyXyXyXyXyXyXyXyXyXyXyXyXyXyXyXyXyXyXyXyXyXyXyXyXyXyXyXyXyXyXyXyXyXyXyXyXyXyXyXyXyXyXyXyXyXyXyXyXyXyXyXyXyXyXyX;Xs.a.;XrXwXwXwX>X;X<XwXyXyXyXyXyXyXyXyXwXuXyX,XY.<XyXyXrXrXwXyXrXrXwXwXrXrXrXrX6X{.XXwXuXrXwX6X6X5X,X>X,X>X;X>XwXrXwXwXwXwXwXwXwXwXwXwXrXwXwXwX0X0XwXwX0X0X0X0X0X0X0X0X6X6X6X6X6X6X6X6X<X<X<X<X<X,X;X$X$X;X>X>X$X{.H.F.F.F.F.G.U.H.F.k.@.[ s.F.H.U.U.F.M.c.j.s.s.a.e.9.5.=.=.e.Z.H.}..X",
"b.t.5.>.=.>.<.5.e.r.a.s.s.s.j.j.a.s.a.r.5.<.w.b.N.H.Y.Y.Y.Y.U.I.F.F.!.*X<X,X*X.XXX;X,X,X6X6X6X6X5X6X6X6X6X6X6X6X6X0X0X0X0X0X0X0X0X0X0X0X0X0X0X0XwXwX0X0XwXwXwXwXwXwXwX<X>X>X,X,X,X,X5XrXrXyXtXtX$XJ.;XrXyXrXwXwXwXwXwXwXrXrXrXrXyXrX}.U.6XrXyXrXyXyXyXyXrXrXrXyX6X6XwXyX0X,X;X$X}.M.|.rXrXrXrXrXrXrXrXrXrXrXrXrXyXyXyXyXyXyXyXyXyXyXyXyXyXyXyXyXyXyXyXyXyXyXyXyXyXyXyXyXyXyXyXyXyXyXyXyXyXyXyXyXyXyXyXyXyXyXyXyXyXyXyXyXwX<X*X$X=X>X*X$XwXwXwXwXuXtXtXyXrXrXtXaXaXaXaXaXuXuXuXuXyXyXyXyXyXyXyXuXyXyXyXyXyXyXyXyXyXyXyXyXyXyXyXyXyXyXyXtXtXtXrXrXrXrXrXwXrXrXtXtXyXyXyXyXyXrXyXyXyXyXrXyXyXyXyXyXuXuXuXuXrXrXrXrXwXrXuXsXwXXX{.}.$X<XwXuXyXyXyXyXyXyXyXyXyXyXyXyXyXyXyXyXyXyXyXyXyXyXyXyXyXyXyXyXyXyXyXyXyXyXyXyXyXyXyXyXyXyXyXyXyXyXyXyXyXyXyXyXyXyXyXyXyXyXyXyXyXyXyXuXwX.Xw.G.6X0X0XwX<X;X>X6XyXyXyXyXyXyXyXyXtXyXuXwXXX{.wXyXrXrXwXyXyXrXwXwXrXrXwXrXrX6X{.;XrXyXrXwX0X6X5X,X,X;X;X;X6XwXwXwXwXwXwXwXwXwXwXwXrXrXwXwX0X0XwXwX0X0X0X0X0X0X0X0X6X6X6X6X6X6X6X6X6X<X<X<X<X<X,X;X$X#X$X;X;X$X{.J.H.F.F.F.H.G.F.F.F.,.[ -.w.r.a.e.r.a.s.s.s.a.r.e.5.,.-.-.-.3.s.N.",
"t.t.j.N.N.Z.D.D.A.F.F.F.G.F.b.j.5.<.>.>.r.a.k.v.F.J.Y.U.U.U.G.F.H.^.=X0X,X*X.X.X;X>X,X,X6X6X6X6X6X6X6X6X6X6X6X6X0X0X0X0X0X0X0X0X0X0X0X0XwXwXwXwXwXwXwXwXwXwXwXwXwX0X6X,X>X>X,X,X,X5XqXyXrXyXwX>XU.,XrXwXrXrXrXwXwXwXwXwXrXrXrXrXwX%X^.6XrXyXrXrXyXyXyXyXrXyXrXwX5X0XrX0X,X;X*XXXD.U.rXaXyXrXrXrXrXyXrXrXrXrXrXrXyXyXyXyXyXyXyXyXyXyXyXyXyXyXyXyXyXyXyXyXyXyXyXyXyXyXyXyXyXyXyXyXyXyXyXyXyXyXyXyXyXyXyXyXyXyXyXyXyXyXyXyXyXwX0X6X#X=X%X;XwXyXuXyXuXuXsXsXtXuXfXsXsXsXsXsXfXfXfXsXuXuXuXuXuXsXgXgXgXpXpXpXgXgXgXpXfXuXuXsXsXfXfXjXhXhXhXhXsXsXhXhXhXhXhXhXhXgXsXsXsXsXsXsXsXgXsXsXuXuXsXsXsXsXhXhXjXfXfXfXsXsXsXsXuXsXrX,XY.F.}.$X6XrXyXsXyXyXyXyXyXyXyXyXyXyXyXyXyXyXyXyXyXyXyXyXyXyXyXyXyXyXyXyXyXyXyXyXyXyXyXyXyXyXyXyXyXyXyXyXyXyXyXyXyXyXyXyXyXyXyXyXyXyXyXyXyXyXyXuXyXwXZ.r. X6X0XwX6X<X>X>XrXyXrXyXyXyXyXyXyXtXtXuXwXoX.XwXrXrXyXyXeXeXwXwXrXwXrXwXrXsX0X{.>XwXrXyXwX0X6X5X5X,X>X>X>X<XwXwXwXwXwXwXwXwXwXwXrXrXrXrX0X0X0XwX0X0X0X0X0X0X0X0X6X6X6X6X6X6X6X6X6X<X<X<X<X<X<X,X;X$XXXXX$X;X*X X'.U.F.F.G.F.F.F.U.F.r.[ ^ =.9.a.x.b.N.A.F.A.Z.Z.Z.B.B.N.k.a.e.w.",
"{.{.{.}.XX}.}. X}.'.'.'.^.}.'.U.A.b.x.c.M.k.j.b.H.Y.^.U.U.H.F.F..X;X5X>X$X}.$X,X<X,X,X6X6X6X6X6X6X6X6X6X6X6X6X6X0X0X0X0X0X0X0X0X0X0X0X0XwXwXwXwXwXwXwXwXwXwXwXwXwX6X,X,X>X>X,X,X4X6XwXyXrXyX>XJ.>XrXrXyXrXrXwXwXwXwXwXwXrXrXrXrX;XU.,XrXyXyXrXrXyXyXyXyXyXyXyX0X6XwX0X>X$X$X;XJ.D.5XrXwXyXrXrXrXyXyXrXrXrXrXrXrXyXyXyXyXyXyXyXyXyXyXyXyXyXyXyXyXyXyXyXyXyXyXyXyXyXyXyXyXyXyXyXyXyXyXyXyXyXyXyXyXyXyXyXyXyXyXyXyXyXyXyXyXuXyXyXyXqX5X*X.X{..XXXXX;X>X<X<X<X6X5X,X>X>X>X>X;X;X;X&X$X$X$XXXXX*X;X;X;X;X;X;X;X;X;X*X*X$X$XXXXX$X$X%X%X%X%X%X$X$X$X$X$X$X%X%X*X;X;X;X>X>X>X>X;X;X;X;X$X$X$X$X$X;X;X;X>X>X6X6X6X9XwXrXwX;X.X}.;X;XwXwXyXuXuXuXyXyXyXyXyXyXyXyXyXyXyXyXyXyXyXyXyXyXyXyXyXyXyXyXyXyXyXyXyXyXyXyXyXyXyXyXyXyXyXyXyXyXyXyXyXyXyXyXyXyXyXyXyXyXyXyXyXyXyXyXyXyXyXyXrXwX;Xs.c.;X6X0X6X0X,X;X6XyXrXyXyXyXyXyXyXwXrXuXuXwX{.*XrXrXyXyXeXeXwXwXrXwXrXrXyXyXrX>XY.<XwXrXrXwX0X6X5X<X,X>X;X>X<XwXwXwX0X0XwXwXwXwXrXrXrXrX0X0X0XwX0X0X0X0X0X0X0X0X6X6X6X6X6X6X6X6X6X6X<X<X<X<X<X<X6X;X$X.X.X;X,X;X$X^.H.F.F.F.G.H.F.U.F.r.-.e.b.F.A.F.U.Y.^.^.'.'.`.|.|.'.|.|.Y.G.",
"{.{.{.{. X}.}. X}.}.}.|.}.|.'.Y.F.N.j.e.e.a.b.F.U.U.^.H.A.A.H..X,X0X>X.X.X$X;X,X6X6X6X6X6X6X6X6X<X6X6X6X6X6X0X0X0X0X0X0X0X0X0X0XwXwXwXwXwXwXwXwXwXwXwXwXwXwXwXwX6X,X>X,X,X>X>X<X6XrXyXrXrX;XF.#X0XrXrXrXrXrXrXrXrXrXwXwXrXwXyX,XU.;XrXrXrXrXyXyXyXyXyXyXyXyX0X6X6X0X;X;X;X*X}.F.;XwXyXyXyXyXyXyXyXyXyXyXyXyXyXyXyXyXyXyXyXyXyXyXyXyXyXyXyXyXyXyXyXyXyXyXyXyXyXyXyXyXyXyXyXyXyXyXyXyXyXyXyXyXyXyXyXyXyXyXyXyXyXyXyXyXyXyXuXuXyXyXyXyXyXwX;XF.c.N.U.U.U.U.G.G.G.G.|..X$XXX#X#X$X$X#X#X#X.X|.}.|.}.}.}.}.}.}.}. X X|.|.|.|.#X#X#X%X%X#X#X#X#X#X#X#X%X$X%X$X#X#XXXXXXXXX.XXXXXXXoX{.{.}.}.}.}.}.{.{.F.N.J.J.Y.{.J.B.b.J.;XwXwXrXyXyXyXyXuXuXyXyXyXyXyXyXyXyXyXyXyXyXyXyXyXyXyXyXyXyXyXyXyXyXyXyXyXyXyXyXyXyXyXyXyXyXyXyXyXyXyXyXyXyXyXyXyXyXyXyXyXyXyXyXyXyXyXyXyXyXyXyXyXyXyXrX0XXXj.J.<XwX6X0X0X<X,X6XwXyXyXyXyXyXtXtXtXtXrXuX<X!.;XyXyXwXeXeXeXyXyXyXyXrXrXrXrXrX$X{.;XwXwXyXyXwX<X;X,X6X<X>X>X6XwXwXwXwXwXwXwXwXwXwXwXwXwXwXwXwXwXwXwXwX0X0X0X0X0X0X0X0X6X6X6X6X6X6X6X<X<X<X<X<X,X<X<X;X$XXX;X>X>X$X}.H.A.F.F.D.F.Z.F.M.e.a.a.e.s.b.F.Y.^.}.}.}.|.|.|.|.'.|.|.|.",
"}.{.{.}.}.}.}. X}.}.}.|.'.'.U.Z.v.A.N.s.6.a.c.M.F.G.U.Z.F.U.$X>X<X;X.X.X$X;X,X,X6X6X6X6X6X6X6X6X6X6X6X6X0X0X0X0X0X0X0X0X0X0X0X0XwXwXwXwXwXwXwXwXwXwXwXwXwXrXwX5X5X,X,X>X>X>X<X6XwXyXyXyX5XH.|.0XwXrXrXrXrXrXrXrXrXrXwXwXuXuX6XH.$XwXuXrXrXrXyXyXyXyXyXyXrXwX0X6X0X<X;X>X>X XF.}.wXyXyXyXyXyXyXyXyXyXyXyXyXyXyXyXyXyXyXyXyXyXyXyXyXyXyXyXyXyXyXyXyXyXyXyXyXyXyXyXyXyXyXyXyXyXyXyXyXyXyXyXyXyXyXyXyXyXyXyXyXyXyXyXyXyXyXyXuXuXyXyXyXuXsXsXhX6X=X5X>X>X>X>X5X5X#XF.5X5X<X,X,X1X5X5X6X6X6X6X6X6X6X6X6X6X6X6X6X5X6X6X6X6X6X7X7X5X5X5X5X5X5X5X5X5X5X5X5X5X7X7X6X6X6X6X6X6X6X6X<X<X<X<X6X6X0X0X0X0X0X6X$X X<X6X,X>X$XY.H.;XsXuXuXyXyXyXyXuXuXuXyXyXyXyXyXyXyXyXyXyXyXyXyXyXyXyXyXyXyXyXyXyXyXyXyXyXyXyXyXyXyXyXyXyXyXyXyXyXyXyXyXyXyXyXyXyXyXyXyXyXyXyXyXyXyXyXyXyXyXyXyXyXyXyXyXyXrX0XJ.s.{.wX6X0X0X6X5X,X6XwXyXyXyXyXtXtXtXtXrXuXyX;X}.>XyXyXeXeXeXeXyXyXyXrXrXrXrXrXrX$XJ.;XwXyXrXwX0X,X;X;X>X;X;X;X,XwXwXwXwXwXwXwXwXwXwXwXwXwXwXwXwXwXwXwX0X0X0X0X0X0X0X0X6X6X6X6X6X6X6X<X<X<X<X<X,X,X,X<X;X$XXX;X,X;XXXY.Z.N.N.N.Z.Z.M.a.x.j.r.5.e.s.N.H.Y.^.}.}.}.|.|.|.'.|.|.|.",
"}.{.{.}.}.}.}.}.}.}.|.}.'.F.b.k.Z.Y.Y.N.x.k.v.M.M.f.v.F.}.$X,X<X;XXX.X*X;X,X,X,X6X6X6X6X6X6X6X6X0X0X0X0X0X0XwXwX0X0X0X0XwXwX0X0XwXwXwXwXwXwXwXwXwXwXwXwXwXwX6X,X5X5X5X,X>X,X6XwXyXyXrX6X}.|.0XwXrXwXwXwXrXrXrXrXrXwXwXwXuX0X^..X0XyXuXtXrXrXyXyXyXyXyXyXwX0X0XwX6X>X>X>X$XF.H.6XyXyXyXyXyXyXyXyXyXyXyXyXyXyXyXyXyXyXyXyXyXyXyXyXyXyXyXyXyXyXyXyXyXyXyXyXyXyXyXyXyXyXyXyXyXyXyXyXyXyXyXyXyXyXyXyXyXyXyXyXyXyXyXyXyXyXyXyXuXuXuXuXuXuXsXsXyX0X6XqXwXrXrXrXrXrX*XD.,X;X*X*X*X$X;X;X;X;X;X;X>X,X,X>X>X>X>X>X>X,X>X,X,X,X,X,X<X<X,X>X,X,X,X,X>X,X;X>X>X>X,X,X,X,X,X,X<X<X<X<X,X,X,X,X,X>X>X>X>X>X,X,X$X.X6XwXrXyXrXwX>X>X6XrXyXyXuXuXuXuXyXyXyXyXyXyXyXyXyXyXyXyXyXyXyXyXyXyXyXyXyXyXyXyXyXyXyXyXyXyXyXyXyXyXyXyXyXyXyXyXyXyXyXyXyXyXyXyXyXyXyXyXyXyXyXyXyXyXyXyXyXyXyXyXyXyXyXyXyXrX<XD.j.XXwX0XwX0X6X5X,X6XyXyXyXyXtXtXyXyXyXuXyXrX;X{.<XrXeXeXyXyXyXyXyXrXrXwXwXwXyXrX$XJ.;XrXyXrXwX0X>X$X.X#XXX|.$X,XwXwXwXwXwXwXwXwXwXwXwXwXwXwXwXwXwXwX0X0X0X0XwXwX0X0X0X0X0X0X6X6X6X6X<X<X<X<X,X<X,X,X,X;X$XXX;X;X%X|.Y.U.H.F.Z.M.r.6.D.F.Z.N.k.k.b.A.U.Y.'.}.}.}.'.'.'.}.}.}.",
"}.{.{.}.}.}.}.}.}.|.}.Y.F.k.j.A.].'.^.U.b.x.M.'.#XF.G.Y.$X;X;X;X.X$X;X6X,X,X,X<X6X6X6X6X6X6X6X6X0XwXwX0X0XwXwXwX0X0X0X0XwXwX0XwXwXwXwXwXwXwXwXwXwXwXwXwXrX5X,X6X6XqX6X5X<X6XwXyXyXwX6X}.{.6XrXwXwXwXwXwXrXrXrXrXwXwXwXwXwX}.}.wXyXyXyXtXtXrXyXyXwXyXuXyX0X6XwXwX<X,X6X;X{.Y.;XrXyXyXyXyXyXyXyXyXyXyXyXyXyXyXyXyXyXyXyXyXyXyXyXyXyXyXyXyXyXyXyXyXyXyXyXyXyXyXyXyXyXyXyXyXyXyXyXyXyXyXyXyXyXyXyXyXyXyXyXyXyXyXyXyXyXyXyXyXyXuXuXuXyXuXyXyX0X0XwXyXyXyXyXyXyXuX6X$X0X6X<X,X,X,X,X,X<X<X<X,X,X,X<X<X<X<X<X<X<X<X<X<X<X<X<X<X,X<X6X6X6X5X5X5X5X5X5X5X5X5X5X,X<X<X6X6X6X6X6X6X<X,X;X;X>X>X>X;X;X;X>X,X*X.X6X0X6X0X0XwXrX<X;X>X,X6XwXyXyXyXyXyXyXyXyXyXyXyXyXyXyXyXyXyXyXyXyXyXyXyXyXyXyXyXyXyXyXyXyXyXyXyXyXyXyXyXyXyXyXyXyXyXyXyXyXyXyXyXyXyXyXyXyXyXyXyXyXyXyXyXyXyXyXyXyXyXyXyXyXyXwX;XZ.c.6X0XwXwX6X6X5X,XrXyXyXyXtXyXyXyXyXyXyXuXyX;X{.6XeXeXyXwXyXyXyXrXrXwXwXwXuXsXrX XU.,XaXrXwXrX0X>X,X5X6X5X>X,X6XwXwXwXwXwXwXwXwXwXwXwXwXwXwXwXwXwX0X0X0X0XwXwXwX0X0X0X0X0X6X6X6X6X6X<X<X<X<X<X,X,X,X>X;X$X#X%X%X#X;X5X;X}.s.r.8.d.}.}.'.U.F.v.s.k.A.U.Y.^.^.^.^.^.'.'.}.}.",
"}.}.}.}.}.}.}.|.^.Y.U.N.a.k.F.}.'.'.Y.I.B.d..X*X'.%X;X,X$XXXoXoXXX;X<X6X<X<X6X6X6X6X6X6X6X6X6X0X0X0X0X0XwX0X0X0XwX0X0X0XwXwXwXwXwXwXwXwXwXwXwXwXwXwXwXwX;X,X5X6X6X6X6X6X0XwXyXyXuXwX X}.<XrXrXrXwXwXwXwXrXrXrXwXwXwXyXyX}.^.6XrXyXyXyXyXyXyXyXyXyXuXyX6X;X6X6X<X<X5X,X|.J.$XwXyXyXyXyXyXyXyXyXyXyXyXyXyXyXyXyXyXyXyXyXyXyXyXyXyXyXyXyXyXyXyXyXyXtXtXtXtXyXyXyXyXyXyXyXyXyXyXyXyXuXuXuXuXuXuXyXyXuXyXyXyXyXyXyXyXyXyXyXyXyXyXuXuXrXwXyXsXhXsXyXwXyXrX0X6X<X<X0XyXsXsXsXsXgXuXuXuXuXuXuXuXuXuXuXuXuXuXuXuXuXuXuXuXuXuXsXsXsXsXsXsXsXsXsXsXsXsXsXsXsXsXsXuXuXuXuXuXuXuXsXsXsXsXsXsXsXuXuXaXuXuXuXuXrXwXwXwXwXrXyXyXuXuXyXrXwXwX<X<X0XrXyXyXyXyXyXyXuXuXuXyXyXyXyXyXyXyXyXyXyXyXyXyXyXyXyXyXyXyXyXyXuXuXuXuXuXuXyXyXyXyXyXyXyXyXyXyXyXyXyXyXyXyXyXyXyXyXyXyXuXuXuXuXyXyXuXuXuXuXuXuXwXrX#Xc.F.6X,X4X<X0X5X;X6XuXsXrXyXyXyXyXyXyXyXyXuXrXXX.XwXuXrXrXyXyXyXyXrXrXrXrXyXuXuX0X|.Y.5XyXyXyXyXwX6X6X6X<X5X,X<X6XwXwXwXwXwXwXwXwXwXwXwXwXwXwXwXwX0X0X0X0X0X0X0X0X0X0X6X6X0X6X6X6X<X<X<X<X6X<X<X<X,X,X>X;X*X$X*X*X;X,X;X!.j.k.e.c.H.{.}.'.U.F.b.a.v.N.D.U.!.^.^.^.}.}.|.|.",
"|.|.|.}.}.'.'.^.Y.H.M.a.v.F.'.}.'.Y.U.D.c.,.N.M.|.$X;X;X$X.XoXOX;X<X6X<X<X6X6X6X6X6X0X6X6X6X0X0X0X0X0X0XwX0X0X0XwXwXwX0XwXwXwXwXwXwXwXwXwXwXwXwXwXwXwX<X,X<X6X6X6X5X6X0XwXrXyXyXyXXXY.>XrXrXrXrXwXwXwXwXrXrXwXwXyXyXyX;XJ.6XuXyXyXyXyXyXyXyXyXyXyXuXwX;X*X;X>X;X>X;X#XY..X0XyXyXyXyXyXyXyXyXyXyXyXyXyXyXyXyXyXyXyXyXyXyXyXyXyXyXyXyXyXyXyXyXyXyXtXtXtXtXyXyXyXyXyXyXyXyXyXyXyXyXuXuXuXuXuXuXyXyXuXuXuXyXyXyXyXyXyXyXyXuXyXrXwX0X6XrXaXaXwXwX0X6X<X<X<X<X0X0XwXyXsXsXsXsXuXuXuXuXuXuXuXuXuXuXuXuXuXuXuXuXuXuXuXuXuXuXuXuXsXsXsXsXsXsXsXfXgXgXgXgXuXuXuXuXuXuXuXuXuXuXuXuXsXsXsXsXuXuXuXuXuXaXuXuXyXrXwXwX,X,X6X0XrXyXuXsXsXuXyXwX6X6XyXuXuXuXyXyXuXuXuXuXyXyXyXyXyXyXyXyXyXyXyXyXyXyXyXyXyXyXyXyXuXuXuXuXuXuXuXuXyXyXyXyXyXyXyXyXyXyXyXyXyXyXyXyXyXyXyXyXuXuXuXuXyXyXuXuXuXuXuXuXyXyX6X{.s.|.rX6X6X0X6X;X>X0XyXyXyXyXyXyXyXyXyXyXrXuXwX{.XXwXyXyXyXyXyXyXrXrXrXrXrXyXuXuX6XY.^.6XyXyXyXyX<X<X6X6X6X6X>X>X6XwXwXwXwXwXwXwXwXwXwXwXwXwXwXwX0XwX0X0X0X0X0X0X0X0X0X0X0X6X6X6X<X<X<X<X6X<X6X6X<X,X,X>X>X*X$X*X$X;X,X$XZ.s.5.w.b.U.'.^.^.Y.G.N.j.s.b.D.H.U.^.^.}.}.|.|.",
".X.X|.}.}.'.Y.U.G.c.s.b.U.'.^.].U.F.N.v.y.@.^ s..X$X$X$X.X.X*X;X<X<X<X<X6X6X6X6X0X0X0X0X6X0X0X0X0X0X0X0XwXwXwXwXwXwXwXwXwXwXwX0XwXwXwXwXwXwXwXwXwXwX6X<X<X6X,X,X5X5X0XrXrXyXuXwX>XY.,XwXwXwXwXwXrXrXwXwXwXwXwXwXyXuX<XY.;XyXyXuXyXyXyXyXyXyXyXyXyXyXwX<X6X0X0X6X<X*X^.Y.6XyXyXwXyXyXyXyXyXyXuXuXyXyXyXyXyXyXyXyXyXyXyXyXyXyXyXyXyXyXyXyXyXyXyXyXyXyXyXyXyXyXyXyXyXyXyXyXyXyXyXyXuXuXuXuXuXyXyXyXuXuXuXuXuXyXyXyXyXyXuXuXrX0X6X0XyXyXyXwX0X0X6X6X0XwXwXyXyXuXuXuXsXuXsXsXuXuXuXuXuXuXuXuXuXuXuXuXuXuXuXuXuXuXuXuXuXuXuXuXuXuXuXuXuXuXuXuXsXsXsXsXuXuXuXuXuXuXuXuXuXuXaXaXaXuXaXuXuXuXuXaXuXaXaXaXuXuXyXrXwX0X6X<X<X6X6X0XwXyXsXsXuX6X6XyXuXuXuXuXuXuXuXuXuXyXyXyXuXuXuXuXyXyXyXyXyXyXyXyXyXyXyXyXuXuXyXyXuXuXuXuXyXyXyXyXyXyXyXyXyXyXyXyXyXyXyXtXyXyXyXyXyXyXyXyXyXyXuXuXuXuXuXuXyXuXyX6XH.c.,XyX0X6X6X0X,X6XwXuXyXyXyXyXyXyXyXyXuXrXyX,X!.;XrXyXyXyXyXyXrXrXrXrXrXrXyXuXyX6XU.|.6XyXyXyXrXwX,X;X<X<X<X,X,X6XwXrXwXwXwXwXwXwXwXwXwXwXwXwXwXwXwXwXwXwXwXwX0X0X0X0X0X0X0X0X0X6X<X<X6X6X6X6X6X<X<X,X<X>X*X$X$X$X;X>XU.j.8.w.a.M.A.G.U.^.{.Y.N.k.k.M.C.F.U.Y.'.}.|.|.",
"#X.X|.}.}.^.U.F.k.d.M.Y.'.].U.U.S.N.k.a.a.a.c.Y..X$X$X.X.X*X>X,X<X<X<X6X6X6X6X6X0X0X0X0X0XwX0X0X0X0X0X0XwXwXwXwXwXwXwXwXwXwXwX0XwXwXwXwXwXwXwXwXwX6X<X6X6X6X,X;X,X6XrXyXyXuXuX,X{.,XwXwXwXwXwXwXrXrXwXwXwXwXwXwXyX<X{.*XrXuXyXyXyXyXyXyXyXyXyXyXyXyXrXyXyXyXrXwX6X#XU.;XwXyXyXwXyXyXyXyXyXyXuXuXyXyXyXyXyXyXyXyXyXyXyXyXyXyXyXyXyXyXyXyXyXyXyXyXyXyXyXyXyXyXyXyXyXyXyXyXyXyXyXyXuXuXuXuXuXuXyXuXuXuXuXuXuXuXuXuXuXuXuXuX6X6XwXsXyXwXwXyXyXyXyXyXuXuXuXsXuXgXgXuXuXuXsXsXuXuXuXuXuXuXuXuXuXuXuXuXuXuXuXuXuXuXuXuXuXuXuXuXuXuXyXyXyXyXtXtXyXyXyXyXuXuXuXuXuXuXuXuXaXuXuXuXuXyXuXuXuXuXuXuXuXaXaXsXuXuXuXuXsXsXuXyXrXrXwXwXwX0XrXsXjXuX0X6X0XrXuXuXuXaXaXaXuXuXuXuXuXuXuXuXuXyXyXyXyXyXyXyXyXyXyXyXuXyXyXyXuXuXuXuXyXyXyXyXyXyXyXyXyXyXyXyXyXyXyXtXyXyXyXyXyXyXyXyXyXyXuXuXuXuXuXuXuXyXuXyX6XG.D.;X6X6X6XyXyX0XwXrXyXyXyXyXyXyXyXyXyXyXuXuX;X{.>XyXyXyXyXyXrXrXrXrXrXrXrXyXyXyX5XU.#X6XyXyXyXyX6X$X X;X,X6X<X,X6XwXwXyXwXwXwXwXwXwXwXwXwXwXwXwXwXwXwXwXwXwX0X0X0X0X0X0X0X0X0X0X6X<X6X6X6X6X6X<X<X<X<X<X>X;X$X X$X;X0X.XN.x.e.y.s.N.D.U.{.^.Y.A.k.j.k.N.F.U.^.'.}.|.",
"#X.X.X.X'.U.N.s.x.B.Y.}.}.Y.G.Z.N.j.a.d.B.}.$X$X$X.X}.$X;X,X,X<X<X<X6X6X6X6X6X0X0X0X0X0X0X0X0X0XwXwXwXwXwXwXwXwXwXwXwXwXwXwXwXwXwXwXwXwXwXwXwX0X6X6X6X6X6X6X,X,X6XwXrXyXrXrX>X!.<XrXuXuXwXwXwXwXrXrXwXwXwXrXeXyXwX{.XXwXyXyXyXrXyXyXyXyXyXyXyXyXyX0XuXuXuXyXwX6X4X}.|.rXuXuXuXuXrXrXyXyXyXyXyXyXyXyXuXuXuXuXuXuXuXuXuXuXyXyXrXrXrXyXyXyXrXyXyXyXyXyXrXrXrXrXrXrXwXwXwXwXwXwXwXwXrXrXrXwXwXwXyXuXuXyXrXyXuXyXuXyXyXrX0X,X<XwXyXuXwXwXuXyXuXuXuXuXuXuXuXuXuXuXuXuXuXuXuXuXuXuXuXuXuXuXuXuXuXuXuXuXuXuXuXuXuXuXuXuXuXuXuXuXyXuXwX6XwX<X<XwXuXuXuXuXuXuXuXuXuXuXuXuXaXaXaXaXuXsXuXuXsXsXuXuXuXuXuXuXuXuXuXuXuXuXuXuXuXuXsXsXrXwXwXwXuXsXuX0X;X,X0XwXrXyXyXyXyXyXyXyXrXrXrXrXwXwXwXwXwXwXwXeXwXwXwXwXrXrXrXrXrXrXrXwXwXyXyXyXrXrXyXyXtXtXuXuXuXuXtXtXyXyXyXrXrXyXyXyXwXuXyXyXsXyXyXsXsXuXuXuXwX%XB.{.6XyXuXhXhXsXuXyXyXyXyXyXyXyXyXyXyXyXyXyXuX*X{.<XyXyXyXyXyXyXyXyXyXyXyXyXyXyXyXwX^.%XrXyXuXuXyX0X<X>X,X6X<X,X,X6XrXyXwXwXwXwXwXwXwXwXwXwXwXwXwXwXwXwXwXwXwXwXwXwX0X0X0X0X0X0X0X0X6X6X6X6X6X6X<X<X<X<X<X<X>X$X XXX,X5X$XH.v.e.6.r.c.B.F.U.U.U.F.Z.k.c.N.H.H.U.Y.'.",
".X|.}.^.G.c.s.k.G.Y.'.^.Y.F.N.M.j.j.m.F. X;X>X*X$X.X$X*X>X,X<X<X6X6X6X6X6X6X0X0X0X0X0X0X0X0X0X0XwXwXwXwXwXwXwXwXwXwXwXwXwXwXwXwXwXwXwXwXwXwX0X<X6X6X6X6X6X<X<X0XwXrXyXyXrX>XJ.;XwXyXyXyXwXwXwXwXrXrXrXrXrXrXyXwX.X.X0XyXyXyXyXyXyXyXyXyXyXuXyXwXwXyXyXwXwXwX<X>X#X|.,XaXuXyXyXyXyXrXrXyXyX*XY. XXXXX*X;X;X;X;X;X;X;X;X;X;X*X$X$X$X*X*X*X*X*X;X;X;X;X;X;X;X;X;X;X;X;X;X;X;X;X;X;X;X;X;X;X;X;X;X;X;X;X;X>X<X>X>X0XrX6X6X0XrXuXsXyXwX0XrXyXuXuXuXuXuXuXuXuXuXuXuXuXuXuXuXuXuXuXuXuXuXuXuXuXuXuXuXuXuXuXuXuXuXuXuXuXuXuXuXuXuXwX<X,X,X<X6XwXuXuXuXuXuXuXuXuXuXuXuXuXuXuXaXaXuXaXuXuXsXsXuXuXuXuXuXuXuXuXuXuXuXuXuXuXuXuXuXuXyX0XwXwXwXuXuXrX<X<X<X<X<X6X0X,X>X,X:X:X,X,X,X,X,X,X,X,X;X;X;X:X;X;X;X;X;X;X;X;X;X;X;X;X,X,X,X,X;X;X;X;X;X;X;X;X;X;X;X&X%X;X;X$X#X#X$X$X$X*X.X;XwXwXyXsXsXsXuXuXyX5X}.|.<XrXrXwXsXyXwX0XwXyXyXyXyXyXyXyXyXyXyXyXyXrXXX{.wXuXyXyXyXyXyXyXyXyXyXyXyXyXyXyX6XU.;XrXuXuXuXyXwX6X<X<X<X<X,X<X6XrXrXrXwXwXwXwXwXwXwXwXwXwXwXwXwXwXwXwXwXwXwXwX0X0X0X0X0X0X0X0X6X6X6X6X6X6X<X<X<X<X<X<X<X;X$X X%X,X6X$X}.N.e.5.w.k.N.F.H.Y.Y.F.N.v.v.N.G.U.U.!.",
"'.Y.H.Z.s.a.v.U.}.}.^.H.A.N.v.k.k.M.I.#X1X,X;X$X$X*X;X,X6X6X6X6X6X6X6X6X6X0X0X0X0X0X0X0X0X0X0X0XwXwX0XwXwXwXwXwXwXwXwXwXwXwXwXwXwXwXwXwXwX0X<X<X6X6X6X6X6X<X0XrXrXyXyXwX<XY.$XwXrXrXrXrXwXwXwXwXrXrXwXwXyXwXwX;X X0XwXyXyXyXyXyXyXyXyXyXyXaXwX6X5XwX;X;X0X6X;X$XQ.%XrXuXuXyXrXwXrXyXrXrXXXF.0XyXwXwX0X6X6X6X<X<X6X6X6X6X6X6X6X<X<X<X<X<X<X<X>X>X,X,X,X,X,X,X,X,X,X,X,X,X,X,X,X,X,X,X,X,X,X,X<X<X<X,X,X5X$X.X;XwXyXrXyXuXaXuXyXwXwX;X<XrXyXyXuXuXuXuXuXuXuXuXuXuXuXuXuXuXuXuXuXuXuXuXuXuXuXuXuXuXuXuXuXuXuXuXuXuXuXuXuXuXuXwX<X,X;X<XwXtXuXuXuXuXuXuXuXuXuXuXuXuXuXuXuXuXuXuXaXaXsXsXuXuXuXuXuXuXuXuXuXuXuXuXuXuXuXuXuXuXyX6X6XwXwXrXyXyXyXyXrXrXwX0X<X,X,X:X:X:X,X,X,X,X;X;X;X;X,X,X,X,X:X:X;X;X;X;X;X;X;X;X;X;X;X*X;X<X<X<X<X<X<X<X<X<X5X5X5X5X5X5X5X,X5X6X6X6XyX0XJ.J.0XwXrXrXuXsXsXuXuXrX>X{.XX0XwX6XrXwX<X;X0XwXyXyXyXyXyXyXyXyXyXyXyXrXwX XXXwXwXuXyXyXyXyXyXyXyXyXyXyXyXyXyX;X^.;XwXuXuXyXrXwX6X,X,X5X<X,X<X6XwXrXrXwXwXwXwXwXwXwXwXwXwXwXwXwXwXwXwXwXwXwX0X0X0X0X0X0X0X0X6X6X6X6X6X6X<X<X<X<X<X<X<X>X;X$X#X$X,X5X=X'.N.s.e.r.k.M.Z.U.Y.R.G.B.c.c.b.Z.F.G.",
"H.F.b.j.r.M.Y..X^.Y.H.Z.N.M.c.k.A.U.#X>X,X;X$X$X$X,X6X6X6X6X6X6X6X6X6X6X6X6X0X0X0X0X0X0X0X0X0X0XwXwXwX0XwXwXwXwXwXwXwXwXwXwXwXwXwXwXwXwX6X<X<X<X6X6X6X6X6X6XwXyXyXyXwX<X{..XrXyXwXwXwXwXwXwXwXwXrXrXwXwXwXwX<X{.<XyXrXyXyXyXyXyXyXyXyXyXyXaXqX;X>X$X;XwXwX6X;X#X#XrXsXwXuXyXwX6XwXrXyXrXH.H.uXyXyXyXwXwXwXwXwXwXwXwXrXwXwXwXwXwXwXwXwXwXwXwX<X<X<X<X<X<X<X<X6X6X3X3X0X3X3X3X0X3X6X<X<X<X<X<X6X0X0X,X;X=XY.H.5XyXyXuXsXuXyXyXwX0X0X$X;XrXuXyXuXuXuXuXuXuXuXuXuXuXuXuXuXuXuXuXuXuXuXuXuXuXuXuXuXuXuXuXuXuXuXuXuXuXuXuXuXuXuXrXwX6X<XwXyXtXuXuXuXuXuXuXuXuXuXuXuXuXuXaXuXuXuXuXsXsXuXsXuXuXuXuXuXuXuXuXuXuXuXuXuXuXyXyXyXyXyX<X6XwXwXwXwXyXyXuXuXrXuX,X$X$X*XOXOXXXXXXXXXXX.X.XXXXXXX$X*X*XOXOXOXOX*X*X*X*X*X*X*X*X.X}.*X0XwXrXwXwXrXrXrXrXyXyXyXrXwXyXyXwXrXyXyXyXuXsX.X}.rXrX0X>XwXuXsXaXsXrX0X XH.$XwXrXwX6X;X$X>X0XwXyXyXyXyXyXyXyXyXyXrXyXuX<XH.XXyXyXyXyXuXyXyXyXyXyXyXyXyXyXuXuX;X}.>XwXuXuXwXrXwX6X<X5X<X<X<X<X0XwXyXyXwXwXwXwXwXwXwXwXwXwXwXwXwXwX0XwXwXwX0X0X0X0X0X0X0X0X6X6X6X6X6X6X<X<X<X<X<X<X>X<X<X>X%X#X$X,X,X;X|.G.N.a.e.s.b.Z.J.R.Y.G.N.k.s.j.c.b.",
"F.k.r.j.N.U.}.^.Y.I.D.B.b.x.v.D.|.*X;X;X;X.X.X$X;X<X5X5X6X6X6X6X6X6X6X0X0X0X0X0X0X0X0X0X0X0XwXwXwXwXwXwXwXwXwXwXwXwXwXwXwXwXwXwXwXwXwX6X<X,X<X<X6X<X<X6X0XwXyXyXuXrX<X{.$X0XyXrXwXwXwXwXwXwXwXwXtXtXtXtXyX<XJ.;XrXyXyXyXyXyXyXyXuXuXyXyXrXrX;X;X*X*X0XwX0X<X$X}.7XyXuXsXsXyX0X<X6XwXhX0XD.;XhXgXsXyXwXwXwXwXwXwXwXwXwXwXwXwXwXwXwXwXwXwX0X6X<X<X<X<X<X<X<X6X6X0X0X0X0XwXwXwXwXwXwXwXwX0X6X<X<X<X<X6X6X5X#XN.|.aXuXuXyXyXyXyXwXwX0X$X<XyXuXuXuXuXuXuXuXuXuXuXuXuXuXuXuXuXuXuXyXsXuXuXuXwXuXuXsXuXuXuXtXtXsXsXsXsXuXuXuXuXsXsXuXyXuXuXuXuXuXuXuXuXsXsXsXsXsXsXsXsXuXsXfXuXuXuXuXyXsXuXyXwXaXuXuXuXyXyXyXyXuXuXyXuXyXyXuXuXuX6X*XyXwXwXrXyXuXaXuXuXyXG.b.;X<X,X,X,X,X,X,X<X<X<X<X<X<X<X<X<X<X<X<X<X<X<X<X<X<X<X<X<X,X<X<X0XwXwXwXwXwXwXwXwXwXwXwXwXwXwXwX0X0XrXrX6XrXaX*XU.yXyXwX;XwXuXuXuXuXyXwX<X X}.6XrXrX6X;XXXJ.*XrXwXyXyXyXyXyXyXyXyXrXrXrXrX;XJ.&XwXyXyXuXyXyXyXyXyXyXyXyXyXuXuXwX;XJ.;XtXsXuXyXyXyX0X5X6X<X<X>X<X0XwXyXyXwXwXwXwXwXwXwXwXwXwXwXwXwXrXrXrXrX0X0X0X0X0X0X0X0X0X0X0X6X6X6X6X6X6X6X<X<X<X,X<X<X;X$X.XXX;X<X;X}.H.Z.s.8.r.c.N.F.H.G.F.M.s.w.w.s.",
"v.j.k.N.F.U.U.H.F.B.M.M.M.M.D.Q.%X,X>X#X|..X$X>X<X<X5X5X6X6X6X6X6X6X0X0X0X0X0X0X0X0X0X0X0X0XwXwXwXwXwXwXwXwXwXwXwXwXwXwXwXwXwXwXwXwX0X<X<X<X<X6X6X<X6X0XrXyXyXuXsXwX.X{.3XeXwXwXwXwXwXwXwXwXwXwXtXyXuXyX<XY.XXwXyXyXyXyXyXyXyXyXuXuXyXuXrX5X;X;X}.$X6XwX6X;X.X;XyXyXsXsXsXyXwX6X6XrXsX<XZ.0XsXwXwXwXwXwXwXwXwXwXwXwXwXwXwXwXwXwXwXwXwXwXwXwX0X0X0X0X0X0X0X0X0X0X0X0X0X0X0X0X0X0X0X0X0X0XwXwX0X0XwXyXyXdX6XD.XXaXuXuXyXyXyXwXwXrX<X$X0XuXuXuXuXuXuXuXuXuXuXuXuXuXuXuXuXuXuXuXsXuXuXrXtXuXyXrXrXuXsXsXuXuXsXsXsXsXsXsXsXsXsXsXsXsXuXuXuXuXuXuXsXsXsXsXsXsXsXsXsXaXsXsXjXrXtXtXuXuXuXuXuXuXuXuXuXuXyXyXyXuXuXuXuXyXyXuXuXuXaXrX*XwX0XwXrXyXuXuXuXuXuX}.D.wXeXwXwXeXyXyXyXyXyXrXwXwXwXwXwXwXwXwXwXwXwXwXwXwXwXwXiXwXwXwX0X0X0X0XwXwXwXwXwXwXwX0XwXwXwXwXwXwXwXrXrX6XwXsX6XM.,XwXwXwXwXuXuXuXyXuXyXwX<X X$XwXwX<X;X XY.{.<XuXyXyXyXyXyXyXyXyXrXrXrXrXtX;XJ.;XtXuXyXyXyXyXyXyXyXyXyXyXtXuXuXwXXXY.>XuXsXuXyXyXyX0X<X<X<X<X,X<X6XrXyXyXyXwXwXwXwXwXwXwXwXwXwXwXrXrXrXrXwXwX0X0X0X0X0X0X0X0X0X6X6X6X6X6X6X6X<X<X<X,X<X<X>X;X$X.X}.*X>X*X XH.N.t.9.r.c.N.A.A.A.A.v.s.s.j.",
"k.v.N.Z.N.N.N.N.M.M.M.N.Z.G.}.$X%X*X#X].|.*X,X5X5X5X5X5X6X6X6X6X6X0X0X0X0X0X0X0X0X0X0X0X0X0XwXwXwXwXwXwXwXwXwXwXwXwXwXwXwXwXwXwXwX0X6X6X6X6X6X6X6X6X0XyXyXyXyXyXwX.X!.<XwXwXwXwXwXwXwXwXwXwXrXrXyXuXyX6X{..XwXwXyXyXyXyXyXyXyXyXuXuXyXyX0X>X;X*X}.;X6X0X<X$X,XwXuXsXsXuXsXuXrXwXwXyXwX^.J.uX<X{.;XrXuXyXwXwXwXwXwXwXrXrXrXrXrXrXrXrXrXrXwXrXwXrXrXrXrXrXyXrXrXrXwXrXrXrXrXrXrXwXwXwXwXwXwXwXiXwXwXyXaXyX$XB.;XaXsXuXyXyXrX0XwXrX*X$XwXuXyXyXyXyXuXuXuXuXuXuXuXuXuXuXaXaXyX6XwX5XwX6X6X#XF.s.M.H.U.G.G.G.F.F.F.F.D.D.D.D.F.G.J.G.F.F.F.F.F.F.F.F.Z.A.A.N.B.B.B.B.D.Y.|.}.$X&X<X6XwXwXwXwXyXaXuXuXyXuXuXuXuXuXyXuXuXuXuXuXaXrX;X0X0XwXrXrXtXuXaXuXuX$Xb.<XyXeXyXyXyXyXyXyXyXrXwXwXyXyXyXyXrXrXrXrXyXyXyXyXtXtXtXtXyXtXwXwXwXwXwXwXwXwXwXwXwXwXwXwXwXwXwXwXrXyXwX6X;XyXyXb.U.0XyXwXwXuXuXuXyXyXuXyXyX,XXX;XwX6X>XXX$X X;XyXyXyXuXyXyXyXyXyXrXrXrXrXwXyXXXW.,XtXuXyXyXyXyXyXyXyXyXyXtXtXyXuXwX{.Q.<XuXsXuXyXyXwX6X<X<X6X6X5X6X0XwXyXyXyXwXwXwXwXwXwXwXwXwXwXwXwXrXrXwXwXwXwX0X0X0X0X0X0X0X6X6X6X6X6X6X6X<X<X<X,X,X,X;X;X;X$X}.}.$X;X$X XJ.A.a.9.a.z.m.M.B.A.A.F.H.Z.",
"s.c.c.j.x.x.x.j.v.M.B.B.U.'.#X&X,X$X.X#X=X,X<X,X5X5X5X5X6X6X6X6X6X6X0X0X0X0X0X0X0X0X0X0X0X0XwXwXwXwXwXwXwXwXwXwXwXwXwXwXwXwXwXwX0X6X6X6X0X0X6X5X6XrXyXaXuXuXyXwX{.H.;XyXwXwXwXwXwXwXwXwXwXwXrXrXyXuX0X.XJ.6XrXuXyXyXyXyXyXyXyXyXuXuXyX0X,X,X,X.X;X0X6X6X;X,XyXsXsXsXuXuXuXuXyXrXuXrX;Xc.XX$XF. X<XwXrXwXwXwXwXwXwXyXyXyXyXyXyXyXyXyXyXyXyXyXyXuXyXyXyXuXuXuXuXuXyXyXyXyXyXyXyXyXyXyXyXyXyXyXyXyXyXyXyXwXY.G.rXaXsXuXyXrXrX0XrXrXXX*XuXuXyXyXyXyXuXuXuXuXuXuXuXuXuXuXaXaX,X}.;X<X<X XD.;X|.#.>.<.#.#.@.@.O.O.O.O.{ { { { +.@.#.#.@.#.@.@.@.@.#.@.@.@.@.@.O.O.O.O.@.#.w.T.$X%X&X;X6X<X>X;XyXyXuXuXuXuXuXuXuXuXyXuXuXuXuXuXsXyX;X6XwXwXwXrXtXuXuXuXuX$Xc.>XuXuXuXyXuXuXyXuXuXuXyXyXuXuXuXuXuXuXuXuXuXuXuXuXuXuXuXuXuXuXuXuXyXyXyXyXyXyXyXtXyXrXyXyXtXtXtXtXrXwX0X,X*X;X,X$XH.'.>XqXwXuXuXuXyXyXyXuXuXwX;XXX0XwX<X;X$X;X6XrXyXyXyXyXyXyXyXyXrXrXrXrXwXrXwXXX X8XyXyXyXyXyXyXyXyXyXyXyXtXtXuXwXiX XQ.<XyXuXrXyXyXwX6X<X6X6X6X6X<X0XwXyXyXyXwXwXwXwXwXwXwXwXwXwXwXwXwXwXwXwXwX0X0X0X0X0X0X0X6X6X6X6X6X6X6X<X<X<X,X,X,X;X;X,X;X;X XoX$X;X$XXX|.N.a.g.f.d.z.m.B.A.U.^.D.",
"a.e.e.a.j.a.r.r.c.D.Y.|.|.$X;X;XXX$X*X,X,X,X<X<X5X5X6X6X6X6X6X6X0X0X0X0X0X0X0X0XwXwXwXwXwXwXwXwXwXwXwXwXwXwXwXwXwXwXwXwXwXyXrX6X<X<X6X0X0X0X6X6X6XyXuXuXuXsXwX.X}.=XwXyXwXwXwXwXwXwXyXyXrXrXrXrXyXwX.XJ.,XwXyXyXyXyXyXyXyXyXyXyXuXtXwX<X,X,X$X$XqX0X,X;X;X0XyXyXuXuXyXyXyXyXyXyX0X XN.b.b.b.<XwXwXwXwXwXwXwXwXwXwXrXwXrXyXyXyXyXyXyXyXyXuXuXyXuXuXuXuXuXuXuXuXuXuXuXuXuXuXuXuXuXuXuXyXyXuXuXyXyXyXyXsX6XF.XXaXuXaXaXyXrXwX6XwX6X.X>XyXyXuXuXuXuXuXuXuXuXuXuXuXuXuXuXsXrX}.{.<XrXyX*X6XaX|.#.#.>.,.,.&.&.#.@.#.#.#.#.-.-.,.,.3.3.,.,.-.,.,.,.<.<.5.5.6.9.5.5.5.,.3.3.6.|.;X%X;X0XrXyX>XD.wXsXuXuXuXuXuXuXuXuXuXuXuXuXuXuXsXyX>X,XwX0XwXyXuXuXuXuXuX0XH.XXuXuXyXyXuXuXuXuXyXuXuXuXuXuXuXuXuXuXuXuXuXuXuXuXuXuXuXuXuXuXuXuXuXuXuXuXuXuXuXtXrXwXyXuXyXyXyXyXwXwXwXwXyX<X Xb.M.G.'.$X,X0XwXrXuXuXuXgXuXyX0X;XXX<XrX0X>X5X6X5X>X0XyXyXyXyXyXyXyXyXyXyXrXrXwX<X X XrXsXuXyXyXyXyXyXyXyXyXyXyXyXtXwX6X$X X<XrXuXyXyXrX0X6X6X6X0X6X,X;X6XwXyXyXwXwXwXwXwXwXwXwXwXrXrXwXwXwXwXwXwX0X0X0X0X0X0X0X6X6X6X6X<X<X<X<X,X>X>X>X>X>X;X>X;X>X;XXXXXXX$X$X#X%XI.7.7.p.f.f.k.M.N.Z.H.",
"G.N.j.a.s.a.s.j.B.}.#XXX%X,X5X*X$X*X;X<X0X0X0X0XwXwXrXrXwXwXwXwXwXwX0X0X0X0X0X0XwXwXwXwXwXwXwXwXwXwXwXwXwXwXwXwXwXwXwXwXrXyXwX,X;X>X<X6X6X5X6X9XwXyXaXsXaXyX$XU.;XwXyXwXwXwXwXwXwXwXyXyXrXrXrXrXuX;XF.;XrXyXyXyXyXyXyXyXyXyXyXuXtXwX6X6X6X<X.X>X0X,X;X*X6XyXsXuXuXyXyXyXuXyX6X;XF.s.w.E @.$XyXrXwXwXwXwXwXwXwXwXwXwX<X<XyXyXyXyXyXyXyXyXuXuXuXuXuXuXuXuXuXuXuXuXyXyXyXyXyXuXuXyXuXuXyXyXuXuXyXyXyXyXsX>XD.;XuXsXaXuXyXrXwX0XwX6X X<XuXsXuXuXuXuXuXuXuXuXuXuXuXuXuXuXaX7XF.}.5XrX0X*X>XwX#XD.Y.#X$X$X$X$X&X&X;X;X;X;X;X;X;X;X;X%X}.Y.Y.{.|.#X%X;X5X5X7X7X7X7X>X$X#X#X#X6X;XXX>XwXrXsX0XF.<XuXuXuXuXuXuXuXuXuXuXuXuXuXuXuXaXyX6X;XwX0XwXrXtXtXyXuXsXyX X{.wXuXuXyXyXuXuXuXuXyXuXuXuXuXuXyXuXuXuXuXuXuXuXuXuXuXuXuXuXuXuXuXuXuXuXyXyXuXyXwX6X>X6XuXyXyXyXyXyXyXyXyXyXgX0Xx.+.v.T.Y.F.{.$X6XuXsXuXyXpXuXyX<XOX;X3XwX0X<X<X0X,X6XwXrXyXyXyXyXyXyXyXyXtXrXtXwX<XY.$XuXuXuXyXyXyXyXyXyXyXyXyXtXtXtXrX6X XXX6XrXyXyXyXwXwX6X6X0X6X,X$X#X<XwXyXrXwXwXrXyXrXwXwXwXrXrXwXwXwXwXwXwXwXwXwXwXwXwXwX0X0X0X6X6X6X6X6X<X<X<X<X<X<X,X<X>X>X>X;X$X{.}.$X=X#X'.U.z.p.p.p.a.d.x.v.M.",
"*X|.F.b.x.k.b.N.F.Y.XX;X0X0X;X.X;X>X,X,X<X<X5X6X6X6X6X6X6X6X6X6X0X0X0X0X6X0X0X0X0X0X0X0XwXwXwXwXwXwXwXwXwXwXwXwXwXwXwXrXwX6X;X$X*X>X>X;X;X,X6XrXyXyXyXuXyX.XU.;XwXyXwXwXwXwXwXwXwXwXeXeXrXrXyXyX,XU.XX0XyXyXyXyXyXyXyXyXyXyXyXyXrX<X6XwXwX;X>X6X<X=X;X,XuXuXsXsXuXyXyXyXwX>X XJ.^.D.1.@.{.wXwXwXrXyXyXyXrXrXrXyXyXwX,X<XyXyXyXyXyXyXyXyXyXyXuXuXuXuXyXyXyXyXyXyXyXyXyXyXyXyXyXyXuXuXyXuXuXuXyXyXyXuXuXXXF.0XsXuXaXaXyXyXwXwXrX,XXXwXuXuXuXuXuXuXuXuXuXuXuXuXuXuXuXuXuX5Xc.|.rXwX0X>XrXtX<X X$X0XiXtXtXtXtXtXuXfXsXsXsXsXfXjXlXlXsXtXtXuXrXrXrXrXwXrXwXrX5X5X;X#X#X#X.X;X;X.X$XwXwXuXwXF.$XrXsXuXyXyXuXuXuXuXuXuXuXuXuXuXuXsXwX;XwX0XwXrXrXtXyXuXsXsX;XF.>XyXsXuXuXuXuXuXuXyXuXuXuXuXyXyXuXuXuXuXyXyXyXyXyXuXuXuXuXuXuXuXuXuXuXuXuXuXwX0X6X;X;XuXsXuXuXyXuXuXuXyXyXyXsX0XY.3.k.I.F.!.XX;X0XuXbXiXuXuXyXwX,XOX;X0XrX0X<X0X6X5X6XwXrXyXyXyXyXyXyXyXyXyXiXtXrX>XY.>XrXuXuXyXyXyXyXyXyXyXyXyXyXyXtXrX6X XXX<XyXrXyXuXtXwX6X6X6X<X*X}.XX<XrXrXwXwXwXwXwXwXwXwXwXwX0X0XwXwX0X0X0X0X0X0X0X0X0X6X6X6X6X6X6X6X6X<X<X<X<X<X<X,X<X>X>X>X<X>X XH.^.;X*XY.'.Y.A.m.f.f.p.a.s.k.",
".X|.U.N.c.x.c.b.U. X;X0X0X;XXX;X,X,X;X;X*X*X;X;X;X;X;X;X;X;X;X;X;X;X;X;X;X;X;X;X;X;X;X;X;X;X;X;X>X>X>X>X>X>X>X>X>X<X<X0X<X$X X$X,X6X;XXX;X<XrXrXyXyXyXyX$XF.;X0XyXrXwXwXwXwXwXwXwXwXeXeXrXrXyXyX{.{.wXyXyXyXyXyXyXyXyXyXyXyXyXyX6X<X6X0X6X<X0X6X=X*X,XwXsXuXuXuXyXyXyXrX;X X X>X}.c.J.6XrXyXyXyXyXyXuXuXuXuXuXsXuXwX<XwXyXyXyXyXrXyXyXyXyXyXuXuXuXuXyXyXyXyXyXyXyXyXyXyXyXyXyXyXuXuXuXuXuXuXyXyXyXpXyXY. XuXuXyXaXaXyXrXwXrXwX;X;XyXuXyXuXuXuXuXuXuXuXuXuXuXuXuXuXuXuX>Xk.#XrXyX<X;X<XD.E v N D D S  .P P R ! ! ! Q ! ! ! E ! R Q R R R R R ! ! Q E R R H U H A D D C } <X<X*X0X<X,X,XN. XwXsXuXyXuXuXuXuXuXuXuXuXuXuXuXuXsXyX%X0X0XwXwXrXtXyXuXuXsX<X{.XXwXuXuXuXuXuXuXuXuXuXuXuXuXyXyXyXuXuXuXyXyXyXyXyXyXuXuXuXuXuXuXuXuXuXuXuXuXwX<X<XwX0XwXfXsXuXyXyXrXrXrXwXyXsXaXrXA.-.N.;X,X;X$X;XwXbXuXyXyXuXyX0X;X;X:XyXrXwX6X6X5X5XwXrXyXyXyXyXyXyXyXyXyXyXtXtXuX;X{.>XrXuXyXyXyXyXyXyXyXyXyXyXyXtXtXuX6X X X0XyXuXuXuXtXwX6X,X>X>X*X}.*X6XwXwX0X<X;X;X,X6X6X<X<X<X<X<X<X<X,X,X>X>X>X;X;X;X;X;X;X;X;X;X;X;X;X;X;X;X*X*X$X;X$X;X>X<X6X*XH.H.$X;X$X}.U.U.A.M.d.e.e.a.a.",
"F.F.J.D.c.r.c.Y.$X;X6X,X$X.X$X;X,X,X*X'.N.Z.U.}.}.}.}.}.}.|.|..X.XXXXXXX$X$X$X$XXXXX$X$X$X$X*X;X;X;X;X;X;X;X;X;X<XwX6X;X$X$X>X,X5X6X$X.X0XrXrXrXuXyXsX>XU.$X0XyXrXrXyXrXrXrXrXrXwXwXrXyXyXuXwX.X}.0XuXyXuXuXyXyXyXyXyXyXyXuXrX6X;X<X6X6X6X0X6X;X;X;X0XuXsXuXuXuXrXyXwX,X X;X>X$Xe.s.<XyXyXyXyXuXuX<X;XwXrXwXrXuX0X<XqXwXwXwXwXwXrXrXuXuXuXuXuXuXuXuXuXuXuXyXuXuXyXyXyXyXyXyXyXyXuXuXuXuXuXuXuXuXuXuX<XD.,XuXuXuXaXuXyXrXwXrXrX*X<XuXuXyXuXuXuXuXuXuXuXuXuXuXuXuXuXbXjX%Xa.$XwXwX>X;XwX*Xr.w.5.w.2.2.>.>...} ....} } >.>.} } | | | } ..........&.@.@.@.@.@.@.>.>.2.2.5.x.wXrX6X>X6X<X$Xj.J.sXsXyXuXuXuXuXuXuXuXuXuXuXuXuXuXsXuX;X<XyXwX0XwXtXyXuXuXsXwXXXY.wXrXuXuXuXuXuXuXuXuXuXuXuXuXuXuXuXuXuXuXuXuXuXuXuXuXuXuXuXuXuXuXuXuXyXyXyXrX6X6X<XwX6X;XyXuX<X>X;X;X*X;XrXsXsXaX,X5.3.T.qXqX>X$X;XyXuXuXuXuXuXyX<X*X.X<XwXrXwXwX0X6X<X6XrXyXrXyXyXyXyXyXyXyXyXyXyXwX;X.X5XyXyXuXuXyXyXuXuXuXuXyXyXyXyXuXuX6X}.XXrXtXyXuXyXwXwX,X;X;X6X<X;X;X<XwX<XwX<X<X<X,X,X>X>X>X>X;X;X;X;X&X$X$X$X*X*X*X*X*X$XXXXX$X$X$X$XXXXX.X.X XY.F.b.N.Y.$X*X;X*X$X$X.X;X*X.X].F.N.k.e.3.9.k.",
"c.F.U.Z.s.s.J. X*X;X;X;X;X;X,X<X>X;X$X'.U.|.;X5X5X5X5X5X5X5X6X6X6X6X0X0X0X0X0X0X0X0X6X6X0X0XwXwXwXwXwXwXrXrXrXrXyX0X;X$X;X>X6X6X;X*X.X;XyXtXtXrXyXsXqXU.#X0XyXyXrXrXyXrXrXrXrXrXwXtXyXyXuXyX;XU.<XuXsXyXuXuXyXyXyXyXyXyXaXyX0X,X;X,X<X<X0X0X<X;X;X<XwXuXuXuXuXuXuXrX6X;X;X6X*Xs.{ U.uXuXyXyXrXrX0X,X;X,X6X6X0XwX>X0XyXwXwXwXwXqXwXrXuXuXuXuXuXuXuXuXuXuXuXyXuXuXyXyXyXyXyXyXyXyXuXuXuXuXyXuXuXuXuXuX;XH.0XuXuXuXaXyXyXrXwXrX6X XwXuXuXuXuXuXuXuXuXuXuXuXuXuXuXuXuXbXfX#Xd.%XyXwX;X;XyXuXuXuXgXjXsXuXuXuXuXuXuXuXuXuXuXuXuXuXuXuXuXuXuXbXuXuXuXuXuXsXsXsXrXrXrXrXuXsXyXyXwXrXwX;X;X<X$Xr.D.yXsXsXuXuXuXuXuXuXuXuXuXuXuXuXuXsXuX6X,XwXwXwXwXtXuXuXuXuXyX>XJ.,XyXyXuXuXuXuXuXuXuXuXuXuXuXuXuXuXuXuXuXuXuXuXuXuXuXuXuXuXuXuXuXuXyXrXrXyXyXrXrX<X6XwX;X0XyXwX0X6X6X<X,X0XrXyXsXyXU.-.e.%XrX6X>X X;XyXuXuXuXuXuXrX<X*X;X6XwXwXwX0X6X5X6XwXrXyXyXyXyXyXyXyXyXyXyXyXyXrX$X$X0XrXuXuXuXuXuXuXuXuXyXyXyXyXuXsXuX>XY.$XyXuXyXyXrXrX6X%X%X6XyXwXwX<X<X<X<XyXyXyXwXwXwXwXwXwXwXwXwX8X<X<X<X<X<X<X<X<X<X<X,X,X<X<X<X<X,X,X,X<X>X;X$X}.F.Y.}.}.$X;X;X*X.X$X*XXXXX!.F.C.s.3.^ +.",
"j.J.F.s.d.J.}.%X*X*X=X>X5X5X5X>X;X;X*X$X*X,X6X6X0X0X0X0X0X0XwXwXwXwXwXwXwXwXwXwXwXwXwXwXwXwXwXwXwXwXwXwXwXwXwXwX6X;X>X0XwX0X6X;X$X*X;XuXuXuXtXyXyXwX'.|.0XuXuXyXyXrXrXrXrXrXrXrXtXtXyXyXyX5XH.;XuXsXuXyXuXuXuXuXyXyXyXyXyX0X,X;X>X>X6X0X0X0X>X*X<XwXuXuXuXuXuXuXuXwX>X>X6X,XZ.{ 5.,XyXyXyXrXwX0XwXrX0X,X,X6X6X>X,XwXuXrXwXqXqXwXwXrXuXuXuXuXuXuXuXuXuXuXyXuXuXuXuXyXyXuXuXuXuXuXuXuXuXuXyXuXyXuXuXrXXXXXuXuXuXuXuXyXrXrXrXrX>X XuXuXuXuXuXuXuXuXuXuXuXuXuXuXuXuXuXuXuX|.a.$XwX0X;X,XwXwX<XwXyXuXyXyXuXuXuXuXuXuXyXyXuXuXuXuXsXsXsXfXfXfXsXfXfXfXsXsXsXsXjXjXsXuXuXsXwX<XrXsXrX6X;X<X$Xr.N.wXsXsXuXuXuXuXuXuXuXuXuXuXuXuXuXuXuXwX*X0XwXrXwXtXuXuXsXuXuXwXY.XXuXsXuXuXuXuXuXuXuXuXuXuXuXuXuXuXuXuXuXuXuXuXuXuXuXuXuXuXuXuXuXyXrXrXwX6X0XhXuXwX<XwX0X<X6XyXrXwXwX0X<X<XwXyXaXaX5Xd._ M.5XwX<XoXXXwXuXuXuXyXuXuXwX<X.X,XwXrX0X0X6X6X<X6XwXuXyXyXyXyXyXyXyXyXyXyXyXyX5X#X=XyXaXuXuXuXuXuXuXuXyXyXyXyXuXsXuXyX$XJ.;XrXyXyXrXrX0X;X;X6X6X6X0XwXtX<XXXwXyXyXrXwXwXwXwXwXwXwXiXwXwXwXwXwXwXwXwX0XwX0X0X0X0X0X0X0X0X0X0XwX9X6X5X>X;X;X*X$X.X*X,X,X*X.X.X.XXX(.H.Z.Z.a.) { ",
"b.N.x.c.G.XX%X;X$X#X=X5X;X,X;X*X;X;X>X5X6X,X<X0X0X0XwXwXwXwXwXrXwXwXwXwXwXwXrXrXwXwXyXwXwXwXwXwXrXrXrXrXrXrXrXrXXX>XwXrXwX*X^.}.5XwX0XyXuXyXuXuXrXXX(.5XrXuXuXrXwXyXyXrXyXrXrXrXtXtXyXyXrX|.D.qXhXsXuXyXuXuXuXuXyXyXyXyXrX5X,X,X>X<XwXyX0X6X;X>XwXuXsXuXuXuXuXuXrX<X>X<X0X.X<.[ F.yXyXyXuXrX0X6X0XuXrX>X,X6X0X;X6XyXwXrX<X$X$X<XwXrXuXuXuXuXuXuXuXuXuXuXuXyXuXuXuXuXyXuXuXuXuXuXuXuXuXuXyXyXuXuXuXwX X;XuXuXuXuXyXrXrXwXyXwX;X;XuXuXuXuXuXuXuXuXuXuXuXuXuXuXuXuXuXbXuXQ.e.|.7X<X;X0X;X2.] } } } { } @.=.{ } { { { { { { { } } @.@.@.@.@.@.&.>.>.>.>.-.-.=.@.{ [ ] { ] [ H.sXuXwX;X;X Xr.N.wXuXuXuXuXuXuXuXuXuXuXuXuXuXuXuXuXuXrXXX6XwXyXwXtXuXuXsXuXuXyXXX{.wXuXuXuXuXuXuXuXuXuXuXuXuXuXuXuXuXuXuXuXuXuXuXuXuXuXuXuXuXuXuXyXrXwX;XJ.{.rXyXuX6X0XsX<X>XwXrXwXwX0X,X6XwXrXaXhXyXT.#.#.}.6X6X$X{.;XuXuXuXyXuXuXrXqX$X$X,XyX6X6X0X0X>X,XwXsXyXyXyXyXyXyXyXyXyXyXyXyXrX$XY.dXaXaXuXuXuXuXuXuXyXyXyXuXuXuXsXsXrX XD.<XyXyXrXwX0X6X0XrX5X$X$X>XwXwX;XXXuXyXrXwXwXwXwXwXrXtXwXiXiXiXiXwXwXwXwXwXwXwXwXwXwXwXwXwX0X0X0X0X9X6X6X<X<X>X*X*X*X*X*X;X;X.X^.}.$X.X^.H.N.b.k.N.",
".XD.N.}.#X;X*X|..X#X>X,X,X,X5X5X,X,X5X5X<X<X6X6X0X0X0XwXwXwXwXwXrXrXrXrXwXwXwXwXwXwXwXwXwXwXwXwXrXrXrXrXwXyXyX.XXXwXwXwX,XZ.B.%X0X0X6X<XyXwXiXtX$XH.;X0XwXwX0X0X0X0XwXwXwXwXwXwXwXrXwXwX6XJ.U.0XwXwXwXwXwXrXyXyXyXyXyXyX6X<X;X>XwXwXwXwX6X;X*X0XsXsXsXsXsXuXuXtX9X>X>X>X;Xb.] <.6XyXuXyXyXyXyXyXrX6X>X6X6XwX<X<XgXsXyXwX*Xs.c..XwXrXuXuXuXuXuXuXuXuXuXuXuXuXuXuXuXuXyXyXuXuXuXuXuXuXuXuXuXuXuXuXyX<X{.<XuXuXuXuXyXyXwXwXuXwX X<XuXuXuXuXuXuXuXuXuXuXsXsXuXaXuXuXtXfXuX|.3.F.;X;X<XwX;X1.>.>.2.2.>.>.>.>.<.5.5.8.5.5.5.5.8.8.5.5.5.5.5.5.5.5.5.5.9.9.9.9.5.5.3.<.2.1.2.] b.yXuXuX6X Xb.r.{.0XuXuXuXuXuXuXuXuXuXuXuXuXuXuXuXuXuXuX*X>XwXwXwXtXuXuXuXuXuXuX,XH.,XuXuXuXuXuXuXuXuXuXuXuXuXuXuXuXuXuXuXuXuXuXuXuXuXuXuXuXuXuXuXuXrXwX Xe.r.<XaXsXyX0XrXrX;X;XrXyX6XwX0X6XwXyXaXsXsXrXs.{ w.;X6X,XXXXXwXuXuXuXuXuXuXrX0X;X;XwXuXwX0XrXwX>X>XwXrXrXwXwXrXrXrXrXrXrXrXrXaX%XY.5XyXyXtXrXrXtXrXrXwXwXwXwXwXwXwXrXrX<Xc.F.uXyXyXwX6X6XwXrX>X|.Y.Y.;XwXwX X<XyXyXyXwXwXwXwXiXiXiXiXiXiXiXwXwXwXwXwXwXwXwXwX0X0X0X0X0X0X0X0XwX6X6X6X<X<X,X,X;X;X;X;X*X*X.XU.^. X X{.Y.J.F.H.",
"D.J. X$X;X#X}.^.$X;X>X;X,X,X5X5X5X,X5X<X<X<X6X6X0X0X0XwXwXwXwXwXwXrXrXrXwXwXwXwXwXwXwXwXwXwXwXwXrXrXrXrXrXrXwX}.{.0X0X0X;X.X$X;X;X$X{.J.J.H.{.XXb.]..X.X$X$X$XXXXXXXXXXXXX.XXXXXXXXX$X$X#X}.}.$X*X*X*X*X;X;X;X>X>X;X;X;X>X<X6X0XwXrXwX0X;X;X6XuXsXsXsXsXuXuXtXwX;X;X<X>XU.=.) H.yXsXsXuXyXyXyXyXyX;X;X0X0X6X<X0XsXwXwXyX^.8.j.$XwXrXuXuXuXuXuXuXuXuXuXuXuXuXuXuXuXuXyXyXuXuXuXuXuXuXuXuXuXuXuXuXyX*X.XwXuXuXuXuXyXrXwXwXyX0X{.wXuXuXuXuXuXuXuXuXuXuXsXsXuXuXuXuXtXfXaX,Xk.k.5.Y.yX0X<X<X6XwXwX0X0X0X0X0XwXwX0X0X0X0XwXwXwX0X0X6X6X6X6X6X6X6X0XwX0XwXrXrXrX6X6X6X6X6X<X%XXX6XuXuX;Xb.N.XXXX>XrXsXuXuXuXuXuXuXuXuXuXuXuXuXuXuXuXuX,X$XrXwXwXtXuXuXuXuXuXuX0X!.XXuXuXuXuXuXuXuXuXuXuXuXuXuXuXuXuXuXuXuXuXuXuXuXuXuXuXuXuXuXuXuXyXrX$Xt.,.U.rXaXyXrXyXuX<XXX6XyXrXwXwXwXwXrXaXaXsXsX X5.@.B.0X0X;X.X,XyXuXuXuXuXuXuXyX6X>X<XrXrXwXwXrX0X<X,X;X;X;X;X;X;X;X;X;X;X;X;X;X$X|.XX$X$X$XXXXXXXXXXXXXXXXXXX$XXX$X$X X XF.H.}.}. X X{.XX;X<X,X=X%X*X1XwXrX XXXwXyXrXwXwXwXwXiXiXiXiXiXiXwXwXwXwXwXwXwXwXwXwX0X0X0X0X0X0X0X0XwX9X6X6X6X<X,X,X,X,X;X;X;X;X*X$XY.U. X$X$X}.Y.J.",
"F. X;XXX}.{.}.XX*X,X,X;X,X,X,X,X<X<X<X<X<X<X<X0X0X0X0X0X0X0XwXwXwXwXrXrXwXwXwXwXwXwXwXwXwXwXwXwXwXwXwXwXyXwXwXXXJ.6XwXwX0X6X6X0X0X5X*X.X{.{.{.Y.*X7X;X;X,X,X,X>X;X;X>X>X>X>X,X,X,X<X<X<X5X,X,X0X<X<X<X<X<X<X<X<X6X6X6X6XwXwXwXwX0XwX6X>X$X>XwXsXsXsXsXsXuXuXrX<X$X;X>X}.e.E t.6XyXsXsXaXyXyXyXyX6X>X6XwXwX<X<XyXuXwXyX6Xn.<.Z.;XrXyXuXuXyXyXuXuXuXuXuXuXuXuXuXuXuXuXyXyXuXuXuXuXuXuXuXuXuXuXuXuXwX.X*XyXuXuXuXuXyXrXwXwXyX;X.XuXuXuXuXuXuXuXuXuXuXuXuXuXuXuXuXuXyXsXsXaX%XA.,.Z.wX0X<XyXgXgXuXyXsXsXsXsXuXuXyXtXtXrXtXwXwXwXwXwXwXwXtXtXwXwXwXwXwXwXwXwX<X>X>X>X>X;X;X%X$X,XyX6XY.Y.6XrXXX;X0XsXuXuXuXuXuXuXuXuXuXuXuXuXuXuXuXuX0XXXwXwXwXtXuXuXuXuXuXuXyXXXU.yXuXuXuXuXuXuXuXuXuXuXuXuXuXuXuXuXuXuXuXuXuXuXuXuXuXuXuXuXuXyXyXyX<XN.>.s.,XaXsXyXyXyX0X*X$XwXuXrXwXrXrXrXyXuXuXsXtXD.} >..X0X<X#X$XwXsXsXuXuXuXuXsXrX6X;X<XwXrX0X6X0XwXwX<X<X<X<X<X<X<X<X5X<X5X5X;X5X,X<X1X,X,X,X,X,X,X,X,X,X,X,X<X,X<X<X>X;X;X;X*X;X;X;XXX;X<XwX0X0X6XrXrXyXrX{.XXwXyXyXwXwXwXwXiXiXwXiXwXwXwXwXwXwXwXwXwXwXwXwX0X0X0X0X0X0X0X0XwXwX6X6X6X6X<X,X,X,X,X,X>X>X;X;X;X|.}.XX;XXXoXJ.",
";X;XXX{.{.}.XX$X;X,X,X,X,X,X,X,X<X<X<X<X<X<X<X0X0X0X0X0X0X0XwXwXwXwXrXrXwXwXwXwXwXwXwXwXwXwXwXwXwXwXwXwXrXwXyX>XG.0XyXrXwXwXwXrXrXwXwXwXwXtXwX<XrXaXyXyXyXyXyXrXwXwXrXrXyXyXyXyXyXyXyXyXyXyXyXuXyXyXyXrXrXyXuXuXuXyXyXyXyXrXwXwX0X6X>X$X*XwXsXuXsXsXsXsXyXsXrX>X>X<X*XN.^ =.$XyXyXyXuXuXuXyXyXyX;X6XwX6X6X<X0XyXyXwXyX;Xr.w.XX0XrXyXuXuXuXyXuXuXuXuXuXuXuXuXuXuXuXuXyXyXyXuXuXuXuXuXuXuXuXuXuXuX<X{.<XyXuXuXuXuXyXwXwXwXyX$X$XuXuXuXuXuXuXuXuXuXuXuXuXuXuXuXuXuXuXuXsXsXrXqX$XH.$X0X;Xt.8.5.1.2.2.2.2.2.@.>.>.>.>.>.>.>.>.>.>.>.>.>.>.>.>.>.2.2.2.2.2.2.>.@.@.} @.} } } r.XX0X>X{.,XyXrX;X;X0XuXuXuXuXuXuXuXuXuXuXuXuXuXuXuXuXuXwXXX6XrXwXtXuXuXuXuXuXuXuX;XG.0XuXuXuXuXuXuXuXuXuXuXuXuXuXuXuXuXuXuXuXuXuXuXuXuXuXuXuXuXuXyXyXuX0X.Xw.w.Y.yXaXyXyX0XwX<X$X,XuXuXyXrXyXyXyXyXuXuXuX&Xr.[ t.=X5X=XXX<XyXsXuXuXuXuXsXuXwX>X;X6XwXwX6X6XwXrXyXyXyXyXyXyXyXyXyXyXyXyXyXyXrXyXrXwXwXwXwXwXwXwXrXrXrXrXyXrXyXyXyXrXwXwXwXwXwXwXwXwXyXyXrXyXyXyXyXyX6XG.;XwXyXyXwXwXwXwXiXiXwXwXwXwXwXwXwXwXwXwXwXwXwXwX0X0X0X0X0X0X0X0XwXwX0X6X6X6X<X,X,X,X,X,X;X;X;X;X%X;X|.{. XXX XH.",
";X XU.Y.$X>X<X;X;X<X<X>X,X,X<X<X<X<X<X<X<X6X6X0X0X0XwXwX0X0XwXwXwXwXwXwXwXwXwXwXrXrXrXrXrXrXrXrXwXwXwXwXyXwXyX0X{.wXyXyXyXyXyXrXyXyXyXyXyXwX8XwXuXyXuXuXyXyXyXyXyXyXuXuXuXuXuXuXuXuXuXuXuXuXuXuXuXuXuXuXuXuXuXuXuXsXyXuXyXwXwXwXrX<X$X$X0XuXuXsXuXuXuXuXuXyX,X*X,X>XY.*.) F.rXsXuXyXyXyXyXuX0XXX*X0XwX<X<X6XyXuXyXrXwXH.,.D.,XwXyXyXuXuXuXuXuXuXuXuXuXuXuXuXuXuXuXuXuXuXuXuXuXuXuXuXuXuXyXuXfXuX*XXX0XsXuXuXuXuXwXwXwXwX0X X6XuXuXuXuXuXuXuXuXuXuXuXuXuXuXuXuXuXuXuXsXsXsXaXwX6X*X6X$Xb.a.s.s.s.t.t.t.t.r.t.s.s.j.j.j.s.s.s.s.t.t.t.t.t.t.t.t.r.t.t.t.r.r.r.r.y.t.r.t.y.c..XwXwX<X6XwXyXyXyXyXyXuXuXuXuXuXuXuXuXuXuXuXuXuXuXuXaXyX$X;XrXrXrXtXuXuXuXuXuXyX,XH.*XyXsXuXuXuXuXuXuXuXuXuXuXuXuXuXuXuXuXuXuXuXuXuXuXuXuXuXuXuXuXuXuXuXwXD.1.M.,XsXrXyXyX0X,XwX,XwXuXuXrXyXyXrXyXyXuXuXuXY.>.[ C.5X5X>X$X>XsXuXuXuXuXsXsXyX0X$X$X>XwXwXwXwXyXyXwXuXuXuXuXuXuXaXaXsXsXuXuXuXuXuXuXyXyXuXuXuXuXuXuXuXuXuXuXuXuXyXyXyXyXtX6X<XwXwXwXwXyXyXyXyXyXrXrX|.`.5XwXrXrXwXwXwXwXwXwXwXwXwXwXwXwXwXwXwXwXwXwXwXwXwXwXwXwX0X0X0X0X0X0X6X<X<X6X<X5X,X,X5X,X,X,X;X;X$XXX.X{.F.{.XXXX",
"}.Y.^. X;X,X<X>X>X<X>X>X,X,X<X<X<X<X<X<X6X6X0X0X0X0XwXwXwXwXwXwXwXwXwXwXwXwXwXwXrXrXrXrXrXrXrXrXwXwXwXwXwXwXyXwX*X,XrXyXyXyXyXyXyXyXyXyXwX<X<XyXyXuXuXuXyXyXyXyXyXyXuXuXuXuXuXuXuXuXuXuXuXuXuXuXuXuXuXuXuXuXuXuXyXwXXX<XwXwXwXwX0X>X;X6XuXuXsXsXuXuXuXuXyX6X;X;X6X$Xs.{ r.>XgXyXyXyXyXyXyXrX6X$X<XwXwX0X<XwXuXuXrXyX<Xr.e.XXwXyXyXyXuXuXuXuXuXuXuXuXuXuXuXuXuXuXuXuXuXuXuXuXuXuXuXuXuXuXuXuXfXwXXX;XwXsXuXuXuXuXwXwXwXwX<X X0XsXuXuXuXuXuXuXuXuXuXuXuXuXuXaXuXuXuXuXuXsXsXsXsXuXyXwX>X>X;X;X>X>X>X>X>X>X>X>X,X<X<X<X<X<X6X6X0X0X0X3X0X0X6X6X0X0X0X0X0X0XwX0XwXwXwX6X0X6X6X0XwXwXwXrXuXsXuXuXuXuXuXuXuXuXuXuXuXuXuXuXuXuXuXuXuXuXuX;X*XwXrXrXtXtXuXuXuXuXgX0X!.|.wXuXsXuXuXuXuXuXuXuXuXuXuXuXuXuXuXuXuXuXuXuXuXuXuXuXuXuXuXuXuXuXuXtX.Xs.e.'.yXaXyXyXwX<XyXwX;XrXuXyXrXyXrXrXyXuXuXuX>XN.^ +.'.qX4X$X$XwXuXuXsXuXsXsXuXyX,X$X*X<XwX0X0XwX<X,XwXuXuXuXuXuXaXaXsXsXuXuXuXuXuXuXuXuXuXuXuXuXuXuXuXuXuXuXuXuXyXyXyXuXtXwX<X<X6XwXrXrXrXrXyXyXqX5X%X5XqXwXrXwXwXwXwXwXrXwXwXwXwXwXwXwXwXwXwXwXwXwXwXwXwXwXwXwX0X0X0X0X0X0X6X<X<X6X<X5X,X,X5X,X,X,X;X;X;X;X$X$XXXY.Y.{.",
"J.Y. X$X$X$X*X;X,X,X,X,X<X<X<X<X<X<X<X6X6X0X0X0XwXwXwXwXwXwXwXwXwXwXwXwXwXwXwXwXrXrXrXrXrXrXwXwXwXwXwXwXwXwXwXyX6X>XwXrXyXyXyXyXyXyXyXyX0X<XwXuXuXuXuXuXyXyXyXyXyXyXyXyXuXuXuXuXuXuXuXuXuXuXuXuXuXuXuXuXuXuXuXuXuX<XN.J.,X<X0X0X,X;X6XuXuXsXuXuXuXuXuXuXrX;X%X;X,XF.=.-.#XrXuXsXuXuXyXyXuX0X>X>XrXwXwXwX0XyXsXsXwX6XH.w.N.0XuXuXuXuXuXuXuXuXuXuXuXuXuXuXuXuXuXuXuXuXuXuXuXuXuXuXuXuXuXuXuXsXuX6X{.<XyXuXsXsXuXyXwXwXwXyX*XXXrXsXuXuXuXuXuXuXuXuXuXuXuXuXaXaXuXuXuXuXuXuXsXsXsXsXhX6X$X<X6X8XwXwXwXwXwXwXtXwXwXwXwXwXwXwXwXwXwXwXwXwXwXwXrXrXrXrXrXrXrXrXyXyXyXyXrXwXwXwX<X>X6XsXuXsXsXsXuXuXuXuXuXuXuXuXuXuXuXuXuXuXuXuXuXuXuXuXsX6X.X6XwXrXrXtXuXuXuXuXgXrXXX!.6XsXsXuXuXuXuXuXuXuXuXuXuXuXuXuXuXuXuXuXuXuXuXuXuXuXuXuXuXuXuXuXuXyX<XD.8.N.,XyXyXyXyX0XyXwXXX;XuXuXrXyXyXrXyXyXyXuXuX$X5.T k.=X7X&XXX$XyXuXuXsXsXsXuXuXwX,X$X$X6X6X<X6X,X;X<XyXsXuXuXuXuXuXuXuXuXuXuXuXuXuXuXuXuXuXuXuXuXuXuXuXuXuXuXuXyXyXyXyXuXrX<X;X<X0XrXrXwXrXyXyXwXyXrXwXrXrXrXwX0X0XwXrXrXwXwXwXwXwXwXwXwXwXwXwXwXwXwXwXwXwXwXwX0X0X0X0X0X0X6X6X6X6X<X<X,X,X,X,X<X>X>X;X;X;X;X;X;X{.J.J.",
"J.}.XX$X$X$X*X;X,X,X,X<X<X<X<X<X<X<X6X6X0X0X0XwXwXwXwXwXwXwXwXwXwXwXwXwXwXwXwXwXrXrXrXrXrXrXwXwXwXwXwXwXwXwXwXyXrXwXrXrXrXrXyXrXyXyXyXyX<XwXeXyXuXuXuXyXyXyXyXyXyXyXyXyXuXuXyXyXyXyXyXyXyXyXuXuXuXuXuXuXuXuXuXuXwX;Xb.N.;X<X0X<X>X,X0XuXsXsXuXuXuXuXuXuX6X$X%X;X|.>.[ G.rXyXyXyXuXyXyXyXsX6X;X6XrXwX0XwXwXuXsXuXwX*Xe.s.*XyXrXuXuXuXuXuXuXuXuXuXuXuXuXuXuXuXuXuXuXuXuXuXuXuXuXuXuXuXuXuXsXsXuX,X.X6XuXuXsXsXuXyXwXwXwXyXXXXXuXsXuXuXuXuXuXuXuXuXuXuXuXuXuXuXuXuXuXuXuXuXsXsXsXsXsX6Xb.U.{.{.}.{.{.{.}.{.XX XoX{.{.oXoXoX{.}.}.{.oXoXoXoXQ.Q.Q.Q.{.{.{.Q.Q.Y.Y.Y.Y.J.J.J.Z.J.%XrXsXuXuXuXuXuXuXuXuXuXuXuXuXuXuXuXuXuXuXuXuXuXuXuXsXwX}.,X9XrXrXrXyXuXuXuXuXyX;XH.;XyXuXyXuXuXuXuXuXuXuXuXuXuXuXuXuXuXuXuXuXuXuXuXuXuXuXuXuXuXuXuXtXtXrX$Xa.r.Y.aXyXuXuXwXwXwX$XD.wXuXyXrXyXrXrXyXyXwXyX0XF.{ +.I.>X;X$X X0XuXuXsXsXsXuXyXuX0X;X$X;X<X,X,X<X;X<XwXsXuXuXuXuXuXuXuXuXuXuXuXuXuXuXuXuXuXuXuXuXuXuXuXyXuXuXuXyXyXyXyXuXuXwX,X,X<X0XwXyXyXyXyXrXrXyXrXrXrXwXwX6X<X<XwXrXwXwXwXwXwXwXwXwXiXiXiXwXwXwXwXwXwXwXwX0X0X0X0X0X0X6X6X6X6X<X<X,X,X,X,X<X>X>X;X;X;X;X;X$X#X{.J.",
"XX$X*X;X*X;X;X;X<X,X,X,X<X<X<X<X6X6X6X0X0X0X0XwXwXwXwXwXwXwXwXwXwXwXwXwXwXwXwXwXwXwXrXrXrXrXrXrXwXwXwXwXwXwXwXwXrXrXrXrXrXrXyXrXrXwX6X<XwXwXeXuXuXyXyXyXyXyXyXyXyXyXyXyXyXyXyXyXyXyXyXyXyXyXuXuXuXuXuXuXuXyXrXwXrXXXb.XX<X<X,X,X;X0XyXyXuXuXpXpXuXuXuXwX$X$X;X.Xs._ s.qXyXyXyXyXyXyXyXuXrX0X6XrXwXrX0X0XuXsXuXrXwXH.1.F.wXyXyXyXyXyXyXyXuXuXuXuXuXuXuXuXuXuXuXuXuXuXuXuXuXuXyXyXuXuXuXuXsXsXwXXX*XwXuXuXsXuXyXwXwXwXyXwX{.,XuXsXuXuXuXuXuXuXuXuXuXuXuXaXaXuXuXuXuXuXuXuXuXuXuXaXhX0X.XF.N.B.N.M.N.B.B.N.b.b.b.b.b.c.x.x.x.x.x.j.x.x.x.c.c.b.N.N.B.B.B.B.M.M.M.M.b.c.c.c.b.H.;XsXuXuXuXuXuXuXuXuXuXuXuXuXuXuXuXuXuXuXuXuXuXuXuXuXsXyX*X*XrXuXrX9XuXsXuXuXyXyX0XH.$XwXsXuXuXuXuXuXuXuXuXuXuXuXuXuXuXuXuXuXuXuXuXuXuXuXuXuXuXuXuXuXtXrXwX,XF.6.x.6XsXuXwXuXrXrX,XG.XXuXuXyXyXyXrXyXyXyXyXyX7Xb.+.e.@X%XXX{.OXwXuXuXsXsXsXsXyXyX6X;X$X>X<X>X<X<X<XwXyXuXuXuXsXsXuXuXuXuXuXuXuXuXuXuXuXuXuXuXuXuXyXyXyXyXuXuXuXuXuXuXyXuXyXwX<X;X,XyXyXyXyXyXyXtXtXrXyXwXwXwXwX0X0XwXwXwXwXwXwXwXwXwXwXwXwXwXiXwXwXwXwXwXwXwXwX0X0X0X0X0X0X6X6X6X<X<X<X,X,X,X,X>X;X;X;X;X;X;X%X%X#X}.",
";X;X;X;X;X;X;X>X<X<X,X,X<X<X<X<X6X6X6X0X0X0X0XwXwXwXwXwXwXwXwXwXwXwXwXwXwXwXwXwXwXwXwXwXrXrXrXrXrXrXyXwXwXwXwXwXrXrXrXwXwXrXyXrXyX6X>X,XwXwXeXyXyXyXyXyXyXyXyXrXrXrXyXyXyXyXyXyXyXyXyXyXyXyXyXyXyXyXyXyXyXyXwXwX0X$X X<X6X<X;X;X<XwXyXyXuXuXuXpXpXpXyXwXXX*X*XH.,.3.=XwXyXyXyXyXyXyXuXyX.XF.$X;X6XuX6X<XgXgXsXyX>Xr.e.;XyXuXyXyXyXyXyXyXuXuXuXuXuXuXuXuXuXuXuXuXyXyXuXuXuXuXyXyXuXuXuXuXsXfXwXXX,XwXuXsXsXuXwXwXwXeXeX<X{.6XuXuXuXuXuXuXuXuXuXuXuXuXaXaXaXaXuXuXuXuXuXuXuXuXuXuXsXuXsXwX5X5X5X,X;X;X;X;X;X;X;X;X%X;X;X,X;X;X;X;XXX$X$X$X$X$X$X;X;X;X;X;X>X>X>X>X>X;X;X;X;X>XwXsXuXuXuXuXuXuXuXuXuXuXuXuXuXuXuXuXuXuXuXuXuXuXuXuXuXuX;X$XrXrXrXwXyXuXuXuXyXyXrX|. X<XuXrXuXuXuXuXuXuXuXuXuXuXuXuXuXuXuXuXuXuXuXuXuXuXuXuXuXuXuXuXyXtXrX0X.Xv.s.U.yXuXwXyXyXyX0X.XZ.0XuXuXyXyXyXyXyXyXyXyXaX>Xa.,.M.|.$XXXXX<XrXuXsXsXsXsXaXyXrX6X$X;X6X*X,X,X,X<XtXuXuXuXuXuXuXuXuXuXuXuXuXuXuXuXuXuXuXuXyXtXtXrXyXyXyXyXyXyXyXyXyXyXyXyX0X;X;X<XyXyXyXtXuXtXwXwXwXwXrXwXwXwXwXwXwXwXwXwXwXwXwXwXwXwXwXwXwXwXwXwX0X0XwXwX0X0X0X0X0X0X0X0X6X6X<X<X<X,X,X,X,X>X;X;X;X;X;X;X;X;X%X|.",
";X;X;X;X;X>X>X,X<X<X<X<X<X<X6X6X6X6X6X0X0X0X0XwXwXwXwXwXwXwXwXwXwXwXwXwXwXwXwXwXwXwXwXwXwXwXwXwXwXwXrXrXwXwXwXwXwXwXwXwXrXyXrX6X<X;X>X0XwXyXeXyXyXrXrXyXyXyXrXrXwXwXwXwXyXyXyXyXyXyXyXyXyXyXyXyXyXyXyXyXrXwXwXwX<X,XwXwXwX<X>X;XwXwXwXrXuXuXuXpXpXuXwX;XXX*XU.a.<.Y.rXyXyXyXyXyXyXyXuX6Xj.b.{.{.0XXX>XuXgXgXuXwX}.5.F.wXuXyXyXyXyXyXyXyXuXuXuXuXuXuXuXuXuXuXuXuXyXyXyXyXuXuXuXuXuXuXuXuXuXsX;XXX0XyXuXsXsXyXwX0XwXyXwX;X XyXuXyXuXuXuXuXuXuXuXuXuXuXaXaXaXaXuXuXuXuXuXuXuXuXuXsXsXuXuXuXrXrXrXwX0XwXwX9X9X6X6X6XwXrXuXsXsXsXsXuXuXtXrXrXrXiXwXwXrXrXrXrXrXrXrXrXrXwXwXwXuXyXuXuXuXuXuXuXuXuXuXuXuXuXuXuXuXuXuXuXuXuXuXuXuXuXuXuXuXsX,X}.6XrXrXrXwXuXuXsXuXuXuX=XJ.*XyXuXuXuXuXuXuXuXuXuXuXuXuXuXuXuXuXuXyXyXyXyXuXuXuXuXuXuXuXuXyXtXrXwX6X^.k.x.6XgXwXwXuXyXyX<XN.J.yXuXyXyXyXyXyXyXyXyXsXaX.Xa.6.D..X$XXX$XwXuXsXsXsXsXsXaXyXrX6XXX$X*X,X,X,X<XwXyXuXuXuXtXtXtXyXyXyXyXyXyXyXyXtXtXtXtXyXrXrXrXrXrXrXrXrXrXrXrXyXyXyXyXrX0X;X;XrXyXrXrXrXiXiXiXwXwXyXrXrXrXrXrXwXwXwXwXwXwXwXwXwXwXiXiXwXwXwXwX0X0X0X0X0X0X0X0X0X0X0X6X6X6X6X<X<X<X,X,X,X>X;X;X;X;X;X;X;X;X;X#X",
">X;X;X;X>X>X<X<X<X<X<X<X<X<X6X6X6X6X6X0X0X0X0XwXwXwXwXwXwXwXwXwXwXwXwXwXwXwXwXwXwXwXwXwXrXrXrXrXwXwXwXwXwXwXwXwXwXwXwXrXrXrX0X5XXX;X6XrXwXwXeXwXrXrXrXrXyXrXrXrXwXwXwXwXwXwXrXrXyXyXyXyXyXyXyXyXyXyXrXrXwXwXwX0XwXwXuXyXwX<X;X,XrXwXwXyXuXuXuXpXuXwX:XXX;XXXv.=.M.qXaXyXyXyXyXyXyXuXyX,X^.6XY.Z.{.Y.;XgXuXuXwX<Xs.5.$XrXuXyXyXyXyXyXyXyXuXuXuXuXuXuXuXuXuXuXuXuXyXyXyXyXuXuXuXuXuXuXuXuXuXwX{. XwXuXsXuXuXyXwXwXwXuXwXXX.XuXsXyXuXuXuXuXuXuXuXuXuXuXaXaXaXaXuXuXuXuXuXuXuXuXuXuXsXsXsXsXhXhXsXsXlXlXlXlXlXlXlXlXzXzXcXcXcXcXcXcXcXzXlXlXzXlXlXjXlXlXlXlXlXlXzXzXlXhXjXhXsXsXsXuXuXuXuXuXuXuXuXuXuXuXuXuXuXuXuXuXuXuXuXuXuXuXuXuXuXgX6XY.,XrXrXrXwXyXuXsXuXuXuX,XH. XwXsXuXuXuXuXuXuXuXuXuXuXuXuXuXuXuXyXyXyXyXyXyXyXuXuXuXuXuXuXyXtXrXwX0X,XU.a.}.gXwX0XuXuXuXwX.Xx. XjXuXyXyXyXyXyXyXyXsXaXqXY.4.e.U.$X;XXX>XrXsXsXsXsXsXsXuXyXwX;X{.$X<X<X<X0X<XtXuXuXtXtXtXtXrXrXrXrXrXrXrXrXrXtXtXtXrXrXrXrXwXwXwXwXwXwXwXwXwXyXyXyXuXyX0X>X6XqXrX9X9X9XiXiXiXiXyXyXrXrXrXrXwXwXwXwXwXwXwXwXwXwXiXiXwXwXwXwX0X0X0X0X0X0X0X0X0X0X6X6X6X6X6X<X<X<X,X,X,X>X;X;X;X;X;X;X;X;X;X%X"
};
