/* XPM */
static char *_0f58e6cb25944e5b12d6091f403c1ad2ARcaE1KsgfRdeUi[] = {
/* columns rows colors chars-per-pixel */
"512 512 256 2 ",
"   c #14171A",
".  c #0B1016",
"X  c #161C24",
"o  c #0A1C2B",
"O  c #1B232A",
"+  c #192836",
"@  c #0E2737",
"#  c #262C35",
"$  c #2B333A",
"%  c #32373D",
"&  c #23272C",
"*  c #15334B",
"=  c #2A3845",
"-  c #333B43",
";  c #363B47",
":  c #273A52",
">  c #133B64",
",  c #3A434B",
"<  c #3A4855",
"1  c #2C4759",
"2  c #164D70",
"3  c #30526D",
"4  c #28596E",
"5  c #434B54",
"6  c #464D58",
"7  c #4B545C",
"8  c #47525A",
"9  c #52575E",
"0  c #42474E",
"q  c #4D5963",
"w  c #4A5664",
"e  c #535C64",
"r  c #545D69",
"t  c #565B65",
"y  c #485A70",
"u  c #56626B",
"i  c #5B646D",
"p  c #596368",
"a  c #5C6671",
"s  c #5D6A74",
"d  c #586877",
"f  c #4C6776",
"g  c #62676E",
"h  c #636B74",
"j  c #646E79",
"k  c #686C76",
"l  c #65717B",
"z  c #6B737C",
"x  c #6A7377",
"c  c #71757D",
"v  c #73797E",
"b  c #706E78",
"n  c #326D90",
"m  c #216C98",
"M  c #52738C",
"N  c #6C7682",
"B  c #6D7983",
"V  c #697988",
"C  c #737B84",
"Z  c #7A7D85",
"A  c #747E8A",
"S  c #777B86",
"D  c #6A7B91",
"F  c #4E7BA3",
"G  c #1C7EC4",
"H  c #338BB3",
"J  c #278DAB",
"K  c #53859A",
"L  c #75818C",
"P  c #7B838C",
"I  c #7A8287",
"U  c #758492",
"Y  c #7B8592",
"T  c #7D8993",
"R  c #7D8C9B",
"E  c #75889A",
"W  c #6D8796",
"Q  c #508EB0",
"!  c #7995A8",
"~  c #7093AD",
"^  c #73A6BA",
"/  c #52A4BB",
"(  c #39ACCF",
")  c #3296C8",
"_  c #509AC5",
"`  c #52ADD1",
"'  c #70B1CE",
"]  c #6DBBE5",
"[  c #5CB1DC",
"{  c #71C7DA",
"}  c #5AD1ED",
"|  c #72CFED",
" . c #74EAF9",
".. c #59D3E4",
"X. c #3CC3DC",
"o. c #81858D",
"O. c #82898E",
"+. c #848589",
"@. c #818691",
"#. c #838B94",
"$. c #8A8E95",
"%. c #838D99",
"&. c #898F99",
"*. c #84869B",
"=. c #8A9196",
"-. c #85919C",
";. c #8C949C",
":. c #89969B",
">. c #91959D",
",. c #93999E",
"<. c #97989C",
"1. c #8F8D96",
"2. c #8494A3",
"3. c #8B95A2",
"4. c #8D99A4",
"5. c #8C9CAB",
"6. c #8599A9",
"7. c #949CA4",
"8. c #999DA4",
"9. c #939DAA",
"0. c #999FA9",
"q. c #9297A2",
"w. c #8A99AF",
"e. c #9BA1A6",
"r. c #95A1AB",
"t. c #9CA3AB",
"y. c #9BA6AC",
"u. c #89A5B8",
"i. c #94A4B3",
"p. c #9CA5B1",
"a. c #9EA9B4",
"s. c #98AABA",
"d. c #92AAB5",
"f. c #A2A6AD",
"g. c #A3A9AE",
"h. c #A7A8AC",
"j. c #A2A7B2",
"k. c #A4ABB3",
"l. c #A9ADB4",
"z. c #A4AEB9",
"x. c #AAAEB9",
"c. c #A7A7B3",
"v. c #ACB1B6",
"b. c #A5B2BC",
"n. c #ADB3BA",
"m. c #AAB5B9",
"M. c #B1B6BC",
"N. c #B4B9BE",
"B. c #B7B9BC",
"V. c #AFAFB6",
"C. c #9D9EA3",
"Z. c #88ABC5",
"A. c #99B5C8",
"S. c #88B9D5",
"D. c #98BBD4",
"F. c #8EB2C7",
"G. c #ACB6C2",
"H. c #ADB9C3",
"J. c #ACBCCB",
"K. c #A4B6C6",
"L. c #B2B6C1",
"P. c #B5BBC2",
"I. c #BABEC4",
"U. c #B4BECA",
"Y. c #BABEC9",
"T. c #B8B6C3",
"R. c #A7BDD3",
"E. c #AAB4C7",
"W. c #89BCE2",
"Q. c #C1BFC8",
"!. c #98C6D9",
"~. c #8BC8D7",
"^. c #BDC2C6",
"/. c #B4C2CC",
"(. c #BDC3CA",
"). c #B8C3C7",
"_. c #AAC5D7",
"`. c #B4C5D3",
"'. c #BCC9D4",
"]. c #BCCCDB",
"[. c #B7C8D7",
"{. c #BAD2DD",
"}. c #AAC8D2",
"|. c #97D6E8",
" X c #8ED2EC",
".X c #B8CDE2",
"XX c #A8D7E9",
"oX c #B9D7E6",
"OX c #A8DBF4",
"+X c #AFD3EB",
"@X c #98E7FA",
"#X c #8CECFB",
"$X c #A9E7F9",
"%X c #B8E8F8",
"&X c #A8F6FF",
"*X c #B8F6FE",
"=X c #B4E3EC",
"-X c #C1C2C6",
";X c #C2C5CB",
":X c #C5C9CD",
">X c #C9CACE",
",X c #C8C7CC",
"<X c #C6CBD2",
"1X c #CBCDD2",
"2X c #C5CBD7",
"3X c #CDD1D5",
"4X c #C4D1DC",
"5X c #CDD3DA",
"6X c #C8D5D9",
"7X c #D1D3D6",
"8X c #D3D6DA",
"9X c #D6D9DD",
"0X c #D9DBDE",
"qX c #D9D6DA",
"wX c #D0CFD4",
"eX c #C3D5E3",
"rX c #CBD6E2",
"tX c #CDDAE4",
"yX c #CCDDEA",
"uX c #C4DAE8",
"iX c #D5DCE3",
"pX c #DBDDE1",
"aX c #D2DEE9",
"sX c #D7DAE5",
"dX c #C5DDF1",
"fX c #E0DFE2",
"gX c #E1DFEA",
"hX c #CDE2EC",
"jX c #C7E4EB",
"kX c #DEE1E4",
"lX c #D4E3EC",
"zX c #DBE4EA",
"xX c #D9E9EE",
"cX c #D5E4E9",
"vX c #C8E9F6",
"bX c #D5EAF2",
"nX c #D9EBF3",
"mX c #D5E7F3",
"MX c #C8F7FD",
"NX c #D8F7FB",
"BX c #D8F1EE",
"VX c #E2E3E5",
"CX c #E4E6E9",
"ZX c #E8E7EA",
"AX c #E6E9EA",
"SX c #E9E9EA",
"DX c #E7E8E6",
"FX c #E9ECF1",
"GX c #E8F9FB",
"HX c #F3FDFD",
"JX c #FCFEFD",
"KX c #F3F8F8",
"LX c #E7F0EF",
"PX c #DDE0DE",
"IX c #BBC2BF",
"UX c #817E86",
/* pixels */
"HXGXBXcXNXGXGXGXGXLXnXvXMX*X|.' $XMXNXBXNX%X{ { } ` J 2 2 3 W i.5.6.5.r.p.t.9.-.R 2.2.A s j U T w # % 6 0 $ ; < f M M V D U U U A E ! ! R R R R 2.2.2.2.2.R E E 6.6.5.4.5.5.5.5.5.5.i.i.i.i.i.i.d.d.d.d.d.d.d.d.d.d.p.3.y.z.9.a r A G.k.p.k.z.z.z.b.b.b.z.v.L.I.(.y.z #.&.j.b.k.z.b.y.e i P i I.(.N.n.L.n.v.b.l.P & e t.z.n.L.L.M.M.M.M.M.M.M.M.M.M.M.M.P.c.,.@.#.&.O.@.l.b.v.v.f.,.,.8.c.N.I.P.I.I.I.I.I.T.P.P.P.P.P.P.P.P.P.P.P.P.T.N.N.N.N.N.N.N.N.N.N.N.P.P.P.P.I.I.N.N.N.N.P.P.P.P.N.N.P.P.I.I.I.I.T.T.T.P.P.N.N.P.P.P.P.P.T.I.I.I.N.N.N.N.N.N.N.N.P.P.P.I.I.I.I.N.P.N.N.N.N.N.N.N.N.N.N.N.N.N.N.N.N.N.N.N.N.N.N.N.N.N.N.N.N.N.N.N.N.N.N.N.N.N.N.N.N.N.N.N.N.N.M.M.M.l.8.e.l.k.f.t.,.=.=.,.>.$.&.8.c.l.M.M.M.M.v.v.v.v.v.v.v.v.v.v.k.v.Z   % 7.v.k.v.v.M.M.n.P.#.5 h 5 h y.v.b.I.I.k.z C j.v.b.x.l.l.l.l.x.z.z.z.k.x.j.7.o.;.=.C a w 2.i.s.i.i.i.i.i.i.i.p.i.5.i.i.i.i.i.i.i.5.5.5.5.5.5.5.5.5.5.5.6.6.6.2.! ! R R -.R R E M : = w N V U V N a r 7 < # O O ; j s j T T T %.%.%.3.3.3.3.3.3.5.r.s.E 1 > m H ( ..[ { $XMXMXMX@X' ' |.OX=XvXBXLXLXLXBXBXxXAXKX",
"HXHXGXGXBXNXGXGXGXGXNXNXvXMX%X|.~.=XNXGXNXNX&X{ ....( m 4 1 y E 5.6.5.r.r.t.r.5.-.R -.%.Y B B A h $ # - % # = , d D D D D D L U A E R ! ! ! ! ! 2.2.2.2.2.-.R E A 2.5.2.5.5.5.5.5.5.5.5.i.i.i.i.i.i.i.i.i.u.i.i.i.i.p.3.C r.4.a u a 4.z.p.p.k.z.b.b.b.b.z.b.n.P.I.j.N P #.7.b.b.x.k.p.z < I i z.P.L.N.L.n.v.b.l.8., - o.f.x.M.M.M.M.M.M.M.M.M.M.M.M.M.M.v.k.t.7.t.t.7.7.M.N.L.M.k.t.8.t.k.M.I.P.T.I.I.I.P.P.T.P.T.T.N.T.T.P.T.P.N.N.N.N.N.N.N.N.N.N.N.N.N.N.P.P.P.P.P.P.P.N.N.N.P.P.P.P.N.N.P.P.I.I.I.I.T.T.I.I.P.P.N.N.P.P.P.P.T.T.I.T.P.N.N.N.N.N.N.N.N.N.N.P.P.P.N.N.N.N.N.N.N.N.N.N.N.N.N.N.N.N.N.N.N.N.N.N.N.N.N.N.N.N.N.N.N.N.N.N.N.N.N.N.N.N.N.N.N.N.N.N.N.M.M.v.M.f.8.g.M.v.v.l.t.,.$.=.&.+.;.x.M.M.M.M.M.M.n.v.v.v.v.v.v.v.v.v.l.v.5 . 8 e.v.l.v.v.n.M.b.b.z 7 i $ I y.b.b.L.n.=.h #.n.v.x.x.l.l.l.l.x.z.z.z.k.j.e.#.=.4.P l l T r.i.i.i.i.i.i.i.i.i.p.i.2.2.i.i.i.i.i.i.5.5.5.5.5.5.5.6.6.6.6.6.2.2.2.2.! R R E E E E f : V A A A A N h u e 5 $ O O - h l N U T T T %.%.2.3.3.3.3.w.9.5.5.! 3 2 n m ) X.` { @X*XMXMX%X' ' |.|.=X%XNXGXGXGXLXBXBXLXKXHX",
"JXJXJXHXGXGXGXGXHXHXGXGXNXjX%X%X~.~.vXGXGXGXMX@X` ..[ _ n 4 1 f R i.5.6.9.r.r.r.4.-.R 5.4.Y N N B t & # $ $ $ , d U E W D V A L A U E R R R R R 2.2.2.2.2.2.2.R V E 6.2.5.5.5.5.5.5.5.5.i.i.i.i.i.i.i.i.i.i.i.i.i.d.a.4.q r h j s s T k.k.p.a.b.b.b.b.z.z.b.b.n.L.x.P A P #.j.b.n.x.k.#.= h h &.n.n.L.n.n.v.b.v.f.h # k 0.k.v.n.M.M.M.M.M.M.M.M.M.M.M.M.M.v.v.v.P.P.v.v.N.N.N.M.v.c.f.f.t.v.P.T.P.P.P.P.T.P.N.N.N.N.N.N.N.N.T.T.N.N.N.N.N.N.N.N.N.N.N.N.N.N.N.N.N.N.N.N.N.N.N.N.P.P.P.P.N.N.N.P.N.N.P.N.T.T.T.T.N.N.N.N.P.P.P.P.N.N.N.N.N.N.N.N.N.N.N.N.N.N.N.N.N.N.N.N.N.N.N.N.N.N.N.N.N.N.N.N.N.N.N.N.N.N.N.N.N.N.N.N.N.N.N.N.N.N.N.N.N.N.N.N.N.N.N.N.N.N.N.N.M.M.v.x.l.8.f.v.N.N.N.M.N.v.g.f.f.g.x.M.v.v.M.M.L.M.n.v.v.v.v.v.v.v.b.b.b.;.X X v j.v.b.v.n.n.M.G.e.h i 5 , ;.j.v.v.b.t.C z e.n.v.x.x.l.l.l.l.l.z.z.z.k.j.7.#.e.7.I B %.4.9.r.i.p.p.i.i.i.i.i.i.i.5.i.i.i.r.r.r.5.5.5.6.5.5.5.5.6.6.6.6.2.2.2.2.2.! R R E E E E < V U D E A V h a r 7 ; O O $ 9 z S Y %.Y T T %.3.2.3.3.w.9.9.5.5.6.f 2 n H ) [ ..[ @X*XMXNX%X|.{ OXOXOXMXNXNXGXGXGXLXBXLXGXJXJX",
"JXJXJXHXHXGXGXGXHXHXHXGXGXNXvXMX$X~.XXNXHXGXMX*X| ....[ / n 4 1 M ! 5.2.4.9.9.4.5.5.R 4.2.%.A B P S , X + # $ ; 7 A R U V V V A L A U R E E E E 2.2.2.2.2.2.2.2.R 2.2.2.5.5.5.5.5.5.5.5.i.i.i.i.i.i.i.i.i.i.i.i.i.a.a.9.C 5 8 u j l h r.a.t.y.z.z.z.b.b.b.b.b.b.M.n.=.A #.P t.z.x.n.b.9.5 , N z z.n.L.n.n.v.b.v.v.&.$ 7 7.y.x.v.M.M.M.M.M.M.M.M.M.M.M.M.M.M.M.M.M.P.M.N.M.M.N.L.P.M.k.f.8.c.T.N.P.P.P.P.N.N.N.N.N.N.N.N.N.N.P.T.N.N.N.N.N.N.N.N.N.N.N.N.N.N.N.N.N.N.N.N.N.N.N.N.P.P.P.N.N.N.N.N.N.N.N.N.N.N.N.N.N.N.N.N.N.N.N.N.N.N.N.N.N.N.N.N.N.N.N.N.M.M.N.N.N.N.N.N.N.N.N.N.N.N.N.N.N.N.N.N.N.N.N.N.N.N.N.N.N.N.N.N.N.N.N.N.N.N.N.N.N.N.N.N.N.N.N.N.N.N.N.M.M.M.x.l.f.8.g.v.N.N.N.N.N.N.N.M.v.M.N.M.l.v.v.M.L.M.n.v.b.b.b.b.v.v.b.b.b.h   - ;.l.v.v.v.v.v.v.b.I q e # i t.z.z.z.k.;.z =.l.k.v.x.x.l.l.l.l.l.z.z.z.k.e.#.7.7.-.L L 3.%.5.i.i.p.p.i.i.i.i.i.i.i.9.i.i.r.r.r.r.5.5.5.6.5.6.6.6.4.4.4.4.2.2.2.-.R ! R R E E E w M V M R A N j s u q , O O # 8 s B P P Y Y T T %.3.3.3.9.9.9.9.5.6.M > 4 n ) [ } ` #X*XMXNXNX$X|.|.$X$X%XNXNXGXLXGXGXLXBXKXJXJXJX",
"JXJXJXJXHXHXGXGXGXHXHXHXHXGXNXvXMXOX|.MXNXNXBXMX*X X{ ` ` Q 4 1 1 V 5.5.4.4.9.9.5.5.5.4.T U Y U U T j = O O # $ , u V A D V V V U U L U T L V V E R E -.2.2.2.2.2.2.2.2.2.5.5.5.5.5.5.5.5.5.i.i.i.i.i.i.i.i.i.i.i.i.i.i.r.3.A a S #.A h #.S 7.z.k.k.j.j.z.z.b.b.b.n.j.;.o.o.e.n.b.b.b.b.h - u i #.l.N.n.M.n.v.v.l.k.9 % I k.L.n.v.v.v.v.M.M.M.M.M.M.M.M.P.M.v.M.N.N.M.n.M.L.P.N.M.M.v.c.8.k.N.M.N.N.N.N.N.N.T.T.T.T.N.T.N.N.P.N.N.N.N.N.N.N.N.N.N.N.N.N.N.N.N.N.N.N.N.N.N.N.N.N.N.N.N.N.N.N.N.N.N.N.N.N.N.N.N.N.N.N.N.N.N.N.N.N.N.N.N.N.N.N.N.N.N.N.N.N.M.M.M.M.N.N.N.N.N.N.N.N.N.N.N.N.N.N.N.N.N.N.N.N.N.N.N.N.N.N.N.N.N.N.N.N.N.N.N.N.N.N.N.N.N.N.N.N.N.N.N.N.M.M.M.v.8.e.l.M.N.N.N.N.N.N.M.l.l.l.k.l.k.c.l.l.b.b.b.b.b.v.v.v.v.k.v.k.y.-   9 f.v.v.v.L.b.v.v.8.i i - $ ;.n.k.b.z.;.P P t.z.z.l.x.l.l.z.z.k.l.z.z.j.t.Y z =.C e h l N B 9.i.i.p.p.s.s.i.i.i.i.i.i.i.i.5.5.5.5.5.5.5.5.6.6.2.2.2.2.2.2.2.2.-.R R R E E U A d y N w V A N j a u e 0 & X # 5 i h P Y T T T R %.3.3.3.3.5.5.9.9.w.d 1 4 n H [ } [  XMXMXNXNXMX|.|.$X$X%XvXNXGXGXLXLXLXLXKXJXJXJXJX",
"JXJXJXJXJXHXHXGXGXHXHXHXHXHXGXNXMX%X|.|.MXNXGXGXNX*X X] ` _ Q n 1 y T 4.4.4.5.5.r.5.5.5.R U T %.T U L d # O & & $ < r N A A V V U L V N A A A V V A R R 2.2.2.2.2.2.2.2.2.2.6.5.5.5.5.5.5.5.5.5.r.i.i.i.i.i.i.i.i.i.i.r.r.r.y.9.-.9.4.l a l B t.j.k.j.j.j.k.z.z.z.b.b.j.y.;.7.j.b.b.b.b.#., 5 h i ,.n.N.M.n.v.v.l.v.I $ t t.k.x.M.n.M.M.n.M.M.M.M.M.M.M.M.l.M.f.t.8.8.f.n.N.L.M.M.M.v.l.8.f.N.M.N.N.N.N.N.N.N.N.T.T.T.N.N.N.N.N.N.N.N.N.N.N.N.N.N.N.N.N.N.N.N.N.N.N.N.N.N.N.N.N.N.N.N.N.N.N.N.N.N.N.N.N.N.N.N.N.N.N.N.N.N.N.N.N.N.N.N.N.N.N.N.N.N.N.N.N.M.M.M.M.N.N.N.N.N.N.N.N.N.N.N.N.N.N.N.N.N.N.N.N.N.N.N.N.M.M.M.M.N.N.N.N.M.M.M.M.M.M.M.M.M.M.M.M.M.M.M.M.M.M.M.l.8.f.v.M.M.M.M.M.M.M.v.k.f.v.x.v.l.x.v.v.v.v.v.v.v.v.v.v.v.v.k.k.o.O O Z b.v.v.v.M.v.v.k.I i e O e f.z.z.n.z.;.@.8.z.z.z.l.l.l.l.z.z.z.z.z.j.j.8.h S z e 8 e w q A 4.i.i.p.p.s.s.i.i.i.i.i.i.i.5.5.5.5.5.5.5.5.5.6.6.2.2.2.2.2.2.2.2.R R R T U U A y d u d N V l j d u e 5 $ X O , u l L T T Y Y R *.%.3.3.3.3.5.w.9.3.A 1 1 n Q _ } [ { MXNXNXNXNXXX~.$X$X%XMXNXGXGXLXLXBXLXKXJXJXJXJXJX",
"JXJXJXJXJXJXHXHXGXHXHXHXHXHXHXGXNX*X&X|.|.*XGXHXGXGX*X X` ` ` Q 4 1 u ;.4.:.5.u.5.r.5.9.3.Y R %.%.Y U L w O O & # - 5 r N A L V L B l l l 8 , 8 < y A R 2.2.2.2.2.2.2.2.2.2.2.6.5.5.5.5.5.5.5.5.9.9.9.i.i.i.i.i.i.i.r.r.r.r.y.t.;.;.r.%.a P B -.y.j.j.j.j.j.j.z.z.z.z.k.v.8.;.e.b.b.b.b.t.i - r 9 P k.v.M.n.v.v.M.l.e.7 , &.l.x.n.n.n.n.n.n.n.M.M.M.M.M.v.M.v.@.#.@.I &.v.M.M.n.M.M.v.k.8.f.M.v.M.M.M.M.M.M.M.M.M.M.M.N.M.M.N.M.M.M.M.M.N.N.N.N.N.N.N.N.N.N.N.N.N.N.N.N.N.N.N.N.N.N.N.N.N.N.N.N.N.N.N.N.N.N.N.N.N.N.N.N.N.N.N.N.N.N.N.N.N.N.N.N.N.N.N.N.M.M.M.M.N.N.N.N.M.M.M.M.N.N.N.N.N.N.N.N.M.M.M.M.N.N.N.N.M.M.M.M.N.N.M.M.M.M.M.M.M.M.M.M.M.M.M.M.M.M.M.M.M.M.v.g.,.g.v.M.M.M.M.M.M.M.g.o.$.c.M.M.M.M.M.N.N.M.M.M.M.M.v.v.n.v.8.t.9 . 6 8.v.v.v.v.b.b.k.,.i h , $ @.n.z.b.n.z.8.j.v.v.j.z.l.l.l.l.z.z.z.z.k.j.y.I h -.z i N L Y T R 9.r.i.p.i.i.i.i.i.i.i.i.i.i.5.5.5.5.6.5.5.5.5.2.2.2.2.2.2.2.2.R R R R T T L N 8 d s y N N N s a u u 8 % X X % e j B T %.Y U T %.%.2.2.2.3.3.3.9.9.U < 1 3 Q ` ` [ | *XMXNXNXNX*X~.|.$X=XMXNXGXGXLXLXLXBXGXKXJXJXJXJXJX",
"HXHXJXJXJXJXHXHXHXKXHXHXKXHXHXGXNXMX*X$X{ |.MXGXGXHXMXOX[ [ [ ` K 4 1 B ,.4.6.w.5.r.9.9.i.R T %.%.R E E A , O O & $ ; 6 r l L L B z l l l s a s N U U 2.2.2.2.2.2.2.2.2.2.2.2.2.6.6.5.5.5.5.5.5.5.5.9.9.i.i.i.i.r.r.r.r.r.p.t.9.-.3.9.4.B A L N 9.j.j.z.j.j.j.j.j.j.y.y.j.e.;.9.b.x.b.b.j.P ; 7 i i e.m.M.n.v.v.k.v.v.@.7 h j.b.b.b.b.b.n.n.n.n.M.M.M.M.l.x.f.>.y.k.,.7.b.n.M.v.M.M.v.l.7.f.M.v.M.M.M.M.M.M.M.M.N.L.M.M.M.M.M.M.M.M.M.M.M.M.N.N.N.N.N.N.N.N.N.N.M.M.M.M.N.N.N.N.M.M.M.M.M.M.N.N.N.N.N.N.N.N.N.N.N.N.N.N.N.N.N.N.N.N.N.N.N.N.N.N.N.N.N.N.M.M.M.M.N.N.M.M.M.M.M.M.N.N.N.N.N.N.N.N.M.M.M.M.N.N.N.N.M.M.M.M.N.N.M.M.M.M.M.M.M.M.M.M.v.v.v.v.v.v.v.v.M.M.l.f.8.g.v.v.v.v.M.v.M.l.g.Z c 8.k.c.v.M.M.N.M.M.M.M.M.M.v.v.t.,.o.#.#   c g.v.v.v.v.z.z.e.I e i # q k.z.b.j.v.e.,.l.v.z.y.b.z.z.z.l.z.z.z.z.y.j.8.j #.%.u u %.4.9.r.9.p.i.i.i.i.i.i.i.i.i.i.i.i.r.r.5.5.5.6.6.6.6.6.2.2.2.2.2.2.2.2.R R R T T T B s l N d V L V l s r e q - & X & 7 h l R -.T U U %.3.2.2.2.3.3.3.5.9.*.y < 3 F ' [ _ ] &XMXNXGXGXMX~.|.$X%XvXNXGXGXGXLXGXGXLXKXKXJXJXJXJXHX",
"GXHXHXJXJXJXJXJXKXKXKXKXKXHXGXGXNXMXMX*X|.~.=XNXGXGXGX%X] | ` [ ` K 3 w #.9.6.2.5.i.i.i.9.4.#.P R 2.-.U R d $ X O $ ; ; 8 r s N j l l V V V L U U U U U E R 2.2.4.2.2.2.-.2.2.2.2.2.6.6.5.5.5.5.5.5.5.5.5.9.i.i.r.r.i.i.r.r.r.i.3.-.5.9.T j Y i T k.p.k.z.z.z.z.k.p.r.9.y.4.7.;.4.z.x.b.x.e.6 , h r #.x.b.b.k.k.j.k.k.e.k p t.b.v.v.v.v.v.v.v.v.v.v.v.v.f.f.f.f.,.7.8.t.b.b.v.v.M.M.v.f.t.e.l.v.v.v.M.M.n.n.n.n.M.M.M.M.N.M.M.M.M.M.M.M.M.M.M.M.M.M.M.M.M.M.M.M.n.n.M.M.N.N.N.L.M.M.M.M.M.M.M.M.M.M.N.N.N.N.L.L.M.M.M.M.M.M.M.M.M.M.M.M.M.M.M.M.M.M.M.M.M.M.M.M.M.M.M.M.M.M.M.M.M.M.M.M.M.n.M.M.M.M.M.M.M.M.M.M.M.M.M.M.v.v.V.M.M.M.M.M.M.M.M.v.M.v.v.v.v.v.v.v.l.v.l.e.t.x.M.M.v.v.v.v.k.k.j.7.8.,.,.8.l.l.l.l.l.l.l.l.l.c.j.f.&.+.>.k & ; ,.x.l.x.b.b.b.k.-.i u q $ P x.x.x.b.k.h B y.8.9.y.z.z.z.z.z.l.c.k.j.j.y.P h 7.Y j B 4.r.r.r.r.r.2.5.i.i.i.i.i.i.5.5.5.5.5.5.5.5.6.6.6.6.6.2.2.2.2.2.-.R R R E E T T T s < d l s l N l s d u 7 7 , &   O , u l L -.T V A %.3.3.3.3.3.2.4.4.4.4.d < f K ' | ` ` @XMXNXNXGXNX!.~.$X$X%XNXGXGXGXGXKXGXKXHXHXJXJXJXKXHXGX",
"{.GXHXJXJXJXJXJXJXKXKXKXKXHXGXGXGXNXNXMX$X|.~.MXNXGXNX*X X .} [ } _ n 3 u T 4.5.5.5.i.i.9.5.3.T Y %.-.R E U u + O O - ; ; 5 q d j l N V V V L L U U U U U E T R -.-.2.2.R -.2.4.2.2.2.6.6.5.5.5.5.5.5.5.5.5.5.9.r.9.9.r.r.r.r.r.5.2.4.5.3.j #.B B r.p.k.z.z.z.z.p.y.r.5.a.y.y.9.N 3.k.x.x.x.z < h a h 3.z.z.k.f.y.k.k.j.@.I t.l.k.g.g.g.l.l.l.l.l.l.l.l.l.l.l.l.l.b.n.M.n.n.n.n.M.v.v.g.k.g.l.n.v.v.n.n.v.v.v.v.n.n.n.n.M.M.M.M.n.n.n.n.n.n.n.n.n.n.n.M.M.M.M.n.n.n.n.n.M.M.M.M.n.n.n.n.M.M.M.M.M.M.M.M.M.M.M.M.M.M.M.M.v.v.M.v.M.M.M.M.n.n.n.n.v.v.v.v.M.M.M.M.M.M.M.M.M.M.M.M.v.v.v.v.n.n.n.n.M.M.M.M.M.M.M.M.M.M.M.M.M.v.v.V.M.M.M.M.v.v.v.v.v.v.v.v.v.v.v.v.M.v.k.8.f.v.M.M.M.n.n.n.v.v.v.k.k.f.f.k.l.l.l.l.l.l.l.l.l.l.l.l.f.f.8.o.c ;.l.v.v.l.z.z.j.e.B 6 u , 5 0.x.x.x.x.e.r z p.t.t.y.z.k.k.k.k.l.k.k.f.e.e.z A ;.Y T 4.9.i.r.r.r.5.-.2.i.i.i.i.i.i.5.5.5.5.5.5.5.6.6.2.6.6.2.2.2.2.2.R E E E E U T T T L 8 1 d d s l l s d r q 7 0 $ X X ; 7 i B T T L A Y -.3.3.3.3.3.3.3.r.6.V 3 f K ' ] | ` { &XMXNXGXNX$X|.$X$XMXNXGXGXGXGXGXKXKXKXHXJXJXJXJXHXHXGX",
"oXjXGXHXJXJXJXJXJXKXKXKXGXGXHXGXGXGXGXNXMX*X|.|.MXNXNXMX$X X#X| } [ H n 1 d %.5.4.5.i.i.9.5.4.:.Y Y -.-.E Y A w O O # $ $ ; 5 r d l V N N V A L U U U U d w u d d s V L L T R -.2.2.2.2.2.2.6.6.6.5.5.5.5.9.5.9.9.9.r.9.9.9.9.r.i.4.-.4.9.S S #.h 9.z.z.z.k.z.k.k.a.a.i.i.y.r.p.A 3.k.k.M.l.;.q r j w S a.b.j.t.e.j.z.j.j.f.z.b.b.v.v.v.v.v.v.v.v.v.v.v.v.v.M.v.v.v.n.M.v.v.v.v.v.v.l.g.v.l.g.v.v.v.n.n.v.v.v.v.v.v.v.v.v.v.V.v.v.v.v.v.v.n.n.n.n.n.v.n.n.M.n.n.n.n.n.n.n.n.n.v.v.v.n.n.n.n.M.M.M.M.M.M.n.n.n.n.M.M.M.M.M.M.M.M.M.M.M.M.M.M.M.M.M.M.M.M.M.M.M.M.M.M.M.M.M.M.M.V.v.v.v.v.M.M.M.M.v.M.M.M.M.M.M.M.M.M.M.M.M.M.V.M.V.M.v.v.v.x.x.v.v.v.v.v.v.v.v.v.M.v.k.8.g.v.v.l.v.v.v.b.v.v.v.v.v.k.k.v.l.l.l.x.l.l.l.l.l.l.l.v.l.l.g.g.l.N.v.l.v.l.j.a.7.z < , q = z j.k.k.k.k.e.z -.b.k.p.p.k.k.k.k.k.k.j.f.y.y.;.s =.L A 3.i.i.i.r.i.r.5.2.2.r.r.r.r.5.5.5.5.5.5.6.6.6.2.2.2.2.2.2.2.2.2.R E R R T U U U U U L V V d d l s d d r q w 8 - X   $ 7 i z T -.U V U R -.3.2.2.2.2.3.3.w.D y n K / ] ] | { | $XMXNXMX%X~.$X%XMXGXGXGXGXGXGXGXKXKXKXJXJXJXJXJXHXGXhX",
"NXoXjXGXHXJXJXJXJXJXKXKXLXGXGXHXHXHXGXGXMX%X*X|.~.$X%XMX*X|.$X X} } ` n f 3 l 3.4.5.9.i.9.9.4.4.R R R R R R R V , O O # $ ; < w u d d s N V V A U U U U N w < < < < 8 w w u l U 2.2.2.2.2.2.2.2.6.6.6.5.5.5.9.5.9.9.9.9.9.9.9.9.i.5.2.2.3.%.h =.C 7.z.z.k.k.z.z.z.z.b.b.r.4.-.p.%.&.t.k.j.k.k.j w j e i ;.z.y.e.8.y.j.k.k.b.b.z.n.n.v.v.v.v.b.b.x.x.l.l.l.l.l.l.l.l.k.k.k.k.k.k.b.l.k.g.k.l.k.k.v.v.v.v.v.b.v.v.v.v.v.v.v.v.v.v.v.v.v.v.v.v.v.v.v.v.v.v.v.v.n.n.n.n.n.v.n.v.v.v.b.b.b.b.M.M.M.M.M.M.M.n.n.v.v.v.M.M.M.M.M.M.M.M.M.M.M.M.M.M.M.M.M.M.M.M.M.M.M.M.M.M.M.M.M.M.M.M.v.v.v.v.M.M.M.M.M.M.x.x.M.M.v.v.v.v.v.v.M.M.V.M.v.v.v.v.l.l.x.v.v.v.v.v.v.v.v.v.l.v.c.8.f.k.c.k.l.l.l.k.k.k.k.k.l.j.j.l.l.l.x.x.l.l.l.l.k.k.l.l.l.l.c.l.c.l.v.v.v.z.j.y.C , + $ < < &.n.k.k.k.k.e.;.a.b.z.j.p.k.k.k.k.k.j.f.y.t.y.#.z -.z Y 5.9.i.i.i.i.5.5.6.r.r.r.r.i.5.5.5.5.5.5.6.6.2.2.2.2.2.2.2.2.2.R E U V V L U L U U U A A V l s l s a u r q 7 - O   # 7 r h P %.R L N T R -.2.2.2.2.2.2.4.U 3 3 M _ [ ` { #X X X&XMXMX*X~.|.%XvXNXGXGXGXGXGXGXKXKXJXJXJXJXJXJXHXHXnX[.",
"GXNX=XvXGXHXJXJXJXJXJXHXHXGXGXGXHXHXHXGXGXNXMX*X~.' $XMXMXMX*X@X} } } _ n y < B ;.4.i.5.i.9.5.5.4.-.R R 2.R E U j = X   & - , < 8 u s s V N V V U U U U U V V d u r w 8 < w w y U 2.2.2.2.2.2.2.2.6.6.5.6.5.5.5.5.5.9.9.9.9.9.9.4.5.5.4.3.4.a S %.4.z.p.k.k.k.k.k.z.b.a.r.4.-.9.%.A 0.j.f.x.b.;.w e h 6 B 3.T T 7.b.a.k.z.z.b.b.b.b.b.b.b.b.b.v.v.v.v.v.x.l.k.k.k.l.l.l.k.k.l.v.b.l.z.k.z.z.l.k.k.l.b.b.l.l.l.l.x.x.x.x.l.l.l.l.v.x.l.k.x.x.x.v.b.v.v.v.l.l.l.l.l.l.l.l.b.b.v.v.v.v.v.v.M.M.M.M.M.M.M.n.n.v.M.n.M.M.M.M.M.v.v.v.v.v.v.v.v.v.v.v.v.v.l.l.x.x.v.M.v.x.M.M.M.M.v.v.v.v.v.b.v.v.v.v.v.v.l.l.v.v.v.x.v.l.l.l.x.l.l.l.x.x.l.l.x.x.x.l.l.b.v.v.b.v.v.v.v.l.k.j.f.k.k.c.k.k.k.k.k.j.j.j.k.v.k.l.k.v.b.z.b.x.l.k.k.k.l.l.k.k.j.x.z.x.x.k.y.t.t.8.j $ $ < - q a.b.k.x.x.p.3.;.p.z.t.p.k.k.k.k.k.j.k.f.t.t.t.z #.P L -.9.5.r.r.r.r.9.9.5.5.5.5.5.5.5.5.5.5.5.6.6.2.2.2.2.2.2.2.2.R R R T T u d U U L L L L L A N s s d d d r e 7 ; O . O 6 t r S %.%.P L T R %.-.2.2.2.2.2.9.U y 3 n _ ` ` [  X@X X X@X&X&X{  X$XMXNXGXGXGXGXGXGXGXKXJXJXJXJXJXJXHXHXnXoXjX",
"HXGXNXoXbXHXHXJXJXJXJXHXHXGXGXGXGXKXKXHXGXGXNXMX&X{ |.MXMXMX*X$X| } | | Q F 3 1 B :.4.9.i.i.9.5.5.4.%.R -.2.-.E A r O . X $ ; ; < q d d s l N V L L A A U L L A U L V V V d u q d R 6.2.2.2.2.2.2.2.6.6.6.6.6.6.5.5.9.5.5.5.5.5.5.5.5.9.-.4.P r -.9.p.p.k.k.k.k.j.z.a.r.P 9.3.9.i.h q.k.f.j.b.k.h < a 6 6 h q 7 S 3.4.a.p.p.p.a.j.p.j.j.j.j.j.j.f.f.f.f.j.j.f.f.f.j.f.f.j.k.k.k.l.k.j.y.k.k.l.k.k.f.t.e.j.v.j.k.x.x.x.x.k.k.l.k.k.k.j.j.j.k.k.k.l.l.l.l.k.k.k.k.k.k.k.k.k.k.k.k.v.v.b.l.l.l.l.l.k.k.l.l.l.l.l.l.x.x.x.x.l.l.l.l.v.v.v.v.M.v.M.v.M.v.v.v.l.l.l.l.l.x.c.c.x.l.l.l.z.z.k.k.k.k.k.l.l.l.k.k.k.c.l.l.l.l.l.l.l.l.l.l.l.l.c.c.c.l.l.l.v.z.z.l.k.f.t.f.k.f.t.8.t.f.k.j.f.f.f.f.f.k.k.k.j.k.t.t.f.k.x.x.z.z.k.k.k.k.k.k.y.y.y.j.j.j.y.8.q.#.@.A u = $ < < T k.j.x.b.k.7.;.4.t.7.;.7.p.a.p.p.p.y.y.t.t.e.&.z %.B %.4.9.5.r.r.9.r.r.9.5.5.5.5.5.5.5.5.5.2.6.6.2.2.2.2.2.2.2.2.2.R R R T T U L U L L A A B A N j d d d d u q 7 0 # .   - r r u P %.P A T R 2.2.2.2.2.2.2.3.%.y 3 n Q [ ` ` | @X$X@X X X@X{  X$XMXNXGXGXGXGXGXGXGXKXHXJXJXJXJXJXHXHXnX4XnXGX",
"JXHXHXGXoXbXHXJXJXJXJXJXHXGXLXGXGXKXHXKXKXKXHXNXMX&X~.&XMXMX*X&X#X} } | [ H M 1 < B 3.6.5.i.i.i.9.5.4.-.%.-.R A A B 5   . O = = < w r d d s l N V V V V L U U T T T T T T T E R T 2.2.2.2.2.2.2.2.2.2.4.2.4.6.6.4.4.5.5.5.5.6.6.5.5.5.9.3.-.;.r S 9.r.a.k.k.a.a.z.k.r.-.T r.r.p.z.A z j.k.t.k.z.#.5 < r = = = ; 6 w S Y L A A A S B B B S C S S B B B B C S A A S C z z z z z z z j h h h h h h 9 t t q O.#.C p k k k k k h h h h h h h h h h h k k k k k k k k k k k k k k k k k k k k g g g g g g g g g g g g g h h g h h k k k k k k k k k k k k k z h h h h h h h h h h g g h h h h h h h h h h g g h h h h g h h h g g g g h h h h h h h h h h c #.Z e e p p e 9 8 9 g z z z z z z x z v C C I C Z c c c v c c v C C N z z z S C C N N z h i u t 6 , $ , , i z.y.k.x.k.9.#.4.9.-.h N #.r.a.p.p.p.p.r.t.e.,.i %.P A 3.4.9.9.r.9.r.r.r.r.5.5.5.5.5.5.5.4.4.4.6.4.2.2.2.2.2.2.2.2.R R E E E U U U L U L A A A B l s d d d u r w 6 - X . & 7 h u j T U U T %.-.2.2.2.2.2.2.2.2.d 3 f K ` ` ` } @X*X%X$X@X X| { $XMXGXGXHXGXGXGXFXGXGXHXHXHXJXJXJXHXHXbXuXNXHXHX",
"JXKXHXHXGX[.nXHXJXJXJXJXJXKXLXLXGXGXHXKXKXKXKXHXNXMX$X|.*XMX*X*X@X| | | | [ n 4 1 < L 5.5.i.i.i.i.9.5.3.%.%.U j N Y v , . X $ = = < w d d d s l V V V V V A L U U U T R R R -.2.2.2.2.! 2.2.2.2.2.2.4.4.2.2.4.4.4.4.4.4.4.4.4.6.5.5.5.9.3.-.;.A w 3.r.y.a.k.a.a.z.y.4.#.a.4.a.z.z.9.r q.z.t.t.k.t.u ; h q q a q 5 5 q r q w 8 6 w w w w 7 7 7 7 6 6 6 6 8 7 7 9 5 5 , , - - $ $ $ $ $ # # # $ # X , r e g h t & & # # # # # # # $ $ - - - - - - - - % % % % % % % % % % # # # # % % % % % % % % % % % % % $ % % % % % % % % % % % % % % $ $ $ $ $ $ $ % % $ % % % % % % - - % % - - - - % % % - - - % % % % % % % $ $ $ $ % % % % % % % % % % % $ $ , p 6 $ 5 - $ # O X $ ; , - - - - - $ - , , 7 e e t 5 , , , , 0 5 6 7 7 6 5 5 7 8 6 6 6 6 5 8 u h 7 # # , , Y m.y.j.k.t.%.Y r.a.3.u a B #.9.a.a.a.a.y.y.7.#.j 3.h T -.3.5.9.r.r.9.r.r.r.5.5.5.5.5.5.4.4.4.4.4.2.2.2.2.2.2.2.2.R R E E T T U U L U L A V V B N j d a d u r q 8 ; # . & 5 i z l Y U B T %.-.-.2.2.2.2.2.2.3.V < 3 M _ ` ( `  .&X*X%X%X@X| ' |.%XNXGXHXGXHXHXGXFXGXHXHXJXJXJXJXHXHXbX{.GXHXHXJX",
"JXJXJXJXHXGX].GXGXHXJXJXJXJXHXHXLXHXHXJXKXJXKXHXBXvX*XOX X*X*X*X$X@X| } } } _ n y 1 6 %.9.w.i.i.5.5.5.5.-.U T R P Y O.x $ . O $ $ = 6 r a a s j N V V V V A U U T T R R R R R R U V U T -.2.2.2.2.2.2.2.4.4.4.4.4.4.4.4.4.4.5.5.5.5.5.4.4.-.-.-.w h 9.r.y.a.a.a.b.r.T L %.4.p.a.a.z.j h x.y.&.j.k.P , h t #.y.Y B N j h u u u t u u u u t t q q 7 8 5 5 7 6 8 a 6 , ; ; , ; $ $ $ # # + O O O O O , 5 5 e i 7 $ $ $ % % % % - - - - - - - - - - - % % % - - - - % $ $ # & & & # $ $ % - % % % % % % $ $ $ $ $ $ $ $ $ $ $ $ % % # # # $ # # # # # $ $ $ % % % $ $ $ % % % $ % % $ $ $ $ % % % % % % % % - - - $ % - - - - - - - ; - % $ $ $ $ $ $ - , 0 , 6 B e % ; O & , ; - $ $ # # O # & # # 5 r h z q 6 0 6 6 6 6 6 w w q w r r q w q q i g j z L q - w = q r.a.z.j.k.%.z #.9.y.9.-.P a u N 7.r.p.k.y.y.t.i #.B N #.3.4.9.9.9.5.5.6.5.5.5.5.5.5.5.5.4.4.2.4.4.2.2.2.2.2.2.2.R R E E E T U U U U L L A V N u s d a u u q w 8 0 $ . X , 7 s C T 4.N Y 2.2.2.-.2.2.2.2.6.4.Y < 1 n _ [ ` ( | @X&X$X$X X| '  XMXNXGXHXHXHXHXGXGXGXGXGXHXJXJXJXHXHXnXuXGXHXHXJXJX",
"JXJXJXJXJXHXGX{.NXHXJXJXJXJXJXHXGXGXHXJXKXKXHXHXGXBX=X$X X| &X%X%X*X@X| } } [ Q 4 3 = q 4.5.5.2.6.6.5.5.2.R 2.4.;.#.O.I p #   O $ = ; w i s j j j s l V V V A L U T T T R U T V d u u V R -.2.2.2.2.2.4.4.4.4.4.4.4.4.4.4.4.6.6.5.5.5.4.4.3.-.%.z < #.r.y.p.a.a.a.a.a.a.r.r.p.p.a.z.A , I t.&.7.t.3.e u q #.H.k.p.i.r.9.t.t.t.t.t.t.t.t.0.9.7.7.7.>.#.P Y A N A g u i i g h j z z j l h h r 7 7 e g r 8 h i i g g g h h h g g g g g g i i i i i i i g g g g g g g g g h h g g g i i i i i i i i i i i i u e e r p p p p i t r e e e e e e e t e e e e e e r e e e e e e 7 7 7 9 9 7 7 8 7 7 7 7 t t t p t p p r e e t e e e e e e 9 9 7 7 7 7 7 q t t p i k P k e e 5 e i p i r t r q 7 7 7 e 7 h j A #.;.;.;.;.3.3.3.3.9.7.9.7.0.0.q.q.3.q.0.t.8.9.9.B l r = l z.z.x.q.P z z ;.9.y.p.r.p.7.3.9.3.7.9.r.e.8.#.h -.z Y 4.4.9.9.r.9.5.5.6.5.5.5.4.5.4.4.4.2.2.2.2.4.2.2.2.2.-.-.R R E E E U U U U L L A V N N d < s s a u r q q 8 - X   0 6 t h L :.l l T 2.2.2.-.2.2.2.2.5.R w * 3 F [ [ ) [ #X&X&X@X X] ' ] $XNXGXHXGXGXHXHXGXGXGXGXHXKXJXJXJXHXNXuXNXGXHXJXJXJX",
"JXJXJXJXJXHXHXNX{.NXHXJXJXJXJXHXHXGXHXJXHXHXHXHXHXGXjXOX{ / { @X%X*X*X@X| [ } [ H 2 1 = d 4.5.2.4.4.4.4.5.4.2.2.=.=.#.#.I 7 O   & # = < q u d d s d s l l N B A L U U T E R T d 1 w r d U -.2.2.2.2.2.2.3.3.3.3.2.2.2.2.4.4.6.6.4.4.4.4.4.4.3.#.-.w j -.r.p.a.a.p.p.a.a.r.r.p.p.a.a.7.w 6 S &.q.7.t.z 6 7 S b.z.z.z.k.k.k.k.k.k.j.j.k.k.k.f.y.y.z.k.j.j.j.e.;.3.P S A A A P #.;.=.-.;.=.;.I B c I O.I v v v I O.#.#.#.#.#.#.#.#.#.#.#.#.#.@.#.#.O.O.#.#.#.#.#.#.P P O.#.#.@.O.o.P I I A I I I I I I I I I C C L I I I I #.#.P P O.O.O.O.@.@.@.@.@.O.o.P o.o.o.o.O.O.O.O.O.z C P P I I A A I I I A C A P P I I P P P I A P P P P P P P P P P P P P P P I A o.P S P I v P O.o.O.P Y Y P P A A P A #.Y %.9.8.y.j.y.t.p.p.p.k.k.k.k.k.k.p.j.p.p.k.k.z.k.4.T Y < = %.a.z.9.z u h P 9.r.y.a.k.p.p.p.i.t.y.y.y.e.9.z I A A 9.5.9.r.r.r.9.5.5.5.5.5.4.4.4.4.2.2.2.2.2.2.2.2.-.-.E E Y Y Y U U U U U A A A V N l j a u q u r r r q 7 8 , &   ; e t h z Y L e T 3.-.-.-.2.2.2.2.2.2.f + * M _ ] ` ` | &X&X&X X[ ` ] |.MXGXGXGXGXGXHXHXGXGXGXGXKXJXJXJXHXNXoXNXHXJXJXJXJXJX",
"JXJXJXJXHXJXHXGXNX{.HXHXJXJXJXJXHXHXKXHXHXHXHXHXHXGXMX|.' ` H  X$X*XMX%X X{ [ } [ n 2 1 + V 5.2.4.4.4.4.5.5.2.T #.=.=.-.Y C 5 X O # $ - 6 q r y ; < w u l l N B A L U U U Y Y A w w u d V R -.-.2.2.2.2.2.2.2.2.2.R R R 4.4.6.6.4.4.4.4.9.9.4.-.5.L 5 T 9.p.p.a.i.i.r.a.r.r.p.p.p.z.t.N ; , Y 3.q.9.#.8 6 6 3.k.k.k.z.z.j.p.p.p.y.y.y.p.p.y.t.e.f.y.y.t.y.t.7.9.#.#.;.3.;.3.7.7.7.9.r.8.y.=.P Y I #.#.#.O.@.=.=.;.;.;.;.;.;.3.;.4.4.4.4.;.;.;.;.:.=.=.=.=.=.=.=.#.#.#.#.;.&.@.o.#.#.#.=.#.#.#.#.I P @.#.P A C Y #.#.#.#.#.#.#.#.;.;.;.;.;.;.;.;.,.>.=.&.;.;.=.=.$.$.&.&.C 9 z #.&.#.#.#.#.#.#.#.C z C T #.P #.-.7.3.=.%.;.;.;.;.;.=.;.;.;.;.;.;.,.;.=.&.;.#.o.Z P O.@.&.,.,.,.7.3.3.3.3.%.%.;.%.7.;.3.t.t.y.y.y.t.y.t.y.y.y.j.f.j.k.j.k.j.p.j.c.p.q.P %.l ; q 4.z.z.3.u h z =.t.p.p.p.a.y.t.i.p.p.p.p.y.y.4.j #.h -.9.9.r.r.r.r.9.5.5.6.4.4.4.4.4.2.2.2.2.2.2.2.2.-.%.%.Y U U U U U U U A A A A A N l s u < < w q w w w 7 6 , $   $ q i a j B Y a P %.%.-.-.-.-.2.2.2.2.d * * 3 K ' [ ` | @X&X&X$X{ _ _  X*XvXGXGXGXGXGXHXHXHXGXGXGXKXJXJXHXNXoXNXGXHXJXJXJXJXJX",
"JXJXJXJXJXHXHXHXHXnXhXHXJXJXJXHXJXHXGXGXHXHXHXHXHXGXMX~.~.#X/ ` @XMXMXMX*X X[ [ [ ` 2 > * 1 L -.2.2.2.2.5.5.2.T =.;.3.;.#.P l , X & # $ < w : ; < = = < u j l l B A L L Y Y Y T U V V L R R -.-.2.2.2.2.2.2.2.2.2.R R -.4.4.4.5.4.4.4.4.5.r.r.4.3.4.r j 4.5.9.y.p.y.y.p.p.p.p.p.j.p.p.3.r u Y 3.3.7.;.u 5 , #.t.a.k.j.t.p.p.p.p.p.p.p.y.y.y.y.y.y.y.y.t.t.t.e.e.=.#.y.j.j.j.j.f.f.j.j.j.j.r.9.:.,.r.7.;.8.8.7.7.4.4.4.4.9.9.9.9.4.9.9.4.4.4.4.4.,.,.7.7.;.;.;.;.;.;.;.;.;.;.;.;.=.=.=.=.=.=.=.=.=.=.=.=.#.P T -.;.=.-.%.#.I T #.=.=.;.;.,.,.,.,.,.,.,.,.;.;.;.;.;.;.;.=.P #.#.=.;.;.,.;.;.,.4.4.=.#.#.=.=.=.=.4.9.7.4.,.4.7.7.7.7.7.7.7.7.7.7.7.7.7.7.7.8.7.;.&.#.,.7.8.t.t.y.j.t.p.p.p.t.p.t.7.0.8.0.t.f.f.f.f.f.f.f.j.j.j.j.j.j.k.j.t.0.7.7.t.t.*.A 3.5 , l p.a.z.t.t.z P p.y.p.p.a.p.y.y.p.p.p.p.p.p.3.h I T A 4.5.5.5.5.5.5.5.5.4.4.4.4.4.4.2.2.2.2.2.2.-.-.2.%.R T A N N V N V A A A A V B N j a r 5 = < = < < 5 5 6 5 ;   X 6 g h z N C L L R -.-.-.:.-.:.-.-.3.N = @ 3 K _ [ [ ] @X&X*X&X&X] _ [ ~.XXvXNXGXGXGXGXHXGXGXHXHXJXJXHXHXGXoXvXHXHXJXJXJXJXJXJX",
"JXJXJXJXJXJXJXHXHXGXjXnXHXHXJXHXJXHXHXGXxXGXHXHXHXNX%XXX%X*X{ _ | $XMXMXMX$X| [ [ } Q 2 : + < T 2.2.2.2.4.4.2.R =.;.;.;.%.T L i & O O # , 8 = ; < 5 , , 7 u s s N B A L U Y Y Y E U U R R R R -.2.2.2.-.2.2.2.3.2.4.4.4.4.4.4.4.4.4.4.4.5.5.4.4.;.4.N 6 U 4.9.r.y.y.y.y.y.y.p.p.p.p.p.p.T %.9.9.4.7.;.B 7 ; S q.7.p.k.t.p.p.p.p.p.p.p.y.y.y.y.y.y.y.y.y.t.t.e.e.:.#.y.j.k.k.k.k.k.z.z.z.a.:.L T 4.j.y.e.y.y.y.y.e.e.t.e.e.r.r.r.8.e.7.;.=.;.7.7.7.7.7.7.7.7.7.7.;.;.;.,.,.,.,.;.;.;.;.;.;.;.;.;.;.;.;.;.;.=.;.9.9.7.4.;.-.T -.:.:.;.,.7.7.7.7.7.7.7.7.7.7.7.,.,.7.7.7.7.8.8.8.r.8.8.8.8.9.9.7.9.8.9.9.8.7.,.7.8.8.8.7.7.8.8.8.8.r.8.8.8.8.8.8.8.8.8.8.8.y.y.f.y.k.f.f.e.y.y.j.j.k.k.k.k.j.j.t.7.0.8.0.t.f.f.f.f.f.f.f.j.j.j.j.j.j.k.j.t.9.q.q.0.9.Y ;.A , r A a.b.a.z.t.l 4.k.p.p.p.p.y.t.t.t.t.t.i.t.r.Y s #.L T 4.5.6.4.4.4.4.4.4.2.2.2.2.2.2.2.2.2.-.-.-.-.-.%.R T T l u w 8 w u j B A B V N s u q 6 ; , < ; ; ; ; , 0 , # . 0 i z z S A L P T %.-.-.-.-.-.-.-.-.@., + * M ' [ ` ] @X&X&X&X&X@X[ [ | |.S.=XNXGXGXGXGXGXGXGXHXJXJXHXGXGXoXjXGXHXJXJXJXJXJXJXJX",
"JXJXJXJXJXJXJXJXJXHXGX{.NXGXHXKXHXHXHXGXBXLXGXGXNX=XXXMXvX%X$X{ `  X%XMXMX*X@X| [ [ ] n > * + u -.2.2.2.2.4.4.2.&.&.;.;.#.P L V , X O # , r , $ $ , 5 < , 8 r i j N B A L U U Y T T R -.T R R R %.-.-.-.-.-.2.-.2.2.2.2.2.2.2.2.3.3.4.4.4.4.4.2.T -.%., d %.9.r.r.r.r.r.r.r.t.t.y.t.t.i.3.2.5.i.9.3.P #.a ; u q.@.9.k.y.y.y.y.y.y.y.y.y.y.y.y.y.y.y.y.y.y.e.e.r.;.#.e.k.z.l.x.x.l.v.v.l.b.T 8 j =.b.z.a.j.j.j.j.j.j.j.j.y.y.y.y.y.y.e.7.7.7.0.t.t.t.t.t.t.t.t.t.t.t.e.t.t.e.e.8.8.8.8.8.8.7.8.8.8.8.8.8.8.8.r.e.e.r.8.7.;.=.,.,.,.7.7.7.7.7.7.7.8.8.8.8.e.e.8.r.r.r.8.8.y.y.t.t.t.t.t.t.8.8.e.e.f.j.j.a.y.f.t.t.r.e.e.t.t.t.t.t.t.t.t.t.t.t.y.y.y.y.y.y.y.f.j.k.z.v.t.7.j.k.l.l.l.l.l.l.j.j.f.8.0.8.0.y.f.f.f.j.j.a.j.j.j.j.j.j.j.k.j.t.9.8.7.0.3.*.3.q , l %.i.4.p.y.j N y.k.p.p.a.p.y.r.r.r.r.9.t.9.3.h L ;.z 3.5.4.4.4.4.4.4.4.4.2.2.2.2.2.2.2.2.-.-.-.R R R R R T T L B l h s l N C C B z l u q 5 , - , $ X O # - ; ; - X   7 s z B L L Y Y #.#.%.-.-.2.-.-.3.T 6 # + y ' ` [ ] @X&X&X&X&X#X{ ] {  X$XXXXXvXNXGXGXGXnXNXHXHXKXHXGXNXoX=XHXHXJXJXJXJXJXJXJXJX",
"JXJXJXJXJXJXJXJXJXHXHXNX{.NXGXHXHXKXHXHXGXGXGXNX=XXX%XNXvXvX%X|.[ ]  X*XMXMX*X@X} [ } ` 4 * + $ A 2.2.2.2.2.4.4.3.&.&.;.#.L L L u O X O , e $ o + - < 5 ; < 7 e a l N B A A L U A L T T T T R R %.%.%.-.-.-.-.-.-.2.2.2.2.2.2.2.2.2.3.3.4.3.-.-.:.%.T r < U 4.r.r.t.t.r.t.t.t.t.t.t.t.i.;.N N %.9.#.z Y N 6 q 3.A 3.y.t.t.t.t.t.t.y.y.y.y.y.y.y.y.y.y.y.t.t.e.9.3.T t.k.v.v.x.x.v.v.b.b.z.4.8 u z j.y.e.f.f.j.j.j.j.j.j.j.j.j.j.f.k.k.f.k.k.k.k.k.j.j.j.k.k.k.k.k.k.l.l.k.j.f.f.f.j.j.j.j.j.k.k.k.k.k.k.k.k.l.l.k.g.f.t.t.e.f.f.t.a.j.k.a.f.f.f.t.t.t.t.y.y.t.t.t.t.t.t.f.j.k.z.j.j.f.f.f.f.f.f.k.v.v.k.v.v.v.f.f.f.k.k.k.g.f.f.f.f.j.j.j.j.j.j.j.j.j.j.j.k.k.k.k.8.C P k.l.v.b.v.v.v.v.k.k.f.8.0.8.0.y.f.f.j.j.a.a.j.j.j.j.j.j.j.k.j.t.t.t.t.p.@.7.Y = q A T -.L A B q %.y.p.t.p.p.y.y.9.9.9.9.9.t.9.%.h 4.P A 3.4.4.4.4.4.4.4.3.3.2.2.2.2.2.2.2.2.-.-.-.R R R R R T T T P L L A A A L B z l s e 8 , = ; $ $ # X X O # % - X O < u z C L Y Y T %.%.%.%.2.2.-.-.-.a # O 1 K ' ` ] | *X*X&X&X@X{ ]  X|.$X*X*XXXXXNXGXGXGXnXGXHXHXHXHXNXXXXXNXHXKXJXJXJXJXJXJXJXJX",
"KXKXJXJXJXJXJXJXJXHXHXGXNX}.vXGXHXJXJXJXHXHXGXvX!.=X%XvXvXvX%X$X#X[ ] $XMXMXMX*X| [ [ [ H 2 * $ , @.3.-.2.2.2.4.4.3.;.>.#.L L V u , O # $ $ O # ; 6 7 0 < , 8 7 r a z N A A A A L L L L U T T R R R R R -.-.-.-.-.-.-.-.2.2.2.2.2.2.2.-.2.-.-.-.:.T T Y q r 4.4.7.7.7.7.7.7.7.7.0.0.9.9.4.j q A R l a A B r 6 A L A 3.7.3.3.3.3.;.;.3.4.r.r.r.r.r.r.t.t.y.r.9.4.3.Y r.z.v.v.v.n.v.v.v.m.l.k.C 7 7 i y.b.z.v.b.b.v.v.b.v.n.n.n.n.v.v.n.n.M.M.M.M.M.M.n.v.v.v.v.v.n.n.n.n.n.n.n.n.M.n.n.n.n.n.M.M.n.n.n.n.M.n.n.n.n.n.n.M.M.M.M.M.v.m.m.m.n.n.n.n.n.n.n.n.b.b.n.n.v.b.n.n.n.n.M.M.v.v.v.v.v.v.n.n.v.v.n.n.M.M.M.M.M.n.n.n.b.l.b.M.v.v.b.b.v.n.m.b.b.v.v.v.l.l.M.,.t - $ #.v.l.l.v.b.v.v.v.z.z.f.,.7.7.9.p.y.p.y.e.y.y.e.e.t.9.8.t.t.t.t.t.t.t.t.0.*.q.r ; j P L A l u h N 3.e.e.e.t.t.r.9.9.9.9.9.4.9.-.L #.9.N Y 3.3.4.4.4.4.4.4.3.3.2.2.2.2.2.2.-.%.R R R R R R T T T T Y L Y Y L A A B l l s u q , - - - $ , 5 ; & X O $ ; X   = q l L L L U %.R -.-.%.2.%.2.%.B ; + * M / ` [ ] @X*X*X&X@X| [  XOX%X%XMXMX%X_._.mXNXGXLXHXHXHXHXNXXXXXNXGXHXKXKXHXHXHXGXGXGXGX",
"KXKXKXKXJXJXJXJXJXHXHXHXGXNX}.NXHXJXJXJXJXHXMX!.|.*XvXvXjXjX%X$X&X| ] ] $XMXMXMX#X] ` ` _ n 1 @ O r %.-.2.2.2.2.6.4.q.q.#.B V V d < # # X X O = w r u q 0 , < 7 q t h z B S A A L L L L U U T T R R R R R R -.R -.-.-.-.2.2.2.2.2.2.2.-.2.-.-.-.-.R -.2.L w A 9.4.4.4.4.4.4.4.4.9.9.9.9.9.R V d d a s A P a ; w A A P #.3.3.3.3.;.;.3.4.9.9.9.9.7.9.r.t.y.t.9.7.5.%.y.k.n.v.v.v.v.v.m.m.z.k.;.5 - , j.n.b.b.n.n.n.n.M.M.L.L.L.L.n.n.n.n.n.n.M.M.M.M.n.n.M.M.M.M.n.n.n.n.n.n.n.n.M.M.n.n.n.n.M.M.n.n.n.n.M.n.n.n.n.n.M.n.M.M.M.M.M.M.M.M.M.M.M.M.n.n.n.n.n.n.n.n.M.M.n.n.n.n.M.M.M.M.M.M.n.n.n.n.v.n.M.M.M.M.M.M.n.n.n.v.l.k.l.v.n.n.n.m.n.n.n.n.v.v.v.v.M.M.n.P $ X $ :.b.l.l.v.v.v.v.v.l.k.y.;.7.7.8.y.y.e.8.8.y.e.e.8.;.;.7.8.0.0.0.0.7.9.7.%.A N = < A L l u u q q S 7.r.r.e.t.t.r.9.7.7.7.7.9.4.#.B ;.B l -.3.3.3.3.3.2.2.2.2.2.2.2.-.R R R -.R Y U U U Y Y Y Y Y Y Y L L L L S N l l l a r < ; ; ; $ - 5 7 8 - #   # ; O X = 8 s L V l U R R 2.2.-.2.2.-.U 8 + * 4 Q ` ` `  X*XMX*X@X{ ` [ OX%X*XvXMXMXMXXXF.+XNXGXHXHXHXHXNXoXXXMXNXGXHXGXHXHXHXGXGXGXGXGX",
"GXLXLXKXJXJXJXHXHXHXHXHXHXGXvX{.NXHXJXHXHXNX$X~.$XMXvXvX=X%X%X%X%X$X| [ { $XMXMX@X{ [ [ [ _ n > o $ h -.-.2.2.2.4.4.9.7.P u r s u = O O X X o = q r a a e 6 , < 8 e a j N V B B L L L L U U U T T T R R R R R R R R R R -.-.2.2.-.-.2.-.2.-.-.-.-.%.-.2.2.d w R 3.3.3.2.3.3.3.3.4.3.3.3.3.4.l + < l T %.%.B < ; A %.T 3.3.2.3.3.;.;.3.4.9.9.9.9.4.4.7.7.r.9.4.3.9.R t.z.x.x.x.x.v.v.v.v.l.z.k.6 # - y.l.k.z.v.v.v.v.v.n.n.n.n.n.n.M.n.n.n.n.n.n.n.n.n.n.M.M.n.n.n.n.n.n.n.n.n.n.M.M.M.n.n.n.n.M.n.n.M.n.M.M.n.n.n.n.n.n.n.n.M.M.M.M.M.M.n.n.M.M.M.M.M.M.M.M.M.M.n.n.n.n.n.n.M.n.M.M.n.n.n.n.n.n.v.v.v.v.M.M.M.M.n.n.n.n.l.k.l.v.n.n.n.n.n.n.n.v.M.M.v.v.v.M.M.Z $ X e j.v.k.k.l.v.v.v.v.v.k.t.=.#.&.;.;.=.=.7.t.8.8.7.7.Y %.7.8.4.4.4.4.3.;.#.A a , # u #.;.-.C i u l T 4.,.,.7.9.9.7.4.3.3.3.3.3.%.L l e 8 Y 3.3.3.3.3.2.2.2.-.2.2.2.2.R R R R R T U U U U U U Y Y Y Y L L A A N N l l l s r 5 ; ; ; - - 5 7 e 7 , $   . O X X $ < d L V V U Y -.R -.-.2.%.A q # @ 3 Q _ ` ` ` |.MX*XOX{ _ Q  X$X*X*X%XMXMXMXOX|.|.oXGXHXHXGXNX%X!.MXMXNXGXGXGXGXGXGXGXGXGXGXGX",
"GXLXAXLXHXHXHXHXHXHXHXHXHXGXNXMX{.NXHXHXGXvX|.@X$XMXvXjX=X%X%X%X%X$X@X{ _ { $XMX$X{ { | | [ _ n * o , C #.-.3.2.4.4.r.r.:.u w s 5 + X X o o O = w w a h u u 5 , 5 7 r s l l N V L L L L L U U U T T T T R R R R R R R R R R -.-.-.-.2.-.2.-.-.-.-.-.-.-.4.A ; d -.-.-.-.2.2.-.-.%.&.%.%.-.-.L 8 w L 3.9.a.3.u ; r 4.4.4.2.2.2.3.;.;.3.4.7.7.7.7.9.4.;.;.4.3.;.%.T j %.t.k.k.k.k.k.k.k.k.z.v.z.h # $ B f.j.k.k.z.v.v.x.x.n.n.n.n.v.v.n.n.n.n.n.n.n.n.n.n.n.n.n.n.n.n.n.n.n.n.n.n.M.M.M.n.n.n.n.M.n.n.M.M.M.M.n.n.n.n.n.n.n.n.M.M.M.M.M.M.n.n.n.n.n.M.n.n.n.n.n.n.n.n.n.n.n.n.n.n.n.n.n.n.n.n.n.M.M.v.v.v.v.v.M.M.v.v.n.n.v.l.v.M.n.n.n.n.n.n.n.v.M.M.M.M.M.n.v.Z & O c b.z.k.k.l.v.v.v.v.v.k.e.#.#.#.A h #.=.3.7.;.;.=.=.;.;.=.#.T T T T T T #.#.h # 6 P 3.9.7.;.T P Y #.=.=.=.=.-.-.%.%.%.%.%.%.T L B l 5 L 3.3.3.3.3.3.-.2.-.%.2.2.R R R R R R U T R R Y Y Y Y Y Y P P L A S B j j l l j i 8 , $ $ = - 5 7 8 9 e , & X . .   O # < M V W U L Y R R -.-.R Y a # @ 1 / ` _ ` [ { %XMXOXW._ F Q |.%X%X%X%X%X*X*XXX|.|.vXNXGXGXNXMX|.*XMXvXNXGXHXGXGXGXGXGXGXGXGXGX",
"GXGXLXLXLXHXHXGXHXHXGXGXHXGXNXNX%XXXNXGXNX%X$X$X$X%XvXvXvX%X%X%X%X%X$X@X[ _ ] $X%XOXOX*X$X X[ H 2 o + 8 c #.3.3.-.4.r.i.3.s u u ; X X o o o O = w r s B h i r 6 < 8 e u a a d j V V A L L Y T U U U U U T R E E R R -.-.R R R R %.%.%.%.-.-.-.%.-.2.-.-.-.Y s q r s N V V V N B A A A A A L T R L L %.2.t.p.z ; < P 4.4.-.-.3.3.;.;.;.;.4.4.4.4.4.3.3.3.7.k.p.;.T N B t.x.x.l.z.k.k.k.k.z.b.n.7.$ O 6 7.z.z.v.v.v.v.n.n.n.v.n.n.v.v.n.n.n.n.n.n.v.v.n.n.M.M.n.n.n.n.n.n.n.n.n.n.n.n.n.n.M.n.n.n.n.M.M.M.M.n.n.n.n.n.n.n.n.n.n.n.n.M.M.M.M.M.M.M.n.M.M.M.M.n.v.v.v.v.v.v.n.n.n.n.n.n.n.n.n.n.v.v.M.M.M.M.v.v.M.M.M.M.n.v.l.v.v.v.n.v.n.n.n.n.v.v.M.v.v.v.v.M.k.k X $ 7.m.k.k.c.l.v.v.v.v.l.f.&.=.;.;.#.=.7.7.7.7.;.;.;.7.;.=.P A A P T P P Y #.P 7 - B 7.3.3.;.;.;.#.I I z z c z z z z z j j h u u 8 B N B -.3.3.-.-.-.-.2.2.2.2.%.E U U D V A V U Y Y Y Y U U U L P L L B B N j j l j h a q < ; $ = ; < 9 e e 9 e # X   . . . X # < u y W E L T R E -.R T r $ + * K [ ` ` ` ~.&X*X|.' ' Q n ' OXOX=X=XOXMX*X$XXXXX%XvXNXNXNX=X|.$XMXNXnXGXGXGXGXGXGXGXLXGXGXHXHX",
"GXLXLXLXLXGXHXGXHXHXGXGXGXGXNXNXMX=XS.MXMXMXMX=X%X%XvXMXvXvX%X%X%X%XOX@X X` Q | $X$X*XMXMX@X} ` n * . & e c I I 3.5.i.i.6.j s a % O o . o o X = w r s N z h i r 6 < < q a a a d l N A A A L U U U U U U T T E T E R R -.R R R R %.%.%.%.%.%.%.%.-.2.-.-.R R %.A d s j j j j j h h h j j l j V T V d N L ;.9.A < ; 7 l Y -.-.-.-.;.;.;.;.3.3.3.3.3.3.;.;.4.p.z.t.-.%.N &.z.x.l.z.k.k.k.k.z.z.n.j.6 O - &.z.z.v.b.v.v.n.n.v.v.n.n.v.v.v.v.n.n.n.n.v.v.n.n.M.M.n.n.n.n.n.n.n.n.n.n.n.n.n.n.M.n.n.n.n.M.M.M.M.M.n.n.n.n.n.n.n.n.n.n.n.n.M.M.M.M.M.n.n.n.n.n.n.n.v.v.v.v.v.v.n.n.n.n.n.n.n.n.n.v.v.v.M.M.M.M.v.v.v.v.M.M.v.b.l.v.v.v.v.v.v.v.v.v.v.v.v.v.v.v.v.v.f.7   5 t.k.k.k.l.l.v.v.v.v.l.8.@.,.7.7.=.=.;.;.;.;.;.;.;.;.#.#.#.P T #.#.P P L A z ; w @.&.;.;.3.;.-.P B h s h z z z z z l h h u q < = u l %.-.-.-.-.-.-.-.%.2.R A V N d q w < w d U U U U U U L L A A B B N l j s j l j a r 5 ; = , , 5 e i i e 9 9 # X   .       # , 1 1 W R P Y R E *.U h $   + * Q [ ` `  X*X*X$X' ' ' ^ ~ S.OX|.XXXX=X*X%X$XXX%XMXNXNXMXMX!.XX%XvXBXBXNXGXLXLXGXGXGXGXGXGXGXHX",
"AXxXAXLXLXGXHXGXGXGXHXHXGXGXBXBXMXMX' ' MXNXMX%X%X$X%X%X%X%XvX%X%X$XOXOX@X| _ _  X@X%XMX*X@X[ [ H * . X - p x I 4.5.u.u.w.d d w # # O o o o X $ w r s B N z h p q < = < e i a a j B B j N N V L U U U U U T T T T E R R R R R R R R R R R R R R -.-.%.T Y T %.%.Y L A A A A A A L P P Y P B l l B d l A T 3.%.e - , h A %.%.-.-.-.-.-.-.;.;.;.;.;.;.-.-.;.9.p.a.r.4.A B p.k.l.k.k.k.k.k.k.k.b.L.k X # #.z.z.v.b.v.b.b.b.v.v.v.n.v.v.v.v.n.n.M.n.v.v.v.n.M.n.n.n.n.n.n.n.n.n.n.n.n.n.M.M.M.M.n.n.n.n.M.M.M.M.M.n.n.n.M.M.M.M.n.n.n.n.n.n.n.n.n.n.n.n.n.n.n.n.n.n.n.n.v.v.M.n.n.M.M.n.M.M.M.M.v.v.M.M.M.M.v.v.v.v.M.M.v.v.l.b.v.v.v.v.v.v.v.b.b.b.v.v.v.x.v.x.$.#   z z.z.k.k.l.l.v.v.v.v.k.;.#.7.8.7.=.&.=.=.=.=.=.=.#.A #.=.;.%.%.#.P C C A S a $ s %.T #.#.#.#.Y P L A A L P T #.#.T T #.#.L z a , < A %.%.%.%.%.%.%.%.%.R A d u d q < < < w s U U U U U L A A B B N N N s d d s h a r 6 - $ - 0 0 8 t i u e e 9 # O X     X X O ; : * M 2.%.T R R %.A - X X # 1 Q [ ) [ &X*X&X| ` _ W.OX!.S.W. X|.=X%X%X%X$X=XMXNXNXNXMXMXMX=XvXvXbXBXNXNXnXnXLXLXGXGXGXGXGXLX",
"xXxXxXnXFXGXGXGXGXGXGXGXGXLXBXBXNXMX$X|.XXMXMXvX%X$X$XOX%X%XvX%X%XOXXXOX$X@X| _ ` ]  X$X*X&X} ( Q > . . & 5 p T 5.u.u.u.^ f y ; # = $ # o o X $ w e s B N N z h u q = = 5 e i a l B N r q q u d A L L U U U U T T T T R T T T T R R R R T T T R U T T L T %.%.%.-.#.T %.%.%.%.%.T T #.%.T U P P U A U T %.%.%.S < 7 A -.%.%.%.%.%.%.-.-.-.-.-.-.-.-.%.%.%.-.3.9.p.3.%.N 3.k.k.k.k.k.k.k.k.j.z.G.;.X X z z.z.v.v.b.l.x.x.v.v.v.n.v.v.v.v.n.n.M.M.v.v.v.v.M.M.n.n.n.n.n.n.n.n.n.n.n.n.n.M.M.M.n.n.n.n.n.M.M.M.M.n.n.n.M.M.M.M.M.n.n.n.n.n.n.n.n.M.M.n.n.n.M.n.n.n.n.n.v.v.M.n.M.M.M.M.M.M.M.M.v.v.M.M.M.M.v.v.v.v.M.v.v.v.b.b.v.v.v.v.v.v.v.b.b.b.v.v.x.x.M.x.c X $ 8.b.j.k.l.l.l.l.b.v.v.f.&.@.,.7.;.#.#.#.#.#.#.#.#.Y #.%.=.;.&.3.P i < 7 C #.B q z S A A A A A I I P L L A L A P P P L L P A N N a a Y T T %.%.R R %.%.%.R Y U V d q w y d A A U U L L L L A A A S B N l u r a a a r 7 , # $ 5 6 7 e i h h i e 9 $ O O X X O O O = = * f u.4.-.R R R B $ X X = 1 n ` J ..&X$X~._ H Q  X%X+XS.'  X|.%XMXMX%X%XMXNXNXNXMX~.*XGXNXvXvXBXNXnXnXnXnXnXLXLXGXGXGXLXLX",
"'.xXcXxXnXGXGXGXLXLXLXLXnXBXBXBXNX=XMXMX~.|.MXMX*X%XOXOX$X%XvXNXMXOXXX=X%X*X{ [ | ` ) | *X&XX.( H > . . & 7 +.7.5.u.Z.' ~ 3 = O O # $ # O X O ; q e a B N z C j h i 5 $ ; 7 u u s s j l N N N j V A L A A L U U E U U U E E T T E E E E E E T T B U U L L Y T Y #.#.#.#.%.#.T T T T T T T Y Y L Y Y Y T T Y Y P r 8 N %.#.T R R #.#.%.%.%.%.%.%.%.%.%.%.%.%.#.-.3.4.%.A Y t.z.k.z.z.z.z.k.l.l.l.x.- X 7 8.j.z.b.l.l.l.l.b.b.v.v.v.v.n.n.n.n.n.n.M.M.M.M.n.n.n.n.n.n.M.M.M.M.M.M.n.n.M.M.M.M.n.n.n.n.M.M.n.n.M.M.M.M.n.n.M.M.M.M.M.M.M.M.M.M.n.n.M.M.M.M.M.M.v.v.v.M.n.n.n.n.n.n.v.v.v.M.M.M.v.v.n.n.v.v.n.n.n.n.v.M.v.M.x.v.v.v.v.v.v.v.b.b.b.b.v.v.v.v.k.t.7   p k.z.k.k.l.l.l.l.b.n.v.8.P #.8.8.#.@.#.%.%.%.#.#.%.%.%.-.%.-.-.-.L < e a i z t r z N B N N N N z z z z z z z z z z l j j h a u u s A Y Y Y Y Y T T T Y Y E R T U A A U U Y Y Y U U U A L A S A S B N N j s d s a r e < O # - , 8 e i h h h i u 7 - O O O O O O X = 1 * 3 u.u.2.R R T B , O X = f n ` ) ..#X X/ H H _  X%X%XXXS.~.$X*XMXvXvXMXNXMXMXMX|.Q OXNXNXvXvXbXbXhXbXmXnXhXbXLXLXGXGXnX'.",
").6XbXbXbXnXnXNXNXNXNXnXnXnXnXBXvXjXNXMXMX' |.*X*X$X$XOXOX=XvXNXMX%X$X*XMX X/ @X&X| m ` &X| ( X.G * . . % x ,.:.i.Z.' ' K 1 @ . X O O X   X X ; q q u B B B S z s i e , $ ; , < < w a l N N V l d N A A A L U U E U U U E T T T E E E E Y Y Y Y A U Y U L L Y Y #.#.#.#.#.T T Y Y Y Y Y P A B A L L L L A B N j r , , h %.%.%.R #.#.#.T #.#.#.#.T T T T T T T T 3.4.-.A S 3.j.z.z.z.z.z.l.l.l.l.I.e X - 7.b.z.z.x.x.x.x.x.x.v.v.v.v.n.n.k.l.b.n.M.M.M.M.n.n.n.n.n.n.M.M.M.M.n.n.n.n.M.M.M.M.n.n.n.n.M.M.n.M.M.M.M.M.n.n.M.M.M.M.M.M.M.M.M.M.n.n.M.M.M.M.n.n.v.v.v.M.n.n.n.n.M.M.v.M.v.M.M.M.M.M.n.n.v.v.n.n.n.n.v.M.M.M.v.v.v.v.v.v.v.v.b.b.b.b.v.v.v.v.k.;.# X $.v.l.j.k.l.l.l.z.b.b.k.7.P #.7.7.@.P #.#.#.#.#.#.#.%.%.-.-.-.-.%.T B C Y z 9 5 e a h h h h h h h h l z C C C C A A S S S A A A N N L Y T T T T T T T T A d d V U E E E Y Y Y U U A A A B l h h N z j j a s s i r q < # O - 0 8 e i h z z h i i 7 , O X X   X O X # : * 1 ~ s.6.R R R L 7 O # $ f n H ..[ | Q n m _ [ '  X%XOXXX~.|.$X*XvXMXNXNXNXMX@X/ { &XNXNXbXvXvXvXjXhXmXbXbXnXNXnXnXlX`.s.",
"/./.4XhXjXjXlXbXnXnXnXnXnXnXbXbXjXBXNXNXMX|./  X&X$X=XXXOX%XvXvX%X$X$X&X@X/ / $X*X| m (  .} ( ` m * o O 9 O.8.:.d.F.' / F 1 O         . . . X , 7 7 r S A C A N h h i 7 $ O $ 5 q e u a s j j s 8 u N A A L U U Y Y U U Y Y T T T T T T T Y Y Y Y Y Y Y Y L L Y T T T T T Y Y Y Y T Y Y L A A U A A A A A S N l g 5 # q P #.T T T T T T T T T T T T T T Y Y P P %.;.;.P B #.y.b.z.z.z.z.l.l.l.l.M.P   X P z.k.j.v.v.n.n.b.b.v.v.v.v.M.M.k.l.b.n.M.M.M.M.n.n.M.M.n.n.n.n.n.n.n.n.n.n.n.n.M.n.n.n.n.n.M.M.M.M.M.M.M.M.M.M.M.M.M.M.M.M.M.M.M.M.M.n.M.M.M.M.n.n.n.n.M.n.n.n.M.M.M.M.M.M.M.M.M.M.M.M.n.n.v.v.v.v.n.n.v.v.M.M.v.v.v.v.v.v.v.v.b.v.v.v.v.v.v.v.b.Z X 0 l.l.l.v.l.l.l.l.z.b.z.f.&.@.;.7.;.I P #.#.#.#.#.T #.#.%.%.%.#.#.%.%.-.Y P z 5 7 j z z N B B B B S A P T T T T T T T T Y Y #.%.%.%.T %.%.R R R R E T T T U A A R R R T Y U U U U U A A A B l h h j j h h i a u e 7 5 $ X # ; 5 9 i h h z z h i p 9 5 O . .         O * * * K F.5.2.R -.R l = + + < K m } } H m n Q  X X' '  X%X%X|.~.|.$XMXNXNXNXMX$X' ' &XMXNXNXvXvXjXjXjXjXjXjXjXjXjXuXuX_.A.i.",
"`.`.}.{.oXuXjXjXbXbXbXbXbXbXbXbXBXNXNXNXNX*X{ / @X$X=XoX%X%X%X=XOX|.@X&X.._  X*X*X[ J } | _ ) H m 3 = % v >.,.r.d.S.' / n * +         . . . X 0 7 6 e S L A L B l l h i , O # w u r e u u s s s u j B A A L U U Y Y U U Y Y T T T T T T Y Y Y T %.T Y T T Y L L Y Y Y Y T T T Y T T Y Y L R -.R L L A P A A A A A z 7 , a Y Y Y Y Y Y Y Y Y Y Y T T T T L L L L Y %.%.P A P 8.z.z.z.z.z.l.l.l.l.n.7.& X j y.j.y.n.n.n.n.n.b.v.v.v.v.M.M.v.v.v.n.n.n.n.n.n.n.M.M.n.n.n.n.n.n.n.n.n.n.n.n.n.n.n.n.n.M.M.M.M.M.M.M.M.M.N.M.M.M.M.M.M.M.M.M.M.M.M.n.M.M.M.M.n.n.n.M.M.M.n.n.M.M.M.M.M.M.M.M.M.M.M.M.n.n.v.v.v.v.n.n.v.v.M.M.v.v.v.v.v.v.v.v.b.v.v.v.v.v.v.v.f.p . g M.k.j.j.l.l.l.l.z.v.k.t.P #.8.;.&.I P o.#.#.#.@.T T #.#.#.T Y Y P #.#.A h 7 5 h S A L L P P P P Y T #.#.#.T #.#.%.%.#.T T T %.%.%.Y T T R R %.%.T T T T T T Y T T U U U U U U U U A A A A B B S l j j h i u q 8 5 - O O - 0 7 e h h h z C z i r 7 6 X . . .       O + * : M Z.i.w.2.2.R -.q X O = K K _ | m m Q W.OX$X X_ ' OX%XOX!.~.|.%XMXMXMX$X' ' $XMXNXvXvXvXvX=XoXoXoXjXvXoXoX+X_._.A.A.A.",
"/./.}.}.[.{.{.oXuXyXhXbXbXbXbXnXnXNXBXNXMXMX&X' _ @X%X=XvXvX=X|.|. X&X| [ @X*XMX$X_ ( | [ m m 2 n 3 ; 9 O.,.e.s.A.' _ / 4 @ O             . # 6 7 5 r A P Y P A z l l h q $ O - 5 7 r u u i h h h j l N l N B B A A L L P P P P U Y P P P U U U Y Y Y Y P P P P Y Y Y Y Y Y Y Y Y Y Y U L V T R Y P A A A A A A C S i - h S L Y P P P L P P P P P P P P Y P L A L Y %.A #.S =.k.z.z.z.z.k.k.z.z.n.v.0 . 5 y.y.z.b.b.b.x.l.;.A q.v.v.v.v.v.v.v.v.v.v.v.v.v.v.v.n.v.n.n.n.v.v.v.v.M.M.M.n.n.n.n.n.v.v.n.n.M.n.M.M.n.n.M.M.n.n.M.M.n.n.n.n.n.n.n.n.n.n.n.n.v.v.n.n.v.n.n.n.v.v.v.v.M.M.M.M.M.M.v.v.n.n.n.n.v.v.v.n.v.v.v.v.v.v.v.v.b.v.8.p i k.k.k.v.v.b.v.e.,   P M.l.k.k.l.l.l.l.z.b.z.;.P 8.7.P #.A P P Y Y Y @.T T Y Y P P A A P L C j e - q N P L A A C P A L A T #.#.#.#.T T T #.#.T T Y P P L L L L L L P P L L L L L L L L L L A A B B B A A B V V N N l l s s i u e q 7 5 - O X - , 8 t i j h h z C z h r 9 5 # .   . .       O = 1 f u.u.w.2.6.! 2.N = O + y K n ` m Q ] OX$X*X%X X_ ' OXOX=XXX!.OX*XMX|.' ' $XMXNXmXvXvXMXvXoX{.oXoX.X.X.X_.}.}.J.`.J.A.",
"/.}.}.}.}.{.{.{.jXlXbXbXbXbXbXbXnXNXBXNXvXvX*X$X] ` |.%XvXvXoX|.|.@X@X[  X*XMXMX|.[ } [ m m 2 > 1 : 0 v ,.e.a.A.D.' _ / 1 @             .   - 7 7 , r P P Y P A z z l h u < # X # - 5 7 r u a s s h j l l l l l B B C C A A A A L L L L L L P P Y Y Y Y Y Y Y Y Y Y T T T T T T T T Y U L V V L L L L A P P P P Z P z < 8 a l N A L I L P P L P L L L L L L L A A P #.P %.I #.a.z.z.z.z.k.k.z.z.l.L.h . $ 4.p.k.b.b.x.x.l.C - z v.b.v.v.v.v.v.v.v.v.v.v.v.v.n.n.v.n.n.n.v.v.v.v.M.M.n.n.n.n.n.n.v.v.n.n.n.n.n.n.M.n.M.n.n.n.n.n.M.M.n.n.n.n.n.n.n.n.n.n.n.v.n.n.v.n.n.n.v.v.v.v.M.v.M.M.M.M.v.v.n.n.v.v.v.v.v.n.v.v.v.v.v.v.v.v.v.v.C X p f.v.l.l.l.l.l.=.O $ 8.v.k.k.k.l.l.l.l.z.b.t.#.#.8.#.P #.A P P P Y Y Y Y Y P P P L A C l 7 8 e 5 , a S C S B N B N N L A Y T Y Y Y P P Y T T Y Y P P P Y Y Y Y Y L L L A L L L A A B B B B V N N N N N N N l l j j s s s i u r e q 5 , O X # , 5 e a h z j j z C z h r e 6 $   . . . . .   X + 1 3 ~ Z.w.! w.w.6.R s = + : M 4 n n _ ]  X$XMX*X&X XQ ' $X%X=X!.OX$X X' ' @XMXMXmXvXvXvXMXvXjX=XoXoXoX.X[._.J.`.[.[.J.s.",
"/./.}.}.}.}.{.jXbXNXGXNXbXbXbXnXBXBXNXMXvX=XMXMX$X^ / $X%X%X=XXX@X@X{ { &X*XMX*X@X| [ m m n 4 1 : < c <.y.a.A._.S.' ` K * X             . + 5 8 5 , h %.Y T Y L C z l l s e ; X . O - 5 q e u u i a h j l l l l z B B B B B B B B B B C L L L L A A A A P P P P Y Y Y Y Y Y Y Y Y L L L L L W T -.L N N z z z z z z h 5 = 8 l N N C C L L L L L L L L A A A C C S S Y #.%.#.L e.z.z.z.z.k.k.k.z.M.v.&.X X L k.k.v.x.x.x.j.=.; i b.b.b.b.v.v.v.v.n.n.v.v.v.v.v.v.v.v.n.n.n.n.n.n.M.M.n.n.n.n.M.M.v.v.v.v.n.n.n.n.M.M.n.n.v.v.v.v.M.M.M.M.n.M.n.n.n.n.n.n.n.n.n.v.v.v.n.n.n.n.v.v.M.M.M.M.M.M.v.v.v.v.v.v.v.v.v.v.v.v.v.v.v.v.v.v.v.b.g   I l.l.j.k.k.k.k.h X 8 k.k.k.k.k.l.l.l.l.v.n.7.I =.7.I P I A I I I I P P P L A A A A S S i , , 6 - , a s s s a i e q s A A L P P P P L L I I L L L I I P P P P P Y L B N B C A C B B N z z z l l l l l l l l j h s s s i i u r e q 6 ; & . O - 5 7 r g h z z z N A C h e e 7 , &   . . . . .   X = 1 M Z.u.6.w.5.5.2.-.d : * < 3 1 2 F [ ]  X$X$X@X@X{ _ |.%XvX=X|.| [ [  X%XMXvXvXvX%X%XvXvXvXMXvXoX+X_._.R.R.`.].`.K.s.",
"J.J.J.}._.}.}.jXbXNXGXnXnXbXbXbXNXvXjX=X%XvXvXvX*X$X' ~.%X=X=XOX@X X{ @X$X|.@X@X X] H m n F 3 1 < N 8.f.a.s.D.!.W.' _ 4 @ X             X ; 8 8 < 5 S ;.T #.T P A N z l h i 7 = . O - 5 7 7 e r u i s h a i i i s j l l l l l l z B B B B B C C S S S S A A A A A A A A A A A A C B B V V V V L V h a h l u w 5 5 5 0 - $ 5 j N C B z C C C C S A A A A B B B B B N P #.T -.L ;.z.z.z.z.k.k.z.z.l.M.f.% . u z.k.x.x.l.l.k.e.5 7 v.b.b.b.v.v.v.v.n.v.v.v.v.v.v.v.v.v.n.n.n.n.n.n.M.M.M.n.n.n.M.M.v.v.v.v.n.n.n.n.M.M.n.v.v.v.v.v.n.n.n.v.v.v.n.n.v.v.v.v.n.n.n.n.v.v.v.v.v.v.v.v.M.M.M.M.M.M.v.v.v.v.v.v.v.v.v.v.x.x.x.x.v.v.v.v.M.k.5 $ ,.v.l.v.k.k.k.k.0 O z z.k.k.k.k.l.l.l.l.v.k.;.P 7.=.A #.A C A A A A A A A S S B C S N z i i r 8 # , r q r e e q q u z j B A L L L L L L L A C C C L I P L L L L l h u r h N B B N l l l l l l j h h h s h h h h i i i u u u e q 8 - O . . $ , 5 q u h h z z z C A A l q q q 5 - X . . . . .     + : M ~ F.! 6.w.i.5.2.E d : * : 1 > n _ ' ]  X@X| | @X X' =XNXMX] ` [ |  X*XvXMXvXvX%X%XvX%XvXNXNXjX_._.R.R.R._._.K.s.s.",
"H.J./.`._._._.+XvXvXvXvXhXhXbXjXoXXXXXXX%XvXvXvX*X*X@X'  X$XOX$XOX@X@X@X| _ ` ' / K n F n 4 1 3 A i.z.z.s.A.!. X] ' Q * o               $ 6 w 6 < 8 %.4.%.A A P A C N z h a e < X X - , , , , , 8 e i i a i u e i s h l l l l z z z z z N N N N N N N z z z z N N N N N N N B N B z z l V l l j u i l z s i r q 8 5 5 5 < ; r h l z z l z z z z N l l N B B B B B l B -.#.=.Y #.p.k.k.x.k.k.k.k.k.l.x.t X - 9.x.l.l.k.k.y.k.e , y.n.b.M.v.v.v.v.v.v.v.v.v.v.v.v.n.n.n.n.n.n.n.n.M.M.v.v.v.v.v.v.v.v.v.v.v.v.v.v.v.v.n.v.v.v.v.v.v.v.v.v.v.v.n.n.n.n.v.v.v.v.v.v.v.v.v.v.v.v.v.v.v.v.v.v.b.b.b.b.b.b.v.v.v.v.v.v.l.l.l.l.v.v.v.v.b.;.- 9 f.l.b.v.c.l.k.@.# $ ;.b.k.k.k.k.k.k.k.k.z.y.I #.7.#.I N z B C C C C C C C C C C C z j h a h i % # 8 s i u i u r a B h h B S S C A A C S C P P B z B C B B B N z j j j j z z l l j j j j j j j h h s s s s i i i i u u q 5 < 5 5 , $ O . O - 5 7 r u h j N z z S A P A 7 q e w 6 = . . . . . .   X + 1 M K Z.! 5.i.i.i.5.R r = + * 1 2 n / _ ] | [ ` @X*X!.XXMX%X[ ` [ ]  X%X%X%X%XvXvXMX%X=X%XNXNXNXoX!.D.R._._.K.J.J.J.",
"K.K.J./.`._._.+X=X%X%XvXvXvXMXXXZ.F.XX*XMXvXvXvXvXMX%XOX'  X$X$XOX$X&X@X` H / Q F F ~ ~ n 1 1 M s.G.b.A.A.D. X X' Q 4 @ X             O , q q 6 7 r -.;.%.N B Y P A B z l h i e ; # - 5 , - $ - 7 e i i h h h h l l z B N N N N N N N N N N N N N N N N N N N N B B S S S S B B B B B B B N l l a l C B l s a u i p p e 8 < 8 h l h h l h h l z s a a s s j l N B z l #.P =.#.Y 8.j.k.x.k.k.k.k.k.l.v.A O # Y n.l.l.k.l.f.f.j # ,.n.v.v.b.b.b.b.v.b.b.v.b.v.v.v.b.v.m.m.v.v.v.v.v.v.v.v.v.v.v.v.v.v.v.v.v.v.v.v.v.v.v.v.v.v.v.v.v.v.v.v.v.v.v.v.v.v.v.v.v.v.v.v.b.v.b.b.b.b.v.v.v.v.v.v.v.v.v.v.b.b.v.v.l.l.l.l.l.l.l.l.v.v.v.v.l.C # C z.l.k.l.k.c.k.h X , y.l.k.k.k.k.k.k.k.k.z.8.A ;.;.#.A k z z z B B c B B B B B B c l i u i i , O < i z z h j h a j B s N N N S S C S B B C L L A h l B N N z l l l z z z z l l l s s h h j j j h h s s s s i i p u u 9 - + - 5 5 , % # O $ , 8 e u h j z z z N S A Y I 7 q e r w < # . . . . . .   O * 1 4 ^ D.u.d.s.s.i.i.R r = + 1 1 4 F Q _ _ _ | $X*XMXMX*X X` | | ]  XOX$X=X%X%X%X*XMX%X$XMXNXNX%X_.D._._.R.K.R.J.J.",
"b.G.H.H.H.}._..X+X+X%XvXvXMXOX^ K ~.%XMXvXvX%X%XvX%X*X*X X'  X$XOX$X*X@X_ H Q F F ~ ^ M 3 3 f 5.H.b.s.F.D.!. X X/ n * o             O - 7 e 7 q e L 7.3.#.z S T P A S N l j h i 7 , - , 5 , < 8 7 q e i u i i s l z z z z z z z z z z z z z z z z z z z z z z z N N N N N N N N N N N N B N l l h B B l h h i i h s h i i q , 7 u i i u j j z z s a a s d a j j l l s z P T =.Y ;.p.k.k.k.k.k.k.k.k.v.j.$ o r G.l.l.k.l.g.g.=.# c v.M.l.v.v.v.v.b.b.b.b.x.x.x.x.v.v.b.b.b.x.x.v.v.v.v.v.l.v.b.b.v.v.v.v.v.v.v.v.b.b.b.b.v.v.v.v.v.v.v.v.v.v.v.v.v.v.v.v.l.l.v.v.v.v.b.v.b.b.v.v.b.b.v.v.v.v.v.v.b.b.b.v.l.l.l.l.l.l.l.l.v.v.v.v.k.8 $ :.z.k.k.l.c.k.7.0 O h v.j.k.k.k.k.k.k.k.k.k.&.P ;.#.@.z h h h l z z z z z z z z z l i r u i e $ # q j l l h h a u a u j N N B S S S S B N N B B z l z N z z l l l l l l l h h s s s s s s a a a a a i i i u u u e e 9 , O - 5 9 8 , % # $ - 8 7 r a h j N l B A A L T T u q r u r q , X . . .       X O @ 4 M ' Z.d.a.s.s.d.u.R y * : 3 3 n Q Q H `  X$X%XMXMX X' ~.$X X' ]  X|.OXOX X~. X X X X XMXMX%X_.oX.XJ.J.K.H.J.J.",
"b.b.b.m.b.H.`..X+X+XOX%X*X%XS.n K XX*X%XvX%X%X%X=X%XMXMX&X_ Q  X$X$X&X X_ F n F ~ ^ F 3 3 f 6.H.b.s.F.F.S. X X' M * o X             # 8 7 9 8 e u 4.9.4.T C P #.Y P A B z j h s r 5 # $ 5 5 8 7 7 8 7 e r u r r a i i i i i i i h h h h h h h h s s s s h h h h j j j j j j j j z z z z z l j h s h s i i u u r u r r q 6 6 ; , 5 q q 5 6 q u h a a d a a a a a i s i u I I %.#.#.t.k.k.k.k.k.k.k.k.l.v.q O = k.l.l.k.l.g.k.t., 9 f.v.l.l.l.l.l.x.z.x.x.x.x.x.x.x.v.b.b.l.l.l.x.b.b.l.l.l.l.b.b.b.b.v.v.v.v.v.b.b.v.b.b.v.v.v.v.v.v.v.v.v.v.v.v.v.v.v.v.l.l.l.l.v.v.v.v.b.v.v.v.b.b.b.b.v.v.v.v.b.b.b.b.l.l.l.l.l.l.l.l.v.v.v.v.;.$ 7 r.a.a.k.l.c.k.P $ # &.b.j.k.k.k.k.k.k.k.k.e.P #.;.#.I h h s h h h h h h h j l j j i e r a s u 5 5 e u u q r e q 6 5 8 a l j l z z z l j h h s s h l l l s s s a a i i i a a i i i i i a u u u u u r r e e e 9 9 9 e e , , 5 7 7 5 , $ # $ , q r i a h z B N A P P P Y #.z q r i u w 8 $ .             X o * 4 K S.u.s.s.s.d.s.i.R 3 1 M M n n F Q | @X$X&X$X@X| ' OXMXMX|.'  X X X XW.` ` ` ` [ ] |.%X%X+XoXR.A.K.H.H.H.P.",
"4.a.a.b.M.b.K._.+X+X+XOXOX~.Q ^ XX%X*X*X%X%X%X%XoXMXMX*X#X[ ` ` |  X|. X' F F ~ ^ K M 4 M d./.b.i.u.F.~.~. X] Q 3 + X   .         & < q e e e r z 9.r.t.4.;.#.Y #.Y A z z l j h i 7 # # < 8 5 7 8 8 8 5 q q q e q e q 7 6 , ; , 5 6 6 5 6 8 7 q q q q e e e q 7 7 q e q q e e q r e e q e e q 8 8 7 w q q q q q 6 6 5 < $ , , ; < q e q < < 7 r q q w w 8 w w q w q q e h P %.#.@.3.z.k.j.j.j.f.k.k.l.x.#.O X &.n.k.l.g.g.f.y.z % ;.l.l.x.x.b.x.z.z.z.z.z.z.l.l.z.z.l.l.l.l.x.x.x.x.v.x.x.x.x.x.x.b.b.v.x.x.x.x.x.x.x.x.l.l.x.x.l.l.v.v.v.v.v.v.v.v.v.v.l.k.g.f.k.v.v.l.v.v.b.l.k.k.k.k.k.k.l.l.k.k.k.k.k.k.k.k.l.l.l.l.l.l.l.l.z O B j.a.a.f.f.k.k.h O 5 j.y.f.j.j.k.k.k.k.k.y.7.I 7.=.I B i h h i i i e e q r i i u 8 , 5 q i u q 7 8 8 8 7 7 7 7 7 7 7 q e r u u u u u i i u u u u u u u q q q q 7 7 7 7 7 7 q q e e q w 8 < , , , , - - 6 7 8 7 q q e 8 5 5 0 0 , , - # $ % 5 e r t a h N S A P Y T T T #.-.l e e i u e 8 & .             X * 4 n _ F.F.F.s.F.s.s.5.W y 3 M M n F '  X X@X@X` _ #X X|.MXNXMX|.' ]  X X] ] ' [ [ ] ] W.|.OX%X_.K.K.b.b.b.U.U.",
"+ L 4.r.a.b.K.J..XoX+X+XS.Q ' %X=X=X*X*X%X%X%X%X%XMX*X$X{ |  X[ ` { ' S.Z.~ ~ ^ K n 4 M u.J./.p.6.u.S. X X{ Q 4 * X X         X O , 7 e q 9 e g @.t.r.r.r.7.;.%.#.Y L B N z j h i e $ $ , 8 8 7 7 8 5 < < < 5 7 q e q 7 8 < < 5 8 q q 7 q e e e t t r r e e q q q 7 5 6 q e r e e q q q e r e 7 q q e e u u u u e 8 $ - 5 8 6 5 8 r u e q q e r r r q q q q q q w q e u s L Y #.#.&.p.k.j.j.j.j.f.j.k.z.p.= O r n.k.k.g.g.f.a.#.$ z ,.;.7.7.7.7.7.7.8.9.3.3.q.q.;.;.;.;.,.,.q.q.q.q.7.7.q.q.q.q.q.;.,.;.q.7.8.0.0.0.t.t.8.8.8.8.8.8.8.8.t.t.t.t.t.t.t.t.e.8.8.8.8.t.t.8.t.y.f.j.f.f.f.f.t.t.t.8.7.7.7.7.8.8.8.8.7.7.7.7.8.7.,.;., - ;.z.a.f.f.f.x.e.5 O z z.f.y.j.j.k.k.k.j.k.f.#.P 7.#.T h i i i u e 7 7 9 r i i i u 7 8 7 e r u e q 7 q q e e r r r r u u a a a a a a a h h h s s s a i u r e q w 8 5 5 8 8 w e r r u e e q 6 5 < < e = O 5 e u e 7 8 5 5 0 5 , , , , - # $ % 5 t t u g j B S P Y #.%.%.#.#.=.L u e u e q q , X             X @ 4 n Q ~.S.Z.F.F.s.s.5.6.W f f M M K ' ' ~.~.' ` ` {  X~.|.MXNXvX|.W.] ] ] ] W.W.W. X X~.XX+X.XR.K.K.b.i.a.z.i.",
"o + s R r.b.K.K.`.]..X+X!.~ Z.=XXXXX%XMX%X%X%X%X*X*X|.{ {  X$X@X' / ~ F.u.! ! ~ M 4 M u.}.H.z.i.w.S. X X{ / n * + X     X   X & , 7 q e 7 9 i v e.k.y.9.y.r.7.4.%.P A C N z l j h r - # , 7 q q e 7 8 5 , , 0 7 e r e q q 5 7 q e u i u a a i i a a a i i i a a a 7 = < e u i u a i u u i s s u a s s s s s s s j r = < d u a u u a a a i a s s a a a u u u u r u e q u i h P Y &.*.9.z.j.j.j.y.y.y.j.k.b.e X - y.b.g.f.f.f.j.y.i , , - % % % = = = = = ; ; ; ; - - - - - - - - - - - - - - - - ; ; - - - - - - ; ; ; , - - - - ; - ; - - - - - - % % % % % % % % - % $ $ % % % - - - % - % % % % % % % - - - - - - - - - - $ $ - A j.a.a.f.f.f.x.&.# $ ;.z.f.f.j.j.k.j.k.k.k.,.A =.;.#.P i i i i u r e r i h h h h s i s s i i s a i u i i a s j j j j j j j l j h h h h z z z l l l j h s s i a i u u r u i s h h s a i a u r u w q u , # 7 i g i q 7 7 7 9 7 7 8 5 , % # % , 7 t i a h z S A Y T %.%.-.%.-.4.;.h q q u r u q - X             + 1 n H ` ' ' Z.F.d.d.d.d.5.W f M W F K ^ / Q Q [ | |  X X~.|.MXMX%X|.W.' ' ' S.W.S.S.D._.+X[.R.K.K.K.b.a.5.s : ",
"+ o + V 5.i.a.b.K./.[..X+XD.F._.=X=X=XMX%X%X&X&X$X|.{ {  X@X$X$X' Q S.A.E ! ~ M f M ^ R.H.b.a.u.Z.W. X| _ n 1 + O X   X X   O - 9 i e r q e k O.t.k.t.p.t.r.9.7.;.T A S B N z j j e - O , 7 e e e e q 9 7 8 7 r e r e q q 5 e u u h j h j j h h h h h h h j l z j q ; < u s h h j h s d a s h s h j l l h h h h l s w r j l l j h h h j l j h j j j s s a a u u u e e e i q Y P =.*.q.j.j.j.j.y.r.t.y.p.z.Y O & P j.y.f.f.f.j.j.t.8.;.#.P P P I I I A I P P P P P P P I I A I I P P P o.o.o.o.o.o.P Z C S C z k z c C Z A A C C C C C C c c c c c c c c c c v C Z Z v x k g g g h h h h x z z c c c c c c c c c C C C C A A A A ;.z.y.y.a.a.f.f.l.C & 5 a.j.y.f.j.j.j.j.f.k.8.#.P 7.#.#.C h h h i i h h l z c C z z l l z l h h l l l j h h l l z z z z N N N z z j h s h z N N B B z z l l l s s h j j s s s h h h h a a h s d w u a u 7 - 5 e i i r e e u u e q 7 5 , % # % , 7 u a h k z A P T T %.%.;.-.;.4.9.L q 7 u u u r q O X           # 1 4 n Q ] ' ' Z.Z.d.d.s.i.i.! V M W W F F F /  X X X X X X X X$XOXOX|.W.' ^ Z.S.D.D._..X[./.b.H.K.b.z.i.N = + ",
"w o o 1 E 2.9.y.b.H.`.[..X.X_.A.F.XXvXMX*XMX&X X X X|  X|.$X%X!.^ u.A.! ! ! M M M ! K.G.z.z.A.Z.S. X| ` n * * # O O O X   O - 7 g s a u r u A t.j.a.a.a.y.t.9.7.4.;.#.I z z z z j t , . $ 7 e q e e e e u u u r e r i a 5 e a s h l z z z z j j j j l j j z z N l w 8 u l l z z l s j l s s s a N N N N z z z z N l l l l l l l l l l l l l l l l l j h s s a i i u e e i e C #.&.%.&.t.k.j.y.y.t.t.t.y.b.k.= X t k.t.t.y.j.j.j.x.x.x.x.n.n.M.v.M.v.M.M.M.M.M.M.M.M.M.M.N.B.M.v.v.v.v.v.M.M.M.M.V.V.v.l.V.V.V.v.M.M.M.M.M.M.M.M.v.v.v.v.v.v.v.v.v.v.v.v.v.v.v.v.v.v.v.l.v.v.n.n.M.M.n.n.M.M.M.M.N.N.M.M.M.M.M.M.L.L.L.L.L.n.b.z.b.j.y.y.a.y.t.g.f.t # i j.j.a.a.j.j.j.j.y.j.7.C ;.7.-.#.h u a h s h j z N B S S S S B N z z z z N N N N z z z z N B S C S S S S N j a r u j B C B C B B B z l l j z z z l l l l z z z h h j h a r a s s r 8 , 5 u i i i i u u r e 7 8 0 % # $ - 7 s j h l B P T %.-.-.3.2.3.4.4.4.3.B 8 e u a a u w $ X   .   O $ = 1 4 H ` ] ' ' Z.u.d.i.i.y.r.R d d E ~ F n Q |.|.|. X X X X X' ~.OXOXOXW.Z.Z.Z.D._._._./.H.J.H.H.G.r.V = + * ",
"b.d + @ < U 9.a.z.G.U.`.[..X].R.u.XXMXMX*X$X X{ |  X XOXOXOXXXZ.^ u.E E w.D y M ! K.G.z.z.s.Z.Z. X X[ n > o O X O X X   O - 7 i g a u r q h e.z.j.a.a.a.p.t.9.9.7.,.=.#.A B B z g g ; . $ 7 e e r r r r u i i i i s j u q u h j z z z N N z z z z z z l l z z B l i a N C C A C l a s l s s s s B B B B B B B B B B V V B B B B N N N N N N N N N z l l l h s s a u r e r u h #.#.#.%.q.j.p.y.y.t.t.t.y.p.b.6 X ; e.e.t.t.j.j.j.k.k.k.k.k.k.c.l.g.g.l.l.v.v.v.v.v.v.v.V.M.M.M.M.V.V.V.V.M.M.M.M.M.M.v.v.v.v.v.v.v.v.v.v.v.v.v.v.v.v.v.v.v.v.M.M.v.v.v.v.V.v.V.M.M.M.v.v.M.M.M.M.M.M.M.M.M.M.M.M.M.M.v.v.l.l.k.f.j.j.j.j.j.j.j.j.j.j.y.y.t.y.f.l.8.; O P j.j.a.a.j.j.j.j.e.y.#.c 7.7.3.P a u a s h j z N B S C C C A A C C S S S C C C C S S S S C A A A A A A A C N l h s z B C C C B B B B N l l z N N B N z l z B z j j l j h s a s j i e 5 5 q u a i i u u u e e 7 5 % & # $ 8 a j h z C P T %.%.%.-.3.3.4.4.9.t.;.j q t a s a a q - O   O # $ = = 1 4 Q [ ` ` ' ^ u.d.d.p.y.a.R V M ~ K F n ' OXOX|. X X X X] ' ' |.|.!.S.Z.F.R..X_.J.K.K.K.b.H.a.B : @ = d ",
"U.E.A = + < T p.a.b.H./.`.[.]._._.!.XX%X$X~.{ { ~.|.OXOX%XXXS.u.Z.! D 6.V M W d.K.G.b.z.s.A.F. X@X| Q 2 @ O X X X X X O - 7 u i a i u u a 3.v.z.j.j.j.a.a.y.t.9.9.4.;.-.P A z z h t O   - e r e u u u u i i s h z z h r i a h z N N z z z N N z z z z l j l z N j h l A L L L L S j l B B B B B C A A A A A A A C C B B B B B B B B B B B B B B B B N z l l l h h i u r q e r #.Y #.%.%.t.y.y.y.t.y.t.y.p.b.z X $ =.y.y.t.y.j.j.k.k.k.k.k.k.k.k.l.l.l.l.l.l.l.v.l.l.l.l.g.l.v.v.v.v.v.v.V.V.V.V.V.M.x.l.l.l.l.l.v.v.v.v.v.v.v.v.v.v.M.M.M.M.N.N.N.M.M.M.M.M.M.M.M.M.v.v.M.M.M.M.N.N.M.M.v.v.v.v.b.v.l.k.k.k.g.f.j.j.j.j.f.y.t.t.k.j.a.y.a.a.f.f.C & = ,.j.j.a.a.j.j.j.j.y.8.L P 9.q.;.z e i s h l z N S S C A A A A A A A A A A L L L A A A A A A A L L L L L L L A S z z S A A A A L B B B B z z l z B S B B N N S B z z N z l l j s s i r 7 q i i i i i i u u r e 7 8 - O O # 5 i z z N A Y #.%.%.%.-.3.4.4.9.r.y.t.-.u t a s j s s r - O O $ $ $ ; 1 1 n _ ` ` ] ' Z.F.s.a.a.p.p.2.A V D K F F ' |.OX X X X X|.' ' !.D.Z.~ ^ D._._.`.K.G.K.G.K.i.N ; + = V a.",
"U.U.U.V + o < U p.z.G.U.U.`.[.[.oXF.M S.~.' ~. X|.$XOX%XXXD.^ u.~ W ! U f E _._.K.z.z.K.A.D.!.$X X` m > + O O O O X O - 7 u a a i u e z ;.j.b.b.j.j.k.a.a.p.y.r.9.4.;.-.#.P C z k 5 . X - e r r u u u u i i h l c c u r h h l z N N z l l z N N N z z j h l z z z N C L P P P P Y A L U Y Y L L L P P P P L L L L A A A A A A A A A A A C C C C C B B B z l l j j h u r 7 7 q T Y #.#.#.0.t.y.y.t.t.a.y.y.k.3.O # C e.9.t.y.j.j.j.k.k.k.k.k.k.k.k.j.y.t.,.,.,.,.A o.&.;.,.7.t.f.f.f.f.f.f.f.f.f.g.f.f.t.8.8.8.8.8.8.8.8.8.8.8.8.0.0.0.0.t.t.y.f.j.j.j.j.t.t.t.t.t.e.8.8.e.e.e.e.e.e.e.e.8.8.8.8.8.8.7.,.,.7.e.t.t.t.t.t.f.f.j.j.j.j.a.y.t.y.e.,.0 X 7 r.j.j.a.a.j.j.a.j.e.;.I ;.7.q.#.s q u s l z N S C A A A A A L L L A A A A L L L L A A L L L L P P P P P P P L A A A P L L L L A A A C B B z l l z A C S B B S S B N S B z l l h i u u u h l s i a a i u u p e 9 7 , O O # < i z N S P T %.%.%.%.%.4.4.9.9.9.p.a.y.Y r r a j s a s e - O # $ $ - ; * > H ` ` | @XOXF.F.s.a.z.l.a.3.A M M ~ Q F '  X X|. X|. X|.~.|.!.~ F Z._.R.R.J.K.G.G.G.i.s = + , %.H.H.",
"Y.Y.Y.U.L = @ 1 L z.P.L.P.`.[._._.D.^ Q '  X XOXOX%X%XXXF.^ ! ~ W ~ W M U s.J.A.b.s.A.D.S.~.@X@X| H n > = $ # & X + 8 u s a a u u u h ,.k.l.l.z.z.z.j.j.a.y.y.r.9.7.;.-.;.#.C h h $ . O 5 r r r i i i i h h z S A s r j N N N B B B N l l z B B N z z j j z z l B B A L P P P P P L L U L L P P P Y Y P U P P L L A A A A A A L L L L L A A A A C B B B N z l l l j h a e 7 6 A @.#.#.@.;.t.y.e.a.y.f.f.y.p.p.; X , ;.t.9.t.y.e.t.t.t.t.t.t.9.9.8.9.7.;.#.z Y 7 , t z B z k h a h h h h k k h h h h h h g i i k k z z z z z k k h k k h k k k k z z z z l h h h h h h h z j h h z z j h h h i i i i p r p #.t.8.t.t.t.t.8.8.0.t.t.p.p.t.t.a.,.e X X z t.t.t.a.a.j.y.y.y.e.#.I 8.7.;.P e r u s l N S A A A A L L P P P P P P P P P P P P L L P P P P P P P P P P P P P L P P P P P L A A A A A C A z j j S B C C S S B B S S S B z B l q 7 u s j B z a r a h i h i i e 7 , & . O - i z N A Y %.%.-.%.T T 3.4.9.9.r.y.p.j.t.Y r a j j a a s q = $ - - % $ # : H ) [ | #X@X XZ.u.s.b.b.b.z.2.d y Z.^ F F _  X X|.|.XX|.!.+X_.~ ^ D.D.A.K.K.G.G.G.p.r # = , 4.H.).m.",
"Y.Y.Y.U./.T = @ = z t.L.L.H.J.R.A.D.D.' ^ ~.OXXX+X+X!.u.^ ^ ~ E ~ D M D d.J.J.K.s.A.F.S. X@X#X#X} H n > = % $ & O 8 h h s a a u r a :.k.l.l.l.l.z.z.j.k.a.y.y.r.9.7.;.-.;.#.C j r $ O $ 8 r u u i i i h z z B A j e s N B B S S B B B z z B C S N z z z z N N l B L L L P P P P Y Y Y Y P P P P Y Y Y Y Y Y Y P P P P P L I I I L L L L L L L L A A C C B B z l z l j h r q 6 h #.#.#.#.#.7.e.e.y.y.y.f.j.k.b.z # O i 3.;.7.8.7.;.;.;.;.;.3.7.7.9.9.4.4.;.I A s h h h h h h h h i u i a i u u t r u h h g g h N z z z z z z k k h z z k k k k k h h h h h i i i h h k k h h h h h h h g i i a a h h i i i P 7.,.7.7.7.7.7.7.q.3.3.q.;.%.Y A 9 X   ; #.p.t.t.p.a.j.y.y.y.8.I P t.3.%.N q u a l z C A A A L L P P P P P P P P P P P P P P L P P P P P P P P P P P Y P P P P P P P P L L A A A A A L B h i j A A A A C S B S S S S B B z u q u j j z B z r e a a a h h p 9 8 $   O - a z N A Y %.%.-.%.%.T %.3.4.9.r.y.p.j.j.t.S r s j s a s j q = = , ; % % 1 n H } | | { ' ' ^ u.s.b.m.b.a.N < w.D.~ F Q ^ ~.|.!.!._._.D.F.Z.D.R.D.A.A.G.G.b.9.r # # 6 -./.H.).P.",
"U.U.P.I.(.U.2.< o $ h e.n.b.A.A.D.D.R.D.' Z.XX=X!.F.~ W ~ W W W ~ D D 5.R.J.G.K.A.F.S.{  X|  . .` _ n > , % % , 8 d s h s d d u d T k.v.l.l.l.l.z.z.k.a.a.p.y.r.9.7.4.;.;.#.C k , # % , e r i i s a h j N B S N e u z S S S S S C C B B B C A S N N z N S B B B A L L L P P P P Y Y Y Y Y Y Y Y Y Y Y Y Y Y Y Y Y Y Y Y P P P P P P P P L L L L L L L L A C B N z z l j i e 5 q #.#.Y #.Y &.7.e.t.y.y.f.k.z.z.e.7 O O < a j z z j j l l h z N S C C z z z l h z h i i i h z C B h l z z l h h h h h l l h h h z h j z z h h h j h z z z z z z z z z l j h h z z z z B C c c z z z z z z c B C I I I I I C z h x z z z z z z j j g g a r , # X   $ h 0.p.t.y.y.a.j.y.y.y.8.C #.7.;.#.h q u s z C A A L P P P Y Y Y Y Y Y Y Y Y Y Y Y Y Y P P Y Y Y Y Y Y Y Y Y Y Y P Y P Y P P P P P L L L A L A L A l u u N A I A A A C C C C C B B B l u r u a h S S h 7 w a j h h i e 8 , O   - i N C A Y %.%.-.-.%.%.%.;.4.9.r.y.p.j.j.z.4.N a s s a d l l w , < 0 - % < y n {  .| ] Q _ ' ^ s.b.m.b.k.9.V V w.u.K F Q ' ~.!.D.D.D.F.D.D.D.A.A.A.K.G.G.9.w # # 7 %.P.(.I.(.I.",
"P.P.P.P.P.(.U.i.< + # 9 9.b.A.A.D.A.A.R.R.F.F._.F.~ M M M f y D ! ! s.E./.H.G.K.F.S.| | } }  .) ) ` n 1 , # , s q d j j s d u u V a.b.f.l.l.l.l.z.z.k.k.a.p.y.r.9.9.7.;.;.#.C z $ & ; 5 e u i a h h h z N N B a 7 j B A C C C C C C B B A A A N N z z S C B B A L L P P P P P P Y Y Y Y Y Y Y Y Y Y Y Y Y Y Y Y T T T T Y Y Y Y Y Y Y P P L L L L P P L L A C B B z z l h u 5 7 S #.Y #.Y @.;.8.e.y.t.y.j.k.9.e.8.r $ # $ ; , , , , , , , , < 5 , , , , , , , , , , , , , 6 7 6 , , 5 5 < < < , 5 5 5 5 5 0 , , % - - - $ $ - - - ; , , ; ; , , , , , , , , , , , , , , , , , , , < < 5 5 5 5 5 8 6 5 5 5 , , , , , , , , , < < < 5 5 , - , e g C ;.8.t.t.t.y.a.j.y.y.y.#.C 3.%.#.P s r u s B L L P P Y Y Y Y Y Y T T T Y Y Y Y Y Y Y Y P Y Y Y Y Y T T T T T T Y Y Y P P P P Y P P P P L L L L L L B i 7 i N A A A A A A A L L C C L B s w 5 8 e z C S s 8 q a h h h p 9 0 # . $ u N C A Y %.%.-.-.-.%.;.4.9.r.r.p.p.j.k.k.p.9.s s s d d d V l w w 5 , - < y 4 Q | | / m Q ' ' u.A.K.b.b.z.4.V d E W ~ ~ ~ ^ !.D.F.F.F.D.D.A.A.A.K.K.G.3.8 # = q 7.I.L.I.I.n.U.",
"M.P.P.T.P.P.U.U.z.u # + q 9.J.A.A.A.A.K.J.K.R.A.! M M D 3 3 M W ! s.J.E.G.b.b.A.S.] ` } }  .} m Q Q 3 1 1 , s a < u u a a d f f -.z.b.b.l.l.z.l.z.z.j.j.a.y.y.r.8.7.7.3.3.P A g $ O % 5 u u a j a a N S S P z q i z A A A A A A C C C C I A C z h N S A C B C L P P P P T T T T T T T T Y Y Y Y Y Y T T T T T T T T T T T T Y Y Y Y Y Y Y P P P P P P P P A A S S N z z j h r 7 h T L T P A T 4.9.y.p.t.y.y.e.8.8.e.e.7.=.=.=.=.=.=.=.=.=.=.;.;.#.#.#.#.=.#.=.=.;.;.;.;.;.;.3.;.#.#.#.#.#.#.&.=.=.;.;.;.;.:.=.=.#.T P P I I I I C C I P I I I I P P P P I A A A I I I I I I P P I I I I P O.O.O.O.#.#.#.=.=.=.=.%.#.#.#.;.=.;.;.;.;.7.7.7.8.e.8.3.7.e.y.t.y.y.t.t.j.t.7.P A ;.@.T A i u h z A L P P Y Y T T T T T T #.#.T T T T T T Y Y Y Y Y Y Y T T T T T T T P P C L I P Y Y Y Y Y Y P P L L L P L B a r h P I A A A A L L L L L L L B s 8 , 5 i z C z i 5 q j h z i 7 5 % . $ t l C P @.%.%.-.;.;.4.4.9.r.r.t.p.p.a.z.a.t.Y %.N a s d M V V V d r < , - < 3 4 ~ ' n 2 n [ ' ^ u.s.b.b.b.b.9.L j V E W D W u.u.Z.D.D.D.A.A.A.A.K.K.-.< + = u k.P.L.I.L.L.L.L.",
"v.N.P.T.P.P.P.P./.b.s $ + u 5.K.A.A.A.A.K.K.A.u.D D W M 1 f D W i.K.U.G.n.b.K.F.] ` ( X.) ( H m n n 3 3 w u L w w d d d f y f V T 3.p.k.x.x.b.l.z.z.j.j.a.y.y.r.8.7.7.3.;.Y C r % $ % 6 u u s j a l A S C N u u h B A A A A A A A A A A L C C z u N L A B S L Y Y Y Y Y Y Y T T T T T T T T T T T T #.#.#.T T T T T T T T T T T T T T T T T T Y P P L P P P A A A S N z z j h r u L P P P C P y.e.p.j.p.y.y.r.8.7.8.8.8.e.e.e.e.e.e.e.e.e.e.t.y.t.t.e.e.y.t.y.y.t.t.t.y.t.t.y.y.e.e.e.e.e.e.t.t.e.e.t.t.t.t.t.t.y.t.e.e.e.e.e.e.;.,.7.8.t.t.t.t.y.y.f.f.y.y.f.f.y.y.j.j.j.j.j.j.j.j.j.j.f.f.a.a.y.y.y.y.y.y.y.t.y.y.y.y.y.y.p.y.y.y.a.j.y.t.e.e.3.7.e.y.t.e.t.t.y.j.e.;.C #.&.@.Y z s z S A P P Y Y T T T T T T #.#.#.#.T T T #.#.#.#.T #.#.#.#.#.#.#.#.T T T T T L s u B P T Y T T T T T Y P P P P P P B h h C P P P L L L L L L L L L A B a 5 q h h z z z u < q h z h 7 - # X # q h z I Y #.%.-.;.;.4.4.9.r.r.t.p.p.a.p.t.Y %.z.-.s d d M M M K M f w < < , < 1 3 F F 2 m _ [ ' ^ u.a.b.b.b.b.a.U u d V d y 3 y ! R.D.A.F.A.K.K.K.4.6 + $ d z.(.I.P.P.L.L.L.L.",
"c.M.N.N.N.N.N.L.P.'.G.j # # r 5.s.s.s.s.s.s.s.6.D D M 1 3 f D u.H.H.H.G.n.G.A.S.] ( ( J m m m 4 4 3 y f d W R < r s d d d d D 5.i.T #.y.z.b.b.b.z.z.j.j.a.y.y.r.8.7.7.3.#.A z 5 , 0 $ , e i a s j A A A A h q j B L P L A A A A L L L L L C C B i C P A S A Y T T T T T T T T T #.#.#.#.#.#.#.#.#.#.#.#.#.#.#.#.#.#.T T T T T T T T T T T T T T T Y P P P P P A A C S N z z j s i B P I I z C e.e.e.t.p.t.t.8.7.;.;.,.8.r.r.r.r.r.r.e.e.e.e.t.t.e.e.e.e.t.e.y.y.e.e.e.e.e.e.t.e.r.r.e.e.8.9.9.8.8.8.8.8.r.e.e.t.t.t.t.0.7.7.7.7.,.7.r.e.t.t.t.t.t.t.t.t.t.t.t.y.y.y.y.y.f.f.j.j.j.j.f.j.t.t.t.t.t.t.t.t.t.t.t.e.e.e.e.e.t.t.t.t.e.e.e.8.9.9.8.e.3.7.e.y.e.e.e.e.t.e.;.P z #.P P P h j C P P Y Y T T T T T T #.#.#.#.#.#.T T #.#.#.#.%.%.%.%.%.%.#.#.#.#.#.#.#.#.#.I h i C P #.T T T T T T T T Y T Y Y Y P B z z A P P P P P L L L L L L A L z u 7 r s a u h z q < e h h 0 # # $ & 0 i z S P #.%.-.2.;.:.4.9.r.r.t.p.a.a.a.%.#.z.b.a.R s d d M f V W W V d y , < < 1 3 3 3 2 m _ [ ' ^ u.b.b.m.b.b.a.A w 6 3 1 * : ~ R.R.A.R.K.K.s.T < # = s K.U.L.P.N.P.L.L.L.L.",
"f.v.N.N.N.N.N.N.U.P.U.b.N = + 6 R d.s.s.i.5.i.u.E M : 3 f M ! R./.m.b.G.E.A.S.] ) ) H m 2 2 4 3 3 y f M ! u.! M d l M M M D 5.J.K.p.Y Y t.z.b.b.z.z.j.j.a.y.y.r.8.7.7.3.I S h - $ % # < e i a a N L A A N q r B A P P P A A A A L L L L I C C C N P A A P Y T P T T T T T T T T #.#.#.#.#.#.#.#.#.#.#.#.#.#.#.#.#.#.#.#.T T T T T T T T Y P Y T T Y Y Y P P P P L A C S N z z j l z P I C z l =.8.8.8.t.t.e.8.7.;.=.;.8.8.9.9.9.9.9.8.8.8.8.9.e.7.7.7.7.8.7.8.8.8.7.7.8.7.7.8.8.8.9.9.8.8.8.8.8.7.8.8.8.8.r.e.t.8.7.7.7.8.8.8.8.,.7.8.e.e.e.e.e.t.t.t.t.t.t.e.e.e.e.e.e.t.t.t.t.t.t.t.t.t.t.e.e.e.e.8.8.e.e.e.e.0.8.8.8.9.8.9.9.8.7.7.;.;.;.,.7.3.7.e.y.e.e.r.9.8.7.#.C z I I P S j z C P P Y T T T T T #.#.#.#.#.#.#.#.T T T T T T #.%.%.%.%.%.#.#.#.#.#.#.#.#.T T L I T T #.#.#.#.#.T #.T T T T T T Y P L S l B A P P P P P L L L L L A L A z r q a i q e s z 7 < r h 6 # # $ & - e z N A T %.-.3.;.:.4.7.9.r.i.p.a.a.;.B k.b.G.z.z.T d d M f M u.u.! ! K y < < < 1 1 3 2 m G _ [ ' ^ A.b.b.b.b.a.a.A < < w 3 3 M ! u.A.K.A.i.V = + = N b./.H.b.M.N.P.L.P.L.L.",
"v.M.N.N.N.N.N.N.P.P.U.U.G.S = # ; r U :.4.2.E E y : 3 f M u._.[.J.b.b.G.A.S.] Q m m n 2 3 3 3 < y f V ! u.F.u.! W V M M E i.K.b.H.b.9.#.C t.b.a.z.z.k.j.a.y.t.8.7.7.3.#.S S e & X O , u u a h z A L A C e u z S L P P P P P P P I I I L L C L L P P L P Y Y Y Y T T T T T T #.#.#.#.#.#.%.%.%.%.#.#.#.#.#.#.%.%.#.#.#.#.#.#.#.#.#.#.T T Y Y T T T T T T T Y Y Y L A A C C S z l l h C I B l s B 7.8.7.8.8.7.7.;.;.%.;.8.9.9.7.4.9.9.4.;.4.4.7.9.4.4.4.4.,.,.,.,.7.7.7.7.7.7.7.3.8.8.8.8.7.7.7.7.7.7.7.7.8.8.8.8.7.7.7.7.7.7.7.7.8.8.8.7.8.7.8.8.8.8.8.8.8.8.8.8.8.8.8.8.8.8.8.8.8.8.0.0.7.8.8.8.8.8.8.8.8.8.8.8.7.7.7.7.7.7.7.7.&.#.#.;.4.4.4.4.7.7.9.9.7.7.7.7.7.;.I j z I P P z j B L T T T T #.#.#.#.#.#.#.%.#.#.#.#.Y #.#.P A Y #.%.%.%.%.%.#.#.-.#.#.#.#.#.#.#.#.#.#.#.#.#.#.#.#.T #.#.T #.#.T T Y #.Y L B z A L P P P P P P L L L L L L L z u e i z l h z h 7 5 h r - & # & & 0 h B A T %.3.-.-.4.4.9.9.r.i.i.p.-.j 9.b.G.b.b.b.z.R l M M W F.!.u.u.! W f 3 3 1 : : 1 2 m F _ ' ' u.s.G.n.G.G.b.G.A w ; w D M D M D 2.A 6 # + , A b./.P.H.L.L.L.P.L.N.M.n.",
"N.N.N.N.P.P.P.P.P.U.U.U.(.b.A = o + - 9 r u 3 : * 3 f D i.`.].`.E.G.G.A.F.] [ m 2 2 4 3 1 < w y d D ! F.D.!.!.F.w.E V D 5.A.H.b.n.n.b.9.A P k.b.z.z.j.j.y.y.e.8.7.q.;.Y A h ; X # , q i s s l N B P A h q j A P P Y P P P P P P I I I I L L I L A A P T Y P P #.T T T T #.#.%.%.%.%.%.%.%.%.%.%.%.%.%.%.%.%.%.%.%.%.%.%.%.%.%.%.%.%.%.%.#.#.%.%.#.#.#.#.#.#.#.T Y P L A A S N z z l B L C z h h #.;.;.7.7.7.;.;.;.%.%.3.7.7.4.4.4.,.;.;.:.;.:.,.4.4.4.3.;.;.;.;.;.;.;.;.;.;.;.=.7.7.7.7.7.7.7.7.,.,.,.,.,.,.,.,.7.7.7.7.7.7.7.7.,.,.,.,.,.,.7.7.7.7.7.7.7.7.7.7.7.7.7.7.7.7.7.7.7.7.7.7.7.7.q.q.7.7.7.7.,.,.7.7.7.7.7.7.7.;.7.7.=.=.7.8.7.7.7.7.3.;.;.;.4.7.7.4.=.P z h C P #.I s l A Y T T #.#.#.#.#.#.#.#.%.%.%.%.-.#.#.%.#.Y P Y #.%.%.%.%.%.#.#.=.=.-.-.#.#.#.#.#.#.#.#.#.#.%.#.#.#.#.#.#.#.T T T T T T Y P N N L P L P Y Y P P P P P P P P I l u e z B z h z i 7 i i 6 % # # & - e z C Y *.-.%.-.3.4.7.9.r.p.i.9.z 3.a.z.G.G.G.b.G.z.2.V W ! !.XX_.!.Z.~ K M M 3 1 : : 1 1 m Q ` ' ^ ^ s.G.G.K.b.b.z.A 6 w f M W f w 6 = + + < T m././.H.M.L.L.L.L.L.L.M.n.",
"P.P.P.P.P.P.P.P.P.P.P.P.U.'.L.N $ O O # + # : 3 1 y D i.].]./.G.G.K.A.S.] [ H m 2 2 1 < < < y M K ~ F.!.XX|.|.!.A.u.! 6.K.K.H.b.b.n.b.z.9.N Y p.z.z.j.j.y.t.e.7.q.3.%.A N q O X , e s h l s l A I A j q h S Y @.T T Y P P Y Y Y P P P P P P P P S A Y T Y P S T #.#.#.#.%.%.-.-.%.%.-.-.%.%.%.%.%.%.-.-.-.-.-.-.-.-.-.-.-.-.-.-.-.-.-.-.-.%.%.-.-.-.-.%.%.#.#.#.#.Y A S L L A C z B z I B z h i C %.%.=.=.=.&.&.%.#.#.#.%.-.-.-.%.%.%.%.#.#.=.-.-.-.-.-.-.-.-.-.-.-.-.-.#.#.#.#.=.=.;.;.;.;.;.;.=.=.=.=.=.=.=.=.=.=.;.;.=.=.=.=.=.=.=.=.=.=.=.=.=.=.;.;.;.;.;.;.=.=.=.=.=.=.=.=.=.=.=.=.I P #.#.=.=.=.=.=.=.=.=.=.=.;.;.;.=.;.;.:.;.4.4.;.;.;.;.=.#.#.#.=.=.=.=.#.C h i C O.P N h S T #.#.#.#.#.%.%.%.%.#.%.-.-.-.-.%.Y Y #.#.#.#.#.%.%.%.%.%.%.#.=.=.=.-.-.-.%.#.Y #.#.#.#.#.#.%.#.#.#.#.#.#.#.#.#.T T T T T Y C l C P A P Y #.Y Y Y Y Y Y Y Y L L h q h z C z z l s i h g 5 $ $ & & 0 h B A #.%.T %.3.7.9.9.r.i.9.S Y a.z.z.G.G.G.b.G.K.J.u.d.}._.+X+XXX!.' ^ Q K M y 1 = : 1 > 2 F [ ' ^ ! s.K.K.b.b.z.z.T r < f D V 1 + o + q %.H./.P.H.m.M.L.L.L.L.L.L.M.n.",
"P.P.P.L.P.P.P.P.P.P.P.P.P.U.U.G.C $ O O # = w M M W i.J.[.U.U.K.K.D.S.] _ ) m 2 2 1 1 < < w M W ^ S.!.XXXX|.|.XX_.R.s.K.b.H.H.b.n.v.b.b.a.-.j Y z.z.j.j.y.y.e.7.3.;.#.S j < X # 8 s l l l s j L A h e h S P Y P T Y Y Y Y Y Y Y P P P Y Y P P P S P Y P P P N L #.%.%.%.%.%.%.%.-.-.-.-.-.%.%.%.-.-.-.-.-.-.;.;.;.;.;.-.;.;.;.;.;.;.;.-.-.-.-.-.-.-.-.-.%.#.#.#.T P S N P P Y P C C z L B z h i j I Y %.#.#.#.#.#.#.Y P P P T #.Y Y T T T T #.#.#.T T T T #.#.#.#.#.#.#.#.P Y P P P P P #.#.#.#.#.#.#.#.#.#.#.#.T #.#.#.#.#.#.#.#.#.#.#.#.O.O.O.O.O.@.@.@.@.@.@.O.#.#.#.#.#.#.#.#.#.#.#.A I P @.#.#.#.#.#.#.#.#.#.#.#.#.#.#.#.#.#.=.#.P #.#.#.#.#.#.#.#.#.#.#.#.@.z h h C P I h B T -.%.#.#.%.%.%.%.-.%.#.%.;.;.-.-.T B j z S P #.#.%.%.%.%.%.%.#.#.-.-.-.-.-.%.L I P #.#.#.#.#.%.#.#.#.#.%.%.%.%.#.#.T T T T #.P z l P A P @.#.Y Y Y Y T T Y Y I L C i u h B B B C z i h z u , $ # # - e N A Y T T %.;.9.9.r.y.9.U P 9.t.k.z.b.b.b.b.b.b.J./.[.oX+X+XXXXX|.~.S.' ~ K M w 1 = = : > m _ ] ' ^ ^ A.K.K.b.a.b.G.3.s u N d + o # w :.P./.U.H.m.m.H.L.L.L.L.L.L.M.M.",
"P.P.P.L.P.P.P.P.P.P.P.P.P.P.U.U./.,.i - u 2.V D w.i.z.b.U.n.G.A.S.] ] ) ) ) m 2 2 1 1 < 3 M ~ Z.D.!.XXXXXXOXOXXX+X}./.P.L.L.H.H.G.n.n.b.b.a.%.j T a.a.y.y.e.e.9.;.-.P B e + X ; q j N B B u j P j e a S Y Y Y Y Y Y Y Y Y Y Y Y Y T T T T T Y P A Y Y L C L Y j #.-.-.-.-.-.%.%.-.-.-.-.-.-.-.-.=.=.=.=.;.;.:.:.;.;.;.;.;.;.;.;.;.;.;.;.:.=.=.=.=.=.=.=.&.#.#.#.#.I N A #.#.#.#.Y A S N A z h u i z P P P P L P A C N z N N N z N B B B B B B B c c c c B B B B B B B c C C C B C C C C C C C B C N A A C C C C C B z z z z B B B B C C C C C A A A A A A A A A A A C C C C C C C C z z B N N N B B B B B B C C S S C B B C C A I I L A I I I I P P P P I I I P L B h h C A z z I #.#.#.#.%.-.-.=.=.=.=.=.=.;.;.;.#.A j i a h z %.%.%.%.%.%.&.&.-.-.-.-.-.-.%.#.T T T Y #.#.-.%.#.=.#.#.#.#.#.#.-.%.#.#.T #.#.#.#.L z L #.T #.T T T T T T T T T Y Y L B i u z A B B l q j z j 7 % $ # # < a A T R %.#.;.9.7.t.r.L A 3.i.a.a.z.b.b.b.G.G.b.b.U.[.oX+XXXOXOXXX|.~.~.' ^ ~ M w 1 1 1 3 m m ) [ ] ' F.D.A.A.b.b.b.n.t.P 6 $ O + 9 :.N.).U.P.G.H.H.M.L.L.L.L.L.L.L.L.",
"P.P.P.L.P.P.P.P.P.P.P.P.P.P.P.P.I.<Xn.#.5.J.s.i.K.K.H.n.M.G./.D.' ` H J } J 2 4 1 1 1 3 M ! F.D._.+X+XXXXXXXOXOXoX[./.P.P.L.G.G.n.n.b.b.z.b.p.Y l -.a.z.j.e.e.7.=.T L l ,   O , u l B C C a h A e g I #.@.@.#.T T T T T T T T T T T T Y Y Y P P P Y Y L B B Y A %.-.-.-.-.-.-.-.;.;.;.;.;.;.;.;.;.;.;.;.;.;.;.;.;.;.;.;.;.;.;.;.;.;.;.;.;.;.;.;.;.;.;.;.=.=.=.&.=.#.P #.&.#.#.#.#.P A B N j a u e a h j j j j j h h a i s a a a s s s s i i i i i i i i i i i i i i s s h h h h a i i a a a i i i h i z z z z z h h h h i i s s s s h h h h h h h h h h h h h h h h h h h h h h h h s i h h h h h h h h h h h h h h s s i a s s h h h h h h h h l l l l z l l l h h h l C z B P #.-.-.=.=.=.;.;.;.;.;.;.;.;.;.;.3.%.L z S S S A %.-.-.-.=.=.=.=.=.=.=.:.-.-.%.#.%.-.%.#.T T -.-.-.-.-.-.-.-.-.-.-.-.%.#.#.#.%.%.-.T A L #.#.#.#.#.#.#.#.#.#.#.#.T Y Y L N i a N B z u 7 l z l i 5 $ & # - q l L T %.#.-.7.9.9.Y B 4.r.r.a.a.z.z.b.b.G.G.b.b.H./.[.+X+XXX|.|.OX|.|.~.' ^ W M w < < 3 n m m G ` [ ' D.A.A.K.b.b.x.N.f.=.c e x 8.N.(.<XP.H.G.H.H.H.L.L.L.L.H.H.H.H.",
"P.P.P.L.P.P.L.L.P.P.P.P.P.P.L.b.H.'./.H.U.[.`.J.J.H.n.n.n.J.!.' H J J [ } m n 4 3 3 3 M ! F.D._.+X+X+X+XOXOXOXOX[.`.J.P.L.L.G.G.n.b.b.z.z.b.z.r.L z 4.z.j.e.8.;.-.I C 7 # . O 8 j B A L I l u h r A #.Y #.#.#.#.#.#.#.#.#.#.#.#.#.T Y P P P T T T T T Y L z S P -.;.;.;.;.;.;.;.;.;.;.;.;.;.;.;.;.;.;.;.;.;.;.;.,.;.,.;.;.;.;.;.;.;.;.;.;.;.;.;.;.;.;.;.;.;.;.=.;.;.=.;.;.;.=.%.%.T P C B z h a u a s s h h h h j j j h z z z z z z z z l z z z z z z z z z z z z z z z C B B z z z z z c c z z A z r z A A A A N B C C z z z z z z z z z z z z z z z z N N z z z N h h l l l l l l l h z z z z z z l l l l l l j j j h h h h h s i s h h h h h s a a s s s i u s h l l z B T =.=.=.;.;.;.;.;.;.;.;.;.;.;.;.4.7.4.;.%.Y P P T #.-.-.-.-.;.;.;.;.;.;.:.;.:.:.-.-.-.;.-.%.A C Y %.-.-.-.-.-.-.-.-.;.-.%.%.#.%.%.-.-.%.#.#.#.#.#.#.#.#.#.#.#.#.#.#.T T Y Y L z s j A C 5 u l l l h e # & # # < i N T #.#.#.9.9.T h %.9.9.p.a.a.a.z.b.b.G.G.b.b.H.P.U.[.+X|.~.OX$XXXXX|.!.Z.^ E M y < < 3 n 2 2 m m n W.!.A.A.G.G.L.N.N.N.M.v.N.^.(.<X/.K.G.E.G.H.G.L.L.L.H.H.n.n.n.",
"P.P.P.L.L.L.P.L.P.P.P.P.P.P.H.z.A G././.H.U.U.J.H.H.N.L.U._.' H G J ) [ m m 4 y 3 3 M ! A._.+X_.+X+XXXXXOX%X%X+X_.H.H.L.M.G.G.G.b.b.z.z.b.z.z.a.r.L B r.j.e.7.;.#.C h , O O O 8 l B L #.T A r 8 a P #.#.#.#.#.#.#.#.#.#.#.#.#.#.#.#.Y P C P #.#.#.#.T T T j e z -.;.;.;.;.;.;.;.;.3.3.3.3.3.3.3.4.;.;.;.4.4.,.,.4.4.4.,.;.;.;.;.;.;.;.;.;.;.;.;.q.q.;.;.;.;.;.;.=.;.;.7.;.;.=.=.;.%.Y L L C N z z z z z z N N N N N N N B N N z c c B B B B B B C C C A A C C C C B B c C C C B A A A A I I A A I A z z z z z N z z C C C C C C C C C C B B B B z z N N N N N N N N r r N N N N z z z z C C B B c B z z z z B B N N C C z z z l l z z z z z z z B B B B B N z j l l l j z T 3.;.;.;.7.7.7.7.7.7.7.7.;.;.;.;.7.7.4.4.4.4.;.-.;.;.;.;.-.;.;.;.;.;.;.;.;.:.:.:.-.-.-.;.-.%.C B Y -.=.;.;.;.=.=.=.=.;.;.-.-.%.%.-.-.=.;.%.=.-.=.#.#.%.%.%.%.%.%.%.#.#.T T Y P Y N j C s 5 a z l l z t - % $ # - 7 s L #.#.#.3.-.j L 4.9.p.p.p.a.a.a.z.b.G.b.b.b.L.P.U._._.|. X|.OXXX=XXXXX!.F.^ W d w < 1 1 > > 2 2 m F W.F.u.d.z.G.v.M.N.P.M.I.;X(.a.r.K.K.E.E.G.G.P.L.L.H.n.n.n.n.",
"L.L.L.L.L.L.L.G.H.P.P.P.P.P.H.b.C b.U.U.U.U.U.U.P.L.n.b.R.S._ ( ) G m 2 n M f 3 f M ! A._._..X+X+X+XXXXXXX+X+X_.U.P.L.L.G.b.b.b.b.z.z.z.z.k.a.y.r.4.h P y.e.7.#.I h 5 # - 8 5 5 h A T #.-.P h w 8 h T %.%.%.-.%.-.-.-.-.#.#.#.%.%.#.Y P A %.%.#.-.%.%.#.Y A P #.;.;.;.;.;.;.;.;.3.3.3.3.3.;.;.;.4.4.4.4.7.7.7.4.4.4.4.4.;.;.;.;.4.4.4.4.4.4.4.7.7.7.7.7.4.;.;.;.;.;.;.;.;.;.;.;.;.;.#.A T P Y #.P Y Y Y Y Y P P P P P P P P P P I I I I L L I P I I P @.P #.#.I P P P P P P T Y P P P P @.Y Y @.#.#.#.#.o.P I I P P I I P P P P P P P P P P P P I I P P Y Y Y Y Y A a a Y Y Y Y Y P P P P P P P I I I I I I P P I I I I A Z Z A A A A A I I I I P P L L P @.P N A S z N #.;.3.;.=.=.7.7.7.7.7.7.7.7.7.7.7.7.7.7.7.7.7.7.4.4.4.4.3.3.;.;.;.3.3.3.,.,.;.;.;.;.;.;.;.;.;.-.-.-.;.;.;.;.;.;.;.;.;.;.;.;.;.-.-.-.-.-.=.=.-.-.=.-.-.#.#.#.%.%.%.%.%.%.%.T T T Y #.Y B e 5 e z N S N N 7 8 i 5 % $ , r N @.;.=.#.j j -.4.9.r.r.y.p.a.a.z.b.b.b.b.G.H.P.P.U.R._.OXOX=XoXoXoXXXXX!.F.^ W D f < : : > 2 m m m ' S.~ ! 6.G.P.L.M.M.P.I.I.P.T 4.[.`.G.G.G.G.P.n.b.n.n.n.n.n.",
"L.L.L.L.L.I.n.j.b.G.P.P.P.P.H.b.H./.H./.U.U.U.U./.P.H.A.Z.' _ ) J m 2 4 f f f f M ~ F._.+X+XoXoXoX+XXXXX!.!._.J.P.P.L.L.b.b.b.b.b.z.z.z.k.p.p.t.r.r.C r =.8.=.Y z 5 $ = q C C s r B #.;.#.A j s w 8 B %.%.%.%.-.-.-.-.%.%.%.%.%.%.T A S T %.T -.-.-.%.#.#.%.3.3.3.3.3.3.3.3.;.3.3.3.4.4.4.P L %.4.4.4.4.7.7.7.7.7.7.7.7.4.4.4.4.9.9.9.9.7.7.7.7.7.7.7.7.7.7.7.4.;.;.;.;.;.;.;.7.;.;.-.P #.#.%.;.%.%.%.%.#.#.#.#.T T T T Y Y Y Y P P P P P T T T #.#.#.#.#.#.#.P T T T T T T #.#.#.#.#.#.#.Y #.#.#.#.#.#.#.#.#.#.#.#.#.#.#.#.#.@.#.#.#.#.#.#.#.#.o.o.#.#.#.#.#.#.#.Y B S #.#.#.#.#.#.#.#.#.#.#.#.O.O.#.#.O.O.O.O.P P P P P P P P P P Y @.#.#.#.#.Y Y Y Y P #.P #.7.-.#.%.3.3.3.3.#.%.7.7.7.7.7.7.7.7.7.7.7.7.7.7.7.7.7.7.4.4.4.4.4.3.3.3.3.3.3.3.,.,.;.;.;.;.;.;.;.;.;.;.;.;.3.3.;.;.;.;.;.;.;.;.;.;.;.;.;.-.-.-.=.=.-.=.-.-.#.#.Y T #.#.%.%.%.%.%.#.T T T #.Y N w u l N B S A h q A P h 7 - = < a B Y @.S u T ;.4.5.9.r.y.y.a.a.z.z.b.b.b.b.n.L.T.U.J._._.+X%XjXjXuXoXoX_.!.F.u.! D u < : : > 2 m m n F F W ~ s.K.L.H.M.T.I.T.N.y.z.z.G.G.G.G.G.L.n.n.G.L.L.L.L.",
"L.L.L.L.L.I.n.j.n.L.P.P.P.L.H.H.H.U.J.K./.U.U.Y.P.P.s.^ Q H ) G m 4 4 3 f y f K ~ F._.+X+X+XoXoXoXoX+X_.!.A.K.U.I.B.P.L.b.b.b.b.z.z.z.z.a.y.t.0.9.9.T 7 i P I h q $ $ e z -.;.%.N j P 3.Y B N A B q u T -.-.-.-.-.-.-.-.-.-.-.-.%.#.P A T #.A #.-.-.-.-.;.3.3.3.3.3.3.3.3.3.3.3.4.4.4.4.4.P I -.,.4.4.4.7.7.7.7.7.7.9.9.7.7.7.7.7.9.9.9.7.7.7.7.7.7.7.7.7.7.7.7.7.7.3.;.;.7.7.7.;.;.;.#.;.;.;.#.i h A S C C A A S S S B B B S S B B C C C C A A C C C C C B B C C C C C C C L A A A A A A A L L I I I I P @.#.#.#.@.P P I I A A A A A A I I I I I I I I I I I I I A S P P P P A I A A A A A I I I I I I I I I I Z Z Z Z S Z Z Z Z Z A A I I I I L L A A C A h l ;.;.;.;.4.;.;.7.&.=.7.7.7.7.7.7.7.7.8.8.7.9.7.9.7.8.7.7.4.4.4.4.7.4.3.3.3.q.q.q.,.,.,.,.;.;.;.;.3.3.3.3.3.4.4.4.4.,.;.;.;.;.;.;.;.;.;.;.;.-.-.-.=.=.-.=.-.-.#.T Y T #.#.%.%.%.%.%.%.T T #.Y A h a N B B C C C s A 4.=.Y j 7 , ; 8 a z C u h %.-.3.4.9.9.r.r.y.p.k.z.z.b.b.b.b.G.T.P.U.J._..XoXjXjXjXuXdXoX.X!.F.Z.~ V f 8 : : > 2 m m m n F K ! s.H.H.G.n.P.P.M.l.z.z.x.G.G.G.H.M.b.b.L.L.L.L.L.",
"L.L.L.L.L.L.G.G.L.P.P.P.P.P.H.H.b.b.J.G.U.U.Y.Y.n.s.~ K m m G G m 4 3 < < f W ^ F._.+X+X+X+XoXoX%XoX+X}.}.H.P.I.I.T.P.L.b.b.z.b.z.z.z.z.p.t.t.9.7.;.#.l $ i z 7 $ - 7 z T ;.;.4.;.A U P C S L #.%.B 8 j -.-.-.-.-.-.-.-.-.-.-.-.-.%.%.#.%.;.Y ;.;.-.%.%.4.4.7.4.4.4.4.4.4.4.4.4.4.4.4.4.4.;.;.4.4.7.7.7.7.7.7.7.7.9.9.9.9.9.9.7.9.9.9.9.9.7.7.7.7.8.8.8.9.7.7.7.7.7.7.7.7.7.7.4.;.4.4.;.9.7.-.P h A A P T #.%.%.#.#.#.#.#.#.%.%.#.#.-.-.#.#.-.;.#.#.T P I L P #.=.=.#.#.#.#.=.-.&.&.&.&.#.#.#.#.#.#.#.#.#.&.=.;.=.=.&.#.&.&.&.&.=.=.=.=.=.%.&.&.#.#.=.=.&.&.=.=.=.#.#.&.&.&.&.&.#.#.#.#.#.#.#.#.#.#.#.#.=.#.=.=.@.@.@.@.$.$.$.$.@.@.@.#.#.#.#.#.#.#.T T Y #.I z T ;.,.,.,.,.4.7.7.q.8.8.8.8.7.7.8.8.8.8.8.8.8.7.8.8.7.7.4.4.4.7.7.7.4.4.q.7.q.q.q.,.,.,.7.7.4.;.3.3.3.3.;.3.4.4.4.;.;.;.;.;.;.;.;.;.;.;.;.-.-.;.=.=.-.=.-.=.T Y T #.%.%.%.%.%.%.%.%.#.T T L l u B L A C C C l B ;.r.,.#.I x r 6 ; w u h = r Y %.3.3.9.9.r.r.y.y.k.k.z.z.b.b.b.n.L.P.I.U.`.`.[.oXuXuXjXdXdXoX.X!.F.Z.! V u < = : 1 4 n m m n F ~ u.s.K.H.n.P.P.M.l.b.n.G.G.G.H.M.b.b.n.L.n.n.n.n.",
"L.n.G.H.L.L.L.L.L.L.L.P.P.P.H.H.H.H.H.H.U.U.Y.Y.K.! K m m J J J n 3 3 3 f W ^ A.D._.+XoXoX%X%XoX%XoX_./.J.).).P.P.L.P.n.b.b.b.b.z.z.z.k.e.0.9.8.3.P N u X - 7 , , q z P -.4.9.7.9.&.@.B S A @.#.#.-.l q B T :.%.-.-.-.-.-.-.-.-.-.-.-.-.-.3.3.3.;.-.-.-.4.4.4.4.4.4.,.,.4.4.4.4.7.7.7.7.7.7.9.9.7.7.7.7.9.9.9.9.8.8.8.8.9.9.9.9.8.8.8.8.9.8.4.9.9.9.9.9.8.8.8.7.8.8.8.8.7.7.7.7.7.7.8.8.8.7.#.N A =.;.;.7.7.7.7.7.4.4.4.7.7.7.7.7.7.8.8.8.8.8.8.7.-.P C N z L ;.7.7.7.7.7.7.8.7.7.7.7.7.,.,.,.,.3.3.;.;.;.;.7.7.;.,.,.7.7.7.7.7.7.7.8.8.8.8.8.8.8.8.8.8.8.8.8.8.8.8.8.8.8.8.8.8.8.8.8.8.7.,.;.;.;.,.,.,.7.7.7.7.7.7.,.,.,.,.,.,.7.,.;.;.,.,.,.,.7.7.7.7.9.7.;.=.N =.7.7.7.7.7.7.7.7.7.7.9.8.7.7.7.8.8.8.8.8.8.8.8.8.8.7.7.7.7.7.7.7.7.7.7.7.7.7.7.7.7.7.7.7.7.7.4.4.;.;.;.;.;.;.4.3.3.3.3.3.3.3.3.;.;.;.;.;.;.;.;.;.;.-.-.%.%.-.-.-.-.-.-.%.%.%.%.%.#.#.L s r l T T Y L S j u P 7.9.4.;.#.A k t , , e - . ; B @.%.3.4.9.9.r.t.i.p.k.z.z.b.b.n.G.n.P.P.I././.`.].uXdXdXvXdXoX+X_.D.' ^ ! W u < = * 1 4 4 2 2 n F ~ u.A.G.n.M.M.M.v.n.n.G.n.n.n.n.n.n.n.n.n.n.n.n.",
"n.b.b.b.H.H.M.M.L.L.L.H.P.P.H.H.H.P.H.H.U.U.U.E.w.F Q  .) m J m 4 3 3 f W ^ F.D._.+X+XoX%X%XvXoXoX_././.I.P.P.N.L.b.n.n.n.b.z.b.z.z.k.p.0.9.8.3.Y j 8 # . X , 5 e z P =.;.7.9.q.3.%.A N P Y #.#.-.4.T s s L %.;.-.;.;.;.;.;.;.;.3.-.-.-.-.3.3.3.3.%.-.4.4.4.4.4.7.7.7.7.7.7.7.7.7.7.9.7.9.9.9.9.8.8.8.8.8.8.8.8.8.9.8.8.8.8.8.8.8.8.8.8.;.#.#.7.0.0.9.9.9.8.8.8.8.8.8.8.8.8.8.r.8.8.8.8.8.4.#.A #.7.7.8.8.8.8.8.7.7.7.7.7.7.7.7.7.7.8.8.8.8.8.8.9.-.A z z S #.9.8.8.8.8.8.8.e.9.8.8.8.8.8.8.8.8.e.e.e.e.8.8.8.8.7.,.8.t.8.8.e.e.e.e.e.e.e.e.e.e.e.e.e.e.t.t.t.t.e.e.e.e.e.e.e.e.e.e.e.e.e.8.8.8.8.8.8.8.8.8.e.8.8.8.8.8.8.8.8.8.8.8.7.7.7.7.7.7.9.9.9.9.t.e.8.7.#.#.7.8.8.8.8.9.8.8.8.9.8.8.7.7.7.8.8.8.8.8.8.8.9.7.8.8.8.8.8.8.8.8.8.8.9.9.9.9.7.7.7.7.7.7.7.7.7.4.4.,.,.,.,.,.4.3.3.3.3.3.3.3.3.3.3.3.;.;.;.3.3.3.;.;.-.-.:.-.;.;.;.;.;.-.-.%.%.-.-.%.L 8 w L T T T #.L j u B 3.9.9.4.=.#.A k i 5 ; X . $ a S #.-.3.4.9.9.r.t.p.a.k.z.b.b.b.b.n.L.P.P.I././.`..XuXdXdXdX=XoX+X_.S.Z.^ ! W u , = = 1 4 4 2 2 n F ! i.a.b.v.v.n.n.n.n.n.n.n.n.n.n.n.n.n.n.n.n.n.",
"b.z.z.m.M.H.L.G.L.H.H.H.H.H.P.P.P.P.P.P.U.U.b.6.F n [ #X( m m 4 3 3 f W ^ F.A.D.+X+X%X%X%X%XoXoX/././.(.U.I.L.L.n.k.b.n.n.b.z.b.z.z.k.y.9.9.4.#.S u = . . O , i B #.;.;.4.7.7.;.T L S A #.#.#.%.:.T L P B l P ;.3.3.3.3.3.3.3.3.3.3.3.-.3.3.3.3.;.;.;.4.4.4.7.7.7.7.9.7.7.7.7.7.9.9.9.9.9.9.9.9.8.8.8.8.8.8.8.8.r.r.r.r.r.r.8.8.8.8.8.8.#.A A ;.0.0.0.0.e.8.8.8.8.8.8.8.8.8.8.8.e.e.e.e.e.;.P #.9.t.9.t.t.t.t.t.8.8.8.8.8.7.9.7.7.7.8.8.8.8.8.8.7.&.A z A #.4.r.r.r.e.e.e.e.t.e.e.e.e.e.e.e.t.t.y.y.y.y.e.e.e.e.,.P ;.t.t.t.t.t.t.t.y.y.t.t.t.t.t.t.t.t.t.t.t.t.y.y.y.y.t.t.t.t.t.t.t.t.t.t.e.e.e.e.e.e.t.t.t.e.e.8.8.8.8.8.8.8.e.e.8.8.8.8.8.8.8.8.8.8.8.8.8.8.7.=.7.e.r.r.e.e.r.r.0.e.e.e.9.8.8.r.r.r.r.r.e.e.0.9.9.8.8.8.8.8.8.8.8.8.9.9.9.9.7.7.7.7.7.7.7.7.9.9.7.4.4.4.4.4.4.4.4.4.4.4.4.4.4.3.3.3.3.3.3.q.q.q.3.3.;.;.;.;.;.;.;.;.;.;.;.=.-.:.3.R V y u V T #.#.T #.P j u C -.9.9.;.=.#.A B r - . . O 6 j L #.-.3.4.9.9.r.i.p.k.z.z.z.b.b.b.n.P.P.I.U./.`.[..XuXdX%X%X+XXXXX!.F.u.^ ! V q , $ * 1 4 4 n n M ~ 6.9.z.z.z.b.b.n.n.n.n.n.n.n.n.n.n.n.n.n.n.n.",
"b.z.b.b.H.H.H.H.G.H.H.H.H.H.H.H.P.L.P.P.H.K.u.K F H } } ) m 4 1 3 f W ^ F.F.A.}.+X%X%X%XoXoXoX[.U.U.(.(.U.P.P.L.b.p.z.n.n.b.z.b.z.k.p.r.9.3.#.A h 8 # . O , h I #.4.7.9.7.7.4.;.z B Y %.-.-.-.%.%.B l -.:.B l #.3.3.3.3.3.3.4.4.3.3.3.3.3.3.4.3.3.7.4.3.4.4.7.4.9.9.9.9.9.9.9.9.9.9.9.9.9.9.9.9.8.8.e.r.r.8.r.r.e.r.r.r.r.r.9.8.8.8.8.8.;.#.#.r.t.0.0.0.e.e.e.8.8.8.8.8.r.r.8.8.e.e.t.t.r.=.#.8.t.y.8.t.e.e.e.e.e.e.e.e.8.8.8.7.7.7.8.r.8.8.8.8.7.=.P A P ;.8.t.t.t.t.t.t.t.y.y.t.t.t.t.t.t.t.t.y.y.y.y.y.y.e.e.;.@.8.8.y.y.f.f.a.a.f.a.y.y.y.y.t.t.t.t.f.f.t.t.y.y.y.y.y.y.y.y.t.t.t.y.y.t.t.t.t.y.y.y.t.t.t.t.t.t.t.t.t.t.t.t.t.e.e.e.e.e.e.e.r.8.8.8.r.r.e.e.e.8.4.r.r.8.8.8.e.e.0.e.e.e.9.8.8.r.r.r.r.r.r.r.0.e.e.8.8.8.8.9.8.8.8.8.8.9.8.8.9.9.9.8.7.7.7.7.9.9.7.7.9.9.9.9.7.7.7.7.4.7.4.4.4.3.3.3.3.3.3.q.q.q.3.;.3.3.;.;.3.3.;.;.;.;.;.;.-.:.2.U V U A u l Y ;.%.%.T C h e C 4.9.7.;.=.#.P z 6 $ & # 0 h N Y %.-.3.4.9.9.r.p.a.k.z.z.z.z.b.G.L.P.P.P.U./.R._.[.oXoXoX+XXXXX_.!.F.u.! E V 9 % + : 1 3 n n n F ~ w.i.z.z.b.b.n.n.G.n.n.n.n.n.n.n.n.n.n.n.n.",
"b.b.n.n.n.M.H.b.H.H.H.H.H.H.H.H.E.G.G.G.K.u.K F m J [  .H 4 1 1 f W ^ F.F.A.!.XX=X%X%XOX=XoX[./.;X^.(.(.U.P.J.H.G.b.b.b.b.b.b.x.z.a.r.4.-.#.L s 7 # X + q z I =.;.7.9.9.8.;.-.l j L -.-.-.%.2.R B a T ;.-.-.L l T 4.2.3.4.4.4.4.3.3.3.3.3.4.4.4.4.7.7.;.3.9.r.4.8.8.8.8.8.8.8.9.8.9.9.9.9.9.r.r.e.e.e.e.r.8.r.r.r.e.t.r.e.r.r.r.e.e.e.e.8.7.8.t.t.t.0.t.t.e.t.e.e.e.e.e.e.e.e.e.e.e.f.f.7.A ;.e.y.y.t.e.t.y.y.e.e.e.e.t.e.e.e.e.t.t.t.t.e.e.8.8.;.,.7.7.7.8.e.e.y.y.t.y.y.y.y.y.t.t.t.t.f.f.f.f.y.y.y.y.y.y.y.y.y.y.y.y.y.y.y.y.f.f.f.j.f.f.f.y.f.f.f.f.y.t.8.7.f.t.t.f.f.f.f.f.y.y.y.y.y.y.f.f.y.y.y.y.t.t.t.t.t.t.t.t.t.t.t.t.e.e.e.e.e.e.e.e.e.e.e.e.e.e.e.e.t.8.7.3.9.8.8.8.e.e.e.e.e.r.r.e.e.e.e.r.e.e.e.e.e.e.e.0.8.8.0.t.e.e.8.8.7.7.8.8.8.8.8.8.8.8.8.9.9.9.9.9.9.9.9.7.9.9.9.7.4.7.7.7.4.3.3.3.3.4.4.7.7.q.3.3.3.3.3.;.3.3.;.;.;.;.;.;.3.4.U V V E R z 5 h %.-.#.#.T A u e C 3.8.8.7.&.#.A h 7 ; O $ r l C Y #.3.3.4.5.r.p.p.a.a.z.b.b.b.b.G.L.P.P.P.U.U.`.`.`.oX%X=XoX+XXX_.!.F.Z.! E V e , = : 3 3 n 4 M ~ ~ ! r.z.n.b.b.n.n.n.n.n.n.n.n.n.n.m.m.b.v.",
"b.b.n.n.n.b.b.b.H.G.G.G.G.G.G.G.G.J.U.J.i.K K Q m J ` _ m 2 1 f W ! Z.F.F.D._.=XvX%X%XXXoX[.`.(.^.Q.I.I.P.H.G.G.G.b.b.b.b.b.x.z.z.y.;.T L z h q = O # 7 z #.4.r.7.9.9.7.;.;.s e Y -.3.-.-.-.3.l u B ;.;.4.5.2.L N R 4.4.4.4.4.4.3.3.3.3.4.4.4.4.7.7.7.3.;.;.4.r.r.8.8.8.8.8.8.8.8.8.8.9.9.9.r.r.e.e.t.e.e.r.e.e.e.e.t.t.e.e.e.e.t.e.e.e.t.8.0.y.p.t.t.t.y.t.t.t.t.t.t.t.t.t.t.t.t.e.f.t.#.#.r.t.y.y.y.t.e.y.y.t.y.y.y.y.t.t.y.y.t.t.y.y.t.t.e.8.q.7.e.y.e.e.t.y.y.y.y.y.y.f.j.j.j.8.8.e.f.f.f.f.y.y.y.y.f.y.a.a.f.f.f.f.f.f.f.f.f.j.k.k.k.f.j.f.f.f.f.j.j.f.y.t.j.y.y.k.f.f.f.f.f.f.f.f.f.f.f.f.f.f.f.f.f.y.y.y.y.f.f.t.t.t.t.t.t.t.t.t.t.t.t.t.e.e.e.e.e.e.e.e.t.e.7.3.9.t.e.e.e.e.e.e.e.e.e.e.e.e.e.t.e.e.e.e.t.t.t.t.8.8.0.0.e.e.r.8.8.7.e.8.9.8.8.r.r.8.8.8.9.9.9.9.9.9.9.7.9.9.9.7.4.7.7.7.4.4.4.3.4.4.7.7.7.7.4.3.4.3.4.4.3.3.;.;.;.;.;.3.3.U V A R -.4.-.N q i T -.-.%.P C r 7 S 7.8.8.7.;.Y A z e $ O 8 s z L Y -.3.4.4.9.r.p.p.i.a.a.b.b.b.G.G.P.P.P.P.U.U././.`..XoXoX%XoX+X!.!.F.Z.! E D u < : : 3 4 n n F ~ ~ w.r.y.z.b.b.v.b.b.b.b.b.v.b.b.m.m.v.v.",
"m.n.n.M.n.z.z.b.G.G.G.G.H.L.L.G.G.U.U.s.D F Q F m m H m 2 3 M ! u.F.F.A.F._.+XvX%X%X=X_.[.`./.^.^.I.I.P.H.K.G.G.G.G.b.b.b.x.k.k.k.t.-.B h u 7 , , , 9 z T 4.9.r.9.9.4.4.-.i 8 B ;.3.;.4.4.3.N s L 3.4.3.7.9.9.4.A V R 5.4.4.4.4.4.4.4.4.4.4.3.4.9.7.7.7.7.3.4.4.8.r.r.r.r.r.r.r.r.8.8.8.9.r.t.t.e.e.e.t.e.e.e.e.y.y.e.e.y.y.y.y.y.y.t.y.y.t.t.y.t.&.7.t.y.y.t.t.t.t.t.t.t.t.t.t.y.y.y.7.I ,.a.k.j.p.y.t.9.y.j.y.f.y.p.p.y.y.y.y.y.y.f.f.y.y.t.e.7.8.8.t.8.7.8.t.y.y.j.j.j.j.j.j.z.t.8.t.f.f.f.f.f.f.y.y.f.y.f.f.f.f.k.k.k.k.k.j.j.j.k.k.k.k.k.j.j.j.k.k.k.k.k.k.k.f.f.k.k.k.k.k.j.j.j.j.j.j.j.j.k.j.j.j.f.f.f.f.f.f.f.f.f.y.y.y.y.y.y.y.y.y.y.y.t.t.t.t.t.t.t.t.y.t.7.;.8.t.t.t.t.t.t.t.t.t.t.t.t.t.t.t.t.e.e.e.t.8.,.;.7.0.0.t.t.t.e.r.;.7.e.7.9.8.8.e.r.e.r.8.8.8.8.8.8.8.8.8.9.9.9.7.7.7.7.7.7.4.4.4.4.7.7.9.7.7.4.4.4.4.4.4.3.3.;.;.;.;.;.2.U l L -.9.r.9.r.4.L e i L ;.-.T P B r q A ;.9.;.4.-.#.#.B q - 5 q h B L R 2.4.4.5.r.r.r.9.r.a.z.b.b.G.G.L.P.P.P.I.I.U.U.J.[.eXhXoX.XXX!.!.!.F.Z.^ E D f < : : 1 M M 4 M ~ ! 5.r.a.z.z.k.b.b.b.b.b.v.b.b.b.b.b.b.",
"n.n.M.M.b.j.j.b.G.G.n.n.H.L.L.L.G.J.K.E 3 F n m m n n 2 3 M ! Z.A.A.A.D.D._.XX%X%X%XoX[.`.(.(.-XI.I.I.P.H.G.G.G.G.G.b.b.z.k.k.k.p.t.3.z q 5 = < e e j #.:.r.9.r.9.4.4.;.h 8 l #.-.%.-.5.-.N h P 9.r.r.9.7.4.r.r.4.V A -.4.4.2.4.4.4.4.4.5.4.-.9.t.7.7.9.9.9.9.9.8.r.r.r.r.r.r.r.e.r.r.8.r.r.t.t.e.t.t.y.y.t.t.t.y.y.y.y.y.y.y.y.y.y.y.y.j.f.y.y.7.C Y 0.y.y.y.y.y.y.y.y.y.y.y.y.f.f.y.;.P r.y.k.j.y.y.y.8.y.j.j.j.j.j.j.p.p.p.p.a.a.j.j.j.f.y.y.j.f.y.t.e.8.e.a.a.a.j.j.j.j.j.j.j.j.k.k.k.j.f.f.f.y.y.y.f.f.f.y.f.f.j.k.k.k.f.y.f.f.j.j.k.k.k.k.k.k.k.k.k.k.k.k.k.j.k.k.k.k.k.k.k.k.k.k.k.k.k.k.k.k.k.k.k.k.k.k.k.k.k.j.f.f.f.f.j.f.f.f.f.f.f.a.y.y.y.y.f.f.f.f.y.y.9.%.7.t.y.t.y.y.y.t.t.y.y.y.y.t.y.y.t.e.e.e.e.;.P C #.8.t.t.y.t.e.r.P =.8.9.9.8.r.e.e.e.r.r.r.r.r.r.r.8.8.8.9.r.9.9.9.9.9.9.7.9.9.7.7.7.9.9.7.7.4.4.4.4.4.4.3.3.3.3.:.2.2.R M L 3.9.r.e.r.r.9.4.T u i Y ;.#.#.P C r 8 C 4.4.4.3.3.3.T A s 5 5 i l B U -.3.4.4.5.9.9.4.9.p.a.b.b.b.G.G.P.L.P.I.I.I.I.U.'.rXlX].D.!.!.!.!.D.F.Z.~ W M f < : = 1 1 3 4 3 K ! 2.r.y.j.j.z.x.z.z.l.l.l.l.b.b.b.b.",
"G.G.L.L.x.n.G.H.G.n.m.n.n.n.v.n.G.K.! M M n 2 n n n 3 3 D ! F.A.D.R.R._._._.OXXX+X+X[.`.`.(.;X-XY.P.G.b.G.G.n.b.b.b.b.z.z.k.j.p.t.t.;.z q 8 5 5 e z -.r.8.8.8.r.9.;.-.h 7 C -.;.;.4.4.R l j I 7.y.z.s.s.4.4.r.t.p.4.V L 2.5.2.2.6.6.4.5.4.4.9.r.t.t.t.t.r.r.r.r.9.9.r.r.r.r.r.r.e.e.r.r.t.t.t.t.t.t.y.y.y.y.t.t.t.y.y.y.y.y.p.y.y.y.j.j.y.a.y.y.8.=.;.t.f.f.f.f.f.f.f.f.j.f.f.f.j.j.y.I :.t.k.k.j.j.y.y.j.f.j.j.j.f.f.f.f.f.j.j.j.j.k.k.k.k.f.k.j.j.j.f.f.f.y.f.f.f.f.f.k.j.k.k.j.k.l.k.k.j.f.f.f.f.f.f.f.f.j.j.j.j.k.k.k.j.y.t.y.y.f.k.k.k.c.c.k.k.k.k.k.k.k.k.g.g.g.k.k.k.g.g.k.k.k.k.k.k.j.j.k.k.k.k.k.k.k.k.k.k.k.k.j.j.j.j.j.j.f.f.f.f.f.f.f.f.f.f.f.f.j.j.f.j.t.&.0.t.y.t.y.y.t.t.t.t.t.t.t.t.t.t.t.t.e.e.0.0.7.;.7.0.f.t.p.t.t.t.8.7.9.9.9.r.t.t.t.t.t.t.t.e.e.e.t.e.r.r.r.r.r.9.9.9.9.9.8.9.9.9.9.9.9.9.9.9.5.4.4.4.7.7.4.4.3.3.2.2.R V A 3.r.e.e.a.y.r.r.r.9.%.i s #.=.-.#.T A q 7 S 4.4.4.4.3.;.%.I z 8 7 a l L T ;.4.4.3.-.-.4.9.p.a.z.b.b.G.G.L.L.P.I.I.I.I.(.(.'.]..XD.!.|.!.!.D.D.D.Z.^ W M d q = + @ * 3 3 3 M ! 4.t.y.e.z.z.z.z.k.v.v.l.b.b.b.b.",
"G.G.L.L.L.L.G.H.b.b.m.m.m.n.M.G.s.E M n 2 > 2 4 1 1 < M 2.s.A.A.A.K.R._._.!.!.XX+X_.`./.(.(.(.Y.Y.P.n.b.n.G.G.b.b.b.b.z.z.j.t.t.9.9.;.B 8 < 8 a P ,.r.r.r.8.8.8.4.4.l q B ;.4.4.5.9.T d l L ,.t.p.G.u.w.5.9.8.r.p.a.2.V U R 4.4.5.9.5.5.5.5.r.r.t.t.t.y.y.r.r.r.r.r.r.r.9.r.r.t.e.e.t.t.t.t.t.t.y.y.y.y.y.y.y.t.t.t.y.y.y.y.y.y.y.y.y.y.y.y.y.y.e.8.e.y.y.f.j.j.f.f.f.j.f.f.f.f.j.j.e.A e.j.k.f.j.j.a.y.j.k.j.k.k.k.k.k.j.j.j.j.k.k.k.k.k.k.k.k.j.j.j.j.f.f.f.f.f.f.k.k.j.j.j.k.k.k.k.k.k.j.j.j.k.k.k.k.k.k.k.k.k.k.k.k.k.j.a.t.y.j.k.k.k.k.c.c.k.k.k.k.k.k.k.k.g.g.g.k.k.k.g.g.k.k.k.k.k.k.j.j.k.k.k.k.k.k.k.k.k.k.k.k.j.j.j.f.j.j.f.j.f.f.f.f.f.f.f.f.f.f.f.f.y.j.f.7.t.y.y.t.t.t.t.t.t.t.t.t.t.t.t.t.t.t.e.t.t.t.e.t.y.t.t.f.j.p.p.t.t.y.p.p.p.p.p.p.p.y.y.t.t.t.t.e.e.e.r.r.r.r.r.9.9.9.9.9.9.8.8.9.9.9.9.9.9.9.9.5.4.4.7.7.4.4.4.3.4.R V D 4.a.e.t.t.4.r.d.i.i.i.9.%.s r T =.;.-.#.A e 8 L 4.r.9.4.4.;.-.#.B u u a z L T :.3.3.3.4.9.r.p.a.z.b.b.G.n.n.L.P.I.I.I.I.Y.Y.Y.`..X_.!.!.!.!.!.D.D.D.F.! W j u 7 = o @ * 1 3 4 M R 9.p.y.j.z.k.j.k.k.v.l.b.b.b.b.",
"G.G.L.L.L.G.b.b.b.b.b.b.b.b.z.i.W M f 1 * 3 1 : = < j ! d.A.A.A.A.K._._._.D.!.oX[././.).(.(.^.U.U.P.n.z.n.n.b.b.b.b.z.z.a.y.t.9.7.3.T s q s B %.7.e.8.9.y.r.8.7.4.C 7 B 4.4.4.9.r.Y s s Y 7.t.t.b.R.K 3 E i.r.9.t.z.a.R V U 2.5.9.9.r.r.9.r.r.r.y.y.p.p.p.y.r.r.t.t.r.r.r.t.t.t.e.e.e.e.e.r.r.r.e.t.y.y.y.t.t.t.y.y.y.y.t.t.t.t.e.e.e.e.t.t.t.t.7.7.8.8.t.y.j.j.j.f.f.f.f.j.j.f.j.z.j.;.y.k.k.f.j.j.y.y.j.j.j.k.k.k.k.k.k.k.k.k.k.k.k.k.k.k.k.k.k.k.k.j.j.j.j.j.k.k.k.k.j.j.k.j.k.k.j.j.f.j.j.k.k.l.l.l.k.k.k.k.k.k.k.k.k.k.k.j.j.k.z.l.k.k.k.k.k.k.k.k.k.k.k.k.g.g.k.k.c.c.c.g.c.c.k.k.k.k.j.j.k.k.k.k.k.k.k.k.k.k.k.k.j.f.f.f.j.k.j.j.j.j.j.j.f.f.f.f.y.y.y.y.j.j.j.y.t.y.y.y.t.t.t.t.t.t.t.t.y.y.y.y.t.t.t.t.y.y.y.y.y.8.7.0.0.0.9.9.e.t.t.t.9.0.0.0.0.0.0.0.e.e.e.e.e.r.r.r.r.r.r.9.9.9.9.9.9.7.7.9.9.9.9.9.9.9.9.9.4.4.4.4.4.5.5.4.w.V V 4.p.j.y.r.U M D ! i.i.0.p.t.%.i u I -.-.%.#.A e w L 9.r.3.4.4.;.;.;.L s u s l B T %.%.-.4.9.t.i.p.k.z.b.b.b.b.b.G.P.P.I.P.Y.Y.Y.U.`..XXX!.|.!._.!.D.D.D.F.! W d u q = + @ * 1 3 3 f ! i.p.t.f.g.f.g.g.k.l.b.b.b.b.",
"G.G.G.L.n.b.z.k.b.x.x.x.G.s.6.D M 3 1 * * < = = < s 2.A.A.A.A.A.A.K._._.D._.oX[.`./.^.^.^.^.).I.P.L.b.z.n.n.b.b.z.z.z.a.p.t.r.9.4.-.A q u B T -.e.e.e.y.y.r.9.4.P q N ;.4.4.r.9.Y d j -.r.a.a.y.d.~ 4 2 M ! i.9.9.i.b.p.U A T 5.9.9.r.r.r.r.r.r.p.p.p.p.a.p.r.r.t.t.t.t.r.r.y.t.e.y.y.t.r.r.r.r.e.e.y.y.y.t.t.t.y.y.y.y.t.e.e.e.e.e.e.e.e.e.e.e.7.7.7.e.e.y.j.k.j.f.f.f.f.f.j.j.z.k.a.y.y.j.g.f.j.j.f.f.j.j.k.k.k.k.k.k.k.k.k.k.k.k.k.k.k.k.k.k.k.k.k.k.k.k.k.k.k.k.k.k.k.k.k.k.k.k.f.f.f.j.k.k.k.k.k.k.k.k.k.k.k.k.k.k.k.k.l.l.l.l.l.l.k.k.k.k.k.k.k.k.z.z.k.k.k.g.k.k.c.c.h.h.c.c.k.k.k.k.j.j.k.k.k.k.k.k.k.k.k.k.k.k.k.j.f.f.j.k.j.j.j.j.j.j.f.f.f.f.y.t.t.t.f.j.j.j.y.y.y.y.t.t.t.y.t.t.t.t.y.y.y.y.t.t.y.y.y.y.y.y.y.t.t.t.t.t.t.t.t.y.y.t.t.t.t.t.t.t.t.t.e.e.e.e.r.r.r.r.t.t.t.r.r.r.9.9.9.4.7.9.9.9.9.9.r.r.9.4.4.4.4.4.4.5.5.5.A V 2.i.z.y.a.E 3 4 n n ~ i.p.0.i.t.#.r u S T T -.T B e 7 C 9.9.9.9.4.;.;.;.P s u a l V P Y %.3.r.t.i.p.a.z.z.b.b.b.b.b.L.P.P.P.Y.Y.Y.Y.J.].+X!.|.!._._.D.!.!.!.F.u.V f d w < # + * 1 3 3 M E 9.e.t.f.f.f.f.g.k.b.b.b.b.",
"P.P.G.n.n.n.x.x.x.x.G.H.s.w.M f n 1 * * < , = < N 6.A.R.D.R.R.K.R._._._._._.`./.(.^.^.^.^.).P.H.G.n.x.z.n.b.b.b.b.z.k.p.r.r.4.:.%.A a u j B T 4.e.e.y.a.r.9.7.P e B 3.4.9.a.9.T d N ;.9.k.z.b.u.K K m 2 2 3 ! i.i.0.p.z.a.%.N Y 9.9.i.9.p.y.y.y.p.p.p.p.y.r.r.r.r.r.y.y.t.r.p.t.y.y.y.y.y.y.y.y.y.y.y.y.y.y.y.y.y.y.y.y.y.y.y.y.y.y.f.f.f.f.y.y.y.y.y.y.j.j.j.j.f.t.e.y.t.t.t.y.y.j.j.j.j.j.j.j.k.k.k.k.k.k.k.k.k.k.l.l.l.l.k.z.k.k.k.k.k.k.k.k.c.c.l.l.k.k.j.j.k.k.k.k.k.k.k.l.k.k.k.k.k.k.l.l.l.l.l.l.k.k.k.k.l.l.l.l.l.l.l.l.l.l.l.l.l.l.l.l.l.l.l.l.l.l.l.l.l.l.l.l.l.l.l.l.l.l.l.l.k.k.k.k.k.k.k.k.k.k.k.k.k.k.k.k.k.k.k.k.k.k.k.k.j.j.j.j.j.j.j.f.f.f.f.f.f.f.f.f.f.f.j.y.y.j.y.y.y.y.t.t.y.y.t.t.t.t.y.y.t.t.f.f.y.y.y.y.y.y.y.y.y.y.y.y.y.y.y.t.t.y.y.y.y.y.t.t.y.y.y.y.t.t.t.t.t.t.r.9.7.7.9.9.r.9.9.9.t.t.r.4.4.4.4.r.r.5.9.U V 4.p.j.k.y.E M 2 m F n M E w.i.j.k.a.3.z s A Y :.-.%.S q 8 A r.r.9.y.9.7.4.;.P s w u A L U T -.4.r.p.p.p.a.z.b.b.b.b.G.H.P.I.I.I.I.P.U.U._.+XXX!.!._._.D.D._.!.!.A.u.W d r w , + + * 1 3 f f W 4.8.8.e.t.y.f.k.k.z.z.z.",
"P.P.G.b.b.b.x.x.x.z.p.i.W M 4 n 3 * * : < < q N i.R.R.D.D.D.D.R.R.}.}._._.`./.(.(.^.^.^.^.).P.H.G.n.b.z.n.b.b.x.z.k.p.t.9.4.:.T B a a l A #.4.r.t.y.y.y.9.9.I r z 3.r.r.r.r.-.a l 2.k.z.b.b.u.K Q | H m 2 2 3 ! p.i.p.G.z.a.R A %.i.i.i.p.y.y.y.p.p.p.y.y.r.y.r.y.y.p.p.p.r.t.t.y.y.y.y.y.y.y.y.j.j.j.j.j.j.j.j.a.p.y.y.y.y.y.y.y.y.j.j.f.f.f.f.y.y.j.j.j.j.j.f.t.8.r.e.t.t.t.e.e.j.y.j.j.j.k.k.k.k.k.k.k.k.k.k.l.l.l.l.l.l.l.l.l.l.l.l.l.l.k.k.l.l.l.l.v.f.,.8.l.l.l.l.v.v.v.v.l.l.l.l.v.v.v.v.v.v.v.v.l.l.l.l.x.x.x.l.l.l.l.l.l.l.l.l.v.v.v.v.v.l.x.x.x.x.l.l.x.l.l.l.l.l.l.l.l.l.l.l.l.l.l.l.l.l.l.k.l.k.k.k.k.k.k.k.l.k.k.k.k.k.k.k.j.j.j.j.j.j.j.k.j.j.j.k.j.j.j.j.j.j.j.j.y.t.f.t.t.y.y.y.y.y.y.y.y.y.y.y.f.f.j.j.f.f.y.y.p.p.f.j.y.y.j.f.j.y.y.y.y.y.y.y.y.y.p.p.y.y.y.y.y.y.y.y.y.y.9.7.9.9.r.r.r.t.t.t.t.t.r.4.4.4.r.r.r.i.R V -.r.p.k.z.R f n F m H | ^ M D 9.p.a.z.a.r.C s A -.-.3.#.L q 8 L y.9.9.r.r.4.4.;.S u t j S L U T -.4.r.p.y.a.a.z.b.b.b.b.G.P.P.I.I.I.P.U.U.`._.+X_._._._.!.D.!.!._.!.A.6.W d u w , = + * 3 M y 3 D 2.4.7.e.t.t.f.k.k.k.z.",
"P.P.G.b.b.b.n.x.x.3.N f 3 4 n 2 > * : < 5 q D u.A._.D.D.D.D.D.D._._.}.}.`./.(.(.(.(.(.^.I.P.P.L.P.G.b.b.b.b.b.z.k.p.0.7.4.:.T B l s l A %.8.y.r.t.y.p.r.9.C 7 z 4.r.r.r.i.-.s s 3.a.b.n.G.u.~ ~  X$X` F n n 3 y 4.j.j.j.E.E.p.E L 4.i.a.i.r.y.y.p.p.p.y.y.r.y.y.y.p.a.a.a.y.9.t.y.y.y.y.a.a.j.j.j.j.j.j.j.j.j.j.k.j.a.a.a.a.a.a.f.j.j.j.j.j.j.j.a.a.j.j.j.j.j.j.y.e.e.t.t.y.t.t.A =.p.p.j.j.j.k.k.k.k.k.k.k.z.z.l.l.l.l.l.l.l.l.l.l.l.v.l.l.l.l.l.l.v.l.v.f.;.e.v.v.v.v.b.v.b.b.v.v.v.v.v.v.b.b.v.v.v.v.v.v.v.v.l.l.l.l.l.l.l.l.l.l.v.v.v.v.b.b.b.b.v.v.v.v.v.v.v.x.l.l.l.x.l.x.l.l.x.x.l.l.l.l.v.v.v.v.l.k.k.k.l.l.l.l.l.l.l.k.k.k.k.k.k.k.k.k.k.k.k.k.k.k.k.k.k.k.k.j.j.j.j.j.7.I 8.t.y.y.y.y.f.f.j.f.y.y.y.y.j.j.j.j.j.j.j.j.a.f.f.a.f.f.f.f.j.f.f.y.y.y.y.y.p.p.p.p.y.y.y.y.p.p.p.p.p.y.9.7.9.r.t.y.y.y.y.y.y.y.y.8.r.r.r.r.i.R B -.a.a.k.p.R f 3 n H m ` #X X^ E ! 9.p.j.z.z.p.A j I #.;.;.-.L r q Y r.9.r.r.r.4.4.&.C h g l V L U R -.4.r.r.r.a.a.z.z.z.b.G.G.H.L.I.I.I.I.U.U./.`.}._.!._._.D.!.!.!.!.R.A.u.W M f w < = + : y 3 3 3 M E 5.7.e.t.a.a.j.k.k.",
"U.P.G.b.z.b.G.E.*.d 3 3 2 2 2 2 2 > 1 < u B ! F.F.D.D.S.D.D.D.D._.[.}.}./.(.(.(.(.(.(.(.I.P.I.L.P.G.b.b.b.b.z.k.p.t.7.4.;.T B s s V P -.7.p.k.a.t.y.y.9.B 7 B 8.y.r.r.5.T u h 3.a.z.b.G.i.~ ~ ~.*X&X X' _ 4 4 3 f 3.c.p.E.z.G.p.U T i.d.i.i.y.y.p.p.p.y.y.y.y.p.p.a.p.a.p.k.r.9.y.y.a.a.j.j.j.j.j.j.j.j.z.z.k.k.k.k.j.j.a.a.j.j.j.j.k.k.k.k.k.k.j.k.j.j.j.k.k.k.k.j.k.k.k.k.j.j.z N t.k.j.j.k.k.k.k.k.k.z.k.l.l.l.l.l.l.l.l.l.l.v.v.v.v.l.l.l.l.l.v.l.l.v.f.y.k.b.b.b.b.v.v.v.v.b.b.b.b.v.v.v.v.v.v.v.v.v.v.v.v.x.x.l.l.l.l.l.l.l.l.b.b.b.b.v.v.v.v.v.v.v.v.v.v.v.v.v.v.x.v.v.v.v.v.v.v.v.v.v.v.b.b.b.v.l.l.k.k.l.l.l.l.l.l.k.k.k.k.k.k.k.k.k.k.f.j.k.k.k.k.k.k.k.k.k.j.f.y.t.t.t.&.8.f.f.y.f.f.f.f.j.j.j.j.j.j.j.j.j.j.j.j.j.j.j.j.j.j.j.j.j.j.j.j.j.j.j.j.j.j.j.a.j.p.p.p.a.a.p.p.p.a.a.p.9.7.9.t.y.y.y.y.y.y.y.y.y.e.r.r.r.i.2.L R a.a.p.z.5.y 4 m G m )  .| | |.Z.W ! 5.a.j.p.z.p.P l L %.;.3.%.L r u T r.r.r.r.r.7.9.&.Z k h l B L T R -.4.r.r.r.a.a.z.z.z.b.G.G.H.I.I.I.I.I.U./././.}.}._._.!.D.!.!.!.R.D.A.u.W d r w < = = : 1 3 3 3 f R 4.7.e.y.p.p.s.s.",
"E.G.L.n.G.J.K.! 3 3 3 2 2 2 2 2 2 4 3 w l T d.F.D.D.D.W.W.!._.R.[.[.`.[./.).^.^.(.(.Y.U.I.P.P.P.H.G.b.z.b.z.z.p.9.-.-.-.P B z l B T ;.r.t.p.p.y.f.t.r.z q C r.t.a.a.i.T u N 4.p.G.G.K.d.~ ~ '  X$X*X X' [ Q 2 n M d 3.z.z.a.b.b.r.U 2.s.a.a.a.a.a.a.a.a.9.r.p.a.a.a.k.k.a.a.a.a.a.a.k.k.j.j.k.k.z.z.z.z.z.z.k.k.k.k.k.k.j.j.j.j.j.k.k.k.k.k.k.k.z.z.z.z.k.k.k.k.k.k.k.k.k.k.k.k.%.N ;.7.e.z.k.z.k.k.l.l.l.l.l.l.l.l.v.v.l.l.v.v.v.v.v.v.v.v.l.l.l.l.l.l.v.v.b.v.v.v.v.v.v.v.v.v.v.v.v.v.v.v.v.v.v.v.v.v.v.v.v.v.v.v.v.v.v.v.v.l.l.x.M.M.v.v.v.v.v.v.v.v.v.v.M.v.v.v.v.v.v.v.v.v.v.v.v.v.v.v.v.v.v.v.v.v.v.l.k.k.l.v.v.v.v.l.l.l.l.l.k.k.k.k.k.k.y.f.k.k.l.l.l.x.k.k.z.j.3.h @.j.k.k.k.f.f.f.f.f.f.j.k.k.k.k.k.k.j.j.f.f.j.j.j.j.j.j.j.j.k.k.j.j.j.j.k.j.j.k.j.k.j.j.k.a.a.p.a.a.a.a.a.a.a.p.y.9.9.t.p.y.p.p.a.y.y.y.y.y.r.r.r.2.A R r.z.a.z.4.f 1 n m m ) | | ` {  X XS.~ ! i.z.k.k.k.9.P N L -.2.-.%.A q r 3.r.9.4.t.9.9.9.;.P j s l A A Y %.4.5.r.p.p.a.a.z.z.b.G.G.G.L.L.P.I.I.I.I.U./././._._.XX!.S.A.D.D.D.D.A.u.D u q w < = * * : 1 3 3 3 D 4.i.a.s.u.W M ",
"A 9.G.G.E.K.~ 3 : : > 2 2 > > 2 2 3 y u L :.s.D.D.D.W.W.W.D.R._.[.[.`.`./.).^.^.Y.U.U.P.P.P.P.L.G.G.b.z.z.z.p.r.2.R -.U B s l B T ;.r.a.k.a.p.y.f.8.B q A 9.a.a.a.r.T d V 4.z.z.G.E.s.! ~ S. X~.~.$X$X] / ] Q m 3 d u %.z.a.z.b.z.4.E 5.s.s.a.a.a.z.a.a.r.p.a.z.k.k.k.k.k.k.k.k.a.a.z.z.z.z.k.k.z.z.z.z.z.z.k.k.z.k.k.k.k.k.k.k.k.k.k.k.j.j.j.j.j.j.j.j.j.j.j.j.j.k.k.k.k.z.z.z.k.p.#.z #.j.z.z.l.l.l.l.b.v.b.b.b.v.b.v.l.l.v.v.v.v.v.v.v.v.l.l.l.l.l.v.b.b.v.n.v.v.v.v.v.v.v.v.v.v.v.v.v.v.M.M.v.M.M.M.v.v.v.v.v.v.M.M.v.v.v.v.v.v.v.M.v.v.v.v.v.M.v.M.v.v.M.v.v.v.v.v.v.v.v.v.v.v.v.v.v.v.v.v.v.v.v.v.v.v.v.v.b.b.v.v.b.v.v.l.l.l.l.l.l.l.l.k.k.j.k.k.x.x.l.l.z.z.z.f.P t &.f.k.k.k.k.j.j.j.j.j.j.k.k.k.k.k.k.k.k.f.f.j.j.j.j.j.j.j.k.k.k.k.j.j.j.k.k.k.k.k.k.j.j.k.k.k.a.a.a.a.j.k.k.a.a.a.t.r.t.p.a.p.p.a.y.a.a.y.y.y.i.5.U E 5.a.z.a.r.d 1 4 m G ) |  .[ _ {  X X|.S.^ 6.i.a.a.z.p.9.Y B A %.3.2.%.B w w #.t.9.9.r.0.9.9.;.P z h j V A T %.4.5.r.p.p.a.a.a.b.b.b.G.L.L.N.L.I.I.I.I.Y.Y.Y./.R._.XXD.S.D.D.D.D.D.u.D u y w < < = * * : 3 3 1 : D u.Z.u.K M M ",
"q N 9.K.R.~ 3 * * : 1 > > > > 2 n 3 f s L :.u.F.S.S.W.W.S.S._.].[././.(.(.^.^.^.Y.U.P.P.P.P.G.n.b.b.z.z.z.p.r.9.3.-.T N s s C T -.9.y.a.k.k.a.p.r.j q L 7.p.z.b.i.E M V 6.z.b.x.G.s.! ! ^ |.*XOX~.~.*X$X' ' ] n 2 3 d N %.a.j.a.b.a.2.R w.i.a.a.z.z.z.z.a.a.z.z.z.z.z.z.z.z.z.z.z.z.z.z.z.z.k.k.z.z.x.x.z.z.z.z.z.z.z.z.j.k.j.j.k.k.f.t.y.y.f.f.f.y.j.j.j.j.j.j.k.k.k.k.z.l.z.z.z.a.=.B #.4.j.k.v.v.v.v.b.v.v.v.v.v.v.v.v.v.v.v.v.v.v.v.v.v.v.v.v.v.v.v.v.v.n.n.M.n.n.M.n.n.n.n.M.M.M.M.M.M.M.M.M.M.M.M.M.M.v.v.v.v.v.M.v.v.v.v.M.M.v.v.v.M.M.M.v.v.M.M.M.M.v.v.v.v.v.v.v.v.v.v.v.v.v.v.v.v.v.v.v.v.v.v.v.v.v.v.v.b.b.b.b.b.b.v.v.v.v.v.v.v.v.l.l.l.l.l.x.x.x.x.z.l.l.e.P &.f.x.z.z.k.k.k.k.k.k.k.k.k.k.k.k.k.k.k.k.k.k.k.k.k.k.k.k.k.k.k.k.k.k.k.k.k.k.k.k.k.k.k.k.k.k.z.k.a.a.j.j.k.k.k.p.p.y.p.y.p.a.a.p.p.p.p.p.a.a.a.r.R U 5.a.a.z.a.U w 3 n m ) | } | ]  X|.OX$X$X@X] ~ u.s.p.z.a.a.9.U N L %.3.2.T A w r #.9.9.t.t.0.9.8.3.P j a j B L T -.4.5.r.p.p.a.a.b.b.b.b.n.n.M.M.L.I.I.I.Y.Y.Y.U._.R._.!.D.S.S.S.F.A.u.V u w w < w 3 3 1 : : 1 : * 3 ~ ' ~ F n n ",
"w w V u.~ 1 * * * : : * > > 2 n 3 3 y l C T R ^ S.S.S.S.Z.A.`.`./.).).(.^.^.^.(.U.P.P.P.P.L.n.n.b.b.z.k.p.t.9.4.9.%.L s u B #.-.4.r.a.a.k.k.a.y.s q L 7.y.z.a.i.E M V 2.s.z.z.G.s.! ~ Z.' ~ OXMX%X|.|.*X$X' ' _ n 2 M M d 9.z.p.b.z.i.R E 6.p.a.z.z.z.z.z.z.z.z.z.z.z.z.z.z.z.z.z.z.z.z.z.z.z.z.z.z.x.x.l.l.z.z.z.z.z.z.a.y.y.y.f.t.8.8.t.t.t.t.f.f.y.y.y.a.a.a.k.k.k.k.l.l.b.b.b.z.y.-.I z e.k.b.b.b.b.v.v.v.v.v.v.v.v.v.v.v.v.v.v.v.v.v.v.v.v.b.b.v.v.v.v.n.n.M.M.M.M.M.M.M.M.M.M.M.M.M.M.M.M.M.M.M.M.M.M.M.v.M.M.M.M.M.v.v.v.e.f.v.N.M.M.M.M.M.v.M.M.M.M.n.n.v.v.M.M.v.v.v.v.v.v.v.v.v.v.v.v.v.v.v.v.v.v.v.v.v.b.v.v.v.b.v.v.v.v.v.v.v.v.v.v.v.b.v.v.b.b.b.b.b.x.k.7.q.k.z.k.l.l.l.l.k.l.k.k.k.k.k.k.k.k.k.k.k.k.k.k.k.k.k.k.z.z.z.z.l.l.z.z.k.k.k.k.k.k.k.k.j.j.k.k.k.k.a.a.z.z.z.z.k.k.k.j.k.p.p.p.p.p.p.p.p.a.a.a.p.4.V %.p.a.a.s.2.y 3 3 n Q ] | } | |.%XvXMX*X&X| H F Q w.a.a.a.p.i.9.R A L %.3.3.%.S 7 r -.t.y.y.t.0.9.7.3.A h d l A U R -.3.5.r.p.p.a.z.b.b.b.n.n.n.n.L.I.I.I.Y.Y.Y.U.U.[._.!.!.S.S.F.u.u.6.j w w 6 < < 1 1 1 1 : * * 1 * 3 F Q F n 4 ",
"w y f M : * * @ + + + * > 2 4 4 3 1 r l B L R u.D.W.S.S.A.R./.).^.^.).(.(.(.^.I.P.P.P.L.G.G.n.b.b.z.a.p.t.9.7.7.4.Y l s L T ;.9.y.j.k.a.b.p.y.s 8 P 9.p.a.a.5.U V U 6.s.E.E.J.s.~ ~ ' ^ _ n ~ MXMXMXXXOX%X] ` ] _ m m n M V i.a.p.a.s.6.U 2.a.z.z.z.z.z.b.b.z.z.z.z.z.z.z.z.z.z.z.z.b.z.z.z.z.z.z.z.b.b.b.z.z.z.z.z.z.z.a.t.r.e.t.t.t.t.f.f.f.f.f.f.f.f.7.&.&.7.k.k.k.l.z.z.v.v.b.b.b.b.8.#.#.b.l.v.b.v.b.v.v.v.v.v.v.v.b.l.k.k.l.v.v.v.v.v.v.v.b.v.v.v.v.v.v.n.M.n.n.n.n.n.n.n.M.M.M.M.M.M.M.M.M.M.M.M.M.M.M.v.v.v.v.v.v.v.v.v.O.,.v.M.M.M.M.M.M.v.M.M.M.M.M.M.v.M.M.M.M.M.M.M.v.v.v.v.v.v.v.v.v.v.v.v.v.v.v.v.b.v.b.b.b.b.v.v.v.v.v.v.v.v.v.v.v.v.b.v.v.v.l.b.x.z.7.@.t.z.k.k.k.k.k.l.k.k.k.k.k.k.k.k.k.k.k.k.k.k.k.k.z.k.j.j.j.j.z.k.k.k.z.z.z.z.k.k.k.k.k.k.j.j.k.j.t.k.z.z.z.z.z.z.z.z.k.z.z.z.a.p.p.a.a.a.a.a.a.a.s.-.U 4.t.k.b.5.f 3 3 n _ | | } #X X=XMXNXMX*X X) G H Q ~ i.A.s.A.s.s.5.R V A 2.3.3.%.S < a 7.t.t.t.t.t.9.7.-.P z u j B T %.:.4.9.r.p.a.k.z.b.b.b.b.n.n.L.I.I.I.I.Y.Y.Y.Y.U.`.}.D.F.D.F.F.5.R z u 6 < < : : = = : : * 1 y * * 3 M n n 4 ",
"w V y * @ @ + + O X O + > 2 2 > 1 y r i v L ! u.F.S._._.}./.(.^.^.^.^.^.(.^.I.P.P.P.L.G.G.n.b.b.z.z.p.t.9.7.4.3.%.l a B #.;.r.y.j.z.k.a.p.t.l 7 L 9.a.z.a.5.D M E 5.s.G.E.G.s.E ~ ' ~ n Q ' m S.MXNXMX=X$XOX] ] ] ) m n F M R K.s.b.s.5.2.r.z.b.z.z.b.b.b.b.b.a.a.a.b.b.b.b.b.b.z.y.k.z.z.z.z.z.b.b.b.b.b.b.b.z.z.k.k.j.y.y.r.8.f.t.f.f.k.k.k.k.k.k.k.k.e.7.7.t.j.k.k.k.z.k.z.z.z.z.k.z.j.8.#.y.8.f.l.v.k.k.k.k.l.l.l.l.k.f.f.f.k.l.l.l.v.v.v.v.b.b.v.v.l.v.v.v.v.v.v.v.v.v.v.v.v.v.v.v.v.v.v.v.v.v.v.v.v.x.l.l.l.l.l.l.l.l.l.l.e.f.v.v.v.v.v.v.v.v.v.v.v.v.v.v.v.v.v.v.v.v.v.v.x.x.l.l.v.v.v.v.l.v.l.l.l.l.x.l.l.l.l.l.v.v.l.l.l.l.l.l.l.l.l.l.v.v.v.v.l.j.y.f.k.t.@.;.j.z.k.k.k.j.j.j.k.j.k.f.k.k.k.j.j.j.j.j.f.f.f.f.j.y.y.y.y.j.j.p.p.j.k.z.z.k.k.k.k.k.k.k.j.k.p.9.9.p.z.z.z.z.z.z.z.z.z.z.z.z.z.k.a.k.k.k.a.a.a.a.5.T R 5.k.a.4.d 1 > n Q ] | { #X$X$XvXBXNXMX&X[ ) G ) ] Z.! A.K.K.A.s.s.i.Y V U 3.9.4.%.A q a 4.t.0.t.p.t.9.4.;.L s r l L Y T 3.9.9.r.p.k.k.z.b.b.b.b.v.n.L.L.L.P.I.Y.Y.Y.Y./.`.}.A.F.A.d.5.T C h w < : : = * * = + @ = 1 o @ * 1 n n 3 ",
"y W 3 o @ @ O O X o o @ * @ * 1 w e 9 i A T 6.u.~ u._.[./.(.^.^.^.^.).^.^.I.P.P.P.P.G.G.n.b.b.z.z.a.t.9.7.3.3.#.z a N %.7.8.y.y.z.z.k.p.t.s 7 L e.y.k.p.u.W M W i.z.G.G.K.A.E ~ ' Q Q ' [ [ _ F |.MXNXMX%X$XOX{ | | H m m n ~ A.b.b.s.6.5.s.b.b.b.b.b.G.G.G.b.b.r.a.b.b.b.b.b.b.z.y.a.z.l.l.l.b.b.b.b.z.z.z.l.l.k.k.k.k.k.j.y.t.j.f.f.f.f.j.j.j.j.j.j.j.j.j.f.f.y.y.y.f.y.y.f.f.f.f.f.f.k.y.&.7.o.;.t.t.t.t.t.t.y.f.y.f.y.y.y.f.f.f.f.k.k.k.k.k.z.k.k.k.k.c.l.l.l.l.k.k.l.l.v.v.l.x.v.x.x.l.l.l.l.l.l.l.l.c.c.g.k.g.k.k.l.l.l.l.l.l.l.l.l.l.l.l.c.c.c.c.c.c.c.c.k.k.c.c.c.c.l.k.k.k.k.k.k.k.k.k.l.l.l.l.l.l.l.k.k.k.k.k.j.j.j.j.f.f.f.f.f.f.f.f.j.j.j.j.y.e.8.t.z.&.A t.j.a.a.a.a.a.j.y.y.f.f.j.f.y.y.y.j.f.a.y.y.y.y.y.y.t.e.e.y.y.y.y.y.y.j.k.k.k.k.k.k.k.k.k.j.k.p.9.9.a.b.z.l.l.z.z.z.z.z.z.z.b.z.z.k.k.k.z.z.z.a.a.2.U 2.i.b.r.d : : 2 Q ] } ..@X*X|.=XBXNXMXMX X) ) ) ) ] $X~ W Z.K.K.s.a.a.9.Y B U 3.9.3.3.A q j ;.e.r.8.t.t.8.4.-.T h e l A U %.4.9.9.i.p.a.k.z.z.b.b.b.n.L.H.L.L.P.I.Y.I.I.Y.U./.].K.5.4.;.Y B N u < : : = # = + + + ; $ o o o o 1 3 3 ",
": W : o @ + O o o o @ @ + @ + , 0 5 g z #.2.2.6.E 6.J.'.(.^.^.^.^.^.).^.I.P.P.H.P.G.n.n.b.b.z.z.k.y.9.7.4.3.;.B r z %.7.r.t.a.z.z.z.a.p.l 8 L e.y.j.a.6.W M E i.E.b.b.G.s.! ~ Z.' ^  X%X X[ | ` Q $XMXNXMXMX*X X#X| ) m m n ^ K.K.G.A.w.5.s.z.b.b.b.b.G.G.G.b.b.p.b.G.b.b.b.b.b.b.z.b.b.m.m.m.m.v.b.b.z.z.z.b.b.b.v.v.l.k.t.e.t.j.f.f.f.t.t.t.t.t.t.t.t.j.j.j.j.j.j.j.z.j.j.j.f.f.f.f.f.f.f.7.@.P =.j.j.e.e.e.e.t.t.t.t.t.t.t.t.y.y.y.y.f.f.f.f.j.j.j.f.f.f.k.k.k.k.k.k.k.k.k.g.f.f.g.g.g.g.g.g.k.k.k.g.g.f.f.f.f.f.f.f.k.k.l.l.l.l.c.f.f.f.g.f.g.k.k.k.k.k.f.f.f.f.f.f.f.f.t.t.f.f.f.f.f.f.f.f.j.j.j.j.f.f.j.f.j.j.j.f.y.y.y.t.t.t.t.e.e.e.e.e.e.e.e.e.8.8.8.t.7.A A 7.8.7.7.7.8.t.y.y.t.t.p.y.y.y.y.y.y.f.y.y.y.e.e.y.y.y.y.e.r.r.y.y.y.y.a.a.j.k.k.k.z.z.z.z.z.z.z.j.p.z.b.b.b.b.b.b.b.b.b.b.z.b.b.z.z.z.z.z.b.b.b.s.2.E 6.p.G.p.w : > n [ | [ | &X$XXXvXBXMXMX$X] ) [ ] ] ` #X{ K ~ s.E.b.a.p.z.r.A j Y 3.5.3.-.B 7 h ;.y.y.t.9.8.9.,.:.T l u N S Y %.4.9.9.t.p.a.k.k.z.z.b.n.G.G.G.L.L.P.I.I.I.I.Y.Y.U.4X3.%.-.T L N j r 6 = = + # = = + ; -   X o @ o : 3 ",
"* w * o @ @ @ @ * * * @ * + # # 6 g v Y %.2.2.! 2.b.'.'.(.(.(.(.Y.(.^.(.I.L.H.H.G.b.b.b.b.b.z.k.p.9.4.;.4.#.z r B %.9.p.a.a.a.a.j.z.r.V < L 9.t.a.p.6.V M ! a.a.b.b.b.s.! ~ S.^ ' XXMXMXMX X[ | ` ` $XMXMXMX*X@X| } G m 2 n ~ A.J.J.K.u.6.i.K.G.G.G.G.G.G.G.G.G.G.G.G.G.G.G.G.G.b.b.b.b.b.b.n.G.n.b.b.b.z.z.a.p.j.j.k.k.8.I h z z h h h r e e r r r r r u u u u i u u u u u r q r i i i u a u q r 6 7 i i i g g h h h h h h g g i g g i a i i i i i i i g g h h h h h h i i i p p p p p p p p p p i i i p i i p h s i i h h h g g h h i i i g g h h g g h h h h p p p p i i p p p i i i i i i i i i i i i i i i i i u u i i i i p p t t t t t r r e e e q w 5 < 5 7 e q e e r e e r r r r r u u i h u r s s h s i i p r i t u a N l A 4.a.a.r.4.y.z.z.z.b.z.z.z.z.z.z.z.b.b.b.b.b.b.b.b.b.b.b.b.b.b.b.b.z.z.z.b.z.b.b.b.2.T i.z.b.p.d : 1 F [ [ [ &X$X!.=XMXNXMX*X| ` ] $X$X@X@X( ` ] Q D i.G.b.a.s.K.i.E N U 2.4.4.;.S q a 4.y.t.t.0.8.7.7.,.#.s u j A R 2.5.3.9.r.y.y.k.z.z.b.b.b.G.G.L.P.I.I.I.I.Y.Y.U.U.U.U.r.2.T B l l s w < : = + 1 1 1 + + + X O O @ @ : ",
"o @ @ @ o @ * * * > > * * + - 7 9 c %.4.2.2.2.4.z.(.;X(.(.(.(.(.(.(.(.^.P.L.H.H.b.b.b.b.b.z.k.p.y.9.4.3.-.z u z %.9.p.k.p.a.a.a.z.p.A w A r.j.k.p.5.D M ! d.b.b.z.b.i.! ! Z._ _ OX%XvXvXMX*X[ } | ` ' $X*XMX*X{ ` ( m m m K ~ K.U.`.R.d.! s.K.G.G.G.G.J.G.G.G.G.G.G.G.G.G.G.G.G.G.G.G.G.b.b.b.G.G.n.b.b.b.b.a.r.t.z.j.7.z 9 , 5 i a a a i u e e e e e e r r r r u r r r q e r e r e e 7 8 8 7 q h 6 , 7 r i p e e e e e e e e e e e e t q q q q q 9 9 9 7 9 q 9 9 9 9 9 8 8 8 8 8 7 9 9 e e e e r r r r e e e e e 7 7 7 7 7 7 9 e e t 9 9 9 9 9 q 9 7 7 9 9 q q 9 9 9 9 q q q 9 9 7 7 7 8 8 8 8 8 8 8 8 6 5 5 5 6 6 6 6 6 6 6 6 6 6 6 5 6 6 6 5 5 5 < < < , ; , a h i u u r e q e r r r r r r u r i r e e e e e e q q q e 7 7 w 8 < 5 r #.y.a.t.r.y.z.b.b.b.b.b.b.b.b.b.b.b.b.b.b.b.b.b.b.b.b.b.b.b.b.b.b.b.b.b.G.K.K.K.5.R 5.s.z.b.E 3 3 M H (  .&X|.OX=XMXMXMX X` { @XMX%X*X&X[ ` | ' Z.6.i.G.a.s.A.s.i.U V L -.r.r.;.N 8 s 4.t.t.t.0.8.r.8.7.A s u h A %.2.3.5.9.r.r.p.a.z.z.z.b.b.G.G.L.L.I.U.U.U.U.U.U.U.U.J.i.R U A B l d w < : = : 1 3 1 * + + # + O O @ ",
"o o @ * * 2 2 2 2 2 > > 1 w r p k #.5.6.R R 5.H.(.;X(.(.(.(.(.(.(.U.P.L.N.N.L.n.b.b.b.z.z.k.p.y.r.7.3.#.N u h #.9.p.a.z.a.a.j.a.i.A w V p.k.z.k.5.U M ! a.K.b.b.a.i.6.! F.S.Q  XMXMXjXjXMXMX X`  .| ` ` @X*X@X` ) G m F ^ ~ 6.K.U.`.R.d.! s.E.G.J.J.J.J.J.J.J.J.H.H.H.H.H.H.P.P.H.H.H.H.b.b.b.G.G.G.G.b.b.z.a.p.b.b.7.z 7 5 9 x P T T L L C c B B B B B l l l l l l l z h z z z z z h h h h z A A 7 8 z Z C z z z x x x v v C C C Z Z Z S C C C I I I I Z I I I I I I I Z Z Z Z Z Z Z I +.+.+.+.+.+.O.O.P P I P +.+.I I I I I I Z I P Z c c c c B c z z c B B B c C C C C C C C C v z z k k k k k k k k k k k h g g h h h h h h k h h h i i i i p i u u u u r w j L C B z l h i h j j j j z N N z C z j j j l l h l z z z a s B N t 6 6 r @.0.p.y.t.j.b.b.b.b.b.b.b.b.b.G.G.b.b.b.b.b.b.b.b.b.b.G.G.G.G.b.b.b.b.K.K.K.K.i.! 2.i.b.H.s.D y M F H ` |  X*X%XMXMX$X[ [ #X*X*XMXMX*X&X#X{ ] OXF.2.z.z.p.A.A.A.u.W V L 2.r.r.3.S 8 s -.t.t.t.e.r.e.r.:.P h r j A %.2.4.4.9.r.t.p.j.z.z.z.b.b.n.G.L.P.P.P.U.U.U.P.P.P././.b.2.U L N d u w < : : 1 3 y 3 : * + + + O X ",
"o @ * > 2 2 2 2 2 > > 3 M V s h P 4.i.6.6.2.b.'.(.;X;X(.(.(.(.(.I.L.n.b.n.n.n.L.b.b.z.z.k.p.y.t.4.;.T S r h T 7.9.t.p.k.a.a.a.a.L w N r.j.k.b.i.D V 2.s.b.b.b.z.u.! u.A.}.XX'  XMXMXvXvXvXMX*X] [  .} ` _ #X| _ G m F ' A.u.s.J.`.`.R.Z.R s.J.G.J.J.J.J.J.J.J.J.H.H.H.H.U.P.P.U.H.H.H.J.H.b.G.n.G.G.G.G.b.a.a.b.z.q.N 7 , u P #.#.,.9.:.9.4.4.9.9.9.9.9.7.7.7.7.7.7.7.7.7.8.9.7.8.8.7.,.;.7.8.t.I 5 - e 7.k.l.e.f.f.f.f.f.g.l.v.v.v.v.x.l.l.l.l.v.v.v.v.n.M.M.M.B.B.B.B.N.N.N.N.M.v.l.g.v.V.V.V.M.M.M.M.M.M.M.M.B.B.V.V.B.B.B.B.M.B.N.V.M.M.M.M.M.M.n.v.M.M.M.M.v.v.v.M.M.M.M.M.N.M.b.l.v.v.l.l.l.l.l.l.v.v.v.v.l.l.v.l.k.k.g.k.j.f.f.t.j.j.j.j.f.f.y.y.t.3.h ; e #.;.&.;.;.=.#.;.3.3.3.3.3.3.q.7.0.q.3.7.7.4.4.4.9.8.8.7.3.%.%.3.7.A q 0 q A 9.j.y.y.j.b.b.b.b.b.b.b.b.G.G.n.n.G.G.G.G.H.H.G.G.G.G.G.G.b.b.G.G.K.K.K.K.s.2.R i.J.G.K.A.E M F Q m H  X$X*X*X*X' ` | &X*X%XNXvXMXMX@X{ @X|.D.Z.i.z.a.s.A.s.A.d.T l L 3.9.9.%.l 8 l ;.t.t.y.e.t.e.e.:.P s r N A R -.3.4.4.9.t.y.j.z.z.z.b.b.n.G.L.P.P.P.P.P.P.P.P.P.U.4XU.2.R A l s u w < : : 3 3 M n 1 * * + + X ",
"o o * 2 n 2 2 > * : w l N l z B 2.5.w.w.! s./.(.(.(.(.(.(.Y.Y.I.P.L.H.G.b.b.v.n.z.z.z.k.y.t.7.7.;.Y z u z Y 4.r.p.a.k.k.p.z.t.L < V r.k.j.z.9.A D 2.a.K.G.H.G.s.! ^ F.}.oX%XOX' *XMXNXNXdXvXMX$X_ }  .} ) ) ` H m Q ' F.K.E.J.J.`.`.R.w.E K.J.J.U.J.J.J.U.U.J.J.J.J.J.J.U.U.U.J.H.H.J.J.H.G.G.G.G.G.G.b.p.p.z.z.9.z 8 8 h #.#.#.y.b.n.L.H.H.H.H.G.G.G.n.L.L.L.L.L.G.G.G.M.P.P.M.N.L.L.P.P.P.P.P.t.#.P ;.N.N.N.N.N.N.N.N.N.N.N.N.M.M.M.v.v.M.M.B.N.N.N.N.N.N.N.N.N.N.N.N.B.I.I.B.N.N.N.N.N.N.N.N.B.B.B.N.N.N.N.N.I.I.I.I.I.I.I.I.I.I.I.I.B.B.B.I.I.T.I.I.I.I.I.I.I.I.I.I.I.P.I.P.P.I.P.N.M.M.N.N.N.N.N.N.B.B.P.N.N.P.P.P.N.N.N.N.M.M.M.M.M.M.M.M.M.M.M.M.T.x.@.k 3.y.v.b.n.n.n.n.M.L.L.P.L.L.L.n.n.G.L.L.L.L.L.L.L.L.L.L.L.L.L.L.b.0.q.A 5 7 i P t.z.j.y.k.b.G.b.b.b.G.G.G.G.G.G.H.H.H.H.H.H.H.H.H.H.H.H.H.G.b.b.H.K.K.G.s.2.6.A.G.J.G.E.A.w.W F Q Q ` @X&X@X{ ` |  .$X$XvXNXNXNX*X~.$X&XOX_.R.K.w.s.s.s.A.b.A.s.4.A A 2.r.i.2.N w s q.p.y.t.t.t.r.8.;.Y j a j S Y T -.4.7.8.9.t.j.z.z.z.b.b.b.n.L.L.P.P.P.P.P.P.P.P.'.rXJ.2.E V l j a q w 3 1 1 2 4 3 : * * + O ",
"o @ * 2 2 2 * * < u j z z z A E 5.5.6.6.s.U./.(.(.(.(.Y.Y.I.I.I.P.L.H.G.H.n.x.k.z.k.a.p.t.9.7.;.Y z a h Y 4.r.p.y.j.a.p.p.i.Y r j 5.z.k.k.9.L N 2.p.G.G.b.G.s.w.u.D.}.oXjXvXMX|.' MXNXNXvXjXMX*X X(  . .} G m m _ ' Z.A.J.U.`.`./.].R.! ! A.J.U.J.J.J.J.U.U.U.U.U.J.J.J.U.U.U.U.P.P.P.J.H.H.G.G.H.H.G.b.p.z.z.4.A w 7 z #.I :.f.G.L.L.H.H.H.L.L.L.L.L.L.P.P.P.P.P.L.L.L.L.P.I.L.L.L.N.N.N.N.P.P.I.v.v.P.N.N.N.N.N.N.N.N.N.N.N.P.N.M.M.M.N.N.N.N.N.N.N.N.B.N.N.N.N.N.N.N.I.I.B.V.I.I.P.N.N.N.N.B.B.B.B.B.B.N.B.B.I.I.I.I.I.I.I.I.^.I.I.I.I.I.I.I.I.I.I.I.I.I.I.I.I.I.I.I.I.I.P.P.P.I.P.N.M.M.N.N.N.N.B.T.T.T.I.N.P.P.P.P.L.L.L.L.N.N.P.P.L.L.P.P.N.N.P.P.P.P.x.x.L.L.N.N.M.M.M.M.N.L.P.L.L.L.L.L.L.L.L.L.L.L.L.L.L.L.L.L.L.L.L.L.G.G.t.3.A < 6 a Y t.z.j.a.b.b.b.G.G.G.H.P.P.P.P.H.H.H.H.H.H.H.H.H.H.H.H.H.H.H.H.H.H.K.G.s.6.6.s.K.K.J.E.E.K.w.W K Q _ | #X[ _ | #X@X$X=XNXNXNXMX!.XX%X%X=XoX.XR.A.s.5.6.s.z.b.z.a.R V L 3.p.i.2.s 8 h q.t.p.y.y.t.e.e.3.U h a h A Y #.-.4.7.9.9.t.j.z.z.z.z.b.b.G.G.G.G.P.P.P.I.Y.I.(.'.`.w.! U A N l s d w 3 3 1 2 3 3 : * + + ",
"* * * * * @ = t h j j N A A E ! w.2.5.a./.'.(.(.(.(.U.U.I.I.I.I.P.L.L.G.L.b.k.f.k.a.p.r.9.4.=.P z s l Y 4.t.y.a.y.a.y.y.9.A r B 7.z.b.p.4.A V R p.G.L.P.z.a.i.u.!._.oXbXBXbXNXMX{ ~.MXNXNXvX%X*X*X{ [  .} ) m Q S.Z.A.J.[.[.`.[.[.`.s.W w.R././.J././.J././././././././.U.U.U.U.U.U.P.P.H.H.G.G.H.H.G.z.b.b.9.B 8 6 B 3.Y ;.k.P.L.L.H.H.H.L.P.P.L.P.P.P.P.P.P.P.P.P.P.P.P.T.I.P.P.P.P.P.N.N.N.N.P.P.I.I.I.I.I.I.I.I.P.P.P.P.P.P.P.L.M.M.I.I.P.P.I.I.I.I.I.I.I.I.I.I.I.I.I.N.M.M.^.^.^.^.I.I.I.I.I.I.^.I.I.I.I.I.I.I.I.I.I.I.I.I.I.I.I.I.I.^.I.^.^.I.I.I.I.I.I.I.I.N.N.B.P.P.P.P.P.P.P.M.N.N.P.I.P.P.I.I.I.I.I.I.P.P.P.P.P.P.P.P.P.P.P.P.N.P.P.P.P.P.P.P.P.I.P.P.P.P.P.N.N.N.N.N.P.P.P.P.P.P.P.P.P.L.L.L.P.P.P.N.P.P.P.P.L.L.L.L.b.b.z.3.7.S < 5 i #.y.b.p.z.b.G.G.L.H.H.H.G.H.H.G.G.H.H.H.H.H.H.H.H.H.H.H.H.G.K.H.H.K.G.K.i.5.i.K.K.J.J.J.J.K.w.W K / _ _ _ [ #X&X@XXX=XBXGXNXXX!.%XMXjXjXjXdXoX+XA.6.E i.a.b.b.s.d.%.A U 4.i.i.-.z 5 k 3.a.j.j.a.y.e.9.3.P h u z A T T ;.7.7.9.9.t.a.z.z.z.z.z.n.n.n.b.G.L.P.P.Y.Y./.U./.K.6.E U L V l N s r f M M 1 1 3 : * * ",
"* * * @ o # 9 c z N U U E E R ! 2.2.p.U.:X:X(.(.(.(.U.I.I.I.I.I.P.L.L.G.n.b.k.j.p.p.y.9.3.-.Y z a l T 4.t.y.k.k.y.y.y.r.V u A 9.j.v.z.r.V V R i.G.L.P.P.a.i.u.D..XoXNXNXBXnXNXNX*X^ |.MXMXMXvX*X*X&X` [ ] _ _ S.F.A.}._.[.[.[.[.].J.u.! s._.`./././././.`./././././././.U././.U.U.U.U.P.J.H.H.G.P.H.G.b.H.a.L q 8 z 9.%.;.z.m.L.L.L.L.P.P.P.P.P.L.P.P.P.P.P.P.P.P.P.P.P.P.I.I.P.P.P.P.P.N.N.N.N.I.I.P.I.I.I.I.I.I.I.I.P.P.P.P.P.I.P.N.N.I.I.I.I.I.I.I.I.I.I.I.I.I.I.I.I.N.M.M.N.I.I.I.I.I.I.I.I.^.^.^.^.^.I.^.^.^.^.I.I.I.I.I.I.I.I.I.I.I.^.^.^.^.I.I.I.I.I.I.I.N.N.N.N.P.P.P.P.P.I.P.M.N.N.I.I.I.I.I.I.I.I.^.I.P.P.P.P.P.P.P.P.P.P.P.I.P.P.P.P.P.P.P.P.(.I.I.L.P.P.N.P.N.N.N.N.N.P.P.P.P.P.P.P.L.L.L.L.P.P.N.N.P.P.L.P.L.N.L.L.H.P.G.b.-.3.L , 5 j ;.z.z.a.z.H.L.L.H.H.H.H.H.H.G.H.H.H.H.H.H.H.H.H.H.H.H.H.H.H.H.H.K.G.J.s.5.6.s.K.J.J.J.J.J.K.w.E Q Q Q _ | #X@X|.%XMXNXNX%X!.$X%XjXvXBXbXNXMXvX_.s.i.2.p.a.z.a.K.s.R V U 2.i.r.2.z q S 4.j.z.k.a.e.r.9.;.A h s l A P %.;.4.9.9.9.t.a.k.k.z.z.b.b.b.b.n.G.L.P.P.I.^.P././.J.! R E U V L z l L D 1 * * 3 3 : @ ",
": * @ @ = , 9 b A E R ! R R 2.-.-.y.P.(.(.(.(.(.(.U.I.I.I.I.P.L.L.n.n.n.n.b.z.j.a.y.r.4.;.#.z a z T 4.r.y.p.z.k.k.a.i.A r Y j.l.x.j.4.D D R i.K.E.L.G.s.w.u.D.=XvXnXGXGXNXNXNXNXMX%X' $XMXNXMXMX*X@X[ H H / S.F.R._.[.[.].[.[.`.R.d.A.A.R.`./././.`.`.`.J.`.`.`./././././././././.U.U.U./.J.J.H.P.H.H.G.9.l w 8 N 9.%.%.k.n.P.I.P.P.P.P.P.P.P.P.P.P.P.P.L.L.L.P.P.P.I.I.P.P.P.P.P.P.P.P.P.P.I.P.I.I.I.I.I.I.I.B.P.P.P.P.P.P.I.I.I.I.I.P.P.P.I.I.I.I.^.^.^.^.^.^.I.I.I.I.N.M.N.T.I.N.N.I.I.I.I.^.^.^.^.^.^.^.^.^.^.^.^.^.I.I.I.I.^.^.^.^.^.^.^.^.^.^.^.I.^.^.^.^.^.^.I.I.^.^.^.^.I.I.I.I.I.I.I.I.I.I.^.^.^.^.^.I.I.P.P.P.P.P.P.P.P.P.P.P.P.P.P.P.P.P.P.P.P.P.P.P.P.P.N.N.P.P.N.N.P.P.P.P.P.P.P.P.P.P.P.P.L.L.L.L.P.P.L.L.P.P.P.P.J.H.H.H.b.4.4.A ; < s R z.b.a.z.P.P.P.P.P.P.P.P.K.K.H.H.H.H.H.H.G.P.H.a.z.H.U.H.b.b.K.K.J.K.s.w.u.s.K.J.K.J.J.J.J.A.! ~ Q Q `  X|.=XNXGXNXvX~.OX$X%XvXbXhXGXNXMX=XoXoX}.5.4.z.z.b.b.G.p.R V U 4.9.9.2.V w N 9.p.a.y.t.a.7.,.=.I h h z C I #.4.8.9.9.0.t.p.p.p.p.z.p.y.a.b.M.H.L.I.I.I./.U././.K.2.R U B L B z B l 1 3 M n n 4 3 ",
"1 : * : < e 6 9 T R ! ! ! R -.:.r.H.(.;X(.(.(.(.U.I.I.I.I.I.L.L.L.n.n.b.b.z.j.y.y.9.4.-.P z i l P :.r.r.p.k.z.j.k.i.N y A 9.n.x.k.4.A V E i.z.G.G.G.p.6.6.F.S.%XGXGXGXNXNXNXNXnXNXMX|.{ *XMXMXMX@X] ) m Q ' D.R._.[.[.[.[._.[._.d.A._._.`.`././.`.`.`.`.J.U.`.`././././././././././.U.U./.U.J.H.H.P.H.r.l u 5 j 3.3.%.p.P.U.(.U.I.I.I.P.P.P.I.I.I.I.I.P.P.L.P.P.P.P.I.I.P.P.I.P.P.P.P.P.P.I.I.I.I.I.I.I.I.I.I.I.P.P.P.P.I.I.I.^.I.I.I.I.I.I.I.I.I.I.^.^.^.^.^.^.I.I.I.I.I.T.I.I.N.M.N.I.I.I.^.^.^.^.^.^.^.^.^.^.^.^.^.^.^.^.^.^.^.^.;X^.^.^.^.^.^.^.^.^.^.^.^.^.^.^.^.^.^.^.^.^.I.I.I.I.I.I.I.I.^.^.^.^.^.^.^.^.I.I.I.I.I.I.I.I.I.I.I.I.I.P.I.I.I.I.P.P.I.I.I.I.I.P.P.P.P.P.N.N.P.P.N.P.P.P.P.P.P.P.P.P.L.L.L.L.P.P.L.L.P.P.P.P.P.J.P.H.P.z.%.;.A < , j 3.z.b.z.n.P.P.P.P.P.P.P.J.J.J.J.P.P.H.H.H.U.H.b.b.J./.J.H.H.K.K.J.J.J.s.u.u.s.K.J.J.J.J._.J.K.! D Q Q ' $XMXNXNXMX!.~.$X%XvXMXBXNXNXNXvX%X%XjXoX}.r.r.z.b.b.b.b.p.R A U -.5.9.2.N w V 9.a.a.a.t.r.e.,.#.B h h z C P -.4.9.8.9.0.t.p.p.p.z.z.z.z.m.b.H.H.P.I.I.I.I.(././.G.4.Y L L A B B r 1 f M K F M n ",
"= = 1 w f u < 6 L R ! ! 2.2.4.y.L.(.(.(.(.Y.(.(.P.P.P.P.L.L.H.n.n.b.b.b.z.j.y.e.4.:.%.I z i l P :.7.r.p.p.k.z.a.i.V y V i.b.l.j.4.A V U 5.s.G.G.z.i.9.i.A.!.~. XMXNXGXNXNXGXNXvXvXMX*X|. X*XMXMX@X_ m Q ' A.R.[.[.].].[.[.].}.d.A.[.[.[.[.`./.`.[.[.`.`.J.J.`.`.`.`.`.`./././.(././././././.J.J.J.H.y.A q 5 a 9.%.Y z.U.U.U.I.I.I.I.I.I.P.I.I.I.I.I.I.I.I.I.P.P.I.I.I.I.P.P.P.P.I.P.I.I.I.I.I.I.I.I.I.I.I.I.I.I.I.I.I.I.I.I.^.I.I.I.I.I.I.I.I.I.I.I.^.^.^.^.^.^.I.I.I.I.-X-X-X-XN.B.I.I.^.^.^.^.^.^.^.^.-X-X-X-X^.^.^.^.^.^.^.^.;X;X-X^.^.^.^.^.^.^.^.^.^.^.^.^.^.-X^.^.^.^.^.^.I.I.I.I.I.I.I.I.^.^.^.^.^.^.^.^.I.I.I.I.I.I.I.I.I.I.I.I.I.I.I.I.I.I.I.I.I.I.I.I.I.I.I.P.P.P.P.P.I.I.P.I.P.P.P.P.P.P.I.I.I.I.P.I.I.I.I.I.I.I.I.I.P.P.P.L.H.P.b.;.4.V < w j U a.z.b.b.P.P.P.P.P.P.U.U.U.U.U.U.U.U.J.U.J.H.J./././././././.`.J.J.J.A.i.d.K.J.J.R.R._.[.[.A.! F Q / ~.MXNXMX|.~.$X$X%XvXMXBXNXNXvX%X%XMXNXvXoX/.r.r.z.z.z.b.b.i.R V A %.5.5.2.V w N 4.a.a.r.e.r.7.,.#.z s h z C T =.7.9.8.9.t.t.p.j.z.b.b.b.b.m.n.M.L.L.P.I.U.(.(././.b.4.-.Y P A B r 3 3 2 n n Q Q ",
"= < u d M w < , l U ! 2.2.2.i.H.<X(.Y.(.Y.Y.(.(./.P.P.P.L.L.n.b.n.b.b.z.k.j.t.r.;.#.L z u h T -.7.r.y.a.k.k.a.p.V y A i.z.b.k.9.A V U 2.a.b.b.b.9.5.s.R._.!.$X X|.MXGXGXnXNXNXbXjXvXMX*X{ ~.*X@X] Q _ S.A.R.[..X.X.X].[.].}.d.A.[._.[.[.[.`.`.[.[.[.].]./.J.`.`.`.`.`.`.`./././././././././.J.J./.r.C i < u 7.;.T k.U.U.U.U.U.U.I.I.I.I.I.I.I.I.I.I.I.I.I.I.I.I.I.I.I.I.P.P.P.P.I.I.I.I.I.I.I.I.I.I.I.I.I.I.I.I.^.^.^.I.I.I.^.^.I.I.I.I.I.^.^.I.I.I.^.^.^.^.^.^.I.I.I.I.-X-X-XI.I.;X;X-X^.^.^.^.^.^.^.^.-X-X-X-X^.^.^.^.-X-X-X-X;X;X-X^.^.^.^.^.^.^.^.^.^.^.-X-X^.^.^.^.^.^.^.^.I.I.I.I.I.I.I.I.^.^.^.^.^.^.^.^.I.I.I.I.I.I.I.I.I.I.I.I.I.I.I.I.I.I.I.I.I.I.I.I.I.I.I.I.I.I.I.P.I.I.I.I.P.P.P.I.I.I.I.I.I.I.I.I.I.I.I.I.U.I.I.I.I.P.P.P.L.P./.b.4.2.%.w , w V b.b.b.b.H.P.P.U.P.U.U././.U.U.U.U././.J./././././././.`.`.`.J.J.J.J.K.s.s.A.R.R.R.R._.[.[.K.! Q Q / @X*X|.~. X$XXX%XvXBXNXMXvX=X%XvXNXNXvX=XoXK.9.i.z.E.K.a.b.i.R N V %.w.5.2.N w z ,.t.r.e.e.r.7.7.P z s h z L T ;.q.8.8.t.t.t.p.p.z.b.b.l.m.m.n.L.L.L.L.P.U.(.(.U./.H.r.T T L V w 3 y f 4 4 n n ",
"q d V V d 1 w , 6 L T 2.5.a.K.(.(.(.(.U.(.(.(.(.U.U.P.H.M.n.m.b.b.b.x.k.j.y.8.;.%.P z i j P =.8.t.y.j.z.a.z.9.N y T y.z.x.z.r.A D R 5.d.b.H.b.r.5.A.R.[.oXMX*X@X{  XMXNXnXhXvXNXNXNXMXMX@X' ] ' / ' Z.F.R.[.oX.X[.[.[.[.`.s.s.J.[.[.[.[.[.].[./.`.`.[.[.[.[.[.[.`.`.`.`.`.`.`.`./.`.[./.U.J.J.J.a.L u 5 u 3.3.T z.U.(./.(.(.(.(.I.I.I.I.I.I.I.I.I.I.^.^.^.^.^.I.I.I.^.^.I.I.P.P.I.I.I.I.I.I.I.I.I.I.I.I.I.I.I.I.^.^.^.^.^.^.^.^.^.^.^.^.^.^.^.^.^.^.^.^.^.^.^.^.-X-X-X-X^.^.^.-X;X;X;X;X-X-X^.^.-X-X-X-X-X-X-X-X;X;X;X;X;X-X-X;X-X-X-X-X-X-X-X;X-X-X-X-X-X-X-X-X^.^.^.;X^.^.^.^.-X-X-X-X-X-X-X-X-X-X-X-X^.^.^.^.^.^.^.^.I.I.I.I.^.^.^.^.^.^.^.^.^.^.^.^.^.^.^.^.I.I.I.I.I.I.P.P.I.I.P.P.P.P.I.I.I.I.I.I.I.I.I.I.I.I.I.I.U.U.U.U.I.I.I.I.I.I.I.U.G.5.5.N ; < u L G.G.a.G.J.U././.U.U././././././././././././././././././.`.`.`.`.J.K.K.F.d.A.R.R._.`.`.`..XR.~ Q _ _ ' '  X@X|.*XvXjXNXNXMX=X=XjXNXGXNXoXoXoXeXJ.9.s.s.K.z.s.a.i.%.V V E 4.9.4.V w B 9.k.e.r.8.9.9.;.P z h s i C #.%.;.7.9.0.t.y.p.j.z.l.l.m.m.n.M.N.L.L.I.I.I.I.U.U.U./.4.T L s w < w f M M 4 4 ",
"j d V d 3 < d u - u T -.a.H.(.(.Y.Y.U.U.U.U.I.I.U.P.H.b.n.b.b.b.b.x.k.j.y.e.7.#.L h i l @.;.8.e.p.j.z.z.a.r.V 8 L p.b.b.z.i.U V E 5.s.b.G.z.i.6.u._..XoXhXGXMX$X#X{ |.MXNXNXbXbXNXNXNXMX*X X_ _ ' Z.F.D.]..XoXoX[.[.[.}.s.s.R.[.[.].[.[.[.`.`.J.`.[.].].].].].].].[.`.`.`.`.`.`.`.`.'.U./.[.J.i.T s w u %.7.*.p./.`.'./.(.(.(.(.).).).).^.^.^.^.I.I.^.^.^.^.(.(.I.I.^.^.I.I.I.I.I.I.I.I.^.^.^.^.I.I.I.I.I.I.I.I.^.^.^.^.^.^.^.^.^.^.^.^.^.(.(.^.^.^.^.^.^.^.^.^.-X-X-X-X-X-X-X;X;X;X;X;X-X-X;X;X-X-X-X-X-X-X-X-X^.^.-X-X-X-X;X;X;X;X;X;X;X;X;X;X;X;X;X;X-X;X;X;X-X-X;X;X-X;X-X-X-X-X-X-X;X;X;X;X-X-X-X-X-X-X-X^.^.^.^.^.^.I.I.I.^.^.^.^.^.^.^.^.^.^.^.^.^.^.^.^.^.^.I.I.I.I.I.I.^.^.I.I.I.I.^.^.).).).).I.I.I.I.U.U.U.U.U.U.U.U./.).).)././././.U.G.2.Y U < < u Y K.H.a.H.P././././././././././././././././././././././.`.`.`.`.J.J.K.A.d.F.D._._._.`.`.]..XD.~ Q Q _ ]  X X=XMXoXNXNXvX$X$X=XvXGXGXjX=X=X=XjXuXA.w.s.K.K.z.z.a.p.R V V Y 5.9.-.z e B 9.t.e.r.r.9.9.;.P h h i h A Y %.;.7.9.0.t.y.p.j.z.z.l.b.m.n.n.H.L.I.I.I.I.P.P.P.P.a.R U j r u r r f M f 1 ",
"V V M w 3 f l l q = l r.H.(.(.).I.I.I.I./.I.I.I.I.L.b.b.b.b.b.b.z.k.j.t.8.7.=.I h u h Y 7.e.y.j.j.k.z.k.p.N 5 S y.x.b.k.9.U V E 5.s.G.b.b.9.6.u.R.D._.jXNXGXNX=X@X#X{ @XMXNXNXbXGXNXMX*X&X X' ' Z.F.A._.oXoXoXoX[.[._.K.s.R.[..X].].[.[.[.`././.].].].].].].].].].].[.[.'.'.'.'.'.(.U.U./.`.b.R j q u 3.9.%.z.U.'.`.(.(.(.(.(.(.(.(.(.(.(.(.(.^.(.I.^.^.(.(.(.(.^.^.^.^.^.^.^.^.(.(.(.(.(.(.(.(.(.(.^.(.^.^.^.^.^.^.^.^.^.^.^.^.(.(.(.(.(.;X;X(.^.^.-X^.^.^.^.^.;X;X;X;X;X;X;X;X;X;X;X;X-X-X-X;X;X;X;X;X;X;X;X;X-X^.^.^.:X:X:X:X:X:X:X:X:X:X:X:X;X;X;X;X;X;X;X;X;X;X:X:X;X;X;X;X;X;X;X;X;X;X;X;X;X;X;X;X;X;X;X-X;X;X;X;XI.I.(.(.^.^.(.^.^.^.^.^.(.(.(.(.(.(.(.(.(.^.^.^.^.^.^.^.^.^.^.^.^.^.^.^.^.^.^.^.^.^.^.^.Y.Y.(.(.(.(.(.(./././././././././.U.a.-.9.A , , d R b.b.b.H././././././.`./././././././././././././.`.`.`.`.`.`.`.`.R.R.A.Z.F.R._.`.`.`.[..XoXF.~ Q _ ]  X|.MX=XvXNXMXOX$X$X=XNXGXjXjXNXNXNXXX_.+XA.w.s.K.E.z.z.z.i.R V N Y 4.3.-.B u C ;.y.e.r.8.9.9.;.L I L h j S Y %.;.7.9.0.t.y.p.k.k.z.b.b.n.n.G.H.L.L.P.P.L.L.J.J.b.2.E j s l l u u y 3 3 ",
"D d y y d V l B B 8 < 4./.(.).P.I.I.I.I.I.I.I.I.L.b.b.b.b.b.b.z.k.j.t.e.7.;.#.z u l T ;.8.y.j.f.k.k.k.a.A q N 9.k.k.z.9.B N R i.G.G.G.G.p.2.w.F._._.u.vXNXNXNXvX|.@X#X{ $XMXNXNXNXNXMX*X|.' Z.S.F.A._.oXoXoXoXoX[.`.K.K.}.[..X].].[.].].`.`.`.].].].{.].].].].].].].[.[.[.[.'.'.`././.`./.K.2.N r r 9.9.%.z.'.`.'.`.'.(.(.(.(.(.(.(.(.(.(.(.(.(.(.I.^.^.(.(.(.(.^.^.^.^.^.^.^.^.(.(.(.(.(.(.(.(.(.(.-X-X-X-X-X-X(.(.(.(.(.(.(.(.;X;X;X;X;X;X;X;X-X-X-X;X;X-X-X-X;X;X;X;X;X;X;X;X;X;X;X;X;X;X;X;X;X;X;X;X;X:X:X;X;X;X:X:X:X:X:X:X:X:X:X:X:X:X:X:X>X>X>X>X;X;X;X;X:X:X:X:X:X:X:X:X;X;X;X;X;X;X;X;X;X;X;X;X;X;X;X;X;X;X;X;XI.I.(.(.(.(.(.^.^.^.^.^.(.(.(.(.(.(.(.(.(.^.^.^.^.^.^.^.^.^.^.^.^.^.^.^.(.(.(.(.(.(.(.(.(.(.(.(.(.(.(.U.(.(.(.(./.(.(.(.U./.U.z.9.9.U < < V U b.K.m.J./.(./././.`.`.`.`.`.`.`.`.`.`./././.`.`.`.`.`.`.`.`.`._._._.F.Z.F.`.`.`.`._.[..X.XZ.~ / ' { $X%X%XNXMX=X%X$X$XMXGXvXuXNXGXGXvXS.S.oXoXA.w.s.z.x.z.a.z.p.%.N N Y -.4.:.B q B ;.y.e.r.8.9.9.7.#.#.C g j A @.%.;.7.9.r.t.y.p.a.z.z.z.b.n.n.G.L.L.L.L.L.L.P.H.K.2.f y V L B V l l j f ",
"d 3 f l V L L B C L s 8 C r.H.(.Y.Y.Y.Y.I.I.P.L.n.b.b.b.b.l.z.z.y.e.8.7.7.#.z i z Y ;.8.p.j.k.k.z.z.9.B w A 9.k.j.p.3.A N R s.K.G.J.E.s.6.u.F.A.oXMX!.!.MXNXNXNX=X|.#X .{ @XMXMXMX*X*X|.~.Z.F.A.R..XdXjXuXoX.X]._.`.}.}.].oXoXoX{.{.].].{.].{.].].4X4X4X].].].].].].].].[.[.[.[.`./.`.].J.R V u d 4.4.3.z./.'.'.'.'.'.'.'.(.(.(.(.(.(.(.(.(.(.(.(.(.(.(.(.(.(.(.^.^.(.(.(.^.^.^.(.(.(.(.(.(.(.(.;X;X;X;X;X;X;X;X;X;X;X;X-X-X-X-X-X-X;X;X;X;X;X;X;X;X;X;X;X;X;X;X;X;X;X;X;X;X;X;X:X:X:X:X:X:X:X:X:X:X:X:X,X,X,X,X:X:X:X:X:X:X:X:X,X,X,X,X,X,X:X:X>X>X>X>X>X>X>X:X:X:X:X;X>X>X>X>X:X:X:X:X>X>X>X>X>X;X;X;X;X;X;X;X;X;X;X;XM.t.P.(.(.(.-X-X;X^.^.^.(.(.(.(.(.(.(.(.(.;X;X(.(.(.(.(.^.^.^.^.^.^.^.^.^.^.^.^.(.(.(.(.).(.(.(.(./././.P././.(.).)././././././.G.p.i.R < w U R K.K.H././.(.'.'.`.`.`.`.`.`.[.[.[.[.`.`.`.`.`.`.`.`.`.`.[.[.[._._._.A.u.A._.[._._._.[..X_.Z.^ ^ ] @X%XMXMX%X%X%XOX%XNXvXvXNXGXGXNX~.~.XXXXXX+XA.w.i.E.x.b.a.a.i.i.A N Y ;.9.3.C u z 7.t.r.9.r.r.r.-.T #.C i z C T -.;.7.9.r.t.y.a.k.z.z.b.b.n.L.n.P.P.P.Y.L.U.U.4.d l A A L U B l l l d ",
"< u V V L L L B L y.b.P 8 8 B p.L.T.Y.T.T.P.L.n.b.b.b.b.l.z.z.a.j.y.8.7.&.j r h P ;.8.y.a.k.k.k.z.e.L s A 9.p.p.p.3.A A -.a.G.G.U.U.K.w.u.A._.oXNXNX*X~.XXMXNXGXNX$X X#X .{ &XMX%X$X$X|.~.F.Z.A..XdXjXjXuXuX.X.X}.`.[..XoXoXoXoXoXoX{.4X4X4X4X4X4XeX4X4X4X4X].].4X].].].].].[.'.[.[.`.E.w.A d j w.5.-.z./.'.'.'.'.'.'.'.(.(.(.(.(.(.(.(.(.(.(.(.(.(.(.(.(.(.(.(.(.(.(.(.(.(.(.(.;X;X;X;X;X;X;X;X;X;X;X;X;X;X;X;X;X;X;X;X;X;X;X;X;X;X;X;X;X;X;X;X;X;X:X:X:X:X:X:X:X>X:X>X:X:X>X>X,X,X,X,X,X,X,X,X,X,X,X,X,X,X,X,X,X,X,X,X,X,X,X,X>X>X>X>X,X,X,X:X:X:X:X:X:X;X>X>X>X>X>X>X>X>X>X>X>X>X>X>X>X>X>X>X>X,X>X;X;X;X:X:X;X;X;X;Xg.,.M.(.;X;X-X;X;X;X;X;X(.(.(.(.(.(.(.(.(.;X;X(.;X;X;X(.(.^.^.^.^.^.^.^.(.(.(.(.(.(.(.(.(.(.(.(.(.(.(.(././././././././././.`././.J.a.9.E y y U 2.K./.H.U./.(.'.`.`.`.`.`.`.[.[.[.[.[.[.[.[.[.[.].].[.[.[.[.[.[.[._._.K.K.R._.`.[.[..X.X.X_.Z.^ '  X%XMX%X$X$X|.OX*XvX=XNXGXHXGX_.S.$X$X=X}.oX+XA.! 5.s.b.G.b.a.G.4.A j P 4.9.;.A u a ;.y.r.7.r.r.3.-.-.P l r h A #.;.4.9.9.r.t.p.a.k.z.z.b.n.n.G.n.G.P.P.(.b.L u %.H.i.U A L L N j s l ",
"r V A A P L L U 4./.2X(.q.a , e #.j.I.L.P.P.M.b.b.b.b.b.z.k.j.y.y.e.7.#.z r i A ;.r.y.a.k.k.z.k.y.A s P r.p.p.r.3.A A =.k.n.G.G.U.K.d.u.!.oXvXNXGXNXMX$X' %XNXGXNXMX X X#X| | &X*XXX!.!.!.F.F._.oXdXdXdXdXoX]._._.[.oXuXeXoXeXeXeXeXeXeXeXeXeXeXeXeXeX4X4X4X4X{.].].].].].].].].].[.G.5.A d V w.9.2.G.`.'.'.'.'.'.'.'.'.'.'.<X'.'.'.'.'.:X(.(.(.(.;X;X;X(.(.;X;X(.(.;X;X(.(.(.(.;X;X;X;X;X;X;X;X;X;X;X;X:X:X:X:X:X:X:X;X;X;X;X;X;X;X:X:X;X;X;X;X,X,X,X,X,X,X,X,X>X>X>X>X>X>X>X>X>X>X>X>X>X>X>X>X>X>X>X>X>X>X>X>X>X>X>X>X>X>X>X>X>X>X>X>X>X>X>X,X>X:X>X>X>X>X>X>X>X>X>X>X>X>X>X>X>X>X>X>X>X>X>X>X>X>X>X>X:X:X:X:X:X;X:X;XP.N.P.:X;X;X;X;X;X;X;X;X;X(.(.(.;X;X;X;X;X;X;X(.;X;X;X;X(.(.(.(.(.(.(.(.(.(.(.(.(.(.(.(.(.(.(.(.(.(.(.'.(.'.(.(.(.(.(.(.'.'.'.'.'./.J.p.K.2.w d U R E.U.U.U./.'.`.`.[.[.`.[.[.[.[.[.[.].].].].].].].].].].].[.].[.].`.R.K.K.K.`.]..X.X.X.X.X_.Z.^ ' |. X X@X X X$XOXXXvXGXHXNX%XS.OX%X$XXX}.vXvX+XF.E ! s.K.K.s.a.a.3.L B T 4.9.;.B r h -.9.r.9.9.7.4.3.=.I i u h S #.;.4.7.9.r.i.p.a.k.k.z.b.b.G.n./.P.H.%.u a 9.G.P.G.4.L A P A l s N ",
"A L L L L L T -./.(.(.2X(.x.Y 7 < z 4.b.L.M.x.x.b.b.b.z.k.j.y.e.e.7.#.N 7 u A #.8.y.a.a.z.z.z.k.A l P 7.9.r.p.4.A C =.f.l.z.b.H.K.u.u.D.oXvXGXHXGXGX=X*X@X' %XNXNXMX*X{ |  .[ { $X!.!._.D.A._.oXdXdXdXdXuX.X_.R.[..XuXuXeXeXeXuXuXuXuXtXeXtXuXeXrXeXeX4X4X4X4X4X4X4X4X].].].].].].J.9.A d V i.s.5.G.`.'.2X'.'.'.'.'.'.'.'.'.'.'.'.'.'.(.:X:X:X:X;X;X;X;X(.(.(.;X(.(.;X;X(.(.(.(.;X;X;X;X;X;X;X;X;X;X;X;X:X:X:X:X:X:X:X;X;X;X;X;X;X;X:X:X>X>X>X>X,X,X,X,X,X,X,X,X>X>X>X>X>X>X>X>X>X>X>X>X>X>X>X>X>X>X>X>X>X>X>X>X>X>X>X>X>X>X>X>X>X>X>X>X>X>X>X>X>X>X1X1X>X>X>X>X>X>X1X1X1X1X1X1X1X1X1X>X1X1X1X1X1X>X>X>X>X>X,X,X>X,X:X:X;X(.(.(.;X;X;X;X;X;X;X;X;X;X;X;X;X;X;X;X;X;X(.^.(.;X;X;X;X;X;X;X(.(.(.(.;X(.(.(.(.(.(.(.(.(.(.(.(.(.:X(.'.'.'.(.'.'.'.'.'.'.'.'.'.'.`.J.s.K.2.q d U 6.J.J.U.U./.`.`.[.`.`.[.[.[.].].'.].]..X].].].].].].{.{.].{.].].[._.J.R.K.R.[.[..X.X.X.X.X_.F.^ ' ' | |  X@X@X XXXNXGXNX=XS.|.$X%X=XoXvXNXMXjXoXu.D 6.K.J.K.a.z.a.9.L A %.4.7.;.A e h -.y.r.9.9.9.7.;.-.C i q i B T ;.4.7.9.t.i.p.p.k.z.z.b.b.n.L.r.j q L k.L.G.U.P.z.T A U L N s d ",
"A A P Y L L 4.K./.(.;X;X;X(.n.9.z < 8 T k.v.x.k.b.z.j.y.y.e.r.r.8.=.z 7 e C ;.8.y.a.j.z.z.z.r.L j P 3.8.t.p.;.B L -.t.v.z.b.J.R.F.u.D.oXvXNXNXGXHXGXvX$X*X|.' %XNXMXMX|.` [ } ` ' !.!.A.K.[.oXoXoXuXuXoX.XJ.A.R..XuXuXuXdXdXdXdXuXuXuXuXuXuXeXeXuXuXuXeXeX4X4X4XeXeX4X].].`.].].`.9.U N A i.s.i.G.[.2X4X2X2X'.'.'.'.2X2X2X'.'.'.<X<X'.(.(.(.:X:X:X;X;X;X(.(.;X;X;X;X;X;X;X;X;X;X;X;X;X;X;X;X;X;X;X;X:X:X:X:X:X:X:X:X:X:X:X;X:X:X:X:X:X:X>X>X>X>X>X>X>X>X>X>X>X>X>X>X>X>X>X>X>X>X>X>X>X>X>X>X>X>X>X>X>X>X>X>X>X>X>X>X>X>X>X>X>X>X>X>X1X1X>X>X>X>X1X1X1X1X1X1X1X1X1X1X1X1X1X1X1X1X>X>X>X>X>X>X>X>X1X1X>X>X>X>X>X>X,X,X:X:X:X;X;X;X;X;X;X:X;X;X;X;X:X;X;X;X;X;X;X;X;X;X;X(.(.;X;X;X;X;X;X;X;X;X;X;X;X;X(.(.;X;X:X:X(.(.(.(.(.(.:X:X(.(.(.(.(.(.(.(.'.'.'.'.'.[.'.[.`.b.b.R y V W 6.U.'.U.U.`.[.[.[.[.[.[.[.].].].].]..X.X.X.XoXoX.X].`.[.[.].].].[._.R.R.R.K.`..XoX{.{..X[._.F.^ ' | #X@X@X{ ~.%XNXNX=X' |.$XXX=X=XNXNXNXNXNXvXXX^ W s._.R.s.a.z.z.i.T A T 9.9.3.A u h ;.y.t.9.9.9.4.;.#.C r 7 j I #.;.4.7.9.r.t.y.j.j.k.b.b.e.z 7 l 8.z.b.L.P.P.I.b.t.T A Y U V f ",
"A A U Y S %.b.`.'.(.(.Y.Y.I.I.H.k.-.e , h 9.y.z.z.z.a.y.e.e.e.8.;.z e i C ;.e.e.y.a.j.j.k.9.L l P 7.t.t.t.3.L B -.t.k.v.z.K.K.^ ^ D.+XjXNXNXBXnXNXGXNXMX$X&X|.' XXMXMX*X{ H ` ` S.!.D.A._..XuXoXoXuXoX.X_.R._..XuXyXyXyXyXdXdXdXoXoXdXdXuXuXeXeXuXuXuXeXeXeXeXeXeXeXeX4X[.[.].`.i.R s U s.s.i.K.'.4X4X4X2X2X'.'.'.2X2X2X2X'.'.'.<X<X'.'.I.^.:X:X<X;X;X;X(.(.;X;X:X:X;X;X:X:X;X;X;X;X;X;X;X;X:X:X;X;X:X:X:X:X:X:X:X:X:X:X:X:X:X:X>X>X:X:X>X:X:X>X>X>X>X>X>X>X>X>X>X>X>X>X>X>X>X>X>X>X>X>X>X>X>X>X>X>X>X>X>X>X>X>X>X>X>X>X>X>X3X3X>X>X1X1X3X3X3X>X1X1X1X1X1X1X1X1X1X1X1X1X1X1X1X1X1X1X>X>X>X>X>X>X1X1X>X1X>X>X>X>X,X,X>X>X:X:X;X;X;X;X:X:X:X:X:X:X:X:X:X:X;X;X;X;X:X:X:X;X;X;X;X;X;X:X:X;X;X;X;X;X;X;X;X;X;X;X<X<X:X:X:X(.(.(./.(.(.'.(.(.(.(.(.(.'.<X'.'.'.[.'.'.`.`.a.s.R f V U 9.U.].[.`.`.`.`.[.[.[.].].].{.{..X.XoXoXoXoXoX[.R.A.`.oXeXeX{.{.]._.R.R.K.K._..X.X{.]..X.X_.A.' '  X@X X~.OXMXMX$X^ ~.*X|.=XjXNXNXNXNXNXNXvX=XF.W ! u.R.K.z.a.a.k.9.T A %.4.9.3.P i a ;.y.t.9.7.7.4.;.#.z r r z A #.=.4.7.9.r.t.e.y.p.p.#.7 e #.j.b.b.n.G.L.L.L.L.b.y.%.U T D f ",
"L L P Y T a.U.'.(.(.I.I.P.P.M.M.L.b.r.z < e %.y.y.y.e.e.8.8.4.#.z 7 r A ;.e.y.y.y.y.a.y.8.A h P 4.p.k.t.3.I A -.r.a.k.l.b.K.u.K Q !.oXvXNXBXBXBXbXNXGXNX%XOX&X|.' $XMX*X$X^ Q ' !.F.A._.oXoXdXuXuXoX.X[._..XuXhXjXhXhXhXdXdXdXoX_.!.+XoXuXeXeXeXuXeXuXuXeXeXeXeXeXeXoX{.].{._.s.R N V i.s.i.E.[.4X4X4X4X2X4X2X2X4X2X2X2X<X<X<X<X<X<X<X<X^.(.:X:X<X<X<X<X;X;X:X<X:X:X:X:X:X:X:X:X:X;X;X;X;X;X:X:X:X:X:X:X:X:X:X:X:X:X:X:X:X:X:X:X>X>X>X>X:X;X;X>X>X>X>X>X>X>X>X>X1X1X1X1X1X1X1X1X3X3X1X>X>X>X>X>X>X>X3X3X3X>X3X3X>X>X3X3X3X3X3X3X7X7X7X7X3X3X3X3X1X1X1X1X7X7X7X3X7X7X3X3X1X1X1X1X3X1X1X1X1X>X>X>X1X>X1X1X1X1X>X>X>X>X>X>X>X>X:X;X;X;X:X:X:X:X:X:X>X>X>X>X>X:X;X;X:X:X:X:X;X;X;X;X;X;X;X;X;X;X;X;X;X;X;X;X;X;X:X<X:X:X:X(.'.(.(.(.'.'.'.'.'.'.'.'.2X<X'.'.'.'.].'.].`.J.A.K.R d d A a.[.].[.`.`.[.[.[.].].{.{.].{.oXoXoXoXoXoX+X_.d.d.R.eXuXeXeXeXoX].[._.R.R.R.[.].{.{..X]..X}.A.~ ' ' '  X*XMX$X' { &X|.XX%XvXBXNXNXGXNXNXMX=X!.F.u.! u.J.J.z.p.y.k.9.T A T 4.9.;.P i h %.9.r.9.9.9.7.4.#.z r r l A #.=.;.7.9.r.7.e.0.B , k 0.k.v.m.n.b.n.n.L.P.L.P.H.p.T U W V ",
"L L P P k.U.'.'.Y.I.I.P.P.P.M.M.n.b.b.j.L , < B ;.;.;.;.7.7.#.z 8 q C ;.8.e.y.y.y.y.y.p.S h I e.r.a.p.3.P S #.y.j.k.k.b.A.^ K ' Q ' %XvXnXBXBXNXhXNXGXGXMXXX$X&X~.' $X*X$X' ^ F.F.A.[.oXdXuXuXeXoX.X[.[..XdXmXhXhXhXhXmXhXdXdXoXS.S.!.+XoXoXeXeXeXeXuXuXeXeXeXeXuXeXeX{.oX[.s.R N N p.p.w.G.].4X4X4X4X'.4X4X2X2X4X2X2X2X<X<X<X<X<X<X<X<X:X:X<X<X<X<X<X<X;X;X:X<X:X:X>X:X:X:X:X:X:X;X;X;X;X:X:X:X:X:X:X:X:X:X:X:X:X:X:X:X:X:X1X:X>X>X>X>X:X-X-X,X>X>X>X>X>X>X>X>X1X1X1X1X3X3X3X3X3X3X3X1X>X>X>X>X>X>X3X3X3X1X3X3X3X3X7X7X7X3X7X7X7X7X7X7X3X3X3X3X3X3X3X3X7X7X7X7X7X7X3X3X1X1X1X3X3X3X3X1X1X1X1X>X1X1X1X1X1X1X1X>X>X>X>X>X>X>X>X:X;X:X:X:X:X:X:X:X1X1X1X1X>X;X;X-X;X(.;X;X;X;X;X;X;X;X;X:X;X;X;X;X;X;X:X:X;X;X;X;X:X:X:X(.'.'.'.<X<X<X<X<X<X<X'.'.2X<X'.'.'.'.].].4X].`.J.s.K.2.d j Y p./.'.[.`.`.[.'.].].{.{.].].eXuXoXdXoX+X!.S.u.d._.oXuXuXuXeXeXoX].[..X[.R.R._.]..X.X.X[.[._.d.~ / ] @X&X@X/ ' &X|.~.=XjXBXNXNXGXGXNXNXMXXX!._.Z.W W A.`.J.a.r.i.k.y.P A %.9.7.;.P u h #.t.p.e.8.8.8.;.#.h r i l A #.-.;.4.9.q.@.u 7 A 8.k.l.v.v.n.b.n.n.L.P.P.P.U.H.a.R V M ",
"L B P z.(.(.(.(.P.P.P.N.P.N.L.n.n.b.v.l.y.Y , # i Y I I #.P g 6 t C =.8.e.y.y.y.j.j.0.S j I 7.e.z.a.4.B B =.f.f.x.k.H.s.Z.F F | ] Q |.MXNXNXNXnXbXnXGXNXNXMX|.$X*X~.' OXS.' Z.Z.A.`.oXuXuXuXuXuX.X.X.X.XuXhXhXbXbXbXbXmXhXhXuX_.!.' Q S.+XoXjXuXyXyXyXyXeXeXeXeXuXrXeXeX[.s.! D V i.J.a.U.[.rXrX4X4X4X4X2X2X2X2X4X4X2X2X2X2X2X2X2X2X2X2X<X<X<X<X:X:X:X:X:X:X:X:X:X:X:X:X:X:X:X:X:X:X:X:X:X:X:X:X:X:X:X:X:X:X:X:X>X>X>X1X>X1X1X;X;X>X>X>X,XM.v.:X>X>X>X>X>X>X>X>X1X1X1X1X7X7X1X1X3X>X>X>X>X>X1X3X>X>X>X>XwXwX7X7X7X7X3X3X3X3X3X3X7X7X7X7X3X3X3X3X3X3X3X3X3X3X7X7X7X7X3X3X3X3X3X3XwXwXwX1X1X1X1X1X3X3X3X3X>X>X>X>X1X1X1X>X>X:X>X:X>X>X1X1X1X1X1X1X>X>X>X>X:X;X;X;X;X;X:X:X:X;X;X;X;X;X;X;X;X;X;X;X;X;X:X:X:X:X;X;X<X<X;X;X:X:X<X<X<X2X2X2X2X2X<X<X2X2X2X2X4X].4X4X].].].].K.K.J.2.d V R i./.]./.`.`.'.4X4X].{.eXuXuXuXjXjX+XF.^ ' Z.F._..XuXyXyXeXuXeXeX.X.X[._.R.R._.[..X.X.X[._.R.u.Q ' | ../ [ $X*X~.XX%XvXBXBXLXGXGXNXMX%XOXOXS.~ ~ E W A.J.K.a.p.a.k.9.Y L %.4.4.-.A i h #.0.e.e.e.e.7.;.P j e i z C I T :.;.j < q %.t.y.k.k.z.x.b.v.G.L.P.I.P.P.P.P.P.i.L l ",
"L T a.H./.(.Y.I.P.N.N.N.N.M.n.n.b.b.l.k.j.t.#.5 = 7 c z i 9 0 t c #.7.e.y.y.y.p.j.0.A j P 7.t.j.r.5.L l T y.l.h.l.y.A.! F F J } @X] Q !.vXNXNXnXnXnXNXNXNXMX=X~.$X$X^ ' ' Z.F.A._..XuXuXeXeX.X.X[.]..XoXyXhXlXbXnXnXmXmXhXhXoX.X!.~ n n D.oXuXjXyXyXyXuXuXuXuXuXeXrXeX`.i.! V V 5.J./.`.4X4X4X4X4X4X4X4X4X2X2X2X4X2X2X2X2X2X2X2X2X2X2X2X<X<X<X<X:X:X:X:X:X>X>X:X:X:X:X:X:X:X:X:X:X:X:X:X:X:X:X:X>X:X:X:X:X:X:X:X>X>X1X1X1X1X1X;XB.>X3X3X>XB.B.,X>X>X>X>X>X>X>X>X1X1X1X1X7X7X1X1X3X3X3X3X>X>X>X1XwX1X1X>XwXwX7XwX7X7X3X7X3X3X3X3X7X7X7X7X3X3X3X3X3X7X7X3X3X3X3X7X7X7X3X3X7X7X3X3XwXwX1X1XwXwXwX1X3X3X3X3X>X>X3X3X1X1X1X1X1X>X1X>X1X1X1X1X1X1X1X1X1X>X>X>X>X:X:X:X:X:X:X:X:X:X:X:X:X:X:X:X:X:X:X:X<X<X<X<X<X<X<X<X<X<X<X<X<X<X<X<X2X2X2X2X2X2X2X2X4X2X2X2X4X4X4X4X4X].].].`./.J.J.2.d A R i.J.{.[.`.`.].4X4XeXeXuXyXyXjXjX+X^ K ~ Z.A._.oXhXmXmXhXyXuXeXeXoX[._._.R.R._..X.X.X.X[.`.R.F.~ / H ` #X*X|.|.=XvXvXBXGXLXGXNXMXXXOX%X|.Q Q ' S.M D i.J.K.a.a.y.k.9.Y A #.4.4.-.Y i u &.e.e.e.y.8.7.;.P h 8 u l l z B e ; t %.7.t.y.j.k.k.z.x.b.b.n.L.L.L.P.P.P./.P.a.L ",
"T b./././.U.Y.I.N.N.N.M.M.M.n.v.v.v.k.k.y.f.e.#.9 % 7 z , $ e S #.7.8.e.y.y.y.p.9.S h #.8.y.t.i.4.A j #.e.k.h.h.l.z.! F Q _ J )  .#X` / |.MXNXnXNXNXNXNXNXMXMX!.~.S.^ ^ Z.Z.A._.oXeXeXeX.X.X[.[.`.[.oXuXuXhXbXnXNXnXnXnXmXhXdXoX+X~ n M D.uXjXhXuXuXuXuXuXuXdXdXuXeX`.s.! D V w.i.i.`.eX4X4X2X2X4X4X4X4X4X4X2X2X2X2X2X2X2X2X6X6X2X1X2X2X2X2X2X2X<X<X<X<X<X<X<X<X<X<X<X<X<X<X:X:X>X:X>X>X:X:X:X:X>X>X:X:X:X:X1X1X>X>X1X>X1X1X>X:X^.3X>X>X>X,X-X,X>X>XwXwX>X>X1X1X3X7X7X7X7X7X1X3X7X7X7X7X3X7X7X7XwXwX7X7X7X7X7X7X7X7X7X7X7X7X7X7X7X7X7X7X7X7X7X7X7X7X7X7X7X7X7X7X7X7X7X7X7X7X7X7X7XwXwXwXwX1X1XwX3X3X7X7X3X3X3X3X3X3X3X3X1X1X1X1X1X1X1X1X1X1X1X1X1X1X>X>X>X>X>X>X:X:X:X:X:X:X:X:X:X:X:X:X:X:X:X:X<X<X<X<X<X<X<X<X<X<X<X<X<X<X<X<X2X2X2X2X2X2X2X2X4X4X2X2X4X4X4X4X4X4X4X].].].J.`.R.W M W 6.i.`.oX{.`.[.{.eXuXyXyXyXhXhXjXoXA.~ ~ Z.R..XuXjXmXnXmXhXyXuXeXoX.X[.[._.R.R._..X.X.X[.[.R._.S.Q Q { @X|.~.=X%XvXbXnXGXNXNXMX%X=X*XOX~ ^  X' _ F 3 3 u.J.b.a.r.y.a.4.L L #.;.3.7.Y a a &.9.e.8.r.9.7.;.P i < e l u = # a #.8.9.0.t.j.j.k.k.l.x.x.b.n.n.L.P.P.P.P.P.U.z.",
"m././.(.I.I.I.I.N.M.N.M.M.M.n.v.v.k.k.j.8.8.7.;.P e = 5 - 8 C &.7.8.e.e.y.y.y.y.N h Y 8.t.y.9.4.U j T a.l.c.c.l.a.! M Q _ ) } ` J }  .] ' |.MXNXNXNXNXNXNXvX%X~.' Q ~ u.Z.F._.oXuXuXeXeXeX].[.`.[.]..XoXuXhXbXnXNXNXnXnXnXmXhXjXoXD.^ F.oXjXhXhXuXuXuXuXhXhXhXhXuX[.s.! U V ! i.E s.eXeXeX4X2X2X6X6X4X4X4X4X2X2X2X2X2X2X2X2X6X6X2X2X2X2X2X2X2X2X<X<X<X<X<X<X<X<X<X<X<X:X<X:X:X:X:X:X>X>X:X:X:X:X>X>X:X:X:X:X1X1X>X>X1X1X1X>X1X>X>X3X>X>X>X7X>X>X>X>XwXwX>X>X1X1X3X3X7X7X7X7X7X7X7X7X7X7X7X7X7X7X7X7X7X7X7X7X7X7X7X7X7X7X7X7X7X7X7X7X7X7X7X7X7X7X7X7X7X7X7X7X7X7X7X7X7X7X7X7X7X7X7X7X7XwX1X1XwXwX3X3X7X7X7X7X3X3X3X3X3X3X3X3X3X3X1X1X1X1X1X1X1X1X1X1X1X>X1X1X>X1X1X:X:X:X:X:X:X:X:X:X:X:X:X:X:X:X<X<X<X<X<X<X<X<X<X<X<X<X<X<X<X<X2X2X2X2X2X2X2X2X4X4X2X2X4X4X4X4X4X4X4X4X].].`.J.A.u.V D E 5.s.`.{.[.[.{.eXtXaXlXyXhXhXhXjXoX_._._.oXdXjXjXbXNXNXnXlXyXuXoXoXoX]._._.R.R.[..X.X.X.X[.[..XZ.Q ' ' ' D.XXoXvXbXNXGXNXNXvX=X*XOX~ ^ %X*X X_ Q Q 3 M A.K.a.r.9.y.a.4.L A T ;.%.3.#.a a #.y.t.8.r.9.7.7.Y h e 7 $ = u z %.;.7.0.t.p.j.j.k.z.z.l.x.b.v.n.G.P.P.L.P.P.P.",
").).).I.I.I.I.I.M.N.N.M.M.n.n.v.n.v.j.e.7.7.=.#.C 7 - = 7 N #.&.7.8.t.j.z.j.8.z a @.t.9.y.r.%.N A R t.k.y.k.G.K.E 4 H [ _ | &X&XJ G } #X] ' OXNXNXGXGXNX%XXX|.Z.~ ~ ^ u.A._..XuXuXuXeXeX].].[.`.]..XoXuXyXlXbXnXnXnXnXnXbXbXmXvXhXoXoXdXhXhXhXhXhXhXhXhXvXvXvXjX[.A.! E D 6.i.! u.[.eX].4X4X4X5X6X6X4X4XrXrX4X4X4X4X4X4X6X2X4X4X2X2X2X2X2X2X2X2X<X<X<X<X<X<X<X<X<X<X<X<X<X<X1X1X:X:X>X1X1X1X1X1X1X1X1X1X1X1X1X1X1X1X1X1X1X1X>X>X>X>X>X>X>X>X>X>X>X1XwX7XwX1X7XwX3X3X7X7X7X7X7X7X7X7X7X7X7X7X7X7X7X7X7X7X7X7X7X7X7X7X7X7X7X7X7X7X7X7X7X7X7X7X7X7X7X7X7X7X7X7X7X7X7X7X7X7X7X7X7X7X7X7X7XwX1X;X;X1X7X7X7X7X7X7X7X7X3X3X1X1X1X1X1X1X1X1X1X1X1X1X1X1X1X1X1X1X1X1X1X1X>X>X:X:X:X:X:X:X<X<X<X<X:X:X:X:X<X<X<X<X<X<X<X<X<X<X<X<X<X<X2X2X2X2X2X2X2X2X2X2X2X2X4X4X4X4XeXeXeXeXeXeXeX4X].].s.V y V U w.s.A.}.oXoX.XeXuXaXmXlXhXhXmXhXjXdXdXdXuXdXhXbXbXnXnXNXnXhXyXuXeXeXoX.X[._.R.R.[..X.X.X].[._.R.u.~ ~ ^ ' Z._.dXmXGXNXNXMXXX*X$X~ F.NXNXMX| ` _ F F 3 M A.i.a.i.i.r.r.4.A N Y %.%.;.@.u s ;.e.y.e.8.7.7.3.T z < $ < s h B #.7.7.9.t.j.j.k.k.k.j.7.8.l.n.G.P.P.P.P.P.P.",
"(.^.^.I.I.I.P.I.M.N.N.N.n.n.v.b.b.k.e.,.;.;.#.P h 5 - 5 j P =.;.e.y.j.z.j.e.N a P 7.t.9.i.R V V R i.z.z.b.a.E.w.3 n [ ` | &XMX*X| G J [ #X{ ' OXNXNXNXMXXXD.' ~ ^ u.u.u._..XuXuXuXeXeX.X`.[.]..X{.oXuXuXlXbXnXnXnXnXnXnXnXbXbXbXnXmXmXmXhXhXhXhXhXhXhXmXmXmXjX{.A.u.! E u.R.K.i.`.eXuXeXeXrXrXrX4X4X4X4XrX4X4X4X4X4X4X4X6X2X4X4X6X6X2X2X1X2X2X1X1X<X<X<X<X<X1X1X1X1X1X1X1X1X1X1X1X1X1X1X1X1X1X1X1X1X1X1X1X1X1X1X1X1X1X1X1X1X>X:X,X>X>X>X1X>X1X>XwXwX1XwX7X7X7XwX3X3X7X7X7X7X7X7X7X7X7X7X7X7X7X7X7X7X7X7X7X7X7X8X7X7X7X7X7X7X7X7X7X7X7X7X7X7X7X7X7X7X7X7X7X7X7X7X7X7X7X7X7X7X7X7X7X7X7X7X>XI.-X1X7X7X7X7X7X7X7X7X3X7X7X7X3X1X1X1X1X1X1X1X1X1X1X1X1X1X1X1X1X1X1X1X1X1X1X1X>X1X>X>X1X1X1X1X<X<X<X<X<X<X<X<X2X2X2X2X<X<X<X<X2X2X2X2X2X2X2X2X4X4X4X4X4X2X4X4X4X4XeXeXeXeXeXeXeXeXeXeX_.w.R R 2.R 5.i.d.[.jXoXoXeXyXmXhXmXhXhXmXhXhXjXdXdXhXmXbXnXnXnXNXNXnXlXhXuXeXeXoX.X[._.R.R.[.[.].].].]._.R.^ ~ ~ ~ ^ Z.+XvXNXNXvXOX%X$X~ S.NXGXNXOX' ] [ Q F M 3 W A.s.i.i.r.t.a.4.A z I %.&.3.P i i ;.e.t.9.8.7.7.3.T u = = 7 u h C ;.3.7.t.p.j.j.k.k.j.t.y.l.b.b.L.L.P.P.P.T.",
"(.(.^.^.I.P.P.I.M.N.N.N.n.m.b.b.l.f.7.#.=.#.P h 9 5 6 i P ;.8.r.a.j.k.a.r.z i I 7.0.9.5.R U U 2.i.z.z.z.b.s.! 3 n ` ` [ &X*X*X*X@X .` m | #X{ ' =XNXMX+XF.~ ~ u.Z.u.u.A..XuXuXeXeXeX.X]._.[.oXuXoXeXyXmXbXnXnXnXnXnXnXnXnXnXbXbXmXhXlXlXlXlXhXhXjXvXmXmXNXvXoXD.6.u.! W A._.R.`.eXeXrXrXrXrXrXrXrXrXrXrX4X4X6XrX6X6X4X4X6X6X6X6X6X6X6X6X3X1X3X1X1X1X1X<X1X1X1X1X1X1X1X1X1X1X1X1X1X1X1X1X3X3X1X1X1X1X1X1X1X1X1X1X1X1X1X1X1X1X1X1X>X>X3X7X3X3X3X3X7X7X7X7X7X7X7X7X7X7X7X7X7X7X7X7X7X7X7X7X7X7X7X7X7X7X8X8X8X8X8X8X8X8X8X7X7X7X7X7X7X8X7X7X8X8X8X8X7X7X7X7X7X7X8X8X8X8X7X7X7X7X7X7X8X7X7X7XwX>X1X7X7X7X7X7X7X7X7X7X7X7X7X7X7X7X3X1X1X7X1X1X1X1X1X1X1X1X1X1X1X1X1X1X1X1X1X1X1X1X>X1X1X1X1X1X<X<X<X<X<X<X<X<X2X2X2X2X2X2X<X<X2X2X2X2X1X1X1X1X4X4X4X4X2X2X4X4X4X4XeXeXeXeXeXeXeXeXeXeXuX[.`.d.s.i.R R A.F.R.hXuXeXeXuXhXmXbXmXhXlXhXhXjXjXvXbXbXbXnXnXnXnXnXbXhXhXuXeXuX.X.X[._.R.R._.{.{.{..X[.R.D.u.E ~ ~ ~ Z.+X%X%X!.OX$X' ' $XNXNXXXS.~. X@X] F F M 3 W A.i.i.r.y.r.y.4.P j #.%.%.#.A i z =.e.e.8.7.7.7.;.L 7 - , 7 i z Y -.4.9.t.p.j.j.j.k.j.z.l.b.b.G.L.P.T.T.T.",
"(.(.^.I.I.P.P.I.M.M.N.N.n.b.b.z.k.e.=.P #.P c e 5 6 h I ;.8.y.y.a.a.y.r.C u C ;.0.t.9.2.U E 6.i.z.z.k.z.A.! 3 n _ _ `  .|.*XMXMX@X&X&X{ J [ @X| S.%X*X!.~ W u.K.F.d.A..XoXuXeXeXeX.X].[.[..XoXoXoXuXhXbXnXnXnXnXnXnXnXnXNXnXnXnXbXbXbXlXlXmXhXhXjXvXmXnXmXoXD.u.u.s.! i._.R.oXeXeXeXtXyXtXrXrXrXrXrXrXrX4X4X6XrX6X6X4X4X6X6X6X6X6X6X6X6X3X3X3X3X3X1X1X1X1X1X1X1X1X1X1X1X1X1X1X1X1X1X1X1X1X1X1X1X1X1X1X1X1X1X1X1X1X1X1X1X7X7X3X1X3X3X7X7X7X7X3X7X7X7X7X7X7X7X7X7X7X7X7X7X7X7X7X7X7X7X7X7X7X7X7X7X7X7X8X8X8X8X8X8X8X8X8X8X8X8X8X8X8X8X8X8X8XqX8X8X8X8X8X8X8X8X8XqXqXqX8X8X8X8X8X7X9X9X9X8X7X7X7X7X7X7X7X7X7X7X7X7X7X7X7X7X7X7X7X3X7X7X1X1X1X1X1X1X1X1X1X1X1X1X1X1X1X1X1X1X1X1X1X1X1X1X1X1X1X1X1X1X2X2X2X2X1X1X1X1X1X1X1X1X2X2X4X4X2X1X6X6X4X6X6X6X6X2X4X4X4X4XrXeXeXeXtXtXeXeXeXeXeXuXuXJ.a./.b.L ! A.A._.vXdXoX.XuXmXmXbXbXbXlXhXhXjXhXbXbXnXnXnXnXnXnXbXnXhXjXuXuXeX.X.X[._.R.}.[.{.{.oXoX_.R.R.s.E E ~ ~ ' S.' ]  X' S.OXMXMXXX~.|.$X&X@X| [ n n 3 3 D i.i.r.y.t.y.y.4.I j I %.#.#.C u C =.8.e.,.,.7.7.,.z 5 - , e h N T 3.7.9.t.p.j.j.k.x.v.l.z.b.G.L.T.T.T.T.",
";X(.(.I.I.P.P.M.M.N.N.M.n.b.k.p.y.;.#.#.#.z i 8 0 g I =.7.8.e.e.y.j.;.l a A 3.7.9.7.%.Y 5.3.7.t.l.b.l.a.6.3 n Q Q ` |  X$XMXMXMX@X X&X&X[ J ` #X| ' ~.' ~ u.A.s.A._._.oXdXdXuXrXeX].[..X]..X_.]..XuXmXnXnXnXnXnXnXnXnXnXnXnXnXnXnXnXbXmXhXmXvXhXhXmXNXNXdXA.! Z.}.i.i.`.].oXuXuXrXtXtXyXtXtXrXrXrXrXrXrX4X4X6XrX6X4X4X4X4X4X4X4X4X4X5X5X5X5X3X3X3X3X3X3X1X1X1X3X3X3X1X1X3X1X1X1X3X3X3X1X1X1X3X3X1X1X1X1X1X1X1X1X1X1X1X7X7X7X7X7X3X3X7X7X7X7X7X7X7X7X7X7X7X7X7X7X7X7X7X7X7X7X7X7X8X8X8X7X7X7X9X9X7X7X8X8X7X7X8X8X9X9X8X8X8X8X8X8X8X8X8X8X8X8XqXqX8X8X8X8X9X9X9X8X8X8X8X8X8X9X9X9X9X9X9X8X8X8X8X8X7X7X7X7X7X7X7X7X7X7X7X7X7X7X7X7X7X7X7X7X3X3X1X1X3X3X3X3X1X1X1X1X1X1X1X1X3X3X3X3X3X3X3X3X1X1X4X4X4X1X1X1X1X1X1X3X3X3X3X3X3X3X1X1X6X6X6X6X4X4X6X6X4X4XrXrXrXrXrXtXtXtXtXtXtXtXtXuXyXtXuXeX/.K.`.A.W ! _.R..XNXvX_._.jXbXbXbXbXbXhXhXhXhXnXnXnXnXnXnXnXnXnXnXnXbXhXyXeXeXoX.X[._.J.}.[.{.oXeX.X_.R.R.s.! D ~ Q Q _  X' ' OX&X*X|.{ |.$X*X&X#X| ] _ n n 3 : W i.r.a.t.t.t.r.7.C z P 3.3.-.S h z &.8.e.8.7.8.,.#.h 5 , 8 u h A -.3.-.3.9.p.t.k.z.z.z.k.b.n.L.T.P.P.I.",
";X(.(.I.I.I.P.M.M.N.N.M.n.b.j.y.e.8.;.#.z e 6 5 i A =.7.e.t.y.y.j.7.C s T 4.9.8.9.3.R %.9.9.e.f.f.b.m.a.f M F m m |  X@X$XMXMX*X@X X@X@X| ) J ( | ] ' ~ ~ A.s.s._.oXA.].uXuXtXtXeX.X]..X.XR.R.R.[.uXbXNXnXnXnXnXnXnXnXnXnXnXnXnXnXnXmXmXmXmXhXuXyXNXGXNX_.! u.D.i.5.`.oXeXuXuXuXtXyXyXyXtXtXtXtXrXrXrXrXrXrXtXtXtXrX5X6X6X4X4X4X4X4X5X5X5X5X3X3X3X3X3X3X3X3X3X3X3X3X3X3X3X1X1X1X3X3X1X1X1X1X3X1X1X1X1X1X1X1X1X1X3X3X1X7X7X7X7X7X7X7X7X7X7X7X7X7X7X7X7X7X7X7X7X7X7X7X7X7X7X7X7X7X8X8X8X8X7X7X9X9X7X7X8X8X7X7X8X8X9X9X8X8X8X8X8X8X8X8X8X8XqX8XqXqX8X8X8X8X8X8X9X8X8X8X8X8X8X8X8X9X9X9X9X8X8X8X8X8X7X7X7X7X7X7X7X7X7X7X7X7X7X7X7X7X7X7X7X7X7X7X3X3X7X3X3X3X1X1X1X1X1X1X1X1X3X3X3X3X3X3X3X3X3X3X3X3X3X3X3X3X3X3X3X3X3X3X6X6X6X6X3X3X4X4X4X4X6X6X5X5XrXrXrXrXrXrXtXtXtXtXtXtXtXtXuXyXyXyXuXuXuX`.A._.A.W ! _.oXvXvX+XR.oXbXbXnXbXbXhXhXhXbXbXnXnXnXnXbXnXnXGXNXnXnXnXhXuX.X[.[.[.[.[.}.`.[.].oX.X].}.A.K.A.6.~ K _ | Q ' *XMX&X@X{ @X&X*X*X@X| | | _ K 3 3 1 3 2.r.9.t.y.t.t.a.4.P B #.3.3.%.C h j %.7.8.8.7.7.,.O.h 6 0 7 s l A R %.%.3.t.j.k.z.z.z.k.b.M.L.T.P.I.I.",
";X;X(.(.I.I.P.M.M.M.n.M.b.z.j.t.7.7.#.A i 5 , 7 A #.=.7.t.p.y.y.;.z h #.4.9.t.t.3.T %.5.9.r.t.e.l.m.b.4.f W K n F ' @X X$X*X*X%X@X#X#X#X} ( J ) ` ] ^ ~ Z.s.s.J.oXuXK.d.[.eXeXeXoX.X.X.X`.s.K.R.[.yXnXNXnXnXNXNXnXnXnXnXnXnXnXnXnXnXmXmXmXyXuXuXhXNXmX_.! u._.d.6./.eXuXyXuXyXuXyXyXtXyXtXtXtXtXtXtXtXtXtXtXtXtXtXtXrXrXrXrX5X5X5X5X5X5X5X5X5X5X5X5X5X5X3X3X3X3X3X3X3X3X3X3X5X5X3X3X3X3X3X3X3X3X7X7X3X3X7X7X7X7X7X7X7X7X7X7X7X7X7X7X7X7X7X7X7X7X8X8X8X7X9X9X8X8X8X9X9X9X9X9X8X8X8X8XqXqX8X8X8X8X8X9X8X8X8X8X8X8XqXqXqXqXqXqXqXqX8X8X8X8X8X8X8X8XqXqXqXqX9X9X9X9XqXqXqXqXqXqXqXqXqXqXqX8X9X9X8X8X8X8X8X8X8X8X8X8X7X7X7X7X7X7X7X7X7X7X7X7X7X7X7X7X7X7X7X7X1X1X1X1X1X3X1X1X3X3X3X3X3X3X3X3X3X3X3X3X3X3X3X3X3X3X3X3X6X6X6X6X6X6X6X6X6X6X6X6X5X5X5X5XrXrXrXrXrXrXtXtXtXtXtXtXtXtXtXtXyXyXyXhXhXuX`.A.J.s.! ! +XvX+XoXjX}.oXNXnXnXbXbXbXbXbXnXnXnXnXbXbXnXNXGXGXLXLXnXlXuX[.R.R.[.[.[.[.`.J.J.].].].[.J.A.K.K.Z.~ '  XQ ' %X%X X{ #X&X*X&X@X| | | { ' Z.K 3 d f U i.r.9.t.y.t.r.t.7.T A #.4.4.@.A h z P 4.8.8.e.7.;.I g 8 5 e s l S T Y T 7.y.z.z.z.z.k.n.M.L.L.P.P.I.",
";X;X(.(.I.I.P.L.N.M.M.n.b.z.p.t.;.#.C h q , 5 C ;.;.=.,.e.t.e.8.j l T ;.r.t.7.;.Y T 3.r.4.e.t.8.t.m.H.2.M E ! ^ ^ / ] @X$X@X$X*X@X#X#X .} ) ) ) G Q ~ D.R.s.J..XeXeXoXK.K.[.oXoX].[.]..XJ.s.s.J.oXbXNXNXLXLXNXNXnXnXnXnXnXnXnXnXnXnXmXmXmXeXeXhXlXmX_.! ^ _.F.! /.uXyXhXyXyXyXyXyXyXyXyXtXtXtXtXtXtXiXiXtXtXtXrXtXtXtXrXrXrXrXrX4X4X5X5X5X5X5X5X5X5X5X5X3X3X3X3X3X3X3X3X3X3X5X5X3X3X3X3X3X3X3X3X7X7X3X3X7X7X7X7X7X7X7X7X7X7X7X7X7X7X7X7X7X7X7X7X8X7X7X7X9X9X8X8X8X8X8X8X8XqX8X8X8X8X8X8X8X8X8X8X8X9X9X9X8X8X8X8XqXqXqXqXqXqXqXqX8X8X8X8X8X8X8X8XqXqXqXqXqXqXqX8XqXqXqXqXqXqXqXqXqXqXqX8X9X9X8X8X8X8X8X8X8X8X8X8X7X7X7X7X7X7X7X7X7X7X7X7X7X7X7X7X7X7X7X7X7X7X7X3X7X7X7X7X3X3X3X3X3X3X3X3X3X3X3X3X3X3X3X3X3X3X3X3X6X6X6X6X6X6X6X6X5X5X5X5X5X5X5X5XrXrXrXrXrXrXtXtXtXtXtXtXtXtXtXtXyXyXhXhXhXyXuX`.A.R.A.! ~ oXvX+XvXjX[.uXbXnXbXbXbXbXnXnXnXnXnXnXlXnXGXGXGXGXLXLXlXuX[.A.A.}.[.[.[.`.J.E.J.[.].]./.K.K.A.R.F.S.S.^ ' !.S.[ | &X&X&X#X X#X#X| { ~.!.u.V E V -.i.9.9.9.t.y.t.r.9.4.Y Y -.7.7.%.A j j P 7.e.y.8.;.#.Z g 8 6 r a l A P %.9.y.z.k.z.z.k.n.M.L.L.P.P.I.",
";X;X(.^.I.I.P.P.P.M.M.N.v.x.k.t.,.#.h 7 < q z P #.;.7.e.t.e.;.h l #.9.9.t.9.3.-.L U -.7.e.0.7.e.k.m.H.5.M W 6.A.D.^ Q { @X X@X@X#X#X .} ` H ) H Q F Z.R.R.J.`.].eX4X].].eX{.].].[.]..X].oX`.A.J.].jXnXnXGXGXGXGXbXbXnXnXnXnXnXnXnXnXnXmXeXJ..XyXnXeX! ^ _.u.E }.yXyXyXyXyXyXyXyXyXyXaXaXtXtXtXtXtXtXiXiXtXtXtXtXtXtXtXrXrXrXrXrX6X6X5X5X5X5X5X5X5X5X3X5X3X3X3X3X3X3X3X3X5X5X5X5X3X3X3X3X3X3X3X3X7X7X7X7X7X7X7X7X7X7X7X7X7X7X7X7X7X7XqX7X7X7X7X7X8X8X7X7X8X8X8X8X9X9X9X9X8X8X8X8X8XqXqXqXqXqX8X8X8X8X8X8X8X8XqXqXqXqXqXqXqXqXqXqX8X8X8X8XqXqXqXqXqXqXqXqXqXqXqXqXqXqXqXqXqXqXqXqXqXqXqX8X8X8X8X9X8X7X8X8X8X8X7X7X7X7X7X7X7X7X7X7X7X7X7X7X7X7X7X7X7X7X7X7X7X7X7X7X7X7X7X7X3X3X3X3X5X5X5X3X5X5X5X5X6X5X5X5X5X5X5X6X6X6X5X5X5X5X5X5X5X5X5X5X5X5X5X5XrXrXtXtXtXtXyXyXtXtXyXyXyXyXyXyXhXhXhXhXhXhXmXuX[.K.A.d.W ~ %X%X.XmXuX}.jXNXnXbXnXnXnXnXnXnXnXnXyXbXGXGXGXGXGXLXnXyX.XR.A.J.`.`.`.`.`.[.`./.`.`.J./.J.K.K.R.!.S.' ' ^ _ ` | #X .|  .#X@X|.~.XX=XA.s.i.L u r.i.9.9.9.r.p.p.r.9.9.;.Y Y -.7.4.#.A l B #.9.8.4.=.#.P v i 7 8 r j A #.3.9.t.k.k.z.z.x.n.L.L.M.P.^.P.",
";X;X(.^.I.I.P.P.N.N.M.M.v.b.k.t.7.#.g 5 < h @.#.=.7.t.t.8.%.h l #.r.p.0.p.q.T T L R -.7.8.t.8.7.f.l.b.a.%.V R K._.!.' Q '  X X X#X .] ) H m G F F ^ D.R.`./.[.4X4X2X2X2X4X].].].{.{.eXuXyXyXoXoXoXuXjXhXnXnXnXnXhXhXnXnXnXnXnXnXnXnXnXmX].J.eXuXhXR.! D.Z.W A.hXhXyXhXhXyXyXyXaXaXaXaXaXaXtXtXtXyXtXiXiXtXtXtXtXtXtXtXrXrXrXrXrX6X5X5X5X5X5X5X5X5X5X5X5X5X5X5X5X5X5X5X3X5X5X5X5X3X3X3X3X3X3X7X7X7X7X7X7X7X7X7X7X7X7X7X7X7X7X7X7X7X7X7X7X8X7X8X8X8X9X8X8X9X9X9X9XqXqXqXqXqXqXqXqXqXqXqXqXqXqXqXqXqXqXqXqX0X0X0X0X0X0X0X0XqXqXqXqX0X0X8X8XqXqXqXqXqXqXqXqXqXqXqXqXqXqXqXqXqXqXqXqXqXqXqX8X8X8X8X9X8X8X8X8X8X8XqXqX9X9X9X9X9X7X7X7X7X7X7X7X7X7X7X7X7X7X7X7X7X7X7X7X7X7X7X7X7X7X5X5X5X5X5X5X5X5X5X5X6X5X7X7X7X7X5X5X5X5X5X5X5X5X5X5X5X5X5X5X5X5X5X5XrXrXtXtXtXtXyXyXyXyXyXyXyXyXyXyXlXlXhXhXhXhXmXhXhX].K.Z.u.W ^ vXjXjXvX}.oXNXnXbXnXnXnXnXnXnXnXnXyXyXcXbXbXlXlXlXeXeX]._.J.`.[.`.`.].[.].[.`.J.K.J././.J.K.R._.S.K Q _ _ ` [ [ [ ..#X#X#XS.D.+X_.d.s.R u V p.p.9.4.9.r.i.p.y.r.9.3.Y A P 3.9.4.%.P B B P ;.4.,.-.#.o.C u 8 8 a L %.7.0.t.k.k.z.z.x.n.L.L.P.^.^.I.",
":X;X;X(.I.I.I.P.N.N.M.N.n.n.l.y.7.@.h 5 r I #.&.7.e.t.8.#.h h P 9.p.p.9.3.&.T Y U 2.;.;.t.y.7.;.a.k.b.n.b.4.L 5.}..XXX^ Q {  X| ] ` H m m n n M ~ F.}.}.[.`.`.'.[.'.'.'.2X].{.{.oXoXuXyXyXhXmXvXmXbXhXjXhXhXhXhXlXlXnXnXnXnXnXnXnXbXnXmX].J.eX`.[.A.! Z.~ D.hXhXlXlXlXlXlXhXhXlXaXaXaXaXaXaXaXyXyXaXaXaXiXiXtXtXtXtXtXtXiXtXrXrXiXiX8X8X8X8X8X5X5X5X5X5X7X5X5X5X5X5X5X5X5X5X5X5X7X7X7X7X7X7X7X7X7X7X7X7X7X7X7X7X9X7X9X9X7X7X7X7X7X7XqXqXqXqX8X8X9X9X9X9XqXqXqXqXqXqXqXqXqXqXqXqXqXqXqXqXqXqXqXqXqXqXqXqX0X0X0X0X0X0X0X0X0XqXqXqX0X0X0X0X0X0X0X0XqX0X0X0X0X0X0X0XqXqX0X0X0X0X0X0XqXqXqXqXqXqXqXqX8XqX8X8X8X8X8X8X9X9X9X9X9X9X9X7X8X8X8X8X7X7X7X7X9X7X7X7X7X7X7X7X7X7X7X7X7X7X5X5X5X5X5X5X5X5X5X5X5X5X7X7X7X7X5X5X5X5X5X5X5X5X5X5X5X5X5X5X5X5X5X5XtXtXtXtXtXtXyXyXyXyXyXyXyXyXyXyXlXcXlXlXlXhXbXbXbXhX.XA.u.~ W !.jXoXjX}.`.NXNXnXBXnXnXnXnXnXnXnXbXuX{.4XuXeXeXeXeXeXeX.X].{.].[.[.[.[.[.[./.J.K.R.`.`.J.U.E.u.~ ~ Q Q _ ` ` ` X.} #X#X{ ~._.R.A.s.R s V 4.a.a.r.r.y.p.t.r.9.7.3.T A A A #.;.4.4.-.I l h B %.:.;.=.@.P z r 8 a Y ;.9.t.p.j.j.z.z.x.n.L.L.P.I.P.N.",
":X;X;X(.I.I.I.N.N.N.N.N.M.n.x.f.7.&.k 9 z #.;.7.7.8.7.=.h z #.;.9.r.9.7.%.;.T N U -.;.;.@.#.T -.r.z.v.n.L.b.5.R d.}.oX+X' ^ { ] Q F F F n M M D i.J.}.`.[././.`.`.'.'.'.].].{.{.eXeXtXtXuXhXhXvXmXmXnXbXbXmXmXmXbXbXnXnXnXnXnXnXnXbXbXmX].J.eXK.s.s.! E A.dXmXlXlXlXlXlXlXlXlXlXlXlXlXlXlXaXaXaXyXaXaXaXiXtXtXtXtXtXtXiXiXtXrXrXiXiX8X5X8X8X8X8X5X5X5X5X7X7X5X5X5X5X5X5X5X5X5X5X7X7X7X3X3X3X7X7X7X7X7X7X7X7X7X7X7X7X9X7X7X7X7X7X7X7XqXqXqXqX8XqX9X9X9X9XqXqXqXqXqXqXqXqXqXqXqXqXqXqXqXqXqXqXqXqXqXqXqXqX0X0X0X0X0X0X0X0X0XqXqXqX8X8X0X0X0X0X0X0X0X0X0X0XqXqX0X0XqXqX0X0X0X0X0X0XqXqXqXqXqXqXqXqX8XqXqX8X8X8X8X8X9X9X9X9X9X9X9X9X8X8X8X8X8X8X8X8X9X7X7X7X7X7X7X7X7X7X7X7X7X7X5X5X5X5X5X5X5X5X5X5X5X5X5X7X7X5X5X5X5X5X5X5X5X5X5X5X5X5X5X5XrXrX5X5XtXtXtXtXtXaXaXaXyXyXhXhXhXhXhXhXlXlXlXlXlXlXbXbXlXnXmXuXu.u.~ ^ D.[.dXR.}.mXNXnXBXnXnXnXnXnXnXnXnXbXhXjXhXhXyXyXhXhXyXuXtXeXoXoX[.[.[.'.[.`.J.K.J.`.`.`.[.R.6.! Z.~ Q Q _ _ ` ` ....{ ~.+X[.J.K.! V U 4.a.p.a.i.i.p.r.;.-.;.-.T P A S S L Y %.3.-.T B i q B -.4.;.&.O.A h r s T 3.9.y.p.j.j.z.z.x.n.L.M.N.N.M.v.",
":X;X;X(.I.I.N.N.N.N.N.N.M.M.v.k.t.&.c h A @.;.,.8.8.#.i h P 7.8.9.7.;.=.3.%.B L 3.9.9.7.#.z a l 5.a.z.b.m.b.m.z.R 2.`.].oXF.Q Q Q ^ ~ K K M D 6.K.K.`.`.`.`.`.`.`.`.[.'.].].4X4XeXeXuXtXyXhXhXmXbXbXbXnXnXnXnXnXnXnXnXnXnXnXnXnXnXbXbXmX{.`.uXs.6.w.E R.dXdXlXlXlXlXlXlXlXlXlXlXlXlXlXlXlXlXlXlXaXaXaXaXaXtXtXtXtXiXiXtXtXtXtXtXrXrXrXrX5X5X7X7X5X8X8X8X7X7X7X7X7X7X7X7X7X7X7X7X7X7X5X3X1X3X5X5X7X7X9X9X7X7X8X8X3X;X1X7X9X7X9X9X8X8X8X8XqXqX8X8XqXqXqX8XqXqXqXqX0XqXqXqX0XqXqXqX0X0X0X0X0X0X0X0X0X0X0X0X0X0X0X0X0X0X0X0X0X0X0X0X0X0X0X0X0X0X0X0X0X0X0X0X0X0X0X0X0X0X0X0X0X0X0X0XqXqX0XqXqXqXqXqX8XqXqXqX8X8X8X8X9X9X8X8X8X8X8X8X9X9X9X9X9X9X9X9X9X9X9X7X7X7X7X7X7X7X7X7X7X7X7X7X7X7X7X7X5X5X5X7X5X5X5X5X5X5X5X5X7X5X5X5X5X5X5X5X5X5X5X5X6X6X5X5XtXtXaXtXyXyXaXhXlXlXlXlXlXlXlXlXlXlXlXlXlXlXbXbXbXbXnXNX.XF.Z.~ ~ A.vX_._.mXNXnXnXnXnXnXnXnXnXnXnXnXbXbXbXlXlXhXhXhXjXyXuXeXeX{.].'.'.'.[.`.`./.J.J././.J.J.K.s.D.Z.M n F H H ` [ ] |.%X.X[.R.6.V T r.r.p.a.a.a.k.4.#.T #.-.;.;.3.%.Y A A P T %.%.Y B j s u z -.3.;.=.o.x i N #.4.t.p.j.j.l.l.b.x.n.n.M.N.^.IXl.",
":X;X;X(.I.I.P.N.N.N.N.N.N.M.v.l.y.;.C z o.;.q.q.7.P i z P =.7.8.7.7.3.;.3.%.T -.3.7.9.7.7.4.-.B l -.a.b.H.m.b.b.a.r.r./..X+XZ.K K ~ ~ F M D 6.K.K.J.`.[.`.`.`.`.`.`.[.[.].].4X4XeXrXuXtXyXhXhXmXbXbXbXnXnXnXnXnXnXnXnXnXnXnXnXnXnXbXbXmXeX].eXi.E ! w.hXuXyXlXlXlXlXlXlXlXlXlXlXlXlXlXlXcXcXcXcXaXaXaXaXaXtXtXtXiXiXiXtXtXtXtXtXrXrXrXrX5X5X7X7X5X8X8X8X7X7X7X7X7X7X7X7X7X7X7X7X7X7X7X3X<X3X5X5X7X7X9X9X7X7X7X8X1X;X1X3X7X7X9X9X8X8X8X8X8X8X8X8XqXqXqX8XqXqXqXqXqXqXqXqX0X0XqXqX0X0X0X0X0X0X0X0X0X0X0X0X0X0X0X0X0X0X0X0X0X0X0X0X0X0X0X0X0X0X0X0X0X0X0X0X0X0X0X0X0X0X0X0X0X0X0X0XqX0X0XqXqX0XqXqX0XqXqXqX8X8X8X8X8X8X8X8XqXqX8X8X9X9X9X9X9X9X9X9X9X9X9X7X7X7X7X7X7X7X7X7X7X7X7X7X7X7X7X7X5X5X5X7X5X5X5X5X5X5X5X5X5X5X5X5X9X9X5X5X5X5X9X9XtXtXtX5X6XtXaXyXyXyXyXyXlXlXlXlXlXlXlXlXlXlXlXlXlXlXlXlXbXbXnXNXhX.XD.W W u.dX_._.mXNXnXnXnXnXnXnXnXnXnXnXnXbXbXbXlXlXlXhXhXjXyXuXeXeX{.].'.'.'.[.`.`././.J.K.J./.`.J.K.A.F.~ M n n H Q '  XXX.X[.U.w.f U 5.a.j.k.k.z.z.;.P #.;.;.3.4.4.7.3.;.#.A B S L P P P P C h s A -.3.:.O.v h S %.4.r.y.j.k.k.l.v.b.n.M.M.B.IXIXB.",
":X;X;X^.^.I.N.N.N.N.N.N.N.M.M.v.f.;.I C o.,.7.q.I i z #.;.7.7.8.7.7.7.7.%.T ;.;.3.7.9.7.4.4.r.2.U V R r.m.m.M.M.b.m.a.z.s._.D.~ F F F M D ! F.J.K./.`.`.`.`.`.`.`.`.[.[.].].4X4XeXrXtXtXyXhXhXmXbXbXbXnXnXnXnXnXnXnXnXnXnXnXnXnXnXbXnXmXeX{.eX5.E ! s.hXyXlXmXlXlXlXlXlXlXlXlXlXlXlXlXlXlXlXlXlXlXlXlXaXaXyXiXiXtXtXiXiXiXiXiXiXiXiXiXiX9X9X0X0X9X9X9X9X8X8X8X8X7X7X7X7X7X7X7X7X7X8X8X3X3X5X9X7X7X7X9X9X8X8X8X8X7X1X7X7X7X7X9X9X8X8X8X8X8X8X8XqXqXqX8X8XqXqXqXqX0X0XqXqX0X0X0X0X0X0X0X0X0X0X0X0X0X0X0X0X0X0X0X0X0X0X0X0X0X0X0X0X0X0X0X0X0X0X0X0X0X0X0X0X0X0X0X0X0X0X0X0X0X0X0X0X0X0X0X0X0X0X0X0X0X0XqXqX8XqX8X8X8X8X8X8XqXqXqXqX9X9X9X9X9X9X9X9X9X9X9X9X7X7X7X7X7X7X7X7X7X7X7X7X7X7X7X7X5X5X7X5X8X8X7X7X7X7X5X5X7X8X8X8X9X9X9X9X9X9X9X9XtXtXtXtX9XtXaXtXtXyXyXyXhXlXlXlXcXlXlXlXlXlXlXlXlXlXnXbXbXbXnXnXhXvX_.K K u.dX_..XmXnXnXnXnXnXnXnXnXnXnXnXnXbXbXbXlXlXlXhXhXjXyXuXeXeX{.].'.'.[.[.`.`./.`.J.K.K.J.`.`.J.K.A.F.K n n K Q ^ Z.R..XR.w.M D 5.a.z.k.k.k.p.4.C #.7.9.7.7.4.4.7.7.7.4.#.S B Y T #.-.;.#.S h i U 3.,.@.Z h C %.4.r.y.j.k.l.v.n.v.M.N.B.IX-X-X-X",
":X;X;X^.^.I.N.N.N.N.N.N.N.N.M.v.j.,.P Z &.q.;.A i z #.7.;.7.7.7.7.7.8.9.3.;.4.3.3.7.9.7.7.r.r.a.i.R L T i.z.n.M.P./.H.b.5.s.! ~ ~ D M D E d.K.s.K.[.`.`.`.`.`.`.`.`.[.[.].].4X4XeXrXtXtXyXhXhXmXbXbXbXbXnXnXnXnXnXnXnXnXnXnXnXnXnXnXnXmXuXeXeX6.E 6.i.uXyXlXmXmXlXhXlXlXlXlXlXlXlXlXlXlXlXlXlXlXlXlXlXaXaXyXiXiXtXtXiXiXiXiXiXiXiXiXiXiX9X9X0X0X9X9X9X9X8X8X7X7X7X7X7X7X7X7X7X7X7X8X8X3X3X5X9X9X7X7X9X9X8X8X8X8X7X7X9X9X7X7X9X9X8X8X8X8XqXqXqXqXqXqX8XqXqXqXqXqX0X0X0X0X0X0X0X0X0X0X0X0X0X0X0X0X0X0X0X0X0X0X0X0X0X0X0X0X0X0X0X0X0X0X0X0X0X0X0X0X0X0X0X0X0X0X0X0X0X0X0X0X0X0X0X0X0X0X0X0X0X0X0X0X0X0X0XqXqXqX8X8XqX8XqX8XqXqXqXqX0X9X9X9X9X9X9X9X9X9X9X9X9X7X7X7X7X7X7X7X7X7X7X7X7X7X7X7X5X5X7X5X8X8X7X7X7X7X5X5X7X8X8X8X9X9X9X9X9X9XiXiXiXiXaXaXtXiXtX5XtXyXyXhXhXlXlXlXcXcXlXlXlXlXlXlXlXlXnXbXbXnXnXnXhXuXD.K W u.dX_.oXmXmXnXnXnXnXnXnXnXnXnXnXnXbXbXbXlXlXlXhXhXjXyXuXeXeX{.].'.'.[.[.`.`./.`./.J.G.K.J.U.J.K.s.A.Z.D M ~ Z.Z.Z.R._.i.f M i.A.b.z.a.a.a.2.N T 9.y.t.7.7.4.3.4.7.9.9.3.#.T ;.;.;.;.-.%.P h q 8 N %.;.P z A %.4.r.y.j.k.v.v.n.v.M.B.B.-XIX-X,X",
"^.;X:X;X-X^.^.I.P.P.N.N.P.N.M.v.l.8.P P ;.&.z 7 N =.7.7.3.q.7.7.7.0.r.8.-.7.r.y.y.y.e.e.t.t.a.a.a.i.2.V A ;.m.M.n.L.P.M.r.R W E u.u.w.R F.A.s.s././././././././.`.`.[.[.].].{.4XeXrXtXyXyXhXmXmXbXbXbXmXbXbXnXnXnXnXnXnXnXnXnXnXbXbXbXhXuXeXeX6.! ! i.hXhXlXlXlXlXlXmXmXlXlXlXlXlXlXlXlXlXlXlXlXlXlXaXaXlXaXaXiXiXiXiXiXiXiXiXiXiXiXiXiX9XiX9X9X9X9X9X9X8X8X8X8X9X9X7X7X7X7X7X7X8X9X8X7X7X7X7X7X7X:X>X9X9X9X9X9X9X9X0X9X9X9X9X7X8X8X8X8XqXqX0X8XqXqXqXqX0X0X0X0X0X0X0X0X0X0X0X0X0X0X0X0X0X0X0X0X0X0X0X0X0X0X0X0X0X0X0X0X0X0X0X0X0X0X0X0X0X0X0X0X0X0X0X0X0X0X0X0X0X0X0X0X0X0X0X0X0X0X0X0X0X0X0X0X0X0X0X0X0X0XqXqXqXqX0X0X0XqXqX8X0X0X9X9X9X9X9X9X9X9X9X9X9X9X9X9X7X7X7X7X7X7X7X7X7X7X7X7X7X7X7X7X8X7X7X7X5X5X5X5X9X9X9X9X9X9XiXiX9X9XiXiXiXiXiXaXiXiX5X6X5XyXhXlXlXlXlXlXcXcXlXlXlXlXlXlXnXnXnXnXnXmXnXnXhXhXA.K ~ ^ oX_.oXvXnXnXnXnXnXnXnXnXnXnXnXnXnXnXbXlXlXlXlXhXyXyXtXeXeX4X4X].'.'.[.`.`.`.U.U.U.U.G.G.G.J.J.K.K.A.u.! K.R.A.K._.u.f M i.K.G.b.b.z.p.%.A #.9.p.y.r.9.9.7.4.3.4.7.9.7.-.T 4.7.-.%.-.%.C j q , ; t @.Z h A %.9.y.j.z.v.v.v.M.M.M.N.B.B.-X>X,X",
"z t.(.;X;X;X^.I.I.P.N.N.I.P.N.M.k.8.Z C C t 7 k P ;.7.;.7.&.%.;.8.e.9.=.;.9.y.e.y.y.e.r.r.p.a.a.z.a.a.9.B V ;.b.n.N.P.).b.-.V R u.R.A.i.R.A.s.K./././././././.`.`.`.[.[.].].{.4XeXrXtXyXyXhXmXmXbXbXbXbXbXbXnXnXnXnXnXnXnXnXnXnXbXbXbXmXuXeXeXw.R R i.hXlXlXlXlXlXlXlXmXlXlXlXlXlXlXlXlXlXlXlXlXlXlXaXaXlXlXlXaXaXaXaXaXiXiXiXiXiXiXiXiX9XiX9X9X9X9X9X9X8X8X8X8X9X9X7X7X7X7X7X7X8X9X8X9X7X7X7X7X7X1X1X9X8X8X9X9X9X9X9X9X9X9X9X9X7X8X8XqX0XqX0X8XqXqXqXqX0X0X0X0X0X0X0X0X0X0X0X0X0X0X0X0X0X0X0X0X0X0X0X0X0X0X0X0X0X0X0X0X0X0X0X0X0X0X0X0X0X0X0X0X0X0X0X0X0X0X0X0X0X0X0X0X0X0X0X0X0X0X0X0X0X0X0X0X0X0X0X0X0X0XqXqXqXqXqX0X0X0X0X8X0X0X9X0X0X0X0X0X0X0X0X0X9X9X9X9X9X9X7X7X7X7X9X9X9X9X9X9X7X7X9X9X9X9X9X9X9X9X9X9X9X9X9X9XiXiX9XiXiXiXiXiXiXiXiXaXiXiXtX9XaXcXcXlXlXlXlXlXlXlXlXlXlXlXbXbXbXbXnXnXnXnXnXnXhXhXA.K ~ u.oX_.oXvXnXnXnXnXnXnXnXnXnXnXnXbXnXbXlXlXlXlXhXyXyXyXtXeXeX4X4X].'.'.[.[.`.`.U.U.U.U.J.G.G.H.G.J.J.E.K.i.i.i.K.J.5.f D A.J.K.z.n.b.i.Y A ;.a.k.a.y.t.9.9.7.7.3.3.4.9.9.;.#.;.7.-.#.#.#.P z r 8 = # , q h P 3.t.a.z.b.v.v.v.M.M.M.N.I.-X>X:Xf.",
"- ; z l.;X5X:X^.^.I.P.P.I.P.N.M.k.8.I z 5 6 g Z #.;.3.3.q.%.#.;.7.7.;.%.7.e.y.e.y.y.e.r.a.a.a.z.z.b.l.k.4.L V R a.N.N.P.N.b.9.i.K.[.J.J.J.s.A.`././././././.`.`.`.`.[.[.].].4X4XrXtXuXyXhXhXmXmXhXhXbXbXbXbXnXnXnXnXnXnXnXnXnXnXbXbXbXmXuXuXuX6.E E 5.hXlXlXlXlXmXmXmXmXmXmXxXxXlXlXxXxXlXlXlXlXlXlXlXlXlXlXlXlXaXaXaXaXaXaXaXaXaXsXaXaXiXiXiXiX9X9X9X9X0X9X0X0X0X0X0X9X7X7X9X9X9X9X9X9X9X9X9X9X9X7X9X0X8X8X8X8X0X0X0X0X0X0X0X0X8X0X0X0X0X0X0X0X0X0X0X0X0X0X0X0X0X0X0X0X0X0X0X0X0X0X0X0X0X0X0X0X0X0X0X0XpXpX0X0XkXkXkXkX0X0X0X0X0X0X0X0X0X0X0X0X0X0X0X0X0X0X0X0X0X0X0X0X0X0X0X0X0X0X0X0X0X0X0X0X0X0X0X0X0X0X0X0X0X0X0X0X0X0X0X0X0X0X0X0X0X0X0X0X0X0X0X0X9X9X9X9X0X0X0X8X7X7X9X9X9X9X9X9X7X7X7X7X9X9X9X9X9X9X9X9X9X9X9X9X9X9X9X9XiXiXiXiXiXiXaXaXiXiXtXcXcXlXlXlXlXlXlXlXlXlXlXlXlXbXbXbXbXnXnXnXnXnXnXnXhXjXA.W ~ u.oX`.oXhXnXnXnXnXnXnXnXnXnXbXbXbXbXbXlXhXlXlXhXyXyXyXuXeXeX4X4X].'.'.'.[.[.`.U.U.U.U.U.U.H.G.b.G.U.U.E.i.2.5.i.2.d U A.`.G.G.L.n.p.R L :.p.b.k.y.y.t.t.r.9.9.4.3.4.7.9.3.#.-.4.-.Y P 3.%.l q 5 6 ; - - r %.9.p.j.b.n.v.v.M.N.M.N.P.I.(.P.&.e ",
"h 8 $ ; z f.Y.<X(.^.I.P.I.P.N.N.l.f.P z p i z C P %.;.;.;.;.;.3.7.&.#.7.8.e.y.e.y.y.e.r.a.a.z.z.k.v.n.l.a.r.V d -.z.N.N.P.^.)./.U.J.J.J.K.s.R.[.`././.)./././.`.'.'.[.[.].].4X4XeXtXuXyXhXhXhXhXhXhXbXbXbXbXnXnXnXmXnXnXmXmXnXnXbXbXbXbXyXuXtX5.E E u.hXlXlXlXlXmXmXmXmXmXmXxXxXlXlXxXxXlXlXlXlXlXlXlXlXlXlXlXlXaXaXaXaXaXaXaXaXaXaXaXaXiXiXiXiX9X9X9X9X0X0X0X0X0X0X0X9X7X7X9X9X9X9X9X9X9X9X9X9X0X0X0X0X8X8X8X8X0X0X0X0X0X0X0X0X0X0X0X0X0X0X0X0X0X0X0X0X0X0X0X0X0X0X0X0X0X0X0X0X0X0X0X0X0X0X0X0X0X0X0X0XpXpXpX0X0X0XkXkX0X0X0X0X0X0X0X0X0X0X0X0X0X0X0X0X0X0X0X0X0X0X0X0X0X0X0X0X0X0X0X0X0X0X0X0X0X0X0X0X0X0X0X0X0X0X0X0X0X0X0X0X0X0X0X0X0X0X0X0X0X0X0X0X9X9X9X9X0X0X0X8X7X7X9X9X9X9X9X9X7X7X7X7X9X9X9X9X9X9X9X9X9X9X9X9X9X9X9X9XiXiXiXiXiXiXaXaXiXcXcXcXcXcXlXlXlXlXlXlXlXlXlXlXbXbXbXbXlXlXnXnXnXmXnXnXyXdXA.W ~ u.oX`.oXhXnXnXnXnXnXnXnXnXbXbXbXbXbXbXhXhXlXlXhXyXyXyXuXeXeX4X4X].'.'.'.'.[.`.U.U.U.U././.U.U.a.b.U.`.K.6.i./.b.U R K.K.K.H.z.b.t.:.R i.a.a.a.j.a.p.y.y.t.9.9.4.3.3.4.9.4.#.#.;.#.P A P P i 5 8 7 t r w g ;.p.a.z.b.n.n.M.N.L.n.L.P.I.;.h 7 5 ",
";.Y h 5 = - r ;.M.^.^.P.P.I.I.P.M.j.@.Z h h z A P #.=.;.=.8.t.e.7.7.7.e.e.e.e.e.t.t.y.y.a.a.z.z.b.b.v.v.b.b.t.P u T H.P.^.N.^.:X2XU.G.E.s.s.`.`./.(.)././.`.'.'.'.'.'.].].4X4X4XrXtXyXyXyXhXhXhXlXhXbXbXbXbXbXbXnXnXnXnXnXnXnXnXbXbXbXbXyXhXtX5.! E w.yXlXlXxXxXlXlXbXbXlXlXlXlXxXxXxXxXlXlXlXlXlXlXlXlXlXlXlXlXaXaXaXaXaXaXaXaXaXaXsXaXiXiX0X0X0X0X0X0X0X0X0X0X9X8X0X8X8X7X7X9X9X9X9X9X9X9X0X0X0X0X0X0X0X0X0X0X0X0X0X0X0X0X0X0X0X0X0X0X0X0X0X0X0X0X0X0X0X0X0X0X0X0X0X0X0X0X0X0XpXpXpXpXpXpXpXpXpXpXkXkXkXkXkXkXkXkXkXkX0X0X0X0X0X0X0X0X0X0XkXkXpX0X0X0XpXpXpX0XpXpXpX0X0XpXpX0X0X0X0X0X0X0X0X0X0X0X0X0X0X0X0X0X0X0X0X0X0X0X0X0X0X0X0X0X0X0X0X0X0X0X0X0X0X0X0X0X9X9X9X9X9X9X9X9X9X9X9X9X9X9X9X9X9X9X9X9X9X9X9X9XiXiXiXiXiXiXiXiXiXiXiXiXaXaXaXaXaXaXcXaXcXlXlXlXlXlXlXlXlXlXlXlXbXbXbXxXxXxXxXnXnXnXnXnXjXjX_.~ ^ u.oX[.oXhXnXnXbXbXbXnXnXnXbXbXbXbXbXlXbXbXlXhXhXyXyXyXtXeXeX4X4X].].'.'.'.`.`.U.U.U.U.U.U.U./.H.K.J.K.6.6.a.(./.H.P.H.P.H.P.b.t.P L y.b.z.l.k.z.j.a.y.y.y.e.r.9.7.4.4.9.;.#.T #.P #.I P C z a r u a a t h 7.j.z.b.n.M.N.L.L.H.U.z.#.i 8 6 9 p ",
"8.7.;.@.j q $ $ i ,.n.(.^.I.I.P.M.k.@.I h h z A P &.;.;.;.e.y.t.e.e.t.t.t.y.y.t.t.y.y.a.j.j.z.z.v.v.v.v.b.n.n.j.U d L b.^.N.I.;X:XU.T.E.s.i.`.[./.(./././././.'.'.'.].].].4X4XeXrXtXyXyXyXhXhXhXlXhXbXbXbXbXbXbXnXnXnXnXnXnXnXnXbXbXbXbXcXyXeX5.! R w.yXlXlXxXxXlXlXnXbXnXlXlXlXxXxXxXmXlXlXlXlXlXlXlXlXlXlXlXlXcXaXaXaXaXaXaXaXaXaXsXaXiXiX0X0X0X0X0X0X0X0X0X0X9X8X8X0X8X8X8X8X9X9X9X9X0X0X9X0X0X0X0X0X0X0X0X0X0X0X0X0X0X0X0X0X0X0X0X0X0X0X0X0X0X0X0X0X0X0X0X0X0X0X0X0X0X0X0X0XfXpXpX0XpXpXpXpXpXpXkXkXkXkXkXkXkXkXkXkX0X0X0X0X0X0X0X0X0X0XkXkX0X0X0X0XpXpXpX0XpXpXpX0X0XpXpX0XpX0X0X0X0X0X0X0X0X0X0X0X0X0X0X0X0X0X0X0X0X0X0X0X0X0X0X0X0X0X0X0X0X0X0X0X0X0X0X0X9X9X9X9X9X9X9X9X9X9X9X9X9X9X9X9X9X9X9X9X9X9X9X9XiXiXiXiXiXiXiXiXiXiXiXiXaXaXaXaXaXaXaXaXcXlXlXlXlXlXlXlXlXlXlXlXbXbXxXxXxXxXnXnXnXnXnXnXjXjX_.~ ! u.oX_.oXhXnXnXbXbXbXbXnXnXbXbXbXbXlXlXyXlXlXhXhXyXyXyXtXeXeX4X4X].].'.'.'.'.`.U.U.U./.U.U.U.U.H.J.R.w.E 2.p.I.'.P.U.P.U.n.z.4.L T a.b.z.z.z.z.z.j.a.a.y.y.y.e.r.9.7.4.7.-.P A I I P P %.@.P N r r r r 7 k e.z.b.n.L.L.P.(.n.t.%.j 8 6 e u h c ",
"p.t.0.9.&.P j q , , h 8.b.P.P.P.L.z.#.I j j C I #.=.7.7.7.e.y.r.y.t.y.t.y.y.y.y.y.j.j.j.j.k.l.v.v.v.v.v.M.N.L.L.z.-.N A b.(.L.I.'.U.U.Y.G.2.K.`.`./././.).`.'.'.'.2X].].4X4XeXrXrXtXyXyXyXhXhXhXlXhXbXbXbXbXbXbXnXnXnXnXnXnXnXnXbXbXbXbXcXtXeXi.E ! i.hXlXlXxXmXbXnXnXnXnXnXnXlXxXxXmXmXmXmXlXlXxXxXzXzXlXlXlXlXzXcXaXaXaXaXaXaXaXaXaXaXiXiXiXiXiXiXiXiX0X0XiXiX0X0X0X0X0X0X0X0X0X0X0X0X0X0X0X0X0X0X0X0X0X0X0X0X0X0X0X0X0X0X0X0X0X0X0X0X0X0X0X0X0X0X0X0X0X0X0X0X0XPX0X0X0X0X0X0XfXfX0X0XpXpXpXpX0XkXkXkXkXkXkXkXkXkXkXkXkXkX0X0XkXkXkXkXpXkXkXkXpX0X0X0XpXpXpXpX0X0XpXpXpXpXpXpXpXpXfX0X0X0X0X0X0X0X0X0X0X0X0X0X0X0X0X0X0X0X0X0X0X0X0X0X0X0X0X0X0X0X0X0X0X0X0X0X0X0X0X0X0X0X0X0X0X0X0X0X0X0X0X0X0X0X9X9X0X9X0X9XiXiXiXiXiXiXiXiXaXaXaXaXaXaXaXaXaXaXcXcXcXlXlXlXlXlXlXlXlXlXlXxXbXxXxXxXxXnXnXnXnXnXnXnXyXjX_.~ ! u.oX_.oXhXnXnXbXbXbXbXbXnXnXbXbXlXlXlXyXhXlXhXhXyXyXyXtXeXeX4X4X4X'.'.2X'.'.'././.U./.U././.U.J.`.K.E 6.i.b.n.G.b.G.G.G.p.Y z P j.b.z.z.z.z.z.z.j.j.j.y.y.y.e.t.r.9.7.9.3.#.L C C N I #.#.#.S r u t w 6 h 0.v.n.G.n.b.P.z.P t w t t u z C O.#.",
"j.p.y.t.7.3.;.A z i 7 7 A j.L.P.L.z.#.I z z C I #.;.7.7.;.r.e.7.0.t.t.t.y.y.y.y.j.j.j.k.k.z.l.v.v.v.M.M.M.M.M.L.G.b.9.L B a./.G./.U.Y.(.(.r.2.}.`././././.`.'.'.].'.].].4XeXrXrXrXtXyXyXyXyXhXhXlXhXbXbXbXbXbXbXbXbXnXnXnXnXnXnXbXbXbXbXlXtX4Xi.! ! u.yXlXlXxXmXbXnXnXnXnXnXnXbXxXxXmXmXmXmXlXlXxXxXzXzXlXlXlXlXzXzXcXaXaXaXaXaXaXaXaXaXiXiXiXiXiXiXiXiX0X0XiXiX0X0X0X0X0X0X0X0X0X0X0X0X0X0X0X0X0X0X0X0X0X0X0X0X0X0X0X0X0X0X0X0X0X0X0X0X0X0X0X0X0X0X0X0X0X0X0X0XPXPX0X0X0X0X0X0XfXfX0X0X0X0XpXpX0XkXkXkXkXkXkXkXkXkXkXkXkX0X0X0XkXkXkXkXkXkXkXkXpX0X0X0XpXpXpXpXpX0XpXpXpXpXpXpXpXpXfXfX0X0X0X0X0X0X0X0X0X0X0X0X0X0X0X0X0X0X0X0X0X0X0X0X0X0X0X0X0X0X0X0X0X0X0X0X0X0X0X0X0X0X0X0X0X0X0X0X0X0X0X0X0X0X9X9X0X0X9X9XiXiXiXiXiXiXiXiXaXaXaXaXaXaXaXaXaXaXcXcXcXlXlXlXlXlXlXlXxXlXlXxXxXxXxXxXnXnXnXnXnXnXnXnXyXjX_.^ ^ u.uX[.oXhXnXnXbXbXbXbXbXbXbXbXlXlXlXlXlXbXlXhXhXyXyXtXeXeXeX4X4X4X].'.'.'.'.`.(./././.U././.U.U.J.6.6.s.K.G.n.z.k.G.U.0.S j =.j.l.b.l.l.z.z.z.z.j.j.j.a.y.y.t.t.t.r.9.t.t.4.%.P A N I &.;.;.P s s r w 7 t ;.x.b.b.z.z.%.u 5 w t a z A P &.,.,.",
"8.y.j.k.j.e.7.=.#.Y I z u N =.p.n.k.&.P z z C P #.;.7.7.;.7.8.e.0.t.t.t.t.t.y.y.f.g.k.c.c.l.v.v.b.v.v.n.M.N.N.L.P.P.L.b.T A 5.i.U.U.U.(.'.U.R i.`.`././.`./.'.'.].].].].4XeXrXrXtXtXtXyXyXyXhXhXlXlXhXhXbXbXbXbXbXnXnXnXmXmXmXmXbXbXbXbXlXtX4Xs.u.Z.s.eXlXlXxXnXnXnXnXnXnXnXnXbXxXxXxXxXxXxXxXmXxXxXlXlXlXlXlXlXzXzXzXzXcXcXcXcXzXcXcXcXaXaXiXiXiXiXiXiXpXpXiXiX0X0X0X0X0X0X0X0X0X0X0X0X0X0X0X0X0X0X0X0X0X0X0X0X0X0X0X0X0X0X0X0X0X0X0X0X0X0X0X0X0X0X0X0X0X0X0X0XkXkXkXkXpXpXpXkXVXVXfXfXfXfXfXfXkXkXkXkXkXkXkXkXkXkXkXkXkXkXkXkXkXkXkXkXkXkXkXkXVXVXfXfXfXfXfXfXVXVXVXfXfXfXfXfXpXfXfXfXpXpXpXpXkXPX0X0XkXkXkXkX0X0X0X0X0X0X0X0X0X0XpXpXpXpXpXpXpXpXpXpX0X0X0X0X0X0X0X0X0X0X0X0X0X0X0X0X0X0X0X0XiXiXiX0X0X0X9X9XiXpXiXiXiXiXiXiXaXaXaXaXaXaXcXcXcXcXcXcXlXlXlXlXlXlXlXlXxXxXxXmXxXxXxXxXnXnXnXnXnXnXnXnXeXjX_.^ ! F.uX.XuXhXmXbXbXbXbXbXbXbXbXbXlXlXhXhXlXhXlXhXhXyXyXtXrXrXeX4X4X4X'.'.'.'.'.`.`.'.'./.`./././.U.5.U d.J.J.P.H.z.z.G.9.u j 7.z.M.v.v.l.l.l.x.x.z.k.j.j.y.e.e.t.9.4.9.t.r.r.r.9.7.7.;.&.=.;.;.Y N N r q 7 r A 0.t.;.Y j 6 w t u j B Y &.;.;.7.;.",
"z P 7.e.f.y.y.8.7.;.=.#.#.P N C e.=.B Z h h C P &.;.7.7.;.7.8.9.0.t.t.t.t.t.f.f.g.k.k.c.l.l.b.v.v.b.v.n.M.N.N.N.P.P.P.L.G.4.U z.U.(.(.(.<X'.s.E b.[.`.'./.`.'.'.].].].].4XeXrXrXtXtXtXyXuXyXhXhXlXlXhXlXbXbXbXbXbXbXnXnXmXmXmXmXbXbXbXbXlXtX].s.u.F.A.tXlXlXxXmXnXnXnXnXnXnXnXnXxXxXxXxXxXxXxXxXxXxXlXlXlXlXlXlXzXzXzXzXcXcXcXcXsXsXcXcXaXaXiXiXiXiXiXiXpXpXpXpX0X0X0X0X0X0X0X0X0X0X0X0X0X0X0X0X0X0X0X0X0X0X0X0X0X0X0X0X0X0X0X0X0X0X0X0X0X0X0X0X0X0X0X0X0X0X0X0XkXkXkXkXpXpXpXkXVXVXfXfXfXfXfXfXkXkXkXkXkXkXkXkXkXkXkXkXkXkXkXkXkXkXkXkXkXkXkXkXVXVXfXfXfXfXfXfXVXVXfXfXfXfXfXfXfXpXpXfXpXpXpXpXkX0X0X0XkXkXkXkX0X0X0X0X0X0X0X0X0X0XpXpXpXpXpXpXpXpXpXpX0X0X0X0X0X0X0X0X0X0X0X0X0X0X0X0X0X0X0X0XiXiXiXiX0X0XiX0XiXiXiXiXiXiXiXiXaXaXaXaXaXaXcXcXcXcXcXcXlXlXlXlXlXlXlXlXxXxXxXnXxXxXxXxXnXnXnXnXnXnXnXnXeXhX_.~ ~ F.uXoXuXhXmXbXbXbXbXbXbXbXbXbXlXlXhXlXhXhXhXhXyXyXtXtXrXrXeX4X4X4X'.'.'.'.`.`.(.(.'././././.U.b.U 2.K.J.U.H.H.z.z.r.h j r.b.n.M.v.v.l.l.l.l.l.l.k.j.y.7.7.8.e.y.L -.t.9.r.r.r.8.8.7.;.=.;.;.Y N N u e 6 i P ,.A a h u e i h N @.@.&.q.=.;.#.C ",
"r i z I ;.7.e.e.e.8.7.:.,.&.T I =.C h I h i C P ;.7.7.7.7.9.e.e.t.t.t.t.f.f.f.j.j.k.k.k.k.z.b.b.v.b.v.n.M.M.N.N.P.P.P.P.P.H.b.J./././.`.'.'.[.6.R /.[.[.`.'.'.'.].].'.].4X4XeXrXtXtXtXyXuXyXhXhXhXlXlXlXbXbXbXbXbXbXnXnXmXmXmXmXbXbXbXbXlXtX`.s.u.A.K.yXlXlXmXmXnXnXnXnXnXnXnXlXmXxXxXxXxXxXlXlXxXxXlXlXlXlXlXlXzXzXzXzXcXcXcXcXsXsXsXsXaXaXiXiXiXiXiXiXpXpXpXpX0X0X0X0X0X0X0X0X0X0X0X0X0X0X0X0X0X0X0X0X0X0X0X0XpXpXpXpXpXpX0X0X0X0X0X0X0X0X0X0X0X0X0X0X0X0X0X0X0XpXkXkXpXpX0X0XfXfXfXfXfXfXfXfXkXkXkXkXkXkXkXkXkXkXkXkXkXkXkXkXkXkXkXkXkXkXkXkXVXVXVXfXfXfXfXfXfXfXfXfXfXfXfXfXfXfXpXpX0XpX0X0XkXkX0X0X0X0XkXkX0X0X0X0X0X0X0X0X0X0XpXpXpXpXpXpXpXpXpXpX0X0X0X0X0X0X0X0X0X0X0X0X0X0X0X0X0X0X0X0XiXiXiXiXiX0XiXiXpXpXiXiXiXiXiXiXaXaXaXaXaXaXcXcXcXcXcXcXlXlXlXlXxXxXlXxXxXxXxXnXxXxXxXxXnXnXnXnXnXnXnXnXyXhX_.~ ~ u.uXoXuXhXbXxXbXbXlXlXbXbXbXbXlXhXlXhXlXhXhXyXyXtXtXtXrXeXeX4X4X4X2X'.'.`.'.`././.(.(./././.K.R E K././.P.P.H.G.z.z.k.z.b.b.n.M.v.b.x.l.z.z.z.b.k.a.t.9.7.8.y.y.L -.t.r.r.r.r.e.e.8.;.=.;.;.Y N N a t t h P #.C B h i j N I #.=.=.;.3.#.C u 8 ",
"i 8 8 i z I #.;.7.8.8.,.7.7.7.=.#.C k @.C s C #.;.7.7.;.7.8.e.e.t.t.t.t.f.f.j.j.k.k.z.z.z.z.b.b.b.b.v.n.M.M.N.N.P.P.P.P.I.)././.(././.'.(.`.4XH.L i.[.[.`.'.'.'.'.].'.].].4XrXrXtXtXtXyXuXyXyXhXlXlXlXlXhXhXbXbXbXbXbXbXbXbXbXbXbXbXbXlXlXrX/.s.u.A.K.yXlXlXnXnXnXnXnXnXnXnXnXlXmXxXxXxXxXxXlXlXxXxXlXlXlXlXlXlXzXzXzXzXcXcXcXcXsXsXsXsXpXpXiXiXiXiXiXiXpXpXpXpX0X0X0X0X0X0X0X0X0X0X0X0X0X0X0X0X0X0X0X0X0X0X0X0XpXpXpXpXpXpX0X0X0X0X0X0XpX0X0X0X0X0X0X0X0X0X0X0X0XpXpXkXpXpXpX0XfXfXfXfXfXfXfXfXkXkXkXkXkXkXkXkXkXkXkXkXkXkXkXkXkXkXkXkXkXkXkXkXVXVXVXfXfXfXfXfXfXfXfXfXfXfXfXfXfXfXfXpX0X0X0X0XkXkX0X0X0XPXkXkX0X0X0X0X0X0X0X0XpX0XpXpXpXpXpXpXpXpXpXpX0X0X0X0X0X0X0X0X0X0X0X0X0X0X0X0X0X0X0X0XiXiXiXiXiXiXiXpXsXpXiXiXiXiXiXiXaXaXaXaXaXaXcXcXcXcXcXcXlXlXlXlXxXxXxXxXxXxXxXnXxXxXxXxXnXnXnXnXnXnXnXnXyXjX_.~ ~ u.uXeXuXhXbXxXbXlXlXlXbXbXbXbXhXlXhXhXhXhXyXyXyXtXtXeXrXeXeX4X4X4X2X'.'.`.`.`.`.`.(.(./././.i.N i.`.U.U.P.P.H.G.b.b.b.n.L.G.b.n.n.b.b.z.z.z.z.b.z.j.e.j.y.y.j.9.4.9.t.r.r.r.9.8.8.7.;.=.;.;.Y N N s u k z Z o.A k h j I O.=.:.#.%.I l i 8 5 w ",
"$ , , , 8 h C C +.$.>.=.;.7.q.;.@.I Z #.z h C O.7.7.7.;.7.8.e.t.t.t.t.y.f.f.j.k.k.k.z.z.l.v.b.x.b.n.n.M.M.B.N.N.P.P.P.I.Y.(././.(././.`.'.'.2X/.V E `.`.`.'.'.2X'.'.2X4X4X].eXrXtXtXtXtXuXyXhXhXhXlXlXlXlXlXbXbXbXlXbXbXbXmXbXbXlXlXlXxXlXrXP.s.u.F.i.yXcXlXbXbXnXnXnXnXnXnXnXnXxXxXxXxXxXxXxXlXxXxXxXxXlXlXlXlXlXlXzXzXcXcXcXcXaXsXzXsXpXpXiXiXiXiXiXiXpXpXpXpXpXpXpXpXpXpXpXpXpXpXpXpX0X0XpXpXpXpXpXpXpXpXpX0X0X0X0X0X0X0X0X0X0X0X0X0X0X0X0XkXkXkXkXkX0XpXpXkXkXkXkXkXkXkXkXkXkXkXkXkXkXkXkXkXfXfXfXfXVXVXVXVXVXVXVXfXfXfXfXfXkXkXkXPXPXkXVXVXVXVXfXfXVXVXVXVXkXkXkXkXkXkXkXkXPXPXPXkXkXkXPXPXkXkXkXkX0X0XpXkXpXpXpXpX0X0X0X0XpXpXpXpXpXpXpXpXpXpXpXpXpXpXpXpXpXpXpXpX0X0X0X0X0X0X0X0X0X0X0X0XpXpXiXiXiXpXpXpXiXiXiXiXaXcXcXaXkXkXcXcXcXcXcXcXlXlXlXlXlXlXlXlXxXxXlXxXxXxXxXxXxXxXxXxXxXxXxXxXbXbXbXbXhXbXD.~ ~ u.uX4XuXhXbXlXlXlXlXbXbXbXlXlXlXlXlXhXhXyXyXyXyXtXtXtXtXrXeX4X4X].'.'.'.'.`.J./././.(.(./.H.4.N K.J.`.U.U.P.H.P.H.H.H.b.b.b.b.b.b.b.b.b.b.b.b.b.v.k.y.f.f.f.j.p.y.t.t.e.e.e.e.8.8.9.4.;.,.7.P z h a j z z C Z C S A S @.P O.P v a 7 , 5 5 5 5 ",
"  O # - , , 6 i k c Z A @.@.&.q.7.=.I O.c h C O.,.7.7.;.7.8.0.e.t.t.t.y.f.f.j.k.k.k.z.l.l.b.v.x.b.n.n.M.M.B.M.P.P.P.I.I.Y.(.(.(.(.(.(.(.(.'.'./.V 5.`.[./.(.'.'.'.2X2X2X4X4XeX4X5XtXtXtXtXyXyXhXhXlXlXlXlXlXbXhXbXlXlXlXbXbXbXbXlXxXbXxXxXrXP.a.u.F.i.yXcXlXbXbXnXnXnXnXnXnXnXnXxXxXxXxXxXxXxXxXxXxXxXxXxXlXlXlXcXcXcXcXcXcXcXcXaXaXzXzXpXpX0X0XiXiXiXiXpXpXpXpXpXpXpXpXpXpXpXpXpXpXpXpX0X0XpXpXpXpXpXpXpXpXpXpX0X0X0X0X0X0X0X0X0X0XpXpX0X0XPXkXkXkXkXkX0X0XkXkXkXkXkXkXkXkXkXkXkXkXkXkXkXkXkXkXfXfXfXfXVXVXVXVXVXVXVXVXfXfXfXfXkXkXkXkXkXkXVXkXVXfXfXfXVXVXVXVXkXkXkXkXkXkXkXkXPXPXkXkXkXkXPXPXkXkXkXkX0X0XkXkXpXpXpXpX0X0X0X0XpXpXpXpXpXpXpXpXpXpXpXpXpXpXpXpXpXpXpXpX0X0X0X0X0X0X0X0X0X0X0X0XpXpXiXiXiXpXpXpXiXiXiXiXaXaXkXkXkXkXaXcXcXcXcXcXlXlXlXlXlXlXlXlXxXxXxXxXxXxXxXxXxXxXxXxXxXxXxXxXbXbXbXbXhXbXD.~ ~ u.uX4XrXlXlXlXlXlXbXbXbXbXlXlXlXlXlXhXhXyXyXyXyXtXtXtXtXrXeX4X4X4X4X'.2X'.`.U./././.(.(././.a.V G.`.'.U.U.P.P.H.H.H.M.n.b.b.b.n.n.b.b.b.x.x.b.b.b.z.f.j.j.j.j.j.p.y.t.t.t.e.e.r.8.8.7.4.4.7.P N j z j z z Z o.A P Y A z h i 9 6 5 6 6 , , % $ ",
"p - O & = , , , 6 6 w t g i P 0.,.#.Z I C j I #.q.7.7.,.7.8.e.t.t.t.t.y.f.f.j.k.k.k.l.l.v.v.l.v.v.n.M.M.M.B.N.P.P.P.I.I.I.Y.(.(.(.(.(.(.(.:X'.U.A s.`.[././.`.[.'.2X2X2X4X].eXeX6X5XtXtXyXyXyXjXhXhXhXlXlXhXhXhXlXlXlXmXlXmXmXbXmXxXbXxXxXrXG.s.A.A.i.yXcXlXbXbXnXnXnXnXnXnXnXnXxXxXxXxXxXxXxXxXxXxXxXxXlXlXlXlXcXcXcXcXcXcXcXcXaXaXaXaXpXpX0X0XiXiXiXiXpXpXpXpXpXpXpXpXpX0X0X0XpXpXpXpX0XpXpXpXpXpXpXpXpXpXpXpX0X0X0X0X0X0X0X0XkXkXpXpX0X0X0X0X0X0XkXkX0X0X0X0XkXkXkXkXkXkXkXkXkXkXkXkXkXkXkXkXfXVXfXfXVXVXfXVXVXVXVXVXVXVXfXfXkXkXkXkXkXkXkXkXVXVXfXfXVXfXVXVXkXkXkXkXkXkXkXkXPXPXPXPXkXkXkXPXkXkXkXkX0X0X0X0X0X0XpXpX0X0X0X0XpXpXpXpXpXpXpXpXpXpXpXpXpXpXpXpXpXpXpXpXpXpXpXpXpX0XpXpXpXpXpXpXpXpXiXiXpXpXpXpXiXiXiXiXiXiXkXkXkXkXaXaXlXcXcXcXlXzXlXlXlXlXlXlXlXxXxXxXxXxXxXxXxXxXxXxXxXxXxXxXbXbXbXbXhXbXD.~ ~ ^ eX4XtXlXlXlXlXlXlXlXlXlXlXlXlXlXlXyXaXaXyXyXyXyXtXtXeX6X4X4X4X].'.(.'.'.`././././.(./././.b.L J.`.(.Y.U.I.L.H.M.M.M.M.M.M.n.M.M.v.v.v.x.x.v.v.b.v.k.k.k.j.j.j.j.p.y.y.y.y.t.e.8.8.9.4.4.7.P B A N j z z Z ;.&.P z a t e e 7 8 8 , % # # % , ",
"v.e.Z t ; # # ; 5 ; ; , ; t &.7.o.v I O.C j I #.q.7.7.q.7.0.e.t.t.t.t.t.f.f.j.k.k.k.l.l.v.v.l.v.v.n.M.M.M.N.N.P.P.I.I.(.Y.(.(.(.(.(.(.(.(.:X<XU.U s.`.].'.[.[.[.'.2X2X2X[.J.`.].4XtXtXtXtXuXyXyXhXmXhXhXhXhXhXlXlXlXlXlXlXmXmXmXlXmXbXbXnX4XG.s.A.A.u.tXcXlXbXbXnXnXnXnXnXnXnXnXxXxXxXxXxXxXxXxXxXxXxXlXlXlXlXlXcXcXcXcXcXcXcXcXaXaXiXaXpXpX0X0XiXiXiXiXpXpXpXpXpXpXpXpXpX0X0X0XpXpXpXpXpXpXpXpXpXpXpXpXpXpXpXpX0X0X0X0X0X0X0X0XkXkXkXpX0X0X0XkX0X0X0XkX0X0X0X0XkXkXkXkXkXkXkXkXkXkXkXkXkXkXkXkXVXVXfXVXVXVXfXfXVXVXVXVXVXVXVXfXkXkXkXkXkXkXkXkXVXVXfXfXfXfXVXVXkXkXkXkXkXkXkXkXPXPXPXPXkXkXkXPXkXkXkXkX0X0X0X0X0X0X0XpX0X0X0X0XpXpXpXpXpXpXpXpXpXpXpXpXpXpXpXpXpXpXpXpXpXpXpXpXpXpXpXpXpXpXpXpXpXpXiXiXpXpXpXpXiXiXiXiXiXiXiXiXkXkXaXaXcXcXcXcXzXzXlXlXlXlXlXlXlXlXlXxXxXxXxXxXxXxXxXxXxXxXxXxXxXbXbXbXhXbXD.~ ~ ^ oX].uXhXlXlXhXhXlXlXlXlXlXlXlXlXmXyXyXaXyXyXyXuXtXtXeXeXeX4X].[./.U.`.'.`./././.(.(./.U./.b.L J././.U.I.P.P.H.M.M.M.M.N.H.L.N.M.M.v.x.x.x.x.v.v.v.l.k.k.k.k.j.j.j.p.y.y.y.y.e.r.8.8.4.4.7.Y P ;.S z B c +.8.,.S u 7 , - , % % & O O , x I <.",
"-X:XI.l.&.k , # + = , , t P C #.#.z A #.I z I #.7.0.0.7.8.0.t.t.t.t.f.f.f.j.k.k.k.k.l.v.z.z.v.v.v.n.n.n.L.L.H.M.I.Y.I.Y.(.(.(.(.(.(.:X(.(.'.2XP.R s.'.eX].'.].[./.'.'.U.J.2.K.`.].eXeXuXuXuXuXuXuXdXuXuXuXhXhXuXaXuXuXyXhXhXhXhXhXhXhXlXlX`.H.s.D.D.u.tXcXlXbXbXxXnXmXmXxXxXxXxXxXxXxXxXxXxXxXxXxXxXxXlXlXlXlXlXzXzXcXcXzXzXzXzXzXzXaXsXiXpXiXiXpXpXkXpXpXpXpXsXpXpXpXpXpXpXpXpXpXpXpXpXpXpXpXpXpXpXpXpXpXpXpXpXpXkX0X0X0X0XkXkXkXkX0X0X0X0XkXkXkXkXkXkXkXkXkXkXkXkXkXkXkXkXkXkXVXVXVXVXVXVXVXVXVXVXVXVXVXVXVXVXVXVXVXVXVXVXVXVXVXVXVXVXVXVXVXVXVXVXVXVXVXVXVXVXVXVXVXVXkXkXkXkXkXkXkXfXkXkXkXkXkXkXkXkXkXkXkXkXVXVXfXfX0X0XpXpXpXpXpXpXpXpXpXpXpXpXpXpXpXpXpXpXpXpXpXpXpXpXpXpXpXpXpXpXpXpXpXpXpXpXpXpXpXpXpXpXpXpXiXiXcXcXcXcXaXaXaXcXzXzXzXzXzXzXzXzXxXxXlXlXxXxXxXxXxXxXxXxXxXxXxXxXxXxXxXxXxXbXxXxX5XmXS.^ ~ ^ .X.XeXmXlXhXhXhXhXhXlXlXhXhXyXeXeXeXeXeXeXeX{.oX{.].{.].].[.[.[.J.K.G.`.(././././././.`./.i.l K.`.U.U.I.P.P.P.L.L.L.L.L.G.n.n.M.L.L.M.x.j.l.v.v.l.l.k.k.k.k.j.j.j.j.y.y.y.y.y.r.9.4.9.;.9.4.t.;.C N C c +.,.q.P A z ; X   . . O 0 v 8.l.I.B.",
":X>X:XI.^.l.q.A q ; $ , #.7.z A I k C @.I z I #.7.0.0.7.8.0.t.t.t.f.f.f.f.j.k.k.k.l.l.l.z.v.v.n.v.b.G.P.L.P.I.U.(.(.(.(.(.(.'.'.'.'.'.'.`.`.'.K.U i.E.U.`.[.[.].'.'.'.U.i.U 5.A.E.K.K.K.R.R.J.R._._._._._.[.`.J.`.]..X].].]..XoX.XoXoXoXeXK.H.d.D.D.u.tXcXlXbXbXxXnXnXmXxXxXxXxXxXxXxXxXxXxXxXxXxXxXxXlXlXlXlXlXzXcXcXcXzXzXzXzXzXcXaXsXiXpX0XiXpXpXkXkXpXpXpXpXpXpXpXpXpXpXpXpXpXpXpXpXpXpXpXpXpXpXpXpXpXpXpXpXkXkX0XkX0X0XkXkXkXkX0X0XkX0XkXkXkXkXkXkXkXkXkXkXVXkXkXkXkXkXkXkXVXVXVXVXVXVXVXVXVXVXVXVXVXVXVXVXVXVXVXVXVXVXVXfXkXkXVXVXVXVXVXVXVXVXVXVXVXVXVXVXVXVXVXVXkXkXkXkXkXkXkXVXkXkXkXkXkXkXkXkXkXkXkXkXVXVXfXfX0X0XpXpXpXpXpXpXpXpXpXpXpXpXpXpXpXpXpXpXpXpXpXpXpXpXpXpXpXpXpXpXpXpXpXpXpXpXpXpXpXpXpXpXpXpXiXiXcXcXcXcXaXaXcXcXlXzXzXzXzXzXzXzXxXxXlXlXxXxXxXxXxXxXxXxXxXxXxXxXxXxXxXxXxXxXxXxXtXmXS.^ ' ^ [.].eXhXyXeXeXeXeXeX4X4X4X4X`.K.K.`.`.J.J.K.J.J.K.s.s.s.s.s.s.s.i.5.r.P././.J.J.J.U./.U./.5.u a.J.U.U.P.H.H.H.G.G.G.L.G.G.G.L.L.L.L.n.n.k.n.v.v.l.l.k.k.k.k.j.j.j.j.y.y.y.y.e.r.9.4.9.9.r.t.j.#.z N z z k C ;.#.%.=.z ;   & 9 o.g.B.^.^.:X:X",
">X>X>X:X^.^.^.k.z.T u B z.j.z C A z C @.I C Y #.8.t.0.7.8.0.t.t.y.f.f.f.j.k.k.k.x.l.l.l.l.v.n.n.v.b.k.i.9.9.4.4.5.9.4.9.5.5.9.9.9.9.r.r.9.9.r.E y V 2.a.K./.'.[.`.'.U.G.i.i.K.s.s.a.s.s.s.s.A.A.K.A.A.d.F.R.A.u.K.`.].[..X[._.R.R.A.A.s.[.K.b.u.D.D.u.rXlXlXbXbXxXxXmXmXmXmXxXxXxXxXxXxXxXxXxXxXxXxXlXlXlXlXlXzXzXzXcXcXzXzXzXzXzXcXcXcXpXkXkXkXzXzXzXzXpXpXpXpXpXpXpXpXpXpXpXpXpXpXpXpXpXpXpXpXpXpXpXpXpXpXpXpXkXkXkXkX0X0X0XkXPX0XkXkXkXkXkXkXkXkXkXkXkXkXkXkXkXVXkXkXkXkXkXkXkXVXkXkXVXVXVXVXVXVXVXVXVXVXVXVXVXVXVXVX7X8X0XVXVXkXkXkXVXVXVXVXVXVXVXVXVXVXVXVXVXVXVXVXkXkXkXkXkXkXkXkXkXkXkXkXkXkXkXkXkXkXkXkXVXVXfXfXfXfXfXfXpXpXpXpXpXpXpXpXpXpXpXpXpXpXpXpXpXpXpXpXpXpXpXpXpXpXpXpXpXpXpXpXpXpXpXpXpXpXpXpXpXpXiXiXcXcXcXcXaXcXcXcXlXlXzXzXzXzXlXlXxXxXxXxXxXxXlXxXlXxXxXxXxXxXxXxXxXxXxXxXxXxXxXxXtXmXS.^ ' ^ R.K._..X`././.J.J.J.J.J.J.J.A.d.s.}.R.K.K.K.R.K.K.s.s.d.5.5.6.d.i.4.r.P.U./.J.J.J.J.G.G.d.E w R 9.p.i.9.9.9.9.4.q.q.9.9.3.3.3.3.3.3.3.9.9.p.b.b.z.z.k.k.g.k.j.j.j.j.a.a.j.j.e.r.7.;.7.r.r.t.;.#.P P z z k z #.P %.=.8.z , v v.N.I.^.^.-X;X1X",
"3X>X:X;X-X-X;X^.).P.n.v.l.t.A I z z C A I C #.&.8.e.0.7.8.0.t.t.y.f.j.f.j.k.k.l.x.x.k.k.v.n.n.n.N.b.3.A Y T T T T T T %.T T T %.%.%.-.-.4.4.r.R y E a.b.r.r.a.G.G.G.G.E.p.6.K.[.4X4XuXuXuXuXdXdXdXdXdXoXdXdXdXyXuXuXeX.XeXuXuXdXdXoX_.K.[./.s.u.D.D.d.tXlXlXbXbXxXxXmXmXmXmXxXxXxXxXxXxXxXxXxXxXxXxXxXlXlXlXlXzXzXzXcXcXcXzXzXzXzXzXzXcXkXkXkXkXzXzXzXzXpXpXpXpXpXpXpXpXpXpXpXpXpXpXpXpXpXpXpXpXpXpXpXpXpXpXpXpXkXkXkXkX0X0X0XPX0X0XkXkXkXkXkXkXkXkXkXkXkXkXkXkXkXkXkXkXkXkXkXkXkXkXkXkXkXkXVXVXVXVXVXVXVXVXVXVXVXVXVXfXqX0XVXVXVXkXkXkXkXVXVXVXVXVXVXVXVXVXVXVXVXVXVXVXkXkXkXkXkXkXkXkXkXkXkXkXkXkXkXkXkXkXkXkXVXVXfXfXfXfXfXfXpXpXpXpXpXpXpXpXpXpXpXpXpXpXpXpXpXpXpXpXpXpXpXpXpXpXpXpXpXpXpXpXpXpXpXpXpXpXpXpXkXkXiXiXsXcXcXcXcXcXcXcXcXcXzXzXzXzXlXlXlXlXlXxXxXxXlXlXlXxXxXxXxXxXxXxXxXxXxXxXxXxXxXxXtXvXS.' ^ ^ R.[.].uXeX].4X4X{.4X4X4X4X{.oXoXoX.X[.].{.eXeXeXeX{.eX4X].[.`.`.K.5.3.-.%.3.2.2.2.2.R 2.2.5.V E 5.9.9.4.3.3.;.-.;.&.%.*.@.T A A A A A U S Y t.b.z.z.k.k.g.g.j.j.j.j.j.j.j.j.e.8.4.;.4.t.9.3.=.#.-.#.A C Z c @.P #.%.j.t.8.N.(.N.N.P.I.Y.-X;X",
"1X1X>X>X:X;X;X;X^.N.v.M.v.y.#.P B z o.@.C C #.=.8.e.8.8.8.e.t.y.f.f.k.k.k.k.l.b.b.l.l.v.l.v.M.P.L.k.7.z.L.P.U.U.Y.Y.U.(.(./.(.(.(.:X<X<X2X2X2X[.Y 5././.5.3.9.z.G.U.U.G.s.%.p.].rXrXtXtXuXyXyXyXyXhXhXhXhXhXhXhXlXlXaXlXlXhXmXNXNXmXmXyXtX4XK.u.D.S.d.uXlXlXnXxXxXxXxXxXxXxXxXnXxXxXxXxXxXxXxXxXnXmXxXaX2XtXcXlXlXlXlXzXzXzXzXzXzXzXzXzXkXkXkXkXpXpXsXsXsXpXpXpXpXpXpXpXpXpXkXkXpXpXpXpXpXpXpXpXPXkXkXkX0X0X0X0XkXkXkXkX0X0XkXkXkXkXkXkXkXkXkXkXkXkXkXkXkXkXkXkXVXVXVXVXVXVXVXVXVXVXVXVXVXkXVXVXVXVXVXVXVXVXVXVXVXVXVXVXVXVXVXVXVXVXVXVXVXVXVXVXVXVXVXVXVXVXVXVXVXVXVXVXVXVXVXVXVXVXVXVXVXVXVXVXVXVXVXVXkXkXkXkXfXfXVXVXfXfXfXfXkXkXkXkXkXkXkXkXfXfXVXVX0X0X0X0XpXpXpXpXpXpXpXpXpXpXpXpXpXpXpXpXpXpXpXpXsXsXkXkXzXzXzXzXpXpXzXzXcXcXcXcXlXlXzXzXzXlXlXlXlXlXlXlXxXxXxXxXxXxXxXxXxXmXmXxXxXxXxXxXxXxXxXxXyXvX~.' ' ^ R.rXrXiXsXiXsXaXaXlXlXlXlXlXlXlXlXlXyXyXyXyXtXrXrXeXeX4X4X4X4X4XH.r.9.9.9.7.3.9.z.G.G.J.J.p.d *.'.`.Y.Y.(.^.I.I.I.I.P.L.L.G.n.G.b.x.b.z.i.Y A t.b.b.k.j.f.f.k.k.k.k.f.f.j.j.e.8.4.;.4.4.4.7.#.#.=.-.P I O.Z I o.#.q.k.L.N.M.P.I.I.Y.(.(.;X;X",
"1X1X>X>X:X;X;X;X^.I.N.M.v.y.#.P k h @.#.A C =.=.8.e.8.8.8.e.y.f.f.k.k.k.k.k.k.k.k.k.v.v.k.b.L.L.b.p.G.G.L.P.I.I.Y.Y.I.(.(./.(.(.;X;X<X<X2X1X2X'.R r.`.'.`.P.U.`.2X4X4X2X[.U.].eXrXrXtXtXtXyXaXaXaXhXaXaXlXlXlXhXhXhXaXlXlXlXmXnXhXmXnXaXaXrXJ.d.S.S.d.uXlXlXbXbXxXxXmXmXxXmXxXnXxXxXxXxXxXxXxXxXmXlXxXtX/.2XiXlXlXlXlXzXzXzXzXzXzXzXzXzXpXkXkXkXpXpXsXpXsXsXpXpXpXpXpXpXpXpXkXkXpXpXpXpXpXpXpXpX0XkXkXkX0X0X0X0XkXkXkXkX0X0XkXkXkXkXkXkXkXkXkXkXkXkXkXkXkXkXkXkXVXVXVXVXVXVXVXVXVXVXVXVXkXkXVXVXVXVXVXVXVXVXVXVXVXVXVXVXVXVXVXVXVXVXVXVXVXVXVXVXVXVXVXVXVXVXVXVXVXVXVXVXVXVXVXVXVXVXVXVXkXVXVXVXVXVXVXVXkXkXkXkXfXfXVXVXfXfXfXfXkXkXkXkXkXkXkXkXfXVXVXVXpX0X0X0XpXpXpXpXpXpXpXpXpXpXpXpXpXpXpXpXpXpXpXpXsXsXzXsXzXzXpXkXpXpXzXzXcXcXcXcXzXzXzXzXzXlXlXlXlXlXlXlXxXxXxXxXxXxXxXxXxXxXmXxXxXxXxXxXxXxXxXxXyXvX~.' ' ^ R.rX2XiXsXsXsXaXlXyXaXcXaXaXaXaXaXaXaXyXyXyXtXrX6XrX4X4X6X4X4X4X2X<X2X2X2X2X2X2X2X2X].].[.5.w 3.'.(.Y.^.^.^.).P.P.P.P.N.N.M.L.L.L.n.n.b.G.z.P A j.n.z.k.j.j.k.k.k.k.f.f.f.j.t.e.7.;.4.4.4.9.%.#.=.-.O.Z Z k c &.#.;.j.L.M.n.P.I.I.Y.(.(.;X;X",
"1X1X:X>X:X;X;X;X^.^.B.M.v.y.#.P z 8 h z h I =.;.8.e.8.8.t.y.f.j.k.k.j.k.k.k.k.j.k.l.v.v.v.n.n.z.j.n.P.I.L.P.I.I.I.I.^.(.(.).(.(.(.;X<X<X<X1X2X'.%.9./.4X4X'.2X2X4X4X4X4X4XeXrXeXrXrXtXtXtXtXaXaXaXaXaXaXlXlXlXlXlXyXaXlXlXhX.XR.R.dXlXaXiX8X/.d.S.S.d.uXlXlXbXbXbXnXmXmXmXmXxXxXxXxXxXxXxXxXxXxXlXlXxXtX5XiXlXlXlXlXlXzXzXzXzXzXzXzXzXzXzXzXkXkXsXzXzXzXkXkXpXpXpXpXzXzXpXpXpXkXpXpXpXpXpXpXpXpX0X0XkXkX0XkX0X0XkXkXpXpX0X0XkXkXkXkXkXkXkXkXkXkXkXkXkXkXVXVXkXkXVXVXVXVXVXVXVXVXVXVXVXkXkXkXkXVXVXVXVXVXVXVXVXVXVXVXVXVXVXVXVXVXVXVXVXVXVXVXVXVXVXVXVXVXVXVXVXVXVXVXVXVXVXVXVXVXVXVXkXkXkXkXkXkXVXVXVXVXkXkXkXkXfXfXVXVXVXVXfXfXkXkXkXkXkXkXkXkXfXfXVXVXpXkX0X0XpXpXpXpXpXpXpXpXpXpXpXpXpXpXpXpXpXpXpXpXpXpXzXzXpXpXpXpXzXzXzXzXzXzXzXzXzXzXzXzXzXlXlXlXzXzXlXlXxXxXxXxXxXxXxXxXmXmXxXxXxXxXxXxXxXxXxXxXtXbX~.' ' ^ J.4X2XiX8X5X2X'.yXyXyXyXyXyXyXyXyXyXyXyXyXyXtXrX6X6X6X4X4X4X4X2X2X2X4X2X2X2X2X2X2X2X'.2X2Xi.N z.(.(.Y.(.^.^.I.I.I.P.I.P.L.M.P.P.L.L.L.x.n.b.t.B I k.b.z.j.j.k.k.k.k.j.j.j.j.y.t.9.4.4.4.9.9.;.&.;.#.v t 9 5 g o.&.,.f.n.v.v.P.I.I.I.(.(.;X;X",
"1X1X:X>X:X;X;X;X^.(.I.M.v.t.#.P A 6 - # , I =.8.8.e.8.8.t.y.f.k.k.j.j.z.k.k.f.y.l.v.b.v.M.N.l.0.x.n.M.L.L.P.P.I.I.I.^.(.(.).(.(.;X;X;X;X<X2X2X'.%.4./.4X'.'.2X2X4X4X4X4XrXeXeXyXrXrXtXtXtXtXtXaXaXaXaXaXaXaXlXlXyXyXcXxXcXjXA.D W K.rXaXiXiX/.s.S.S.s.yXhXlXbXbXbXnXnXnXmXmXmXxXxXxXxXxXxXxXxXxXxXxXxXlXzXxXlXlXlXlXlXzXzXzXzXzXzXzXzXzXzXzXkXkXsXzXzXzXkXkXkXsXpXkXkXpXpXkXpXpXpXpXpXpXpXpXpXpX0X0XkXkXkXkX0X0XkXkX0X0X0X0XkXkXkXkXkXkXkXkXkXkXkXkXkXkXVXVXkXkXVXVXVXVXVXVXVXVXVXVXVXkXkXkXkXkXVXVXVXVXVXVXVXVXVXVXVXVXVXVXVXVXVXVXVXVXVXVXVXVXVXVXVXVXVXVXVXVXVXVXVXVXVXVXVXVXVXVXkXkXkXkXkXkXVXVXVXVXkXkXkXkXfXfXVXVXVXVXfXfXkXkXkXkXkXkXkXkXfXfXVXVXkXkX0X0XpXpXpXpXpXpXpXpXpXpXpXpXpXpXpXpXpXpXpXpXpXpXzXzXpXkXkXpXzXzXzXzXzXzXzXzXlXzXlXzXzXlXlXlXzXzXlXlXxXxXxXxXxXxXxXxXxXxXxXxXxXxXxXxXnXnXxXxXyXbX~.' ' ^ J.4X5XsX5X2X4.2.K.].yXyXyXyXyXyXyXyXyXtXtXtXtX6X6X6X6X4X4X4X2X4X2X2X2X2X2X2X2X<X2X:X'.2X2Xx.#.G.'.(.(.(.^.^.I.I.I.P.I.P.L.N.N.N.M.n.n.v.L.x.n.0.z @.b.z.k.j.k.f.k.k.j.j.j.j.a.t.8.4.4.9.9.9.3.;.;.#.h , % ; z +.&.,.y.v.v.v.P.I.I.I.(.(.;X;X",
"1X1X>X>X:X;X;X-X-X^.T.M.x.t.;.P L r ; $ t @.,.7.8.e.e.8.8.t.j.k.k.k.j.y.k.z.v.m.v.v.b.v.n.l.f.f.v.n.N.L.P.P.P.I.I.I.^.(.(.).(.(.;X(.;X;X2X1X<X'.T 4./.6X2X2X2X2X2X4X4X4X4XrXrXrXrXrXtXtXtXtXtXtXtXyXaXaXaXaXhXyXmXyXtXhXuX`.u.M M i.4XtXaXiX'.s.D.S.A.yXhXhXbXbXlXxXxXxXmXmXmXxXxXxXxXxXxXxXxXxXxXxXxXxXxXxXzXzXlXlXzXzXzXzXzXzXzXzXzXzXzXzXkXkXpXpXpXkXkXkXkXkXzXzXzXpXpX7X7XpXkXkXkXkXkXkXkXkXkXkXkXkXkXkXkXkXkXkXkXkXkXkXkXkXkXkXkXkXVXVXVXkXkXkXkXkXVXVXVXkXVXVXVXVXVXVXVXVXVXVXVXVXVXVXVXVXVXVXVXVXVXVXVXVXVXVXVXVXVXVXVXVXVXVXVXVXVXVXVXVXVXVXVXVXVXVXVXVXVXVXVXVXVXVXVXVXVXVXVXVXVXVXVXVXkXkXkXkXVXVXVXkXVXVXVXVXVXfXfXfXkXkXkXkXkXkXkXkXfXfXfXfXkXkXkXkXkXkXkXkXkXkXkXkXkXkXkXkXkXkXkXkXkXkXkXpXpXkXzXzXzXzXzXzXzXzXzXzXzXzXzXzXzXzXzXzXzXzXzXzXzXzXzXzXxXxXxXxXxXxXxXxXxXxXxXxXxXxXxXnXmXxXxXxXhXvX~.' ' ^ J.5X6XiX9X(.N V 6.A.eXyXyXyXaXyXtXtXtXtXtXtXtXtXrXrX5X4X4X6X2X4X4X2X2X2X2X2X2X2X:X:X:X:X2Xb.#.n./.(.^.^.^.^.I.P.P.I.P.P.P.P.P.L.N.M.N.M.v.v.n.n.;.z %.k.b.b.k.j.f.k.f.f.f.f.y.y.8.4.4.4.9.9.7.3.;.#.x 5 ; 0 c I &.7.j.b.v.N.P.I.I.I.(.(.(.(.",
"1X1X>X>X:X;X;X-X-X^.T.M.x.f.;.Y C u 6 7 z &.,.,.8.e.e.8.8.t.j.k.k.f.j.j.z.v.m.m.v.v.n.v.l.8.f.v.M.N.L.L.P.I.I.I.I.I.^.(.(.).(.(.;X;X;X;X<X2X<X<XT 4./.4X<X<X2X2X2X2X4X4X4X4X6XrXrXrXtXtXtXtXtXtXtXtXaXaXaXaXhXhXaXtXrXyX/.w.~ D M i.4XaXiX9X`.s.S.S.F.hXhXlXbXbXxXxXxXxXmXmXmXmXxXxXxXxXxXxXxXxXxXxXxXxXxXxXzXzXlXlXzXzXzXzXzXzXzXzXzXzXzXzXkXkXpXpXpXzXkXkXkXkXzXkXzXkXpX8X8XpXkXkXkXkXkXkXkXkXkXkXkXkXkXkXkXkXkXkXkXkXkXpXkXkXkXkXkXkXVXVXVXkXkXkXkXkXVXVXVXVXVXVXVXVXVXVXVXVXVXVXVXVXVXVXVXVXVXVXVXVXVXVXVXVXVXVXVXVXVXVXVXVXVXVXVXVXVXVXVXVXVXVXVXVXVXVXVXVXVXVXVXVXVXVXVXVXVXVXVXVXVXVXVXVXkXkXkXkXVXVXVXVXVXVXVXVXVXVXfXfXkXkXkXkXkXkXkXkXfXfXVXfXkXkXkXkXkXkXkXkXkXkXkXkXkXkXkXkXkXkXkXkXpXpXpXpXpXkXzXzXzXzXzXzXzXzXzXzXzXzXzXzXzXzXzXlXzXzXzXlXzXzXlXzXxXxXxXxXxXxXxXxXlXxXxXxXxXxXnXnXmXxXxXxXtXjX X' ' ^ J.5XrXtX9X`.A D ! u.eXyXyXaXaXyXtXtXtXtXtXtXtXtXrXrX5X4X4X6X4X4X4X2X2X2X2X2X<X<X:X;X:X:X<Xb.#.n.).(.^.).^.^.I.P.P.I.P.P.P.P.P.L.N.M.N.M.v.v.n.n.b.;.z =.z.z.x.j.y.t.f.f.f.f.y.y.e.7.3.4.4.7.8.7.;.#.A t 6 9 c I &.7.k.v.v.L.T.T.I.I.(.(.(.(.",
"1X>X>X>X:X;X;X-X-X^.I.M.x.f.;.Y Y h 7 t A ;.7.7.8.e.8.8.8.t.j.k.k.t.f.z.b.b.b.v.n.n.n.k.7.t.M.N.N.N.N.P.I.I.I.I.(.(.(.(.(.).(.(.;X(.;X;X<X2X2X<X%.r.(.2X<X<X<X2X2X2X2X4X6X4X6XrXrXrXtXtXtXtXtXyXtXtXaXaXaXaXaXaXaXtXeXyXuXA.Z.u.! A.4XiXiXtX'.s.~.~.A.jXjXlXlXlXxXxXxXxXxXxXxXxXxXxXxXxXxXxXxXxXxXxXxXxXxXxXzXzXlXlXlXlXzXzXzXzXzXzXzXzXzXzXkXkXpXpXzXzXzXzXkXkXkXkXkXkXpXpXpXpXkXkXkXkXkXkXkXkXkXkXkXkXkXkXkXkXkXkXkXkXpXpXpXpXkXkXkXkXVXVXVXVXVXkXkXkXVXVXVXVXVXVXVXVXVXVXVXVXVXVXVXVXVXVXVXVXVXVXVXVXVXVXVXVXVXVXVXVXVXVXVXVXVXVXVXVXVXVXVXVXVXVXVXVXVXVXVXVXVXVXVXVXVXVXVXVXVXVXVXVXVXVXVXVXVXVXVXVXVXVXVXVXVXVXVXVXVXVXVXVXkXkXkXkXkXkXkXkXVXVXVXVXkXkXkXkXkXkXkXkXkXkXkXkXkXkXkXkXkXkXkXkXkXkXpXpXpXpXzXzXzXzXzXzXzXzXzXzXzXzXzXcXkXkXzXlXzXzXlXlXlXlXlXlXxXxXxXxXxXxXlXlXlXxXxXxXxXnXmXmXnXmXxXxXtXjX|.] ' ^ J.4XrXrXtX4X2.w.R.R.eXyXaXaXaXyXyXtXtXtXtXtXtXtXrXrXrX4X4X6X4X4X4X2X2X2X2X2X<X<X:X(.(.(.'.b.#.n.).(.^.^.^.^.I.I.^.I.I.I.I.I.P.L.L.N.M.M.v.v.n.n.n.b.;.z #.j.z.k.f.t.f.f.f.f.j.j.t.7.9.9.4.4.9.7.4.#.A g 8 9 c I &.,.k.l.v.P.T.T.I.I.(.(.(.(.",
"1X>X>X>X:X;X;X-X-X^.T.M.v.f.;.P T h 6 r A =.7.8.r.e.8.8.8.t.k.j.k.y.y.v.v.b.b.b.M.n.k.0.t.n.M.v.N.N.P.I.I.I.I.I.(.(.(.(.(.).(.(.(.(.;X;X<X2X2X<X-.y.'.<X<X<X<X<X2X2X2X2X6X4X6XrXrXrXtXtXtXtXaXyXtXtXaXaXaXaXaXaXlXyXtXyXhX.X_._.R.[.4XtXaXyX'.A.~.~.A.uXyXlXlXlXxXxXxXxXxXxXxXxXxXxXxXxXxXxXxXxXxXxXxXxXxXxXzXzXlXlXlXlXzXzXzXzXzXzXzXzXzXzXzXkXpXpXzXzXzXzXzXkXkXkXkXzXkXkXkXkXkXkXkXkXkXkXkXkXkXkXkXkXkXkXkXkXkXkXkXkXpXpXpXpXkXkXkXkXVXVXVXVXVXkXkXkXVXVXVXVXVXVXVXVXVXVXVXVXVXVXVXVXVXVXVXVXVXVXVXVXVXVXVXVXVXVXVXVXVXVXVXVXVXVXVXVXVXVXVXVXVXVXVXVXVXVXVXVXVXVXVXVXVXVXVXVXVXVXVXVXVXVXVXVXVXVXVXVXVXVXVXVXVXVXVXVXVXVXVXVXkXkXkXkXkXkXkXkXVXVXVXVXkXkXkXkXkXkXkXkXkXkXkXkXkXkXkXkXkXkXkXkXkXkXkXpXpXpXzXzXzXzXzXzXzXzXzXzXzXzXzXkXiXkXzXzXzXzXlXlXlXlXlXlXxXxXxXxXxXxXlXlXxXxXxXxXxXxXmXmXmXmXxXlX5XjX|.{ ' ^ J.6XtX5XiX4XJ.`.dXuXeXyXaXaXaXyXtXtXtXtXtXtXrXrXrXrXrX4X4X6X4X4X4X2X2X2X2X2X<X<X:X'.(.(.'.b.#.n.).(.^.^.^.^.I.I.^.I.I.I.I.I.P.L.L.N.M.M.v.v.n.n.b.b.b.7.z P f.k.k.f.f.f.f.f.j.j.y.8.y.r.r.9.r.8.7.-.A h 8 9 c I &.,.k.l.M.P.T.T.I.I.(.(.(.(.",
"1X>X:X:X;X;X;X-X^.^.T.M.v.g.,.#.#.z < u L =.7.8.8.e.r.r.r.a.k.j.y.y.z.k.b.x.x.n.b.k.;.0.L.M.M.M.N.N.I.I.I.I.I.I.^.(.(.(.(.).(.(.(.(.(.(.:X2X2X/.@.9.(.<X<X<X2X2X2X5X4X4X6X4X5XrXrXrXrXrXtXiXiXiXtXyXyXaXaXaXaXaXaXaXaXhXhXeX{.uXeXrXtXiXiXiX'.A. X~.F.eXyXlXlXlXxXxXlXlXxXxXxXxXlXlXxXxXxXxXxXxXxXxXxXzXlXlXxXxXzXzXzXzXzXzXzXzXzXzXkXzXzXzXzXzXzXzXkXkXpXpXpXpXkXkXkXkXkXkXkXkXkXkXkXkXkXkXkXkXkXkXkXkXkXkXkXkXfXfXfXfXVXVXfXfXkXkXkXkXVXVXVXVXVXVXVXVXVXVXVXVXVXVXVXVXVXVXVXVXVXVXVXVXVXVXVXVXVXVXVXVXVXVXVXVXVXVXVXVXVXVXVXVXVXVXVXVXVXVXVXVXVXVXVXVXVXVXVXVXVXVXVXVXVXVXVXVXVXVXVXVXVXVXVXVXVXVXVXVXVXVXVXkXVXVXVXVXfXfXVXVXkXkXkXkXkXkXkXkXfXfXfXfXfXfXfXfXkXkXkXkXkXkXkXkXfXfXfXfXkXkXkXkXzXkXkXkXkXkXzXzXkXkXkXkXzXzXzXzXzXzXzXzXpXzXzXzXzXzXzXzXlXlXlXlXlXlXlXlXlXlXlXlXlXlXlXxXxXxXxXxXnXxXxXlXtXvX|. X' ^ `.6X5XtXiXaXyXyXyXyXyXtXtXaXaXtXtXtXrXrXrXrXrXrX6X6XrX4X4X4X2X2X2X2X2X2X<X<X2X<X'.'.'.(.<Xb.T P.(.(.^.^.Y.(.I.^.^.I.I.I.I.P.P.L.L.L.M.M.n.M.M.M.n.M.b.b.0.B I j.z.z.f.y.t.e.t.f.j.j.y.8.9.r.e.r.7.-.C h 7 i v Z #.8.j.l.n.N.N.I.I.I.^.^.^.-X",
"1X>X:X:X;X;X;X-X^.^.T.M.v.c.e.;.#.h ; r A =.,.7.8.8.r.r.e.j.k.j.-.9.z.n.b.n.n.G.k.;.7.n.M.M.M.M.N.N.I.I.I.I.I.I.(.(.(.(.(.).(.(.(.(.(.(.:X2X2X/.Y t.:X4X<X<X2X2X2X4X4X2X6X4X5XiXrXrXrXrXtXiXiXiXtXaXyXaXaXaXaXaXaXaXaXlXlXuXeXeXtXiXaXaXiXiX'.A. X~.F.uXyXlXlXlXxXxXlXlXxXxXxXxXlXlXxXxXxXxXxXxXxXxXzXzXlXlXxXxXzXzXzXzXzXzXzXzXzXzXkXzXzXzXzXzXzXzXkXzXpXpXpXpXkXkXkXkXkXkXkXkXkXkXkXkXkXkXkXkXkXkXkXkXkXkXkXkXfXfXfXfXVXVXfXfXkXkXkXkXVXVXVXVXVXVXVXVXVXVXVXVXVXVXVXVXVXVXVXVXVXVXVXVXVXVXVXVXVXVXVXVXVXVXVXVXVXVXVXVXVXVXVXVXVXVXVXVXVXVXVXVXVXVXVXVXVXVXVXVXVXVXVXVXVXVXVXVXVXVXVXVXVXVXVXVXVXVXVXVXVXVXkXkXVXVXVXVXfXfXfXfXkXkXVXkXkXkXkXkXfXfXfXfXfXfXfXfXkXkXkXkXkXkXkXkXfXfXfXfXkXkXkXkXzXzXkXkXkXkXzXzXkXkXkXkXzXzXzXzXzXzXzXzXzXzXzXzXzXzXzXzXlXlXlXlXlXlXlXlXlXlXlXlXlXlXlXxXlXxXlXlXxXxXlXcX6XjX X X' ^ `.2X5XrXiXaXaXaXaXaXaXtXtXaXaXtXtXrXrXrXrXrX4X4X6X6XrX4X4X4X2X2X2X2X2X<X<X<X2X<X:X:X<X(.<Xb.T L.(.(.^.^.Y.(.I.I.^.I.I.I.I.P.P.L.L.L.M.M.n.M.M.M.M.M.x.n.n.9.z ;.b.j.k.j.t.8.7.t.j.j.y.r.r.r.e.8.7.-.A z 7 p c C #.8.j.x.n.N.N.I.I.I.^.^.^.-X",
"1X>X:X:X;X;X;X-X^.^.T.M.x.x.f.,.#.h , a A #.:.,.7.8.8.r.t.k.v.z.%.0.x.b.v.n.b.a.-.;.z.n.M.M.M.M.N.P.I.I.I.I.I.(.^.(.(.(.(.).(.(.(.(.(.(.<X2X4X/.Y p.2X3X<X<X<X2X2X4X2X2X6X4XrXrXrXrXrXrXtXtXtXiXtXaXtXaXaXaXaXaXaXaXaXlXlXhXyXhXaXiXiXiXaXtX[.A. X{ F.dXyXlXlXlXxXxXlXlXlXlXlXlXlXxXxXxXxXxXxXxXxXxXxXxXlXlXlXlXzXzXzXzXzXzXzXzXzXzXkXzXzXzXzXzXzXzXzXzXkXkXkXkXkXkXkXkXkXkXkXkXkXkXkXkXkXkXkXkXkXkXkXkXkXkXkXkXfXfXfXfXVXVXVXVXkXkXVXVXVXVXVXVXVXVXVXVXVXVXVXVXVXVXVXVXVXVXVXVXVXVXVXVXVXVXVXVXVXVXVXVXVXVXVXVXVXVXVXVXVXVXVXVXVXVXVXVXVXVXVXVXVXVXVXVXVXVXVXVXVXVXVXVXVXVXVXVXVXVXVXVXVXVXVXVXVXVXVXVXVXVXkXkXVXVXVXVXfXfXfXfXkXkXkXVXVXkXkXkXfXfXVXVXfXfXfXfXkXkXkXkXkXkXkXkXfXfXfXfXkXkXkXkXzXzXzXzXkXkXkXzXkXkXkXkXzXzXzXzXzXzXzXzXzXzXzXzXzXzXzXzXzXlXlXlXlXlXlXlXlXlXlXlXlXlXlXxXxXxXlXlXlXlXlXcX'.=X X XW.' `.2XrXtXiXaXaXaXaXaXaXtXaXaXaXtXtXrXrXrXrXrX4X4XrXrXrX4X4X4X2X1X2X2X2X2X<X<X2X<X:X:X<X'.'.b.T L.(.(.Y.Y.U./.I.I.^.I.I.I.I.P.P.P.L.L.N.N.M.M.M.M.n.M.M.n.x.l.#.j e.z.k.f.f.t.8.y.z.z.a.e.r.y.e.8.7.=.I z r h I P &.8.j.x.n.N.N.I.I.I.^.^.^.(.",
">X>X;X:X;X;X;X-X^.^.T.M.x.x.g.8.&.z e j S #.;.,.7.7.8.8.t.k.v.z.=.t.v.M.n.n.z.3.A 9.n.v.M.M.M.M.N.L.I.I.I.I.I.(.^.(.(.(.(.(.(.(.(.(.(.(.<X2X4X/.#.k.2X<X<X<X<X<X2X4X2X2X6X4XrXrXrXrXrXrXtXtXtXiXtXtXtXaXaXaXaXaXaXaXaXaXlXlXcXlXcXaXiX9XaXtX`.~. X{ Z.dXyXlXlXlXxXxXlXlXlXlXlXlXlXlXxXxXxXxXxXxXxXxXxXxXlXlXlXlXzXzXzXzXzXzXzXzXzXzXkXzXzXsXzXzXzXzXzXzXkXkXkXkXkXkXkXkXkXkXkXkXkXkXkXkXkXkXkXkXkXkXkXkXkXkXkXkXfXfXfXfXVXVXVXVXkXkXVXVXVXVXVXVXVXVXVXVXVXVXVXVXVXVXVXVXVXVXVXVXVXVXVXVXVXVXVXVXVXVXVXVXVXVXVXVXVXVXVXVXVXVXVXVXVXVXVXVXVXVXVXVXVXVXVXVXVXVXVXVXVXVXVXVXVXVXVXVXVXVXVXVXVXVXVXVXVXVXVXVXVXVXVXkXVXVXVXVXfXfXfXfXkXkXkXkXVXkXkXkXVXVXVXVXfXfXfXfXkXkXkXkXkXkXkXkXfXfXfXfXkXkXkXkXzXzXzXkXkXkXkXzXzXkXkXkXkXzXzXzXzXzXzXzXzXzXzXzXzXzXzXzXzXlXlXlXlXlXlXlXlXlXlXlXlXlXlXlXxXxXlXlXlXlXlXcX'.=X X X{ ' _.2XrXiXiXaXaXaXaXyXaXtXaXaXaXtXtXrXrXrXrXrX6X6X6XrXrX4X4X4X2X2X2X2X2X2X<X<X2X<X:X:X<X'.'.b.T L.(.(.Y.U.U./.I.I.I.I.I.I.I.P.P.P.P.L.M.N.M.M.M.M.n.n.l.M.l.l.j.z I z.f.f.k.k.f.k.z.z.j.y.r.y.e.8.7.=.P C h I &.#.;.8.j.l.n.N.N.I.I.I.^.^.^.(.",
"1X>X;X;X;X;X;X-X^.(.T.M.V.v.l.8.7.z u z S #.;.,.r.e.t.t.y.k.b.y.#.j.M.M.M.b.z.T z 9.n.n.v.M.M.N.P.P.P.I.I.I.I.(.(.(.(.(.(.).(.(.:X:X(.(.<X2X4XP.3.z.<X<X2X2X<X<X6X6X6X6X6X4XrXrXrXrXiXiXrXrXtXtXtXiXiXiXaXaXaXaXaXaXaXaXlXlXlXlXcXaXiXiXaXtX}.~. X| ' %XdXlXlXlXlXlXlXzXzXlXlXlXxXxXlXlXxXxXxXxXlXlXlXxXxXxXxXxXzXzXzXzXzXzXzXzXzXzXzXzXkXkXkXkXkXkXkXkXkXkXkXkXkXkXkXkXkXkXkXkXkXkXkXkXkXkXkXVXkXkXkXkXkXkXkXkXfXfXfXfXVXVXVXVXkXkXkXVXVXVXVXVXVXVXVXVXVXVXVXVXVXVXVXVXVXVXVXVXVXVXVXVXVXVXVXVXVXVXVXVXVXVXVXVXVXVXVXVXVXVXVXVXVXVXVXVXVXVXVXVXVXVXVXVXVXVXVXVXVXVXVXVXVXVXVXVXVXVXVXVXVXVXVXVXVXVXVXVXVXVXVXVXVXVXVXVXVXVXVXVXVXVXVXVXkXkXkXkXVXVXVXVXVXVXVXVXkXkXkXkXkXkXkXkXfXfXpXfXkXkXzXzXkXkXkXkXzXzXkXkXzXzXzXzXzXzXzXzXzXzXzXzXzXzXzXzXzXzXzXzXzXzXlXlXlXlXlXlXlXlXlXlXlXlXlXlXxXxXxXlXlXcXcXhX6XoX X#X{ ' _.2XtXyXaXaXaXaXaXaXaXiXaXaXaXtXtXrXrXrXrXrXrXrXrXrX5X4X4X4X2X2X2X2X2X2X2X2X2X<X:X:X:X(.'.G.#.H.(.(.(.(.(.(.(.(.I.I.I.I.I.I.I.P.P.P.P.N.N.N.M.n.n.n.v.v.v.l.z.I A k.k.f.l.k.f.k.l.k.y.y.y.y.e.8.7.=.I C h P 7.7.8.8.f.l.n.M.N.P.I.I.^.^.^.(.",
">X:X;X;X;X;X-X^.^.(.I.v.V.M.l.t.7.z a N I #.;.7.r.e.t.t.j.k.b.a.4.k.n.v.b.b.p.A u 3.n.v.V.M.N.P.P.P.P.P.I.I.I.^.(.(.(.(.(.).(.(.:X:X(.(.<X2X4XU.-.b.<X<X2X2X<X<X6X6X6X6X6X4XrXrXrXrXrXrXrXrXtXtXtXtXiXiXaXaXaXaXaXaXaXaXcXcXcXcXcXaXiXiXaXeX}.~.#X| ' =XdXlXlXlXlXlXlXlXzXlXlXlXxXlXlXlXxXxXxXxXlXlXxXxXxXxXxXxXzXzXzXzXzXzXzXzXzXzXzXzXkXzXkXkXkXkXkXkXkXkXkXkXkXkXkXkXkXkXkXkXkXkXkXkXkXkXkXVXkXkXkXkXkXkXkXkXfXfXfXfXVXVXVXVXkXkXkXVXVXVXVXVXVXVXVXVXVXVXVXVXVXVXVXVXVXVXVXVXVXVXVXVXVXVXVXVXVXVXVXVXVXVXVXVXVXVXVXVXVXVXVXVXVXVXVXVXVXVXVXVXVXVXVXVXVXVXVXVXVXVXVXVXVXVXVXVXVXVXVXVXVXVXVXVXVXVXVXVXVXVXVXVXVXVXVXVXVXVXVXVXVXVXVXVXkXkXkXkXVXfXVXVXVXVXVXVXkXkXkXkXkXkXkXkXfXfXfXfXkXkXkXkXkXkXkXkXzXzXkXkXzXzXzXzXzXzXzXzXzXzXzXzXzXzXzXzXzXzXzXzXzXzXlXlXlXlXlXlXlXlXlXlXlXlXlXlXlXlXlXlXlXcXcXcX6XoX X#X] ' [.2XrXyXaXlXaXaXaXaXaXaXaXaXaXtXtXrXrXrXtXrXrXrXrXrXrX4X6X4X6X6X2X2X2X2X2X2X2X<X:X:X:X(.'.G.#.L.(.(.(.(.(.(.^.^.I.I.I.I.I.I.I.P.P.P.P.N.N.N.M.M.n.n.v.v.v.x.b.T P z.k.k.l.k.f.k.l.k.y.y.y.y.e.8.4.=.P C h Y 7.8.8.0.f.l.n.B.N.P.I.I.I.^.^.^.",
";X;X;X;X;X-X-XI.^.(.I.v.M.M.l.f.8.A h C P &.;.,.r.e.t.t.k.l.n.j.r.z.b.M.v.n.p.B q 3.N.M.M.N.P.I.P.I.I.I.I.^.^.(.(.(.(.(.(.).(.(.:X:X:X:X<X2X4XU.%.b.2X<X2X2X2X<X2X6X6X4X2X4X5XrX5X5XrXrXrXtXtXtXtXtXiXiXaXaXaXaXaXaXaXaXaXaXaXaXiXaXiXiXiXeX}.|.#X .' +XdXmXlXlXlXlXlXlXxXlXxXxXxXxXlXlXxXxXxXxXzXzXzXzXxXlXxXxXzXzXzXzXzXzXzXzXzXzXzXzXzXzXzXzXkXkXkXkXkXkXkXkXkXkXkXkXkXkXkXkXkXkXkXkXkXkXkXkXkXkXkXkXkXkXkXkXfXfXfXfXVXfXVXVXkXkXVXVXVXVXVXVXVXVXVXVXVXVXVXVXVXVXVXVXVXVXVXVXVXVXVXVXVXVXVXVXVXVXVXVXVXVXVXVXVXVXVXVXVXVXVXVXVXVXVXVXVXVXVXVXVXVXVXVXVXVXVXVXVXVXVXVXVXVXVXVXVXVXVXVXVXVXVXVXVXVXVXVXkXkXkXkXVXVXVXVXVXVXVXVXVXVXVXVXkXkXkXkXfXfXfXfXfXfXVXVXkXkXkXkXkXkXkXkXfXfXfXfXkXkXkXkXkXkXkXzXzXzXkXkXkXkXzXkXzXzXzXkXzXzXzXzXzXzXzXzXzXzXzXzXlXlXlXlXlXlXlXlXlXlXlXlXlXlXlXlXlXlXlXlXlXcXcXcXtXoX X#X[ ] oX2XeXyXlXlXlXaXaXaXaXiXaXaXaXtXtXrXtXtXtXrXrXrX5X5X5X4X4X4X2X6X2X2X2X2X2X2X2X<X<X:X<X(.'.H.#.P.(.^.(.(.(.(.^.^.I.I.I.I.I.I.I.P.P.P.P.L.L.L.L.M.n.n.M.v.v.v.b.#.#.b.k.k.l.k.f.k.l.k.y.y.y.y.t.8.4.;.o.A h O.8.8.e.t.f.l.M.B.N.P.I.I.I.^.^.^.",
"-X-X-X;X-X-X-XT.^.(.I.v.v.M.l.g.8.I z S @.&.;.8.r.e.t.t.k.l.n.z.r.a.b.n.v.M.j.N r 3.L.M.B.N.I.I.I.I.I.I.I.^.^.(.^.(.(.(.(.).(.(.:X:X:X:X<X2X4XU.T b.3X<X2X2X2X2X2X6X4X4X2X4X5XrXrX5XrXrXrXrXiXtXiXiXiXiXaXaXaXaXaXaXaXaXaXaXaXaXiXaXiXiXiXeX}.|. . .' OXyXxXmXlXlXlXlXlXxXxXxXxXxXxXlXlXxXxXxXxXzXzXzXlXlXlXxXzXzXzXzXzXzXzXzXzXzXzXzXzXzXzXzXzXzXkXkXkXkXkXkXkXkXkXkXkXkXkXkXkXkXkXkXkXkXkXkXkXkXkXkXkXkXkXkXkXfXfXfXfXfXfXVXVXkXkXVXVXVXVXVXVXVXVXVXVXVXVXVXVXVXVXVXVXVXVXVXVXVXVXVXVXVXVXVXVXVXVXVXVXVXVXVXVXVXVXVXVXVXVXVXVXVXVXVXVXVXVXVXVXVXVXVXVXVXVXVXVXVXVXVXVXVXVXVXVXVXVXVXVXVXVXVXVXVXVXVXVX7X8XpXkXVXVXVXVXVXVXVXVXVXVXVXVXkXkXkXkXfXfXfXfXfXfXVXVXkXkXkXkXkXkXkXkXfXfXfXfXpXkXkXkXkXkXkXzXzXzXkXkXkXkXkXkXzXzXzXzXzXzXzXzXzXzXzXzXzXzXzXzXlXlXlXlXlXlXlXlXlXlXlXlXlXlXlXlXlXlXlXlXlXcXcXcXhXoX X#X[ { oX2X4XtXlXxXlXlXaXaXtXtXtXtXtXtXrXrXtXtXtXrX5X5X5X5X5X4X4X2X2X6X2X2X2X2X2X2X2X<X<X:X<X(.'.H.-.P.(.I.(.(.(.(.^.^.I.I.I.I.I.I.I.P.P.P.P.L.L.L.L.M.M.n.n.v.v.v.z.#.#.z.k.k.l.k.f.k.l.k.y.y.y.y.t.8.4.;.#.A j #.e.e.t.t.f.l.M.B.N.P.I.I.I.^.^.^.",
"Z o.,.j.T.I.I.(.I.(.I.x.v.v.l.f.8.I N A #.%.;.8.t.t.t.t.k.v.v.b.r.a.b.n.n.L.k.B r 3.N.N.N.B.I.I.P.P.P.P.I.^.^.^.(.(.(.(.(.(.;X;X;X;X(.:X<X:X4XH.%.G.4X<X2X2X2X1X2X6X4X6X4X4X5X5X5X5X5X5XrXrXtXtXiXaXaXaXiXiXaXaXaXaXaXaXaXaXaXaXaXsXsXiXaXeX}.|. . .' XXlXzXxXlXlXlXlXlXxXzXzXzXxXxXzXzXzXzXlXlXzXzXzXzXzXzXzXzXzXkXkXzXzXzXkXkXkXzXzXzXkXkXkXkXkXkXkXkXkXkXkXkXkXkXkXkXkXkXkXkXVXVXkXkXkXkXkXkXkXkXkXpXpXpXkXkXkXkXkXkXkXkXVXVXkXVXVXVXVXVXVXVXVXVXVXVXVXVXVXVXVXVXVXVXVXVXVXVXVXVXVXVXVXVXVXVXVXVXVXVXVXVXVXVXVXVXVXVXVXVXVXVXVXVXVXVXVXVXVXVXVXVXVXVXVXVXVXVXVXVXVXVXVXVXVXVXVXVXVXVXVXVXVXVXVXVXVXVXkXkXkXkXVXVXVXVXVXVXVXVXVXVXVXVXVXVXVXVXkXkXkXkXkXkXkXkXkXkXkXkXkXkXkXkXkXkXkXkXkXkXkXkXkXkXzXzXzXzXzXzXVXVXzXVXkXzXkXkXkXkXzXzXzXzXzXzXzXzXzXzXzXzXzXzXlXlXlXzXzXzXzXzXzXzXzXzXzXlXzXlXlXlXcXcXhXXX X#X[ | vXtX4XtXlXlXlXlXaXaXtXtXtXiXiXiXtXrXrXrXrXrXrXrX5X5X5X4X4X5X2X2X2X2X2X2X2X2X2X2X<X<X<X(.<XL.=.P.(.(.(.(.(.(.(.(.(.I.I.I.I.I.T.T.T.N.N.N.N.N.N.M.M.n.n.n.n.n.b.A P b.z.k.l.k.j.k.k.z.y.y.t.t.t.8.7.;.#.L z #.e.e.t.t.t.M.M.M.N.P.P.N.f.,.7.f.",
"7 5 6 t k Z ,.c.L.(.Y.x.l.l.l.f.8.P N I #.=.,.8.t.t.t.t.k.v.v.b.r.a.H.n.M.L.k.B q 3.N.N.B.B.I.I.P.P.P.P.I.^.^.^.(.(.(.(.(.(.;X;X;X;X(.<X2X2X2Xz.L b.4X1X2X2X1X1X2X6X6X6X6X6X5X5X5X5X5X5XrXrXtXtXiXaXiXiXiXiXaXaXaXaXaXaXaXaXaXaXaXaXsXaXaXeX}.|. . .' XXlXzXlXlXlXlXlXlXzXzXzXzXxXxXzXzXzXzXlXlXzXzXzXzXzXzXzXzXkXkXkXzXzXzXzXzXzXzXzXzXkXkXkXkXkXkXkXkXkXkXkXkXkXkXkXkXkXkXkXkXkXkXkXkXkXkXVXVXkXkXkXpXpXpXkXkXkXkXkXkXkXkXVXVXkXVXVXVXVXVXVXVXVXVXVXVXVXVXVXVXVXVXVXVXVXVXVXVXVXVXVXVXVXVXVXVXVXVXVXVXVXVXVXVXVXVXVXVXVXVXVXVXVXVXVXVXVXVXVXVXVXVXVXVXVXVXVXVXVXVXVXVXVXVXVXVXVXVXVXVXVXVXVXVXVXVXVXVXVXVXVXVXVXVXVXVXVXVXVXVXVXVXVXVXVXVXVXVXkXkXkXkXkXkXkXkXkXkXVXVXkXkXkXkXkXkXkXkXkXkXkXkXkXkXzXzXzXzXVXzXVXVXzXzXzXzXkXkXkXkXzXzXzXzXzXzXzXzXzXzXzXzXzXzXlXlXlXlXzXzXzXzXzXzXzXzXzXzXzXzXlXlXcXcXcXXX X#X` | MXlXaXaXzXzXlXaXaXyXtXtXtXtXiXiXtXrXrXrXrXrXrXrX5X5X5X4X4X5X2X2X2X2X2X2X2X2X2X2X<X<X<X(.<XL.=.I.(.(.(.(.(.(.^.(.(.I.I.I.I.P.T.T.T.N.N.N.N.N.N.M.M.n.n.n.n.n.b.A P b.l.k.l.k.k.k.z.z.y.y.t.t.t.8.7.;.#.L z #.e.e.t.t.0.P.N.v.v.t.=.v i g v O.",
"N.,.b t t 9 t g c O.;.;.k.k.k.f.8.P C P #.=.7.8.t.t.t.t.k.v.M.b.r.a.H.N.L.I.z.S q 3.L.N.B.B.I.I.P.P.I.I.I.^.^.^.(.(.(.(.(.(.;X;X;X;X:X<X2X2X4Xa.N z.2X1X2X2X1X1X6X6X6X6X6X6X5X5X5X5X8X5X8XiXtXtXtXtXiXiXiXiXiXiXaXaXaXaXaXaXaXaXsXsXaXaXaXeX}.|. . .' =XlXzXlXlXlXlXlXlXxXxXzXzXxXxXlXlXzXzXzXlXzXzXzXzXzXzXzXzXzXkXzXzXzXzXzXzXzXzXzXzXkXkXkXkXkXkXkXkXkXkXkXkXkXkXkXkXkXkXkXkXkXkXkXkXkXkXkXkXkXkXkXpXkXkXkXVXkXVXVXkXkXkXVXVXVXVXVXVXVXVXVXVXVXVXVXVXVXVXVXVXVXVXVXVXVXVXVXVXVXVXVXVXVXVXVXVXVXVXVXVXVXVXVXVXVXVXVXVXVXVXVXVXVXVXVXVXVXVXVXVXVXVXVXVXVXVXVXVXVXVXVXVXVXVXVXVXVXVXVXVXVXVXVXVXVXVXVXVXVXVXVXVXVXVXVXVXVXVXVXVXVXVXVXVXVXVXVXVXkXkXkXkXkXkXkXkXkXkXkXkXVXkXkXkXkXkXkXkXkXkXkXkXkXkXkXkXVXVXVXVXVXVXzXzXzXzXzXkXkXkXkXzXzXkXzXzXzXzXzXzXzXzXzXzXlXlXlXlXzXzXzXzXzXzXzXzXzXzXzXzXlXlXlXcXcXXX X#X` | MXxXlXlXaXaXaXaXyXyXtXtXtXtXiXiXtXtXrXrXrXrXrXrXrXrX5X4X6X2X2X2X2X2X2X2X2X2X2X2X2X2X2X(.2XL.=.I.(.(.(.(.(.(.^.^.^.^.I.I.I.I.T.P.T.N.N.N.N.N.N.M.M.n.n.n.n.n.b.A P b.v.l.l.k.z.l.b.b.j.y.t.t.t.8.7.;.#.L z #.t.e.8.7.7.f.,.O.v i 7 9 i z =.e.",
"1X1X;XT.f.$.Z c z c A I t.k.f.f.8.P N I #.;.7.e.t.t.t.y.k.v.M.b.r.a.H.N.L.I.z.A q 3.M.N.B.T.I.I.I.I.I.I.I.^.^.^.(.(.(.(.(.(.(.(.;X;X:X:X(.<X2Xk.l k.2X:X2X1X1X1X2X6X6X6X6X6X5X5X5X5X8X8X8XiXrXtXtXtXtXtXiXiXaXiXaXaXaXaXaXaXaXaXaXaXaXaXcXeX}.|. . .' =XlXzXlXlXlXlXlXlXxXlXlXzXxXxXlXlXzXzXzXzXzXzXzXzXzXzXzXzXzXzXzXzXzXzXzXzXzXzXzXzXkXkXkXkXkXkXkXkXkXkXkXkXkXkXkXkXkXkXkXkXkXkXkXkXkXkXkXkXkXkXkXpXkXkXkXVXkXkXVXkXkXkXVXVXkXkXVXVXVXVXVXVXVXVXVXVXVXVXVXVXVXVXVXVXVXVXVXVXVXVXVXVXVXVXVXVXVXVXVXVXVXVXVXVXVXVXVXVXVXVXVXVXVXVXVXVXVXVXVXVXVXVXVXVXVXVXVXVXVXVXVXVXVXVXVXVXVXVXVXVXVXVXVXVXVXVXVXVXVXVXVXVXVXVXVXVXVXVXVXVXVXVXVXVXVXVXVXVXkXkXkXkXkXkXkXVXkXkXkXkXVXkXkXkXkXkXkXkXkXkXkXkXkXkXkXkXVXVXVXVXVXVXzXzXzXzXzXkXkXkXkXkXzXkXkXzXzXzXzXzXzXzXzXzXlXlXlXlXzXzXzXzXzXzXzXzXlXlXlXlXlXlXlXlXcXXX X#X` | vXaXlXlXaXaXaXaXaXaXtXtXtXtXiXiXiXtXrXrXrXrXrXrXrXrX5X4X4X2X2X2X2X2X2X2X2X2X<X2X2X2X2X(.2XL.;.I.(.(.(.(.(.(.^.^.I.I.I.I.I.I.I.P.T.N.N.N.N.N.N.M.M.n.n.n.n.n.b.A P b.v.l.l.k.l.l.v.n.f.t.t.t.t.8.7.;.#.L z #.y.e.8.q.q.O.g 9 h C =.k.v.P.(.;X",
"7X1X1X1X1X1X<X;XI.T.l.q.y.k.l.g.t.O.C I #.;.7.e.f.f.f.f.v.v.v.b.a.a.H.N.N.P.z.A r 3.L.N.T.T.I.I.I.I.^.^.I.I.^.^.^.^.^.^.(.(.(.;X:X:X:X:X<X<X2XG.A z.3X<X1X1X1X1X1X3X6X4X4X4X5X5X5X5X8X5X5X5X5XiX5X5XtXtXiXiXaXaXiXiXaXaXaXaXaXaXaXaXtXtXaXeX{.|. . .{ %XyXsXaXlXlXlXlXlXlXlXlXlXzXzXzXzXzXzXzXzXzXzXzXzXzXzXzXzXzXzXzXzXkXkXzXzXzXzXzXzXkXkXkXkXkXkXkXkXkXkXkXkXkXkXkXkXkXkXkXkXkXkXkXkXkXkXVXkXkXkXkXkXkXkXkXkXkXkXkXkXVXVXkXVXVXVXVXVXVXVXVXVXVXVXVXVXVXVXVXVXVXVXVXVXVXVXVXVXVXVXVXVXVXVXVXVXVXVXVXVXVXVXVXVXVXVXVXVXVXVXVXVXVXVXVXVXVXVXVXVXVXVXVXVXVXVXVXVXVXVXVXVXVXVXVXVXVXVXVXVXVXVXVXVXVXVXVXVXVXVXVXVXVXVXVXVXVXVXkXkXVXVXVXVXVXVXVXVXkXkXVXkXkXkXkXVXVXVXVXVXVXkXkXkXkXkXkXVXkXkXkXkXkXkXkXkXVXVXzXzXVXVXVXzXkXzXkXkXkXkXkXkXzXzXzXzXkXkXzXlXzXzXzXzXzXzXzXzXzXzXzXzXzXzXzXzXzXzXcXcXlXlXaXaXhXXX#X .` | vXzXlXlXaXiXaXaXyXtXtXtXiXtXtXtXtXrXrXrXrXrX5X5X5X5X6X4X6X2X6X6X2X2X2X2X2X2X1X2X<X<X<X(.<XH.;.U.(.^.^.(.^.^.I.I.I.I.I.I.I.I.I.P.N.N.N.N.N.N.N.M.M.n.n.n.n.n.G.A U b.v.l.l.k.l.l.v.n.j.y.t.t.0.8.7.;.#.L l L 8.7.9.9.q.8.e.g.I.^.:X1X<X:X<X3X",
"7X1X1X1X>X1X:X;X(.Y.Y.k.z.f.f.g.t.O.C I #.;.7.e.f.f.t.f.v.v.v.b.r.y.H.N.N.P.b.A r 3.L.I.T.T.I.I.I.I.^.^.I.I.^.^.^.^.^.^.(.;X(.;X:X:X:X:X<X<X2XG.A z.3X<X1X1X1X1X1X1X6X4X4X4X5X5X5X5X5X5X5X8X5X5X5X5XtXtXiXiXaXaXiXiXaXaXaXaXaXaXaXtX4X].aX4X{.XX . .{ =XyXaXcXlXlXlXlXlXlXlXlXlXzXzXzXzXzXzXzXzXzXzXzXzXzXzXzXzXzXzXzXzXkXkXzXzXzXzXzXzXkXkXzXkXkXkXkXkXkXkXkXkXkXkXkXkXkXkXkXkXVXVXkXkXkXkXVXkXkXkXkXkXkXkXkXkXkXkXkXkXVXVXVXVXVXVXVXVXVXVXVXVXVXVXVXVXVXVXVXVXVXVXVXVXVXVXVXVXVXVXVXVXVXVXVXVXVXVXVXVXVXVXVXVXVXVXVXVXVXVXVXVXVXVXVXVXVXVXVXVXVXVXVXVXVXVXVXVXVXVXVXVXVXVXVXVXVXVXVXVXVXVXVXVXVXVXVXVXVXVXVXVXVXVXVXVXVXVXVXkXVXVXVXVXVXVXVXVXkXkXkXVXkXkXkXkXVXVXVXVXkXkXkXkXkXkXkXVXVXkXkXkXkXkXkXkXVXVXzXzXVXVXVXVXzXkXzXzXkXkXkXkXzXzXzXzXkXkXzXzXzXzXzXzXzXzXzXzXzXzXzXzXcXcXcXcXcXcXcXcXaXaXaXaXcXXX#X#X`  XmXzXlXlXaXiXaXaXyXtXtXtXiXiXtXtXtXrXrXrXrX6X5X5X5X5X6X4X6X3X1X3X1X1X2X2X2X2X<X:X;X(.<X(.<XH.;.U.(.^.^.^.^.^.^.^.I.I.I.I.I.I.I.I.N.N.P.N.N.N.N.N.M.n.n.n.n.n.G.A U b.v.l.l.k.l.l.v.v.j.y.t.t.e.8.7.4.-.L h B 7.7.7.7.8.l.M.;X3X;X(.(.;X;X:X1X",
"7X1X1X1X>X1X>X;X;X;X;XL.b.k.f.g.t.O.C I %.;.7.e.t.t.t.t.b.b.b.b.a.a.H.L.P.I.b.P r 4.I.I.T.T.I.I.P.I.I.I.^.^.^.^.^.^.^.(.(.(.:X:X:X:X:X:X<X<X2XG.V z.3X<X1X1X1X4X1X1X6X6X6X5X5X5X5X5X5X5X5XrX5X5X5X5X9XtXiXiXiXiXiXiXaXaXaXaXaXaXaXtX4X].aX4X{.XX .#X{ %XyXaXaXlXlXlXlXlXzXzXlXzXzXzXzXzXzXzXzXzXzXzXzXzXzXzXzXzXkXzXkXkXkXkXzXzXzXzXzXzXzXzXzXzXkXkXkXkXkXkXkXkXkXkXkXkXkXkXkXkXkXkXkXkXkXkXkXkXkXkXkXkXkXkXkXkXkXkXkXkXVXVXVXVXVXVXVXVXVXVXVXVXVXVXVXVXVXVXVXVXVXVXVXVXVXVXVXVXVXVXVXVXVXVXVXVXVXVXVXVXVXVXVXVXVXVXVXVXVXVXVXVXVXVXVXVXVXVXVXVXVXVXVXVXVXVXVXVXVXVXVXVXVXVXVXVXVXVXVXVXVXVXVXVXVXVXVXVXVXVXVXVXVXVXVXVXVXVXkXVXVXVXVXVXVXVXVXVXkXkXkXkXkXkXkXkXVXVXVXVXkXkXkXkXkXkXkXkXkXVXkXkXkXkXkXkXzXzXzXzXVXVXVXVXkXkXzXkXzXzXkXkXkXkXzXzXkXkXkXkXzXzXzXzXzXzXzXzXzXzXzXzXcXcXcXcXcXcXcXcXlXaXaXlXhXXX#X .`  XmXxXlXlXaXiXaXaXiXtXtXtXtXiXtXtXtXrX5X5X5X6X5X5X5X5X6X6X3X3X1X1X1X1X6X2X2X2X<X:X;X(.<X(.<XL.;.U.(.(.^.^.(.(.(.(.(.).^.).^.I.I.I.P.P.P.P.L.P.N.M.M.n.n.n.n.n.G.A U b.b.v.v.l.l.v.v.n.k.y.t.t.t.e.8.7.=.L h C 7.7.7.7.t.l.M.-X1X;XI.I.-X-X:X1X",
"7X1X1X1X>X1X>X;X-XY.(.n.,.e.g.l.t.@.A P %.;.7.e.t.t.e.t.b.b.b.b.b.b.L.N.P.I.b.L r 3.P.I.T.T.I.I.P.I.I.I.^.^.^.^.^.^.^.(.(.(.:X:X:X:X:X:X<X<X2Xb.B z.3X<X1X2X4X4X1X1X6X6X6X6X5X5X5X5X5X5X5X5X5X5X5X5X9XtXiXiXiXiXiXiXaXaXiXiXiXiXiXtX4X4XaX4X{.XX .#X' %XyXaXlXlXlXlXlXlXzXzXzXzXzXzXzXzXzXzXzXzXzXzXzXzXzXzXzXzXkXkXkXkXkXkXzXzXzXzXzXzXzXzXzXzXkXkXkXkXkXkXkXkXkXkXkXkXkXkXkXkXkXkXkXkXkXkXkXkXkXkXkXkXkXkXkXkXkXkXkXkXVXVXVXVXVXVXVXVXVXVXVXVXVXVXVXVXVXVXVXVXVXVXVXVXVXVXVXVXVXVXVXVXVXVXVXVXVXVXVXVXVXVXVXVXVXVXVXVXVXVXVXVXVXVXVXVXVXVXVXVXVXVXVXVXVXVXVXVXVXVXVXVXVXVXVXVXVXVXVXVXVXVXVXVXVXVXVXVXVXVXVXVXVXVXVXVXVXVXVXVXVXVXVXVXVXVXVXVXkXkXkXkXkXkXkXkXVXVXVXVXkXkXkXkXkXkXkXkXkXkXkXkXzXzXkXkXzXzXzXzXVXVXVXVXkXzXkXkXzXzXkXkXkXzXzXzXkXkXzXkXzXzXzXzXzXzXzXzXzXzXzXzXcXcXcXcXcXcXcXcXlXaXaXlXhXXX@X .`  XmXzXlXlXaXaXaXaXiXtXtXtXtXtXtXtXtXrX5X5X5X5X5X5X5X6X6X6X3X1X1X1X1X1X6X2X2X2X2X2X<X:X<X(.<XL.;.U.(.(.^.(.(.(.(.(.(.(.^.^.^.I.I.I.I.P.P.P.P.N.L.N.M.n.n.n.n.n.G.A U b.b.v.v.l.l.v.v.n.k.y.t.t.y.e.8.7.=.P z P ;.7.q.3.7.f.v.I.:X-X^.-X;X;X1X7X",
"3X1X1X:X1X1X1X:XI.I.;Xv.&.8.e.k.8.;.C P %.;.7.8.t.y.t.j.b.b.b.b.b.G.L.N.N.I.b.A r ;.L.P.T.T.I.I.P.P.^.^.^.^.^.^.^.N.n.^.^.^.(.(.^.I.;X;X;X(.5XL.A z.1X<X1X1X3X4X3X3X3X6X6X6X6X6X5X5X5X5X5X5X8X5X5X5XtXtXtXtXiXiXiXiXaXaXiXiXiXiXtXtX5X6XpX4XoX|.#X#X' +XyXaXaXlXaXaXzXzXzXzXzXzXzXzXzXzXzXzXzXzXzXzXzXzXzXzXzXzXkXkXkXkXkXkXkXzXkXkXkXkXkXkXkXkXkXkXkXkXkXkXkXkXkXkXkXkXkXkXkXVXVXkXkXkXkXkXkXkXVXVXkXkXkXkXVXkXkXkXkXkXVXVXVXVXVXVXVXVXVXVXVXVXVXVXVXVXVXVXVXVXVXVXVXVXVXVXVXVXVXVXVXVXVXVXVXVXVXVXVXVXVXVXVXVXVXVXVXVXVXVXVXVXVXVXVXVXVXVXVXVXVXVXVXVXVXVXVXVXVXVXVXVXVXVXVXVXVXVXVXVXVXVXVXVXVXVXVXVXVXVXVXVXVXVXVXVXVXVXVXVXkXkXkXVXVXVXkXkXVXVXfXfXfXVXVXVXkXkXkXkXVXkXkXkXkXkXkXkXkXkXkXkXkXkXkXkXkXkXkXkXkXkXkXkXkXkXkXkXzXzXzXzXkXkXkXkXkXkXkXkXzXzXzXzXzXzXzXzXzXzXzXsXsXaXaXaXcXzXzXaXaXaXaXaXcX{.@X .` | vXsXiXaXiXtXiXiXiXiXiXtXtXtXtXtXtX5X5XrXrXrX5X5X5X5X5X6X3X1X3X3X1X1X1X2X2X2X2X2X<X<X<X(.2XL.=.L.M.v.z.m.n.n.n.b.b.b.b.b.b.v.l.l.l.k.z.z.k.k.l.z.k.k.k.k.k.k.z.T U z.b.M.l.l.l.v.v.n.k.f.t.t.y.t.8.7.-.I l A ;.7.7.3.;.n.M.B.:X;X(.^.(.;X:X1X",
"3X1X:X:X:X1X1X:X^.^.;XM.;.8.t.g.8.;.C P %.;.7.0.y.j.y.j.b.b.b.b.n.M.P.N.P.I.x.A r ;.L.P.T.T.I.I.P.P.^.^.^.^.^.^.f.t.f.k.l.l.l.l.b.z.P.(.(.I.5XP.A z.1X<X1X1X3X4X3X3X3X6X6X6X6X6X5X5X5X5X5X5X5X8X5X5XtXtXtXtXiXiXiXiXaXaXtXiXiXiXiXiXiX5X9X6XoX~.#X .' oXyXaXaXlXaXaXlXlXzXlXzXzXzXzXzXzXzXzXzXzXsXsXaXaXsXsXsXzXkXkXkXkXkXkXkXkXkXkXkXkXkXkXkXkXkXkXkXkXkXkXkXkXkXkXkXkXkXkXkXVXkXkXkXkXkXkXkXkXkXkXkXkXkXVXkXkXkXkXkXkXVXVXVXVXVXVXVXVXVXVXVXVXVXVXVXVXVXVXVXVXVXVXVXVXVXVXVXVXVXVXVXVXVXVXVXVXVXVXVXVXVXVXVXVXVXVXVXVXVXVXVXVXVXVXVXVXVXVXVXVXVXVXVXVXVXVXVXVXVXVXVXVXVXVXVXVXVXVXVXVXVXVXVXVXVXVXVXVXVXVXVXVXVXVXVXVXVXVXVXVXkXkXkXVXVXVXkXVXVXVXfXfXfXVXVXVXkXkXVXkXkXkXkXkXkXkXkXkXkXkXkXkXkXkXkXkXkXkXkXkXkXkXkXkXkXkXkXkXzXzXkXkXkXkXkXkXkXkXzXkXzXzXzXzXzXzXzXzXzXzXzXsXsXaXaXaXzXzXzXzXaXaXaXaXaX.X@X .` | vXsXiXaXiXiXiXiXiXiXiXtXtX5X5X5X5X5X5XrX5X5X5X5X5X5X5X6X3X1X3X1X1X1X1X1X2X2X2X2X<X<X<X(.2XL.#.;.;.;.#.:.;.;.;.=.=.=.=.=.&.#.@.@.@.#.@.@.#.#.#.@.o.P A S z h 7.A l p.b.M.l.l.l.x.v.n.k.f.t.y.y.e.8.7.=.P z I ;.7.7.3.7.N.N.N.;X-X(.^.(.;X:X1X",
"1X1X<X:X:X1X1X:X;X;X<XP.,.t.e.g.8.&.C P %.,.8.t.f.j.e.y.v.v.b.b.n.L.P.N.P.I.x.A r ;.L.P.I.I.I.I.I.I.I.^.^.^.^.I.t.k.v.l.l.l.v.b.n.b.^.<X(.n.5XI.A z.1X<X1X1X3X4X4X4X3X3X5X6X6X6X5X5X5X5X5X5X5X5X5X5XtXtXtXtXiXiXiXiXaXaXtXiXiXiXiXiXiXiX7X4XoX~. . .' oXyXaXaXlXaXaXlXlXcXcXcXcXzXzXzXzXzXzXzXzXzXzXsXsXsXsXzXzXzXzXkXkXkXkXkXkXkXkXkXkXkXkXzXzXkXkXkXkXkXkXkXkXkXkXkXkXkXkXkXkXkXkXkXkXkXkXkXkXkXkXkXkXkXkXkXkXkXkXkXkXVXVXVXVXVXVXVXVXVXVXVXVXVXVXVXVXVXVXVXVXVXVXVXVXVXVXVXVXVXVXVXVXVXVXVXVXVXVXVXVXVXVXVXVXVXVXVXVXVXVXVXVXVXVXVXVXVXVXVXVXVXVXVXVXVXVXVXVXVXVXVXVXVXVXVXVXVXVXVXVXVXVXVXVXVXVXVXVXVXVXVXVXVXVXVXVXVXVXVXVXkXkXVXVXVXVXVXVXVXVXfXfXfXfXVXVXVXVXVXVXkXkXkXkXkXkXkXkXkXkXkXkXkXkXkXkXkXkXkXkXkXkXkXkXkXkXkXkXkXkXkXkXzXzXzXzXzXzXzXzXzXzXzXzXzXzXzXzXzXzXzXcXzXcXaXaXaXaXsXsXaXaXaXiXaX{.#X .( | vXaXiXaXiXiXiXiXiXiXiXtXtX5X5X5X5X5X5X5X5X5X5X5X5X5X5X6X3X1X3X1X1X1X2X2X2X2X<X2X<X<X<X(.2XL.#.k.M.v.n.P.I.I.P.P.P.M.N.N.M.v.v.l.l.l.l.l.l.c.k.k.j.f.j.j.j.j.j.l A G.v.M.x.l.x.v.v.M.k.f.y.y.y.e.8.7.=.P z P ;.7.7.3.7.P.^.N.I.^.^.^.(.;X:X1X",
"1X1X:X;X^.:X:X:X;X:X1XI.8.t.t.g.8.;.C P &.,.8.t.t.y.7.8.v.v.v.v.n.M.N.N.P.I.b.A r ;.L.N.I.I.I.I.I.I.^.^.^.I.I.I.k.P.I.I.P.P.P.P.L.P.:X:X(.v.9X).P b.5X3X1X1X3X4X4X4X3X3X3X3X6X6X5X5X5X5X5X5X5X5X5X5XtXtXtXtXiXiXiXiXaXaXtXiXiXiXiXiXiXiX7X6XoX~. . .' oXyXaXlXlXlXaXlXlXcXcXcXcXzXzXzXzXzXzXzXzXsXsXsXsXsXsXzXzXzXzXkXkXkXkXkXkXkXkXkXkXkXzXzXzXkXkXkXkXkXkXkXkXkXkXkXkXkXkXkXkXkXkXkXkXVXVXkXkXkXkXkXkXkXkXkXkXkXkXkXkXVXVXVXVXVXVXVXVXVXVXVXVXVXVXVXVXVXVXVXVXVXVXVXVXVXVXVXVXVXVXVXVXVXVXVXVXVXVXVXVXVXVXVXVXVXVXVXVXVXVXVXVXVXVXVXVXVXVXVXVXVXVXVXVXVXVXVXVXVXVXVXVXVXVXVXVXVXVXVXVXVXVXVXVXVXVXVXVXVXVXVXVXVXVXVXVXVXVXVXVXVXVXVXVXVXVXVXVXVXVXfXfXfXfXVXVXVXVXVXVXkXVXkXkXkXVXVXkXkXkXkXkXkXkXkXkXkXkXkXkXkXkXkXkXkXkXkXkXkXkXkXkXzXzXzXzXzXzXzXzXzXzXzXzXzXzXzXzXzXzXzXcXzXaXaXaXaXaXaXsXaXaXiXiXtXXX#X| ( { vXaXiXiXiXiXaXiXiXiXtXtXtX5X5X5X5X5X5X5X5X5X5X5X5X6X6X6X3X1X1X1X1X2X1X2X2X<X<X2X<X<X<X:X2XL.#.(.1X<X(.<X2X<X<X;X;X;X;X(.^.^.^.^.^.I.I.^.I.I.I.P.N.N.M.N.N.P.k.B 3.P.v.M.v.l.x.v.M.M.k.f.y.y.y.e.8.7.-.P N #.q.7.7.q.7.I.^.N.I.I.^.(.(.;X:X1X",
"3X1X:X^.N.^.:X:X>X1X<XP.8.e.t.f.8.$.C P &.,.8.t.y.y.t.0.v.v.b.n.n.v.M.N.N.I.z.A u 4.L.P.I.I.I.I.I.I.I.I.I.I.I.I.k.(.(.(.Y.Y.Y.T.P.L.(.1X;Xv.9XI.Y b.5X1X1X<X<X<X4X3X3X3X3X3X5X5X5X5X5X5X5X5X5X5XrXrXiXiX9X9XiXiXtXtXiXiXiXiXiXiXiXiXaXiX7X6XoX~. . .' oXuXiXaXaXaXaXsXsXzXzXzXzXzXzXzXzXzXzXzXzXsXzXsXzXsXsXzXzXzXzXzXzXzXzXzXzXkXkXkXkXkXkXzXzXkXkXkXkXkXkXkXkXkXkXkXkXkXkXkXkXkXVXkXkXkXkXkXkXkXkXkXkXkXkXkXkXkXkXkXkXkXkXkXkXVXVXVXVXVXVXVXVXVXVXVXVXVXVXVXVXVXVXVXVXVXVXVXVXVXVXVXVXVXVXVXVXVXVXVXVXVXVXVXVXVXVXVXVXVXVXVXVXVXVXVXVXVXVXVXVXVXVXVXVXVXVXVXVXVXVXVXVXVXVXVXVXVXVXVXVXVXVXVXVXVXVXVXVXVXVXVXVXVXVXVXVXVXVXVXVXVXVXVXVXVXVXVXVXVXVXVXfXfXfXfXVXkXkXkXkXkXkXkXkXkXkXVXkXkXkXkXkXkXkXkXkXkXkXkXkXkXkXkXkXkXkXkXkXkXkXzXkXkXkXzXzXzXzXzXzXzXzXzXzXzXzXzXzXpXpXzXzXzXsXaXaXaXcXiXiXaXsXsXsXlXXX#X .( | vXaXaXaXiXiXaXaXiXtXtXtXrX5X5X5XrXrX5X5X5X5X6X6X6X6X6X3X3X3X2X<X<X2X2X2X2X2X1X<X<X<X<X;X2Xb.-.'.<X>X<X(.(.I.^.I.I.I.T.N.N.N.N.N.N.N.N.N.N.N.N.N.N.N.M.M.M.N.b.L 3.L.M.N.v.l.v.M.M.M.k.a.y.y.y.y.r.9.=.P z P q.7.7.q.8.P.:X^.(.(.^.(.(.;X:X1X",
"5X1X;XP.I.;X:X:X>X1X<XP.8.t.f.f.8.;.S o.;.q.8.t.y.y.y.t.x.M.L.N.L.L.N.N.N.I.b.A u 4.L.P.I.I.I.I.I.I.^.^.^.^.^.^.l.I.M.f.P.(.(.Y.P.P.:X<X;Xl.5XP.Y x.2X2X1X1X<X<X4X4X3X3X3X3X5X5X5X5X5X5X5X5X5X5XrXrXiXrX9X9XiXiXtXtXiXiXiXiXiXiXiXiXaXiX7X6XoX~. . .' oXuXiXaXlXaXaXsXsXzXzXzXzXzXzXzXzXzXzXzXzXsXsXsXsXsXsXzXzXzXzXzXzXzXzXzXzXzXkXkXkXkXkXzXzXkXkXkXkXkXkXkXkXkXkXkXkXkXkXVXVXkXkXkXkXVXVXkXkXkXkXkXkXkXkXkXkXkXkXkXkXkXkXVXVXVXVXVXVXVXVXVXVXVXVXVXVXVXVXVXVXVXVXVXVXVXVXVXVXVXVXVXVXVXVXVXVXVXVXVXVXVXVXVXVXVXVXVXVXVXVXVXVXVXVXVXVXVXVXVXVXVXVXVXVXVXVXVXVXVXVXVXVXVXVXVXVXVXVXVXVXVXVXVXVXVXVXVXVXVXVXVXVXVXVXVXVXVXVXVXVXVXVXVXVXVXVXVXVXVXVXfXfXfXfXVXVXkXkXkXkXkXkXkXkXkXkXVXkXkXkXkXkXkXkXkXkXkXkXkXkXkXkXkXkXkXkXkXkXkXkXzXzXkXkXkXkXzXzXzXzXzXzXzXzXzXzXzXzXpXpXkXkXpXpXaXaXcXcXiXiXiXaXaXsXaXXX#X .( | vXaXaXiXiXiXaXiXtX5XtXtX5X5X5X5XrX5X5X5X5X5X6X6X6X6X6X3X3X3X2X(.(.<X2X2X<X<X2X<X<X<X<X;X2Xb.-.'.<X>X:XL.b.z.f.f.f.f.f.f.f.e.8.8.8.8.8.l.I.N.N.N.N.M.v.v.M.N.b.L 3.L.M.N.v.l.v.M.M.M.k.a.y.t.y.y.r.9.;.P z P 7.7.8.7.8.P.:X^.(.(.(.(.(.;X:X1X",
"7X3X;X^.;X:X1X:X>X1X<XI.t.t.g.g.8.>.Z #.=.7.8.t.y.f.j.j.b.L.L.n.z.n.P.N.P.I.z.A u 4.L.P.I.I.I.I.I.I.^.^.^.^.^.^.t.I.v.&.n.P.n.n.n.P.<X1X;Xv.9XI.Y b.5X3X1X1X<X<X3X3X3X3X3X3X5X5X5X5X5X5X5X5X5X5XrXrX5X5X5X5XiXiXtXtXiXiXiXiXiXiXiXpXsXiX8X6XoX~. . .' oXyXaXcXcXaXaXsXsXzXzXzXzXsXsXsXsXzXzXzXzXsXzXzXsXsXsXsXzXzXzXzXzXzXzXzXzXzXzXzXzXkXkXkXzXkXkXkXkXkXkXkXkXkXkXkXkXkXkXkXkXkXkXkXkXkXkXkXkXkXkXkXkXkXkXkXkXkXkXkXkXVXVXVXVXVXVXVXVXVXVXVXVXVXVXVXVXVXVXVXVXVXVXVXVXVXVXVXVXVXVXVXVXVXVXVXVXVXVXVXVXVXVXVXVXVXVXVXVXVXVXVXVXVXVXVXVXVXVXVXVXVXVXVXVXVXVXVXVXVXVXVXVXVXVXVXVXVXVXVXVXVXVXVXVXVXVXVXVXVXVXVXVXVXVXVXVXVXVXVXVXkXVXkXkXVXVXVXVXfXfXfXfXfXfXfXfXkXkXkXkXkXkXkXkXkXkXkXkXkXkXkXkXkXkXkXkXkXkXkXkXkXkXkXkXkXkXkXkXkXzXzXzXkXkXkXkXzXzXzXzXzXzXzXzXzXzXzXzXpXpXpXpXpXpXsXaXcXzXiXiXiXpXiXiXaXXX#X} ( | vXaXiXiXiXiXiXtX5X6XrXrXtXtX5X5X5X5X5X5X5X5X6X6X6X6X6X3X6X6X3X:X(.<X2X1X1X1X<X<X<X<X<X:X2Xb.-.'.<X:X;Xn.z.y.e.e.t.t.t.t.t.t.t.f.f.f.7.l.P.P.N.M.M.n.M.M.M.L.b.L 3.L.L.P.v.v.M.M.M.M.l.j.a.a.y.y.e.9.;.T C #.7.8.9.7.8.P.:X^.^.(.(.;X;X;X:X1X",
"7X5X3X1X:X1X1X1X>X1X:XI.t.f.g.k.8.;.A #.;.7.8.t.y.f.j.k.n.L.n.j.8.k.N.P.P.I.z.A u 4.P.I.I.I.I.I.I.I.^.^.^.^.(.(.y.I.I.y.L.n.y.z.f.n.<X2X;Xv.7XP.Y b.6X2X1X1X<X<X3X3X3X3X3X3X5X5X5X5X5X5X5X5X5X5X5X5X5X5X5X5XiXiXtXtXiXiXiXiXiXiXiXpXsXiX8X6XoX~.} } ' oXtXiXaXlXaXaXsXsXzXzXzXzXaXaXaXaXsXaXaXaXzXzXzXzXsXsXzXzXzXzXzXzXzXzXzXzXzXzXzXzXkXkXkXkXkXkXkXkXkXkXkXkXkXkXkXkXkXkXkXkXkXkXkXkXkXkXkXkXkXVXVXkXkXkXkXkXkXkXkXkXVXVXVXVXVXVXVXVXVXVXVXVXVXVXVXVXVXVXVXVXVXVXVXVXVXVXVXVXVXVXVXVXVXVXVXVXVXVXVXVXVXVXVXVXVXVXVXVXVXVXVXVXVXVXVXVXVXVXVXVXVXVXVXVXVXVXVXVXVXVXVXVXVXVXVXVXVXVXVXVXVXVXVXVXVXVXVXVXVXVXVXVXVXVXVXVXVXVXVXVXkXkXkXkXkXVXVXVXfXfXfXfXfXfXfXfXkXkXkXkXkXkXkXkXkXkXkXkXkXkXkXkXkXkXkXkXkXkXkXkXkXkXkXkXkXkXkXkXzXzXzXzXkXkXkXkXzXzXzXzXzXzXzXzXzXzXzXzXpXpXpXpXpXpXsXaXcXcXiXpXpXpXpXiXyX_.#X} ( | vXaXiXiXiXiXiX9X6X6X6X5XrXtX5X5X5X5X5X5X5X5X6X6X6X3X3X3X6X6X3X3X2X2X1X1X1X1X1X<X<X<X<X:X2Xb.-.'.<X<X(.n.z.z.I.U.(.(.(.(.(.(.^.(.(.^.I.I.M.M.M.M.M.n.n.n.M.L.b.L 3.P.L.N.v.v.M.M.M.M.l.f.a.a.y.y.e.8.;.#.C #.7.0.0.8.9.P.:X^.^.(.(.;X;X;X:X1X",
"7X3X3X1X1X1X1X1X<X1X:XI.e.f.f.k.8.;.I #.;.7.8.t.t.y.j.k.v.N.n.j.e.z.N.N.(.L.z.B s 7.L.I.I.I.I.I.I.I.^.^.(.(.(.(.j.I.(.j.b.b.e.b.a.n.2X<X:Xv.5XP.Y b.2X<X1X1X<X<X1X1X3X3X3X3X3X3X5X5X5X5X5X5X5X5X5X8X8X8X9X9X9X9X9XtX9X9X9X9X9X9XiXiXiXiX7X6X=X X}  ./ oXiXpXsXzXsXsXsXsXzXzXzXzXsXsXkXzXkXiXpXpXzXzXzXzXzXzXzXzXzXzXkXkXkXkXkXkXkXkXkXkXkXkXkXkXkXkXkXkXkXkXkXkXkXkXkXkXVXVXVXVXkXkXkXkXVXkXkXkXkXkXkXkXkXkXkXkXVXVXVXVXkXkXkXkXVXVXVXVXVXVXVXVXVXVXVXVXVXVXVXVXVXVXVXVXVXVXVXVXVXVXVXVXVXVXVXVXVXVXVXVXVXVXVXVXVXVXVXVXVXVXVXVXVXVXVXVXVXVXVXVXVXVXVXVXVXVXVXVXVXVXVXVXVXVXVXVXVXVXVXVXVXVXVXVXVXVXVXVXVXVXVXVXVXVXVXVXVXVXVXVXkXkXkXVXVXVXkXkXVXVXVXVXVXVXVXVXkXkXVXkXkXkXkXVXkXkXkXkXkXkXkXkXkXkXkXkXkXkXkXkXkXkXkXkXkXkXkXkXkXkXkXkXkXkXkXkXzXzXzXzXzXzXzXkXzXzXzXkXkXkXkXkXpXpXpXpXiXiXiXiXpXpXiXiXlX!.#X} ( | MXaXsXsXiXiXtXtX4X(.2X6XrXiX5X5X5X5X5X5X5X5X5X5X5X3X3X1X1X1X6X3X1X1X1X1X2X2X1X1X<X<X<X:X1Xb.=.<X<X<X(.b.y.a.<Xb.j.n.n.n.b.b.b.n.L.I.L.P.L.n.n.n.v.v.v.n.M.n.b.U q.U.M.N.v.x.v.M.M.M.l.j.a.a.y.t.e.8.;.#.C #.7.0.0.8.e.I.;X^.(.(.;X;X;X:X:X1X",
"7X3X3X1X1X1X1X1X<X1X:XI.e.f.f.k.t.7.Y #.;.q.0.t.t.y.j.j.v.N.P.n.n.P.^.I.(.P.z.B s 9.L.N.I.I.I.I.I.I.^.^.(.^.(.(.t.(.I.7.t.z.y.z.y.m.<X<X>Xn.9XP.#.G.2X1X1X1X<X<X1X1X3X3X3X3X3X3X5X5X5X5X5X5X5X5X5X8X8X8X9X9X9X9XtXtX9X9X9X9XtX9X0XiXiXiX7X6XoX~.}  .^ oXiXpXsXzXsXsXsXsXaXzXzXzXsXsXkXcXkXiXiXpXzXzXzXzXzXzXzXzXzXzXzXkXkXkXkXkXkXkXkXkXkXkXkXkXkXkXkXkXkXkXkXkXkXkXkXkXVXVXVXkXkXkXkXkXVXkXkXkXkXkXkXkXkXkXkXkXVXVXVXVXkXkXVXVXVXVXVXVXVXVXVXVXVXVXVXVXVXVXVXVXVXVXVXVXVXVXVXVXVXVXVXVXVXVXVXVXVXVXVXVXVXVXVXVXVXVXVXVXVXVXVXVXVXVXVXVXVXVXVXVXVXVXVXVXVXVXVXVXVXVXVXVXVXVXVXVXVXVXVXVXVXVXVXVXVXVXVXVXVXVXVXVXVXVXVXVXVXVXVXVXkXkXkXVXVXVXkXVXVXVXVXVXVXVXVXVXkXkXVXkXkXkXkXVXkXkXkXkXkXkXkXkXkXkXkXkXkXkXkXkXkXkXkXkXkXkXkXkXkXkXkXkXkXkXkXkXzXzXzXzXzXzXzXkXzXzXzXzXkXkXkXkXpXpXpXpXiXiXiXiXpXpXiXiXhX!.#X} ( | MXaXsXsXsXiXiXiX5X4X6X6XrXrX5X5X5X5X5X5X5X5X5X5X5X5X3X1X3X3X6X3X1X1X1X2X2X2X1X1X<X<X<X:X1Xn.=.2X<X<X(.L.U.H.(.z.y.j.j.7.#.#.;.8.t.e.t.b.L.G.n.n.n.v.v.M.N.n.b.Y q.U.N.N.v.x.v.M.M.M.l.j.a.a.y.t.e.8.;.#.C #.7.0.0.8.e.I.;X^.^.(.;X;X;X:X:X1X",
"7X3X3X1X1X1X1X1X<X1X:XI.t.f.f.k.e.7.P #.;.7.0.e.y.y.j.j.v.P.P.P.I.^.^.I.M.n.z.L j 9.P.I.I.I.I.I.I.I.^.^.^.^.-X-Xk.^.L.7.t.z.z.z.l.L.<X<X<XM.9XI.@.b.2X<X1X1X1X1X1X1X3X3X3X3X3X3X5X5X3X3X5X5X5X5X5X5X8X8X9X9X9X9XtX9X9X9X9X9XtXiX0XiXiXiX7X4XoX~.}  .' oXyXiXsXsXsXaXsXsXaXsXzXzXsXsXcXzXkXcXkXiXzXzXzXzXzXzXzXzXzXzXkXkXkXkXkXkXkXkXkXkXkXkXkXkXkXkXkXkXkXkXkXkXkXkXkXkXVXVXkXkXVXVXkXkXkXkXkXkXVXVXkXkXkXkXVXVXVXVXVXVXVXVXVXVXVXVXVXVXVXVXVXVXVXVXVXVXVXVXVXVXVXVXVXVXVXVXVXVXVXVXVXVXVXVXVXVXVXVXVXVXVXVXVXVXVXVXVXVXVXVXVXVXVXVXVXVXVXVXVXVXVXVXVXVXVXVXVXVXVXVXVXVXVXVXVXVXVXVXVXVXVXVXVXVXVXVXVXVXVXVXVXVXVXVXVXVXVXVXVXVXVXkXVXVXVXVXVXVXVXVXVXVXVXVXVXVXkXkXkXkXkXkXkXkXkXkXkXkXkXkXkXkXkXkXkXkXkXkXkXkXkXkXkXkXkXkXkXkXkXkXkXkXkXkXkXkXzXzXzXzXzXzXzXkXzXzXzXzXkXkXkXkXpXkXpXpXiXiXiXpXpXsXiXiXhX!.#X} ( | vXaXsXsXsXiXiXiX9X5X5X5X5X8X5X5X5X5X5X5X6X6X5X5X5X5X6X6X3X3X6X3X1X<X2X2X2X2X<X<X<X<X<X:X2Xb.;.2X:X<X(.P.U.G.G.b.G.P.G.k.p.k.k.p.9.3.4.b.U.P.L.N.M.n.V.B.N.n.a.P q.P.P.N.M.v.M.M.N.M.l.k.f.f.y.t.t.8.;.#.C #.7.0.0.9.e.I.;X^.^.(.;X;X;X:X:X1X",
"7X3X3X1X1X1X1X1X<X1X:XI.t.f.f.g.8.;.I @.;.7.0.t.y.y.j.j.v.L.P.N.P.^.^.N.f.j.z.P j 9.I.I.I.I.I.I.I.I.^.^.^.^.-X-Xk.P.L.n.I.(./.(.U.(.3X:X>Xn.9XP.Y x.2X<X<X1X1X1X1X1X3X3X3X3X3X3X5X5X3X3X5X5X5X5X5X5X8X8X9X9X9XiXtXiX9X9X9XiXiXiX0XiXiXiX7X4XoX~.}  .' oXyXiXsXsXaXaXsXsXsXsXsXsXsXsXcXcXcXcXkXkXzXzXzXzXzXzXzXzXpXzXzXkXkXkXkXpXkXkXkXkXkXkXkXkXkXkXkXkXkXkXkXkXkXkXkXkXVXVXkXkXkXkXkXkXkXkXkXkXkXkXkXkXkXkXkXkXVXVXVXVXVXVXVXVXVXVXVXVXVXVXVXVXVXVXVXVXVXVXVXVXVXVXVXVXVXVXVXVXVXVXVXVXVXVXVXVXVXVX0X0XVXVXVXVXVXVXVXVXVXVXVXVXVXVXVXVXVXVXVXVXVXVXVXVXVXVXVXVXVXVXVXVXVXVXVXVXVXVXVXVXVXVXVXVXVXVXVXVXVXVXVXVXVXVXVXVXVXVXVXVXVXVXVXVXVXVXVXVXVXVXVXVXVXVXVXVXkXkXkXkXkXkXkXkXkXkXkXVXVXVXkXkXkXkXVXkXkXkXkXkXkXkXkXkXkXkXkXkXkXkXkXkXkXkXkXkXzXzXzXzXzXzXzXkXzXzXzXzXkXkXkXkXkXkXpXpXiXiXiXpXsXsXiXiXhX!.#X} ( | vXaXsXsXsXiX9X5X5X9X9X9X9X8X9X5X5X5X5X5X5X6X5X5X5X5X6X3X3X3X6X3X1X1X<X<X2X2X<X<X<X<X<X:X1Xb.;.2X;X;X(.k.;.#.#.#.#.#.Y @.@.#.S g e q h @.;.3.7.;.;.;.=.=.&.#.7.S 3.U.P.N.M.v.M.M.T.M.l.j.f.f.y.t.t.e.;.#.v #.7.0.0.9.e.I.;X^.^.(.;X;X;X:X:X1X",
"7X3X3X3X3X1X1X1X<X1X:XI.t.f.f.g.7.;.A Y 3.7.e.y.y.f.k.k.x.P.P.N.N.^.^.P.>.f.b.P j 9.P.B.I.I.I.I.I.I.^.^.^.^.-X-Xk.b.L.L.G.b.b.z.t.v.N.:X<XI.5XP.%.x.2X1X1X1X1X1X1X1X3X3X3X3X3X3X5X3X3X3X5X5X5X5X5X5X7X7X7X7X8X8XiXiXiX8X8X8X8X8X9X9XiXiX7X6XoX~.}  .' +XhXzXpXsXsXsXsXsXsXsXsXaXpXkXkXzXzXzXzXkXpXpXpXpXzXsXsXpXpXpXpXpXsXsXsXpXkXkXkXkXkXkXkXkXkXkXkXkXkXkXkXkXkXkXkXkXVXVXVXkXkXkXkXkXkXkXkXkXkXkXkXVXVXkXkXkXVXVXVXVXVXVXVXkXkXVXVXVXVXVXVXVXVXVXVXVXVXVXVXVXVXVXVXVXVXVXVXVXVXVXVXVXVXVXVXVXVXVX8X7XVXVXVXVXVXVXVXVXVXVXVXVXVXVXVXVXVXVXVXVXVXVXVXVXVXVXVXVXVXVXVXVXVXVXVXVXVXVXVXVXVXVXVXVXVXVXVXVXVXVXVXVXVXVXVXVXVXVXVXVXVXVXVXVXVXVXVXVXVXVXVXVXfXfXVXVXkXkXkXkXkXkXkXkXkXkXkXkXkXkXVXkXkXVXVXkXkXkXkXkXkXkXkXkXkXkXkXkXkXkXkXkXpXpXpXkXzXzXzXzXzXzXzXzXkXkXpXpXkXkXkXkXkXkXkXkXiXiXiXpXsXsXiXiXyX!.#X} ( | vXsXiXsXiX9X9X9X5X9X9X9X9X9X5X5X5X5X5X5X5X5X5X5X5X5X6X6X6X6X3X1X1X<X<X<X:X:X<X<X<X<X<X;X2Xv.,.<X:X;X;XP.b.t.f.j.j.f.k.l.T.7.#.@.=.;.0.t.j.k.z.k.k.k.l.l.k.k.b.P 3.U.P.N.M.M.M.M.M.M.b.k.j.f.y.t.t.8.,.O.v o.7.0.9.9.j.I.;X;X;X(.;X;X:X:X<X1X",
"7X3X3X3X1X1X1X1X<X1X:XI.e.f.f.g.7.7.A @.3.7.e.t.y.f.j.k.x.T.N.N.N.^.^.P.v.N.m.L j 9.I.I.I.I.I.I.I.I.^.^.^.^.-X-X7.o.o.@.@.P A S A e.8.^.<XI.5XP.*.G.2X1X1X1X1X1X1X1X3X3X3X3X3X3X5X5X3X3X5X5X5X5X5X5X7X7X7X7X8X8X8XiXiX8X8X8X8X8X9X9XiXiX7X6XoX~.}  .' +XyXkXiX0XaXsXsXsXsXsXsXsXkXkXzXzXzXzXkXkXpXpXpXpXzXzXpXpXpXpXpXpXsXsXzXsXkXkXkXkXkXkXkXkXkXkXkXkXkXkXkXkXkXkXkXkXVXVXVXkXkXkXkXkXVXVXkXkXkXkXkXkXkXkXkXkXVXVXVXVXVXVXkXkXVXkXVXVXVXVXVXVXVXVXVXVXVXVXVXVXVXVXVXVXVXVXVXVXVXVXVXVXVXVXVXVXDXVX0X0XVXVXVXVXVXVXVXVXVXVXVXVXVXVXVXVXVXVXVXVXVXVXVXVXVXVXVXVXVXVXVXVXVXVXVXVXVXVXVXVXVXVXVXVXVXVXVXVXVXVXVXVXVXVXVXVXVXVXVXVXVXVXVXVXVXVXVXVXVXVXVXVXfXfXfXfXkXkXkXkXkXkXkXkXVXkXkXkXkXkXVXkXkXVXkXkXkXkXkXkXkXkXkXkXkXkXkXkXkXkXkXkXpXpXkXkXzXzXzXzXzXzXzXzXpXpXpXpXkXkXkXkXkXkXiXiXiXpXiXpXsXsXiXiXyX!.#X} ( | vXsXiXsXiXiX9X9X9X9X9X9X9X5X5X5X5X5X5X5X5X5X5X5X5X5X6X6X2X2X3X1X1X<X<X<X:X:X<X<X<X<X<X;X2Xv.q.<X:X;X:X-X^.^.^.(.(.I.;X;X;XT.Y.(.(.:XY.Y.Y.I.P.P.N.N.N.N.N.L.L.Y 3.U.P.N.M.M.M.M.M.M.b.k.j.f.y.t.t.8.,.O.c o.7.0.9.9.j.I.;X;X;X(.;X;X;X:X<X1X",
"7X3X3X1X1X1X1X1X<X1X:XI.f.f.f.g.8.7.P #.3.7.e.t.y.f.j.k.l.N.N.M.N.^.^.^.;X^.M.L j 9.P.B.I.I.I.I.I.I.^.^.^.^.(.(.8.y.l.l.b.n.b.b.(.:XN.(.<XI.5XP.*.G.1X1X1X1X1X1X1X1X3X3X3X3X3X3X5X5X5X5X5X5X5X5X5X5X5X5X7X7X7X8X8X8X8X8X8X8X8X8X0X9XiXiX7X6XoX~.}  .' oXtXiX9X9XiXiXpXpXpXpXpXpXkXkXzXzXzXzXkXkXkXkXpXpXzXzXzXzXkXkXpXpXsXsXzXzXkXkXkXkXkXkXkXkXkXkXkXkXkXkXkXkXkXkXkXkXVXVXVXVXVXkXkXkXkXkXkXkXkXkXkXkXkXkXkXkXVXkXVXVXVXkXkXkXkXkXVXVXVXVXVXVXVXVXVXVXVXVXVXVXVXVXVXVXVXVXVXVXVXVXVXVXVXVXVXVXVXVXVXVXVXVXVXVXVXVXVXVXVXVXVXVXVXVXVXVXVXVXVXVXVXVXVXVXVXVXVXVXVXVXVXVXVXVXVXVXVXVXVXVXVXVXVXVXVXVXVXVXVXVXVXVXVXVXVXVXVXVXVXVXkXkXkXkXVXVXVXVXVXVXVXVXfXfXfXfXkXkXVXVXkXkXVXkXkXkXkXkXkXkXkXkXkXkXkXkXkXkXkXkXpXpXkXkXkXkXkXkXkXkXkXkXpXpXpXpXzXzXzXzXzXzXzXzXkXkXpXpXkXkXiXiXiXiXiXiXpXpXiXpXsXsXiXiXyX!.#X} ( | vXsXiXiXiXiX9X9X9X9X9X9X5X5X5X5X5X5X5X5X5X5X5X5X5X5X5X1X2X1X3X1X1X<X<X<X:X:X:X:X:X:X:X;X1Xv.,.<X>X;X;X-X;X(.(.(.;X^.;X(.I.;X(.;X;X;X(.(.Y.I.I.I.P.P.P.P.N.P.P.T 3.P.P.N.M.v.M.M.M.M.b.k.j.f.y.t.t.8.,.#.v o.8.0.0.8.j.I.;X;X;X;X;X;X;X:X<X1X",
"7X3X3X1X1X1X1X1X<X1X:XI.f.f.f.f.8.7.P #.3.7.e.t.y.f.k.k.c.N.N.M.N.^.^.^.I.N.m.P s 4.N.N.I.I.I.I.I.I.^.^.^.^.(.(.8.^.;X;X(.2X(.(.(.:XP.;X<XI.5XP.%.b.1X1X1X1X1X1X1X1X3X3X3X3X3X3X5X5X5X5X5X5X5X5X5X5X5X5X7X7X8X8X8X8X8X8X8X8X8X8X0XiXiXiX7X6XoX~.}  .' .XtXiX9X9XiXpXpXpXpXpXpXpXkXzXzXzXzXkXkXkXzXkXpXpXzXzXzXzXzXkXkXpXzXzXzXzXzXkXkXkXkXkXkXkXkXkXkXkXkXkXkXkXkXkXkXkXVXVXVXVXVXkXkXkXkXkXkXkXkXkXkXkXkXkXkXkXkXkXVXVXVXkXkXkXVXkXVXVXVXVXVXVXVXVXVXVXVXVXVXVXVXVXVXVXVXVXVXVXVXVXVXVXVXVXVXVXVXVXVXVXVXVXVXVXVXVXVXVXVXVXVXVXVXVXVXVXVXVXVXVXVXVXVXVXVXVXVXVXVXVXVXVXVXVXVXVXVXVXVXVXVXVXVXVXVXVXVXVXVXVXVXVXVXVXVXVXVXVXVXVXkXkXkXkXkXVXVXVXVXVXVXVXfXfXfXfXkXkXkXkXkXkXVXkXkXkXkXkXkXkXkXkXkXkXkXkXkXkXkXkXpXpXkXkXkXkXkXkXzXkXkXkXpXpXpXpXzXzXzXzXzXzXzXzXkXkXkXpXkXkXiXiXiXiXiXiXpXpXiXiXsXsXiXiXtX}.#X} ( | vXiXiXiXiX8X9X9X9X9X8X5X5X5X5X5X5X5X5X5X5X5X5X5X5X5X5X1X1X1X3X1X1X<X<X<X:X:X:X:X:X:X:X:X1Xv.,.:X:X;X;X;X(.(.^.;X;X^.;X^.;X(.;X;X(.(.^.^.^.I.I.I.P.N.N.N.N.L.P.T q.U.P.N.M.n.M.M.M.M.b.k.j.f.y.t.t.8.;.#.v P 8.e.e.8.j.I.;X;X;X;X;X;X;X:X<X1X",
"7X3X3X3X3X1X1X1X:X<X:XI.t.t.f.f.8.7.P #.3.8.e.y.j.j.f.j.g.N.N.N.^.^.^.^.P.L.b.Y a 7.P.I.I.I.I.I.^.^.^.^.^.^.(.(.8.N.^.L.I.I.P.(.(.P.N.;X;XP.8XP.#.x.1X1X1X>X1X1X1X1X1X1X1X1X3X3X3X3X5X5X5X5X7X7X7X7X7X7X8X8X8X8X8X8X8X8X9X9X9X8X9X9XiX9X7X4X=X{ }  .^ [.tXiXtXiXiXiXiXpXpXpXpXpXpXpXiXkXkXkXiXiXsXsXkXkXkXkXkXkXkXkXkXkXkXkXkXkXzXzXpXpXpXpXpXpXkXkXkXkXkXkXkXkXkXkXkXkXkXkXkXkXkXkXkXkXkXkXkXkXVXVXkXkXkXkXkXVXkXkXkXkXVXVXVXVXkXkXkXVXVXVXVXVXVXVXVXVXVXVXVXVXVXVXVXVXVXVXVXVXVXVXVXVXVXVXVXVXVXVXVXVXVXVXVXVXVXVXVXVXVXVXVXVXVXVXVXVXVXVXVXVXVXVXVXVXVXVXVXVXVXVXVXVXVXVXVXVXVXVXVXVXVXVXVXVXVXVXVXVXVXVXVXVXVXVXVXVXVXVXVXVXVXVXVXVXVXVXVXVXkXkXkXkXkXkXkXkXkXkXkXkXkXkXkXkXkXkXkXkXkXkXkXkXkXkXkXkXkXkXkXkXkXkXkXkXkXpXpXpXpXpXpXpXkXkXkXkXkXkXkXkXkXkXpXpXiXiXkXkXiXiXiXiXiXiXiXpXiXiXiXiXsXiX0XiXtXXX .} ( | vXiXiXiXiX9X9X9X9X9X5X5X8X5X5X5X5X5X5X5X5X5X5X5X5X3X3X3X3X3X3X1X1X1X1X1X<X<X<X<X:X:X:X:X1Xv.,.:X;X;X;X;X;X;X(.(.(.;XN.N.^.(.^.^.^.^.^.I.I.I.^.^.I.I.P.N.P.P.L.T 4.I.T.N.M.M.M.N.N.N.v.k.f.f.y.t.e.8.,.#.v P 8.e.r.r.j.I.;X^.;X;X;X;X:X:X<X1X",
"3X3X3X3X3X1X1X1X:X<X:XI.t.t.f.f.8.7.P #.3.8.e.y.j.j.f.f.k.N.N.N.).).^.^.I.L.G.Y a 7.L.I.I.I.I.I.^.^.^.^.^.^.(.(.>.=.7.7.;.;.;.,.e.7.f.:X;XI.sXP.*.v.1X1X>X>X1X1X1X1X1X1X1X1X3X3X3X3X3X3X5X7X7X7X7X7X7X7X8X8X8X8X8X8X8X8X9X9X9X8X9X9X9X9X7X4X=X{ .. .^ ].tXtXtXiXiXiXiXiXpXpXpXpXpXpXpXkXaXkXiXiXsXzXkXpXkXkXzXkXkXkXkXkXkXkXkXkXzXzXpXpXpXpXkXkXkXkXkXkXkXkXkXkXkXkXkXkXkXkXkXkXkXkXkXkXkXkXkXkXkXkXkXkXkXVXkXkXkXkXkXkXVXVXVXVXkXkXVXVXVXVXVXVXVXVXVXVXVXVXVXVXVXVXVXVXVXVXVXVXVXVXVXVXVXVXVXVXVXVXVXVXVXVXVXVXVXVXVXVXVXVXVXVXVXVXVXVXVXVXVXVXVXVXVXVXVXVXVXVXVXVXVXVXVXVXVXVXVXVXVXVXVXVXVXVXVXVXVXVXVXVXVXVXVXVXVXVXVXVXVXVXVXVXVXVXVXVXVXVXkXkXkXkXkXkXkXkXkXkXkXkXkXkXkXkXkXkXkXkXkXkXkXkXkXkXkXkXkXkXkXkXkXkXkXkXpXpXpXpXpXpXpXpXkXkXpXpXpXpXkXkXpXkXpXpXiXiXiXiXiXiXpXpXiXiXiXiXiXiXiXiXsXiX0X0X9XXX .} ( | vXiXiXiX9X9X8X8X9X9X5X5X5X5X5X5X5X3X5X5X5X5X5X5X5X3X3X3X3X3X1X1X1X<X1X1X<X<X<X<X:X:X:X:X1Xv.,.:X;X;X;X;X;X;X(.(.;X;Xv.M.I.(.^.^.^.^.^.I.I.I.^.^.I.I.P.N.P.P.L.T 4.I.T.N.M.M.M.N.N.N.v.k.j.f.y.t.e.8.;.#.v P 7.e.r.r.j.I.-X^.;X;X;X;X:X:X<X1X",
"3X3X3X3X3X1X1X1X:X<X:XI.e.t.f.f.8.7.A @.3.7.e.y.j.j.k.k.v.N.N.N.N.P.P.P.P.L.G.Y a 7.L.I.I.I.^.^.^.^.^.^.(.(.(.(.8.,.e.t.r.t.e.e.e.8.j.<XP.M.iXP.*.v.1X1X>X>X1X1X1X1X1X1X1X1X3X3X3X3X3X3X3X7X7X7X7X3X3X7X8X8X8X8X5X5X5X8X9X9X9X8X9X9X9X9X7X6X=X~... .^ .XtXtXtXiXiXiXiXiXpXpXpXpXpXpXiXiXaXiXiXiXsXsXsXsXsXsXzXzXkXkXkXkXkXkXkXkXzXzXzXpXkXkXkXkXkXkXkXkXkXkXkXkXkXkXkXkXkXkXkXkXkXkXkXkXkXVXkXkXkXkXkXkXkXkXkXkXkXkXkXkXVXVXVXVXkXkXVXVXVXVXVXVXVXVXVXVXVXVXVXVXVXVXVXVXVXVXVXVXVXVXVXVXVXVXVXVXVXVXVXVXVXVXVXVXVXVXVXVXVXVXVXVXVXVXVXVXVXVXVXVXVXVXVXVXVXVXVXVXVXVXVXVXVXVXVXVXVXVXVXVXVXVXVXVXVXVXVXVXVXVXVXVXVXVXVXVXVXVXVXVXVXVXVXVXVXVXVXVXkXkXkXkXkXVXkXkXkXkXkXVXkXVXkXkXkXkXkXkXkXkXkXkXkXkXkXkXkXkXkXkXkXkXkXkXpXpXpXpXpXpXpXpXpXpXpXpXpXpXpXpXpXpXpXpXkXiXiXiXiXiXiXiXiXiXiXiXiXiXiXiXsXiXiXiX9XXX .} ( | vXiXiXtX9X9X8X8X9X8X5X5X5X5X5X5X5X3X5X5X5X5X5X5X5X3X3X3X3X3X1X1X<X<X<X1X<X<X<X<X:X:X:X:X1Xv.>.:X;X;X;X;X;X;X(.(.;X;XM.M.I.I.^.^.^.^.^.I.I.I.I.I.I.I.P.N.P.L.H.T ,.I.I.B.M.n.N.N.N.N.v.k.f.f.y.t.e.8.;.#.v P ;.8.9.e.j.I.-X^.;X;X;X;X:X:X<X1X",
"3X3X3X3X1X1X1X1X:X<X:XI.e.t.f.f.8.7.A @.3.7.e.y.j.j.j.k.v.N.IXN.N.N.N.P.P.H.b.Y a 7.P.I.I.I.^.^.^.^.^.^.(.(.(.(.8.I.<X(.^.(.(.(.(.P.M.(.l.l.8XP.#.x.<X>X>X>X1X1X1X1X1X1X1X1X3X3X3X3X3X3X3X3X5X7X5X1X1X5X7X7X7X7X5X5X5X8X9X9X9X9X7X9X8X9X7X6XoX~... .^ .XtX9X9XiXiXiXiXiXpXpXpXpXpXpXiXiXaXiXiXiXsXsXsXsXsXsXsXsXkXkXkXkXkXkXkXkXzXzXkXpXkXkXkXkXkXkXkXkXkXkXkXkXkXkXkXkXkXkXkXkXVXVXkXkXkXVXkXkXkXkXkXkXkXkXkXkXkXkXkXkXVXVXVXVXkXkXVXVXVXVXVXVXVXVXVXVXVXVXVXVXVXVXVXVXVXVXVXVXVXVXVXVXVXVXVXVXVXVXVXVXVXVXVXVXVXVXVXVXVXVXVXVXVXVXVXVXVXVXVXVXVXVXVXVXVXVXVXVXVXVXVXVXVXVXVXVXVXVXVXVXVXVXVXVXVXVXVXVXVXVXVXVXVXVXVXVXVXVXVXVXVXVXVXVXVXVXVXVXVXkXkXkXkXVXkXkXkXkXkXVXkXVXkXkXkXkXkXkXkXkXkXkXVXkXkXkXkXkXkXkXkXkXkXkXpXpXpXpXpXpXpXpXpXpXpXpXpXpXpXpXpXpXpXpXkXiXiXiXiXiXiXiXpXiXiXiXiXiXiXiXiXiXiX0X9XXX .} ( | vXiXiXtX9X9X8X8X8X8X5X5X5X5X5X5X3X3X5X5X5X5X3X5X5X3X3X3X3X1X1X<X:X:X<X1X<X<X<X<X:X:X:X:X1Xv.;.:X;X;X;X;X;X;X(.(.;X;X^.P.I.I.^.^.^.^.^.I.I.I.I.I.I.P.P.N.P.L.H.T ;.I.T.B.M.n.N.M.N.N.b.k.f.f.y.t.e.8.;.#.v P =.7.9.e.k.I.-X-X(.;X;X;X:X:X<X1X",
"3X3X3X3X1X1X1X1X<X1X:XI.t.t.y.f.8.q.A @.3.8.t.y.j.j.k.k.v.N.N.B.N.P.P.I.^.I.G.T h q.M.P.I.I.^.^.^.^.^.^.(.(.(.(.t.l.P.L.n.b.n.I.v.e.k.;Xv.l.8XT.q.v.2X1X>X>X1X1X1X1X1X1X3X3X3X3X3X3X3X3X1X1X5X7X3X1X1X5X7X7X7X7X5X5X5X7X5X5X5X5X7X7X8X8X7X6XoX{ .. .^ .XrX9X9X9XiXiXiXiXiXiXiXiXpXpXpXpXpXpXpXpXsXsXpXpXpXpXpXpXkXkXkXkXkXkXkXkXkXkXkXkXkXkXkXkXkXkXkXkXkXkXkXkXkXkXkXkXkXkXkXkXkXkXkXkXkXkXkXkXkXkXkXkXkXkXkXkXkXkXkXkXkXkXkXkXVXVXVXVXVXVXVXVXVXVXVXVXVXVXVXVXVXVXVXVXVXVXVXVXVXVXVXVXVXVXVXVXVXVXVXVXVXVXVXVXVXVXVXVXVXVXVXVXVXVXVXVXVXVXVXVXVXVXVXVXVXVXVXVXVXVXVXVXVXVXVXVXVXVXVXVXVXVXVXVXVXVXVXVXVXVXVXVXVXVXVXVXVXVXVXVXVXVXVXVXVXVXVXVXVXkXkXkXkXkXVXkXkXkXkXkXkXkXkXkXkXkXkXkXkXkXkXkXkXkXkXkXkXkXkXkXpXpXpXpXpXpXpXpXpXpXpXpXpXpXpXkXpXpXpXpXpXpXpXpXpXpXpXpXpXiXiXiXiXiXiXiX0X0X0X0XiXiX8X8X9XXX .} ( | vXiXiXtX5X8X9X9X7X5X5X5X5X5X5X5X5X5X5X5X5X5X3X3X3X3X3X1X1X1X1X1X:X:X:X1X<X<X<X:X:X:X:X:X1Xv.;.:X;X^.;X(.(.(.(.(.;X;X-X-X(.(.-X-X-X(.^.^.I.I.^.^.I.P.P.P.P.P.H.T ;.I.P.T.M.n.n.M.N.L.b.k.k.f.f.y.t.e.,.#.C C P ;.8.e.k.I.;X-X(.;X;X;X:X:X<X1X",
"3X3X3X3X1X1X1X1X1X1X:XI.t.t.y.f.8.q.P @.3.8.t.y.j.j.k.k.v.N.N.N.P.P.P.P.^.I.G.T h 7.N.T.I.I.^.^.^.^.^.^.(.(.(.(.f.j.l.l.z.k.z.b.v.k.t.(.P.x.iXP.q.n.1X1X>X>X1X1X1X1X1X1X3X3X3X3X3X3X3X3X1X3X3X7X7X3X3X7X7X7X7X7X5X5X5X7X5X5X5X5X7X7X8X8X7X6XoX~... .^ .XrX8X9X9XiXiXiXiXiXiXiXiXpXpXpXpXpXpXpXpXsXsXpXpXpXpXpXpXkXkXkXkXkXkXkXkXkXkXkXpXpXpXpXpXkXkXkXkXkXkXkXkXkXkXkXkXkXkXkXkXkXkXkXkXkXkXkXkXkXkXkXkXkXkXkXkXkXkXkXkXkXkXVXkXVXVXVXVXVXVXVXVXVXVXVXVXVXVXVXVXVXVXVXVXVXVXVXVXVXVXVXVXVXVXVXVXVXVXVXVXVXVXVXVXVXVXVXVXVXVXVXVXVXVXVXVXVXVXVXVXVXVXVXVXVXVXVXVXVXVXVXVXVXVXVXVXVXVXVXVXVXVXVXVXVXVXVXVXVXVXVXVXVXVXVXVXVXVXkXVXVXVXVXVXVXVXVXVXkXkXkXkXVXkXkXkXkXkXkXkXkXkXkXkXkXkXkXkXVXkXkXkXkXkXkXkXkXkXkXkXpXpXpXpXpXpXpXpXpXpXpXpXpXpXkXkXpXpXpXpXpXpXpXpXkXiXpXkXpXiXiXiXiXiXiXiX0X0X0XiXiXiX9X8X8X}. .} ( | vXiXiXiX8X8X9X9X7X7X5X5X5X7X5X5X5X5X5X5X5X5X3X3X3X3X3X1X1X1X1X1X<X:X<X1X<X<X<X<X:X:X:X:X1Xv.;.:X;X^.(.(.(.(.(.(.;X;X-X(.(.(.-X-X-X(.^.^.I.I.^.^.I.P.P.P.P.P.L.#.;.I.P.T.M.n.n.n.N.L.b.k.k.k.f.y.t.e.,.#.I A P ;.e.e.j.I.-X^.^.;X;X;X:X:X<X1X",
"3X3X3X3X1X1X1X1X1X1X:XI.t.t.y.f.8.7.Y Y 3.8.t.y.j.k.k.k.v.I.B.N.P.P.I.I.^.I.G.T j 7.P.I.I.^.^.^.^.^.^.^.^.(.(.;Xt.n.(.).P.P.P.P.^.N.t.I.Y.x.iXT.q.n.1X1X1X1X1X1X1X1X1X1X3X3X3X3X3X3X3X3X3X3X7X7X7X5X5X7X7X7X7X7X5X5X7X7X7X5X5X5X9X7X8X7X7X5XoX~.}  .^ [.rX8X9X0XiXiX0X0XpXpXiXpXpXpXpXpXpXpXpXpXsXsXpXpXpXpXpXpXkXkXkXkXkXkXkXkXkXkXpXpXpXpXpXpXkXkXkXkXkXkXkXkXkXkXkXkXkXkXkXVXkXkXVXkXkXkXkXkXkXkXkXkXkXkXkXkXkXkXkXkXVXVXVXVXVXVXkXkXVXVXVXVXVXVXVXVXVXVXVXVXVXVXVXVXVXVXVXVXVXVXVXVXVXVXVXVXVXVXVXVXVXVXVXVXVXVXVXVXVXVXVXVXVXVXVXVXVXVXVXVXVXVXVXVXVXVXVXVXVXVXVXVXVXVXVXVXVXVXVXVXVXVXVXVXVXVXVXVXVXVXVXVXVXVXVXVXkXkXkXkXVXVXVXVXfXfXVXVXkXkXkXkXkXkXkXkXkXkXkXkXkXkXkXkXkXkXkXkXkXVXkXkXkXkXkXkXkXkXkXkXpXpXpXpXpXpXpXpXpXkXpXpXpXpXkXkXpXpXpXpXpXpXpXpXkXpXkXkXiXiXpXpXiXiXiXiX0X0XiXiXiXiX9X9X5X}. .} ( | vXiXiXiX8X8X9X9X7X8X5X5X7X7X5X5X5X5X5X5X3X3X3X3X3X3X3X1X1X1X1X1X1X1X1X1X<X<X<X<X:X<X:X:X1Xv.;.:X:X^.-X-X(.(.(.(.;X;X-X-X(.(.(.(.-X(.^.^.^.^.^.^.^.I.P.P.P.I.L.#.;.(.I.I.N.n.M.M.N.L.b.k.k.j.f.y.t.e.,.=.I I O.,.e.t.k.I.-X-X^.;X;X:X:X:X<X1X",
"3X3X3X3X1X1X1X1X1X1X:XI.t.t.y.f.8.7.Y Y 3.8.t.y.j.k.k.k.v.I.I.N.P.P.I.I.^.I.n.T l 8.P.I.I.^.^.^.^.^.^.^.^.(.(.;Xt.f.m.v.k.k.k.g.n.l.t.L.;Xv.iXI.3.n.1X1X>X>X1X1X1X1X1X1X3X3X3X3X3X3X3X3X3X5X7X7X7X3X3X7X7X7X7X7X5X5X7X7X7X5X5X5X9X7X8X7X7X5XoX~.| #X' [.rX9X9X0XiXiX0X0XpXpXpXpXpXpXpXpXpXpXpXpXsXsXpXpXpXpXpXpXkXkXkXkXkXkXkXpXpXpXpXpXpXpXpXpXkXkXkXkXkXkXkXkXkXkXkXkXkXVXkXkXkXkXVXkXkXkXVXkXkXVXVXkXkXkXkXkXkXkXkXkXVXVXVXVXVXkXkXkXVXVXVXVXVXVXVXVXVXVXVXVXVXVXVXVXVXVXVXVXVXVXVXVXVXVXVXVXVXVXVXVXVXVXVXVXVXVXVXVXVXVXVXVXVXVXVXVXVXVXVXVXVXVXVXVXVXVXVXVXVXVXVXVXVXVXVXVXVXVXVXVXVXVXVXVXVXVXVXVXVXVXVXVXVXVXVXVXkXkXkXkXVXVXVXVXfXfXVXVXkXkXkXkXkXkXkXkXkXkXkXkXkXkXkXkXkXkXkXkXkXkXkXkXkXkXkXkXkXkXkXkXpXpXpXpXpXpXpXpXkXkXpXpXpXkXkXkXpXpXpXpXpXpXpXpXpXiXpXpXiXiXiXpXiXiXiX0X0X0XiXiXiXiX0X9X5X}. .} ( | vXiX9XiX8X8X9X9X7X8X5X5X7X7X5X5X5X5X5X5X5X3X3X3X3X3X3X1X1X1X1X1X1X1X1X1X<X<X<X<X<X<X:X:X1Xv.;.:X:X^.-X-X^.(.(.(.;X;X(.-X(.(.(.(.(.(.^.^.^.^.^.^.^.I.P.P.P.I.P.%.4.(.P.I.M.n.M.M.N.L.b.k.k.j.f.y.t.e.,.=.I P =.,.e.t.j.I.(.^.^.;X;X:X:X:X<X1X",
"3X3X3X3X1X1X1X1X1X1X<XI.e.t.y.r.8.4.#.I 3.9.y.p.j.k.k.z.v.I.I.N.P.I.I.I.I.I.n.#.z 9.P.I.I.^.^.^.^.^.^.^.^.(.(.;Xt.k.^.I.n.L.n.n.I.(.b.M.6Xn.sXP.q.n.1X1X1X1X1X1X1X1X1X1X3X3X3X3X3X3X5X5X5X5X7X7X7X5X5X7X7X7X7X7X8X8X8X8X8X8X8X8X8X5X8X8X8X5XuX' | #X' [.iX9XiXiXiXiXiXiXiXiXpXpX0X0XpXpXpXpXpXpXpXpXpXpXpXpXpXpXpXpXpXpXkXkXkXkXpXpXpXpXkXkXkXkXkXkXkXkXkXkXkXkXkXkXkXkXkXkXkXkXkXkXkXkXkXkXkXkXVXVXVXVXkXkXkXkXkXkXkXVXVXVXkXkXkXkXVXVXVXVXVXVXVXVXVXVXVXVXVXVXVXVXVXVXVXVXVXVXVXVXVXVXVXVXVXVXVXVXVXVXVXVXVXVXVXVXVXVXVXVXVXVXVXVXVXVXVXVXVXVXVXVXVXVXVXVXVXVXVXVXVXVXVXVXVXVXVXVXVXVXVXVXVXVXVXVXVXVXkXVXVXVXVXVXVXVXVXVXVXVXVXVXVXVXVXVXVXfXkXkXkXkXkXkXkXkXkXkXkXkXkXkXkXkXkXkXkXkXkXkXkXkXkXkXkXkXkXkXkXkXkXkXkXkXpXpXpXpXkXkXpXpXpXpXpXkXpXpXpXpXpXpXpXpXpXpXpXsXpXpXpXpXiXiXiXiXiXiXiXiXiX0X9X8X5XXX| } ( | vXpXiX9X8X8X8X8X8X8X7X7X7X7X7X7X7X5X5X5X3X3X3X3X3X3X3X1X1X1X1X1X1X1X1X1X1X1X1X1X1X<X:X:X1Xv.;.<X;X-X-X;X(.^.(.(.;X;X;X;X(.(.(.(.(.(.^.^.^.^.^.^.^.^.P.P.P.P.P.%.4.(.I.B.M.M.N.M.N.N.b.z.j.j.f.y.t.8.7.-.P o.;.,.e.e.y.^.;X-X^.;X;X:X:X:X<X1X",
"3X3X3X3X1X1X1X1X1X1X<XI.8.t.t.8.9.7.#.A 3.9.y.p.j.k.k.z.v.I.I.P.P.I.P.I.I.I.n.#.z 9.P.I.I.^.^.^.^.^.^.^.^.(.(.;X8.O.8.7.=.=.7.7.8.8.=.8.P.x.aXP.7.G.3X1X1X1X1X1X1X1X1X1X3X3X3X3X3X3X5X5X5X5X7X7X7X7X7X7X7X7X7X7X8X8X8X8X8X8X8X8X5X8X5X7X8X5XuXS.| #X' [.iX9X0X0XiXiXiXiXiXiXpXpX0X0XpXpXpXpXpXpXpXpXpXpXpXpXpXpXpXpXpXpXkXkXkXkXpXpXpXpXkXkXkXkXkXkXkXkXkXkXkXkXkXkXkXkXkXkXkXkXkXkXkXkXkXkXkXkXVXVXVXVXkXkXkXkXkXkXkXVXVXVXkXVXkXkXVXVXVXVXVXVXVXVXVXVXVXVXVXVXVXVXVXVXVXVXVXVXVXVXVXVXVXVXVXVXVXVXVXVXVXVXVXVXVXVXVXVXVXVXVXVXVXVXVXVXVXVXVXVXVXVXVXVXVXVXVXVXVXVXVXVXVXVXVXVXVXVXVXVXVXVXVXVXVXVXVXVXkXVXVXVXVXVXVXVXkXkXVXVXVXVXVXVXVXVXVXfXkXkXkXkXkXkXkXkXkXkXkXkXkXkXkXkXVXVXkXkXkXkXkXkXkXkXkXkXkXkXkXkXkXkXkXkXpXpXpXpXkXkXpXpXpXpXpXpXpXpXpXpXpXpXpXpXpXpXsXsXpXpXpXpXiXiXiXiXiX0XiXiXiX0X9X8X6XXX| } ( | vXpXiX9X8X9X8X8X8X8X7X7X7X7X7X5X7X5X5X5X5X5X3X3X3X3X3X1X1X1X1X1X1X1X1X1X1X1X1X1X1X<X:X:X1Xv.;.;X;X;X;X^.^.^.(.(.;X;X;X;X(.(.(.(.(.(.^.^.^.^.^.^.^.^.P.P.P.P.P.%.4.(.I.B.M.N.M.M.N.N.b.z.j.j.j.y.t.8.7.-.P O.;.7.9.7.e.^.(.-X^.;X;X:X:X:X<X1X",
"3X3X3X3X1X1X1X1X1X1X<XI.8.e.e.8.9.8.#.A 7.e.y.y.j.k.k.l.n.I.I.I.P.I.I.^.I.I.n.#.z 9.P.I.I.^.^.^.^.^.^.^.^.(.(.;Xt.;.b.n.n.b.I.(.n.b.j.(.k.k.aXP.7.G.3X1X1X1X1X1X1X1X1X1X3X3X3X3X3X3X5X5X5X5X7X7X7X7X7X7X7X7X7X7X8X8X8X8X8X8X8X8X8X7X5X1X7X5XuX' | #X' _.tX0XiXpXpXiXiXiXiXiXpXpX0X0X0XpXpXpXpXpXpXpXpXpXpXpXpXpXkXkXpXpXpXpXpXpXpXpXpXpXkXkXkXkXkXkXkXkXkXkXkXkXkXkXkXkXkXkXkXkXkXkXkXkXkXkXkXkXVXVXVXVXVXVXkXVXkXkXVXVXVXVXVXVXVXVXVXVXVXVXVXVXVXVXVXVXVXVXVXVXVXVXVXVXVXVXVXVXVXVXVXVXVXVXVXVXVXVXVXVXVXVXVXVXVXVXVXVXVXVXVXVXVXVXVXVXVXVXVXVXVXVXVXVXVXVXVXVXVXVXVXVXVXVXVXVXVXVXVXVXVXVXVXVXVXVXVXVXVXVXVXVXVXVXVXVXkXVXVXVXVXVXVXVXVXVXVXVXkXkXkXkXkXkXkXkXkXVXkXkXkXkXkXVXkXkXkXkXkXkXkXkXkXkXkXkXkXkXkXkXkXkXkXkXpXpXpXpXpXpXpXpXpXpXpXpXpXpXpXpXpXpXpXpXpXpXpXpXpXpXpXpXiXiXiXiXiX0X0X0XiX0X9X8X8XoX| } ( | vXpXiX9X9X7X8X8X7X8X7X7X7X7X5X5X5X5X5X5X5X5X3X3X3X3X3X1X1X1X1X1X1X1X1X1X1X1X1X1X1X1X:X:X3Xv.;.<X>X;X^.I.I.(.;X(.;X;X;X;X;X(.(.(.(.(.^.^.^.^.^.^.^.^.I.I.P.I.P.%.4.(.I.B.M.N.N.N.N.N.v.l.k.j.j.j.t.0.7.-.P O.,.8.8.=.7.I.(.I.^.;X:X:X:X:X<X1X",
"3X3X3X3X1X1X1X1X1X1X<XI.7.e.r.7.7.9.&.C 7.e.y.f.j.k.k.l.n.I.I.I.P.I.I.^.I.I.n.#.z 9.P.I.I.^.^.^.^.^.^.^.^.(.(.;X8.j.^.I.I.I.I.:XI.n.b.2Xx.j.aXY.7.G.1X1X1X1X1X1X1X1X1X1X3X3X3X3X3X3X5X5X5X5X7X7X7X7X7X7X7X7X7X7X8X8X8X8X8X8X8X8X8X7X6X1X8X5XuXS.| #X' _.tX0XpXpXpXiXiXiXiXiXpXpX0X0XpXpXpXpXpXpXpXpXpXpXpXpXpXpXkXkXkXkXpXpXpXpXpXpXpXpXkXkXkXkXkXkXkXkXkXkXkXkXkXkXkXkXkXkXkXkXkXkXkXkXkXkXkXVXVXVXVXVXVXVXVXVXkXVXVXVXVXVXVXVXVXVXVXVXVXVXVXVXVXVXVXVXVXVXVXVXVXVXVXVXVXVXVXVXVXVXVXVXVXVXVXVXVXVXVXVXVXVXVXVXVXVXVXVXVXVXVXVXVXVXVXVXVXVXVXVXVXVXVXVXVXVXVXVXVXVXVXVXVXVXVXVXVXVXVXVXVXVXVXVXVXVXVXVXVXVXVXVXVXVXVXVXkXkXVXVXVXVXVXVXVXVXVXVXkXkXkXkXkXkXkXkXkXkXVXkXkXkXkXVXkXkXkXkXkXkXkXkXkXkXkXkXkXkXkXkXkXkXkXkXpXpXpXpXpXpXpXpXpXpXpXpXpXpXpXpXpXpXpXpXpXpXpXpXpXpXpXpXiXiXiXiXiX0X0X0XiX0X9X8X6XXX|  .( | vXpXiX9X9X9X8X8X7X8X7X7X7X7X5X5X5X5X5X5X5X5X3X3X3X3X3X1X1X1X1X1X1X1X1X1X1X1X1X1X1X1X:X:X3Xv.;.<X1X;X^.N.I.;X(.(.;X;X;X;X;X;X(.-X-X(.^.^.^.^.^.^.^.^.I.I.I.I.P.%.4.(.I.B.M.N.N.N.N.N.v.l.k.j.f.f.t.0.7.-.P O.,.0.7.#.;.I.^.I.^.;X:X:X:X:X<X1X",
"3X3X3X3X1X1X1X1X1X1X<XI.7.7.9.7.;.#.=.I ,.e.y.y.j.k.k.l.N.I.I.P.P.M.N.^.I.^.n.Y j 0.I.I.I.^.^.^.^.^.^.^.^.(.;X;X8.y.L.b.k.v.n.b.z.8.,.2Xn.k.aXY.9.L.3X1X1X1X1X:X<X1X1X1X1X3X3X3X3X3X3X3X3X3X3X3X7X7X7X7X7X7X7X7X7X7X7X7X7X7X7X7X9X7X1X7X8X5XjX~.|  .' ].tX0X9X0X0X0XiXiXiXiXiXiXpXpXpXpXpXpXpXpXpXpXpXpXpXpXpXpXkXkXpXpXpXpXpXpXpXpXpXpXkXkXkXkXkXkXkXkXkXkXkXkXkXkXkXkXkXkXkXkXkXkXkXkXkXkXVXVXVXVXVXVXVXVXVXVXVXVXVXVXVXVXVXVXkXkXkXkXkXkXkXVXVXVXVXVXVXVXVXVXVXVXVXVXVXVXVXVXVXVXVXVXVXVXVXVXVXVXVXVXVXVXVXVXVXVXVXVXVXVXVXVXVXVXVXVXVXVXVXVXVXVXVXVXVXVXVXVXVXVXVXVXVXVXVXVXVXVXVXVXVXVXVXVXVXVXVXVXVXVXVXVXVXVXVXVXVXVXVXVXVXVXVXVXVXVXVXVXkXkXkXkXkXVXkXkXkXkXVXVXkXkXkXkXkXkXkXkXkXkXkXkXkXkXkXkXkXkXkXkXkXkXkXkXpXpXpXpXpXpXpXpXpXpXkXkXpXpXpXpXpXpXpXpXpXpXpXpXpXpXpXpXiXiXpXpXiXiX0X0X9X9X0X9X6X=X|  .( | vXpXiX8X8X8X7X7X7X7X7X7X7X7X5X5X5X5X5X5X5X5X3X3X3X3X3X1X3X1X1X1X1X3X1X1X1X1X1X1X1X1X<X:X1XN.>.<X1X;X^.M.Y.<X(.(.;X;X;X;X;X;X;X;X;X;X(.(.^.^.^.^.^.^.I.I.I.).P.%.4.(.I.I.N.N.P.P.P.P.v.l.k.j.k.f.y.8.7.=.I #.q.7.8.#.8.I.;X;X(.;X:X:X:X:X:X:X",
"3X3X3X3X1X1X1X1X1X1X<XI.8.8.8.8.,.,.v.8.,.e.t.y.j.k.k.l.N.I.I.P.P.M.N.^.I.^.n.Y j 0.I.I.I.I.^.^.^.^.^.^.^.(.;X;Xy.;.=.;.=.#.;.7.8.7.8.:Xn.k.aXY.7.G.1X<X1X1X<X:X;X:X1X1X3X3X3X3X3X3X3X3X3X3X3X3X7X7X7X7X7X7X7X7X7X7X7X7X8X7X7X7X8X7X1X7X9X5XuXS.|  .' ].tX0X0X0X0X0XiXiXiXiXiXiXpXpXpXpXpXpXpXpXpXpXpXpXpXpXpXpXpXkXpXpXkXpXpXpXpXpXpXpXkXkXkXkXkXkXkXkXkXkXkXkXkXkXkXkXkXkXkXkXkXkXVXVXkXkXkXkXVXVXVXVXVXVXVXVXVXVXVXVXVXVXVXVXkXkXkXkXkXkXVXVXVXVXVXVXVXVXVXVXVXVXVXVXVXVXVXVXVXVXVXVXVXVXVXVXVXVXVXVXVXVXVXVXVXVXVXVXVXVXVXVXVXVXVXVXVXVXVXVXVXVXVXVXVXVXVXVXVXVXVXVXVXVXVXVXVXVXVXVXVXVXVXVXVXVXVXVXVXVXVXVXVXVXVXVXVXVXVXVXVXVXVXVXVXVXVXVXkXkXVXVXkXkXkXkXkXkXkXkXkXkXkXkXkXkXkXkXkXkXkXkXkXkXkXkXkXkXkXkXkXkXkXkXpXpXpXpXkXpXpXpXpXpXkXkXpXpXpXpXpXpXpXpXpXpXpXpXpXpXpXpXiXiXpXpXiXiXiXiX0X9X8X7X6X=X|  .( | vXsXiX8X8X8X7X7X7X7X7X7X7X7X5X5X5X5X5X5X5X5X3X3X3X3X3X1X3X3X1X1X3X3X1X1X1X1X1X1X1X1X<X:X1XN.>.<X1X;X(.e.0.P.(.(.;X;X;X;X;X;X;X;X;X;X(.(.^.^.^.^.^.^.P.I.I.P.P.%.4.(.I.I.N.N.P.P.P.P.v.l.k.j.k.f.y.8.7.#.#.;.#.;.3.#.8.I.;X;X;X;X:X:X:X:X:X:X",
"3X3X3X3X1X1X1X1X1X1X<XP.7.7.9.9.k.n.3Xn.,.e.t.t.j.k.k.l.N.I.I.P.P.N.N.^.I.^.G.Y j 0.I.I.I.I.^.^.^.^.^.^.^.(.;X;Xf.y.n.z.x.n.7.b.P.P.L.<XL.x.zX(.9.L.3X1X1X1X<X:X;X:X1X1X3X3X3X3X3X3X3X3X3X3X3X3X7X7X7X7X7X7X7X7X7X7X7X7X8X8X7X7X8X7X1X7X8X5XuX~.|  .^ .XiX0X0X0X0X0X0XiXiXiXiXiXpXpXpXpXpXpXpXpXpXpXpXpXpXpXpXpXpXpXpXpXkXkXkXpXpXpXpXpXkXkXkXkXkXkXkXkXkXkXkXkXkXkXkXkXkXkXkXkXkXkXkXkXkXkXkXkXVXVXVXVXkXkXkXkXVXVXkXkXVXVXVXVXkXVXVXVXVXVXVXVXVXVXVXVXVXVXVXVXVXVXVXVXVXVXVXVXVXVXVXVXVXVXVXVXVXVXVXVXVXVXVXVXVXVXVXVXVXVXVXVXVXVXVXVXVXVXVXVXVXVXVXVXVXVXVXVXVXVXVXVXVXVXVXVXVXVXVXVXVXVXVXVXVXVXVXVXVXVXVXVXVXVXkXkXVXVXVXVXVXVXVXVXVXVXVXVXkXkXkXkXVXkXkXkXkXkXkXkXkXkXkXkXkXkXkXkXkXkXkXkXkXkXkXkXkXkXkXkXkXkXkXkXpXpXpXpXkXkXkXpXpXpXpXkXpXpXpXpXpXpXpXpXpXpXpXpXpXpXpXpXiXpXpXpXiXiXiXiX9X0X8X7X6X=X|  .( | mXpXiX9X8X8X7X7X7X7X7X7X7X7X5X5X5X5X5X5X5X5X3X3X3X3X3X1X1X1X1X1X3X1X1X1X1X<X1X1X1X1X<X:X<XM.>.2X1X;X;X;.@.n.(.(.(.(.;X;X;X;X;X;X;X;X(.(.^.^.^.^.^.^.I.I.I.P.U.%.4.(.I.I.N.N.P.P.P.P.v.l.k.j.k.f.y.8.;.T A z i I =.%.8.I.;X;X;X:X:X:X:X:X:X:X",
"3X3X3X3X1X1X1X1X1X1X<XP.;.;.,.,.t.P.5XP.,.e.t.y.j.k.k.l.N.I.I.P.P.T.N.^.I.^.n.Y j 0.I.I.I.^.^.^.^.^.^.^.^.(.;X;Xl.k.<Xz.P.(.v.(.(.<X<X<Xn.k.zX(.7.n.2X:X1X1X<X:X:X1X1X1X1X3X3X3X3X3X3X3X3X3X3X3X7X7X7X7X7X7X7X7X7X7X7X7X8X8X7X7X7X7X1X7X8X5XuX{ |  .^ .XiX9X0X9X0X0X0X0XiXiXiXiX0XpXpXpXpXpXpXpXpXpXpXpXpXpXpXpXpXpXpXpXkXkXpXpXpXpXpXpXkXkXkXkXkXkXkXkXkXkXkXkXkXkXkXkXkXkXkXkXkXkXkXkXkXkXkXkXkXkXVXVXVXkXkXkXkXkXkXkXVXVXVXVXVXVXVXVXVXVXVXVXVXVXVXVXVXVXVXVXVXVXVXVXVXVXVXVXVXVXVXVXVXVXVXVXVXVXVXVXVXVXVXVXVXVXVXVXVXVXVXVXVXVXVXVXVXVXVXVXVXVXVXVXVXVXVXVXVXVXVXVXVXVXVXVXVXVXVXVXVXVXVXVXVXVXVXVXVXVXVXVXkXkXkXkXVXkXVXVXVXVXVXVXVXVXVXVXkXkXkXkXkXkXkXkXkXkXkXkXkXkXkXkXkXkXkXkXkXkXkXkXkXkXkXkXkXkXkXkXkXkXkXkXpXpXpXpXkXkXkXpXpXpXkXkXpXpXpXpXpXpXpXpXpXpXpXpXpXpXpXpXiXiXpXpXiXiXiXiX0X0X9X7X6X=X|  .( | mX0X9X8X8X8X7X7X7X7X7X7X7X7X5X5X5X5X3X3X5X5X3X3X3X3X3X1X1X1X1X1X3X1X1X1X<X<X1X1X1X1X<X:X<XM.>.<X1X<X(.&.P n.(.(.(.(.(.(.;X;X;X;X;X;X(.(.^.^.^.^.^.^.I.I.I.P.U.%.4.(.I.I.N.N.P.P.P.P.v.l.k.j.k.f.y.8.7.C i z t P #.Y 8.I.(.;X;X:X:X<X<X:X:X:X",
"3X3X3X3X1X1X1X1X1X1X;XM.,.=.=.#.,.N.8X;X8.e.y.f.f.j.k.l.M.P.N.N.P.P.I.I.I.(.n.P s 0.T.^.I.^.^.^.^.^.^.^.^.(.;X;Xl.j.(.#.L.I.n.).P.P.(.<Xn.k.iXY.3.b.<X:X1X1X1X<X:X1X1X1X3X3X3X3X3X3X3X3X3X3X3X3X7X7X7X7X7X7X7X7X7X7X7X7X9X9X7X7X7X7X3X3X3X4XjX' } } ~ .X5X9X9XiXiX0X0X0XpXpXiXiXiXiXpXpXpXpX0X0XpXpXpXpXpXpX0XpXpXpXpXpXpXpXpXpXpXpXpXpXpXpXpXpXpXpXpXpXkXkXkXkXkXkXkXkXkXkXkXkXkXkXkXkXkXkXkXkXkXkXkXkXkXkXkXkXkXkXkXkXkXkXkXkXVXVXVXVXVXVXVXVXkXkXkXkXVXVXVXVXVXVXVXVXVXVXVXVXVXVXVXVXVXVXVXVXVXVXVXVXVXVXVXVXVXVXVXVXVXVXVXVXVXVXVXVXVXVXVXVXVXVXVXVXVXVXVXVXVXVXVXVXVXVXVXVXVXVXkXkXkXkXVXVXVXVXVXVXVXVXVXVXVXVXVXVXVXfXfXVXVXkXkXkXVXVXVXVXkXkXkXkXkXkXkXkXkXkXkXkXkXkXkXkXkXkXkXkXkXkXkXkXkXkXkXkX0X0XkXkXpXpXpXpXpXpXpXpXpXpXpXpXpXpXpXpXpXpXpXpXpXpXpXpXpXpXpXpX0X0X0X0X0X0X0X0X0X0X0X0X0X0XqX9X6X=X| } ( { hX9X9X9X8X7X8X8X7X7X7X7X7X7X7X7X7X7X3X3X3X3X3X3X3X3X3X1X1X1X1X1X1X1X1X1X1X<X1X1X1X1X<X:X<XM.&.<X<X<XY.&.@.n.;X;X-X-X^.^.(.;X;X;X;X(.-X^.^.^.^.^.^.I.I.I.I.I.P.Y -.(.P.I.N.M.P.P.P.P.n.l.k.g.k.f.y.8.;.#.,.=.h o.P S ;.I.^.:X;X;X;X;X>X>X>X>X",
"3X3X3X3X1X1X1X1X1X1X;XM.;.#.O.T =.b.3X-X8.e.t.j.f.j.k.l.M.P.N.N.P.P.I.I.I.(.n.P s 9.P.^.I.^.^.^.^.^.^.^.^.(.;X;Xg.j.b.P z.n.k.t.f.t.k.n.z.z.aX(.3.b.1X1X1X1X1X1X1X1X1X1X3X3X3X3X3X3X3X3X3X3X3X3X7X7X7X7X7X7X7X7X7X7X7X7X9X9X7X7X7X7X3X3X3X4XoX{ ....~ .X9X9X9XiX0X0X0X0XpXpXiXiXiXiXpXpXpXpX0X0X0X0XpXpXpXpX0X0XpXpXpXpXpXpXpXpXpXpXpXpXpXpXpXpXpXpXpXpXkXkXkXkXkXkXkXkXkXkXkXkXkXkXkXkXkXkXkXkXkXkXkXkXVXVXkXkXkXkXkXkXkXkXkXkXVXVXVXVXVXVXVXVXkXkXVXkXVXVXVXVXVXVXVXVXVXVXVXVXVXVXVXVXVXVXVXVXVXVXVXVXVXVXVXVXVXVXVXVXVXVXVXVXVXVXVXVXVXVXVXVXVXVXVXVXVXVXVXVXVXVXVXVXVXVXVXVXVXVXkXkXVXkXVXVXVXVXVXVXVXVXVXVXVXVXVXVXVXfXfXVXVXkXkXkXVXVXVXVXkXkXkXkXkXkXkXkXkXkXkXkXkXkXkXkXkXkXkXkXkXkXkXkXkXkXkXkX0X0XkX0XpXpXpXpXpXpXpXpXpXpXpXpXpXpXpXpXpXpXpXpXpXpXpXpXpXpXpXpX0X0X0X0X0X0X0X0X0X0X9X0X0X0XqX9X6XXX| } ( { hXqX9X8X7X7X7X7X7X7X7X7X7X7X3X3X3X3X3X3X3X3X3X3X3X3X3X1X1X1X1X1X1X1X1X1X1X1X1X1X1X1X<X:X<XM.&.<X<X<XY.&.@.n.;X;X;X-X^.^.(.;X;X;X;X(.(.^.^.^.^.^.^.I.I.I.I.I.P.Y -.(.I.I.N.M.P.P.P.P.n.l.k.g.k.f.y.8.=.=.8.O.k P A j P P.;X;X;X;X;X;X>X>X>X>X",
"7X3X3X3X1X1X1X1X1X1X;XM.#.O.O.T =.z.1X;X7.8.t.f.f.j.k.l.M.P.N.N.P.P.I.I.I.(.b.L s 0.T.-XI.^.^.^.^.^.^.^.^.(.;X;Xf.k.b.8.b.n.b.e.t.:.:.8.b.b.zX(.;.b.1X1X1X1X1X1X1X1X1X1X3X3X3X3X3X3X3X3X3X3X3X3X7X7X7X7X7X7X7X7X7X7X7X7X9X9X7X9X9X9X7X7X7X3XjX~...../ oX9X7X0XiX0X0X0X0XpXpXiXiXiXiXiXpXpXpX0XpX0X0XpXpXpXpXpX0XpXpXpXpXpXpXpXpXpXpXpXpXpXpXpXpXpXpXpXpXkXkXkXkXkXkXkXkXkXkXkXkXkXkXkXkXkXkXkXkXkXkXkXkXkXkXkXkXkXkXkXkXkXkXkXkXkXkXVXVXVXVXVXVXVXVXVXVXVXVXVXVXVXVXVXVXVXVXVXVXVXVXVXVXVXVXVXVXVXVXVXVXVXVXVXVXVXVXVXVXVXVXVXVXVXVXVXVXVXVXVXVXVXVXVXVXVXVXVXVXVXVXVXVXVXVXVXVXVXVXVXVXVXVXVXVXVXVXVXVXVXVXVXVXVXVXVXVXVX0X7X>XVXkXkXkXVXVXVXVXkXkXkXkXkXkXkXkXkXkXkXkXkXkXkXkXkXkXkXkXkXkXkXkXkXkXkXkX0X0X0X0XpXpXpXpXpXpXpXpXpXpXpXpXpXpXpXpXpXpXpXpXpXpXpXpXpXpXpXpX0X0X0X0X0X0X0X0X0X9X0X0X0X0XqX9X6XoX| } ` | hXqX8X8X7X7X7X7X7X7X7X7X7X7X3X3X3X3X3X3X3X3X3X3X3X3X3X1X1X1X1X1X1X1X1X1X1X1X1X1X1X1X<X:X<XM.&.;X<X<XY.3.&.M.;X-X-X-X^.^.(.;X;X;X;X-X-X(.^.^.^.^.^.I.I.I.I.I.P.Y -.(.P.I.N.M.N.N.P.P.n.l.k.g.f.f.y.8.#.9.e.O.h +.A a P I.:X^.;X;X;X;X>X>X1X>X",
"7X3X3X3X1X1X1X1X1X1X;XM.$.O.#.#.=.z.5X1X8.8.t.f.j.j.j.l.M.P.N.N.L.P.I.I.I.(.b.L s 9.P.-XI.^.^.^.^.^.^.^.^.(.;X;Xt.k.b.(.(.I.I.P.).m.N.<XL.b.aX(.-.b.1X1X1X1X1X1X1X1X1X1X3X3X3X3X3X3X3X3X3X3X3X3X7X7X7X7X7X7X7X7X7X7X7X7X9X7X7X9X9X9X7X7X3X3XjX~.....^ oXtX8X0XiX0X0X0X0X0X0XiXiXiXiXiXiXpXpXpXpX0XpXpXpXpXpXpX0XpXpXpXpXpXpXpXpXpXpXpXpXpXpXpXpXpXpXpXpXkXkXkXkXkXkXkXkXkXkXkXkXkXkXkXkXkXkXkXkXkXkXkXkXkXkXkXkXkXkXVXVXkXkXkXkXkXkXVXVXVXVXVXVXVXVXVXVXVXVXVXVXVXVXVXVXVXVXVXVXVXVXVXVXVXVXVXVXVXVXVXVXVXVXVXVXVXVXVXVXVXVXVXVXVXVXVXVXVXVXVXVXVXVXVXVXVXVXVXVXVXVXVXVXVXVXVXVXVXVXVXVXVXVXVXVXVXVXVXVXVXVXVXVXVXVXVXVXVXpX7X;XpXVXkXkXVXVXVXVXkXkXkXkXkXkXkXkXkXkXkXkXkXkXkXkXkXkXkXkXkXkXkXkXkXkXkXkX0X0X0X0XpXpXpXpXpXpXpXpXpXpXpXpXpXpXpXpXpXpXpXpX0XpXpXpXpXpXpXpX0X0X0X0X0X0X0X0X0X0X9X9X0X0XqX9X8XoX| } ` { hXqX7X7X7X7X7X7X7X7X7X7X7X7X3X3X3X3X3X3X3X3X3X3X3X3X3X1X1X1X1X1X1X1X1X1X1X1X1X1X1X1X:X:X<XM.&.;X<X<XY.7.,.I.;X;X-X-X^.^.(.;X;X;X;X-X-X^.^.^.^.^.^.I.I.I.I.I.P.Y -.(.P.I.N.M.N.T.T.T.n.v.k.g.f.f.y.8.&.8.e.#.g O.P h &.(.;X^.;X;X;X;X>X>X1X>X",
"7X7X1X1X1X1X1X1X1X1X:XI.,.=.=.=.,.l.1X1X,.8.e.f.j.j.j.k.M.P.I.P.(.Y.N.I.^.I.b.Y s 9.P.^.(.(.^.^.^.^.^.^.^.I.^.:Xf.y.H.G.Y.(.P.l.m.P.N.).b.n.aX(.-.b.1X1X1X1X1X1X1X1X1X1X3X3X3X3X3X3X3X3X3X3X3X3X7X7X7X7X7X7X7X7X7X7X7X7X9X9X7X7X9X9X7X7X7X6XjX~...| ^ +XrX7X9X0X0X0X0X0XiXiXiXiXiXiXiXiXpXpX0X0XpXpXpXpXpXpXpXpXpXpXpXpXpXpXpXpXpXpXpXpXpXpXpXpXpXpXpXpXkXkXkXkXkXkXkXkXkXkXkXkXkXkXkXkXkXkXkXkXkXkXkXkXkXkXkXkXkXkXkXkXkXkXVXVXkXkXkXkXkXkXkXkXVXVXVXVXVXVXkXkXVXkXVXVXVXVXVXVXVXVXVXVXVXVXVXVXVXVXVXVXVXVXVXVXVXVXVXVXVXVXVXVXVXVXVXVXVXVXVXVXVXVXVXVXVXVXVXVXVXVXVXVXVXVXVXVXkXkXkXVXVXVXVXVXkXVXVXVXkXkXkXkXVXVXVXfXfXfXfXfXpXkXkXVXkXkXkXkXkXkXkXkXkXkXkXkXkXkXkXkXkXkXkXkXkXkXkXkXkXkXkXkXkXkXkXkXkXpXpXpXpXpXpXpXpXpXpXpXpXpXpXpXpXpXpXpXpXpXpXpX0X0X0X0X0X0X0X0X0X0X0X0X0X0X0X0X0X0X0X0X0X9XqX9X5XoX| } ( | hXqX9X9X7X7X8X8X7X7X7X7X7X7X7X7X7X3X3X3X3X3X3X3X3X3X3X1X1X1X1X1X1X1X1X1X1X1X1X1X1X1X:X:X2Xv.&.(.:X:X(.T.N.^.;X;X;X-X-X^.;X(.;X;X;X;X(.-X^.^.^.^.^.I.I.I.I.I.P.T ;.^.I.I.N.M.P.P.P.P.v.z.k.f.f.f.y.8.#.8.k.O.x I A h t.(.^.;X;X;X:X:X>X>X1X1X",
"7X7X1X1X1X1X1X1X1X1X:XI.;.=.=.=.,.l.1X1X7.8.e.f.j.j.j.k.M.P.I.I.I.L.b.n.^.I.n.Y s 9.P.^.(.(.^.^.^.^.^.^.^.I.-X:Xf.y.b.-.t.Y.I.:.8.k.k.k.e.P.sX'.%.b.1X1X1X1X1X1X1X1X1X1X3X3X3X3X3X3X3X3X3X3X3X3X7X7X7X7X7X7X7X7X7X7X7X7X9X9X7X7X7X7X7X7X7X6XjX~...| ' +XrX9X9X0X0X0X0X0X0X0X0X0X0XiXiXiXpXpX0X0XpXpXpXpXpXpXpXpXpXpXpXpXpXpXpXpXpXpXpXpXpXpXpXpXpXpXpXpXkXkXkXkXkXkXkXkXkXkXkXkXkXkXkXkXkXkXkXkXkXkXkXkXVXkXkXkXkXkXVXVXkXkXkXkXkXkXkXkXkXkXkXVXVXVXkXkXVXVXkXVXVXVXVXkXVXVXVXVXVXVXVXVXVXVXVXVXVXVXVXVXVXVXVXVXVXVXVXVXVXVXVXVXVXVXVXVXVXVXVXVXVXVXVXVXVXVXVXVXVXVXVXVXVXVXVXVXkXkXVXVXVXVXVXVXkXkXkXkXkXkXkXkXVXVXVXfXfXfXfXfXkXkXkXkXkXkXkXkXkXkXkXkXkXkXkXkXkXkXkXkXkXkXkXkXkXkXkXkXkXkXkXkXkXkXkXkXkXpXpXpXpXpXpXpXpXpXpXpXpXpXpXpXpXpXpXpXpXpXpXpX0X0X0X0X0X0X0X0X0X0X0X0X0X0X0X0X0X0X0X0X9X9XqX9X5XoX| } ( | hXqX9X9X7X7X8X8X7X7X7X7X7X7X7X7X7X3X3X3X3X3X3X3X3X3X3X1X1X1X1X1X1X1X1X1X1X1X1X1X1X1X:X:X2Xv.=.;X:X:X;X;X(.;X;X;X;X-X-X-X;X(.;X;X(.(.(.(.^.^.^.^.^.I.I.I.I.I.P.T ;.^.I.I.N.M.P.P.P.P.v.z.k.f.j.j.y.9.=.t.v.O.h I I z t.(.^.;X;X;X;X;X>X>X1X1X",
"7X7X1X1X1X1X1X1X1X1X:XI.;.=.:.:.7.l.1X1X7.8.e.f.k.z.k.l.M.P.I.I.Y.I.M.N.^.I.n.Y s 9.P.^.(.(.^.^.-X-X^.^.^.^.;X1Xf.k.b.y.t.n.n.8.P.(.N.v.7.Y.sX'.%.b.1X1X1X1X1X1X1X1X1X1X3X3X3X3X3X3X3X3X3X3X3X3X7X7X7X7X7X7X7X7X7X7X7X7X9X7X7X7X9X9X7X7X7X5XjX~... .' +XrX7X9X8X9X0X0X0X0X0X0X0X0X0XiXiXiXiX0X0XpXpX0X0XpXpXpXpXpXpXpXpXpXpXpXpXpXpXpXpXpXpXpXpXpXpXpXpXkXkXkXkXkXkXkXkXkXkXkXkXkXkXkXkXkXkXkXkXkXkXkXkXkXVXkXkXkXkXkXkXkXkXkXkXkXkXkXkXkXkXkXkXVXkXkXkXVXVXVXVXVXVXVXVXVXVXVXVXVXVXVXVXVXVXVXVXVXVXVXVXVXVXVXVXVXVXVXVXVXVXVXVXVXVXVXVXVXVXVXVXVXVXVXVXVXVXVXVXVXVXVXVXVXVXVXVXkXkXVXVXVXVXkXkXkX0X0XkXkXkXkXkXVXVXVXfXfXfXfXfXkXkXkXkXkXkXkXkXkXkXkXkXkXkXkXkXkXkXkXkXkXkXkXkXkXkXkXkXkXkXkXkXkXkXkXkXkXkXpXpXpXpXpXpXpXpXpXpXpXpXpXpXpXpXpXpXpXpXpXpX0X0X0X0X0X0X0X0X0X0X0X0X0X0X0X0X0X0X0X0X9X9XqX9X5XoX| } ( | hXqX9X8X7X7X8X8X7X7X7X7X7X7X7X7X7X3X3X3X3X3X3X3X3X3X3X1X1X1X1X1X1X1X1X1X1X1X1X1X1X1X:X:X1Xb.;.:X;X;X^.-X(.^.-X;X;X;X;X;X(.(.(.(.(.(.(.(.^.^.^.^.^.I.I.I.I.I.P.T ;.^.I.I.N.N.P.N.P.P.v.z.k.f.f.j.y.e.=.f.n.#.h I P C t.(.^.;X;X;X;X;X>X>X1X1X",
"7X7X1X1X1X1X1X1X1X1X:X^.=.#.;.;.7.l.1X1X7.8.e.f.k.z.z.v.M.P.I.I.L.P.N.^.^.I.n.Y h 9.P.^.(.(.^.^.-X^.^.^.(.-X;X1X8.y.I.'.(.G.z.H.<X<X(.(.j.Y.sX(.%.b.1X1X1X1X1X1X1X1X1X1X3X3X3X3X3X3X3X3X3X3X3X3X7X7X7X7X7X7X7X7X7X7X7X7X9X7X7X7X9X9X7X7X7X6XjX~... .' +XrX7X9X8X9X0X0X0X0X0X0X0X0X0XiXiXiXiX0X0XpX0X0X0XpXpXpXpXpXpXpXpXpXpXpXpXpXpXpXpXpXpXpXpXpXpXpXpXkXkXkXkXkXkXkXkXkXkXkXkXkXkXkXkXkXkXkXkXkXkXkXkXkXkXkXkXkXkXkXkXkXkXkXkXkXkXkXkXkXkXkXkXVXkXkXkXVXVXVXVXVXVXkXVXVXVXVXVXVXVXVXVXVXVXVXVXVXVXVXVXVXVXVXVXVXVXVXVXVXVXVXVXVXVXVXVXVXVXVXVXVXVXVXVXVXVXVXVXVXVXVXVXVXVXVXVXkXkXkXVXVXVXVXVXkX0X0XkXVXkXkXkXVXVXVXfXfXfXfXfXkXkXkXkXkXkXkXkXkXkXkXkXkXkXkXkXkXkXkXkXkXkXkXkXkXkXkXkXkXkXkXkXkXkXkXkXkXkXpXpXpXpXpXpXpXpXpXpXpXpXpXpXpXpXpXpXpXpXpXpX0X0X0X0X0X0X0X0X0X0X0X0X0X0X0X0X0X0X0X0X9X9X9X9X5XoX| } ( | hXqX9X9X7X7X8X8X7X7X7X7X7X7X7X7X7X3X3X3X3X3X3X3X3X3X3X1X1X1X1X1X1X1X1X1X1X1X1X1X1X1X:X:X1Xb.;.:X;X;X;X(.^.;X;X;X;X;X-X;X(.(.(.(.(.(.(.(.^.^.^.^.^.I.I.I.I.I.P.T ;.^.I.I.N.N.P.N.P.P.v.z.k.f.f.j.y.e.#.y.v.O.x I P N t.(.^.;X;X;X;X;X>X>X1X1X",
"7X7X1X1X1X1X1X1X1X1X<X^.;.#.;.;.7.l.1X1X7.8.t.a.j.k.z.b.n.I.I.I.I.M.N.^.^.I.H.T j t.I.^.(.(.(.^.^.^.^.^.;X;X:X<X8.e.<X(.U.b.z.P././././.b.(.iX:X%.b.1X1X1X1X1X2X1X1X1X1X3X3X3X3X3X3X3X3X3X3X3X3X7X7X7X7X7X7X7X7X7X7X9X9X7X7X7X7X9X9X9X8X7X5XjX~... .' +XrX8X9X0X0X0X0X0X0X0X0X0X0X0X0X0X0X0X0X0XpXpXpXpXpXpXpXpXpXpXpXpXpXpXpXpXpXpXpXpXpXpXpXpXpXpXpXpXpXpXpXpXkXkXkXkXkXkXkXkXkXkXkXkXkXkXkXkXkXkXkXVXkXkXkXkXkXkXkXkXkXkXkXkXVXVXkXkXkXkXkXVXVXVXVXkXVXVXVXVXVXVXVXVXVXVXVXVXVXVXVXVXVXVXVXVXVXVXVXVXVXVXVXVXVXVXVXVXVXVXVXVXVXVXVXVXVXVXVXVXVXVXVXVXVXVXVXVXkXkXVXVXVXVXVXkXkXkXkXVXVXkXkXkXkX0X0XkXkXkXkXkXkXkXkXkXkXkXkXkXkXkXkXkXkXkXkXkXkXkXkXkXkXkXkXkXkXkXkXkXkXkXkXkXkXkXkXkXkXkXkXkXkXkXkXkXpXpXpXpXpXpXpXpXpXpXpXpXpXpXpXpXpXpXpX0X0X0X0XpX0X0X0X0X0X0X0X0X0X0X0X0X0X0X0X0X0X9X9X9X0X8X8X8X8XoX| } ( | hXqX8X8X7X9X7X7X7X7X7X7X7X7X7X7X7X7X3X3X3X3X3X3X3X3X3X1X1X1X1X1X1X1X1X1X1X1X1X1X<X<X:X:X1Xl.,.<X;X;X;X;X-X;X;X;X;X;X;X;X;X;X;X;X(.(.^.^.^.^.^.^.^.I.I.I.I.I.I.T 4.(.I.I.P.N.P.P.P.^.n.j.k.j.j.y.y.r.#.t.N.O.k P I z t.(.^.(.;X;X;X;X;X>X1X1X",
"7X7X7X1X1X1X1X1X1X1X<X^.;.&.7.;.7.l.1X1X7.8.t.a.j.k.z.v.M.I.I.I.I.L.P.^.^.I.H.T j t.I.^.(.(.(.^.^.^.^.^.;X;X:X:Xt.t.L.7.4.T #.#.Y a.z.5.r.2X5XY.T z.2X<X1X3X5X4X1X1X1X1X3X3X3X3X3X3X3X3X3X3X3X3X7X7X7X7X7X7X7X7X7X7X9X9X7X7X7X7X9X9X9X8X7X5XjX~... .' +XrX8X9X0X0X0X0X0X0X0X0X0X0X0X0X0X0X0X0X0XpXpXpXpXpXpXpXpXpXpXpXpXpXpXpXpXpXpXpXpXpXpXpXpXpXpXpXpXpXpXpXpXkXkXkXkXkXkXkXkXkXkXkXkXkXkXkXkXkXkXkXVXkXkXkXkXkXkXkXkXkXkXkXkXkXkXkXkXkXVXkXkXVXVXVXkXVXVXVXVXkXkXVXkXVXVXVXVXVXVXVXVXVXVXVXVXVXVXVXVXVXVXVXVXVXVXVXVXVXVXVXVXVXVXVXVXVXVXVXVXVXVXVXVXVXVXVXVXkXkXVXVXVXVXkXkXkXkXkXVXVXVXVXkXkXkXkXkXkXkXkXkXVXkXkXkXkXkXkXkXkXkXkXkXkXkXkXkXkXkXkXkXkXkXkXkXkXkXkXkXkXkXkXkXkXkXkXkXkXkXkXkXkXkXkXkXpXpXpXpXpXpXpXpXpXpXpXpXpXpXpXpXpXpXpXpX0X0XpXpX0X0X0X0X0X0X0X0X0X0X0X0X0X0X0X0X0X9X9X9X0X0X8X8X8XoX| } ( | hXqX7X8X7X9X7X7X7X7X7X7X7X7X7X7X7X7X3X3X3X3X3X3X3X3X1X1X1X1X1X1X1X1X1X1X1X1X:X<X<X<X<X:X1Xx.q.<X;X;X;X^.^.^.;X;X;X;X;X;X;X;X;X;X(.(.^.^.^.^.^.^.^.I.I.I.I.I.I.T 4.(.I.I.N.N.P.P.P.^.M.k.k.j.j.f.p.r.=.t.N.O.k Z I z y.(.^.;X;X;X;X;X;X>X1X1X",
"7X7X7X1X1X1X1X1X1X1X<X^.;.#.7.;.8.l.1X1X7.8.t.a.j.k.z.v.M.I.I.I.I.I.I.^.^.I.H.T j t.I.^.(.(.(.^.-X-X;X;X;X;X:X:X8.c.l.g 9.a.4.r.r.i.i.r T '.5XU.%.z.3X1X3X1X1X1X1X1X1X1X3X3X3X3X3X3X3X3X3X3X3X3X7X7X7X7X7X7X7X7X7X7X9X9X7X7X7X7X9X9X7X7X7X5XjX~... .' +XrX8X9X0X0X0X0X0X0X0X0X0X0X0X0X0X0X0X0X0XpXpXpXpXpXpXpXpXpXpXpXpXpXpXpXpXpXpXpXpXpXpXpXpXpXpXpXpXpXpXpXpXkXkXkXkXkXkXkXkXkXkXkXkXkXkXkXkXkXkXkXkXkXkXVXVXkXkXkXkXVXVXkXkXkXkXkXkXkXkXkXkXVXVXkXkXVXkXVXVXVXkXkXkXkXkXVXVXVXVXVXVXVXVXVXVXVXVXVXVXVXVXVXVXVXVXVXVXVXVXVXVXVXVXVXVXVXVXVXVXVXVXVXVXVXVXVXVXkXVXVXVXVXVXkXkXkXkXVXVXVXVXVXkXkXkXVXkXkXkXkXkXVXkXkXkXkXkXkXkXkXkXkXkXkXkXkXkXkXkXkXkXkXkXkXkXkXkXkXpXpXpXkXkXkXkXkXkXkXkXkXkXkXkXkXkXpXpXpXpXpXpXpXpXpXpXpXpXpXpXpXpXpXpXpXpXpXpXpXpX0X0X0X0X0X0X0X0X0X0X0X0X0X0X0X0X0X9X9X9X0X0X8X8X8XoX| } ( | hXqX7X7X7X9X7X7X7X7X7X7X7X7X7X7X7X7X3X3X3X3X3X3X3X3X1X1X1X1X3X1X3X1X1X1X1X1X:X<X<X<X<X<X1Xl.7.<X;X^.;X^.^.(.(.;X;X;X;X;X;X;X;X;X(.^.^.^.^.^.^.^.^.I.I.I.I.I.I.T 4.(.I.I.P.N.P.P.P.^.N.k.z.k.j.f.p.t.=.t.N.o.k Z I z p.(.;X;X;X;X;X;X;X>X1X1X",
"7X7X7X1X1X1X1X1X1X1X<X^.;.#.7.;.8.l.1X1X8.8.t.a.j.k.z.v.M.P.I.I.I.^.^.^.^.I.H.T j t.I.I.(.(.(.^.^.-X;X;X;X;X:X>X8.M.-X#.a.H.H.H./.H.z.s T 4X5XU.%.z.6X3X3X1X;X(.1X1X1X1X3X3X3X3X3X3X3X3X3X3X3X3X7X7X7X7X7X7X7X7X7X7X9X9X9X7X7X7X9X9X8X7X7X3XjX~... .' +XrX8X9X0X0X0X0X0X0X0X0X0X0X0X0X0X0X0X0X0XpXpXpXpXpXpXpXpXpXpXpXpXpXpXpXpXpXpXpXpXpXpXpXpXpXpXpXpXpXpXpXpXkXkXkXkXkXkXkXkXkXkXkXkXkXkXkXkXkXkXkXkXkXkXkXkXVXVXkXkXkXkXkXkXkXkXkXkXkXkXkXkXVXVXkXkXVXVXVXVXkXkXVXkXkXkXVXVXVXVXVXVXVXVXVXVXVXVXVXVXVXVXVXVXVXVXVXVXVXVXVXVXVXVXVXVXVXVXVXVXVXVXVXVXVXVXVXVXkXVXVXVXVXkXkXkXkXVXVXVXVXVXVXVXkXkXVXkXkXkXkXVXkXkXkXkXkXkXkXkXkXkXkXVXkXkXkXkXkXkXkXkXkXkXkXkXkXkXkXpXpXpXkXkXkXkXkXkXkXkXkXkXkXkXkXkXpXpXpXpXpXpXpXpXpXpXpXpXpXpXpXpXpXpXpXpXpXpXpXpX0X0X0X0X0X0X0X0X0X0X0X0X0X0X0X0X0X9X9X9X0X0X8X8X8XoX| } ( | hXqX7X7X7X9X7X7X7X7X7X7X7X7X7X7X7X7X3X3X3X3X3X3X3X3X1X1X1X1X3X3X3X1X1X1X1X1X:X<X<X<X<X<X1Xl.7.2X;X(.;X^.I.^.;X;X;X;X;X;X;X;X;X;X;X(.^.^.^.^.^.^.^.I.I.I.I.I.I.T 7.(.I.I.P.L.P.P.P.^.N.k.z.k.j.f.p.r.;.f.N.P k Z A z p.(.;X:X;X;X;X;X;X>X1X1X",
"7X7X7X7X3X3X3X3X1X1X<XI.;.#.3.;.8.l.1X1X8.t.f.a.j.k.z.v.M.T.I.I.M.M.N.^.^.I.H.#.l y.I.I.(.(.-X-X;X;X-X^.^.;X:X:Xg.B.5XI.%.B T r.r.#.U.-.#.3XiXY.%.b.6X3X3X1X:X(.2X1X3X3X3X3X3X3X3X3X3X3X3X3X3X3X7X7X7X7X7X7X7X7X7X7X7X7X9X9X9X9X7X7X7X8X7X7XjX~... .' .XrX8X9X0X0X0X0X0X0X0X0X0X0X0X0X0X0X0X0X0XpXpXpXpXpXpXpXpXpXpXpXpXpXpXpXpXpXpXpXpXpXpXpXpXpXpXpXpXpXpXpXpXkXkXkXkXkXkXkXkXkXkXkXkXVXkXkXkXkXkXkXkXkXkXkXkXVXkXkXkXkXkXkXkXkXkXkXkXkXkXkXkXkXkXkXkXkXkXkXkXkXkXkXkXkXkXVXVXVXVXVXVXVXVXVXVXVXVXVXVXVXVXVXVXVXVXVXVXVXVXVXVXVXVXVXVXVXVXVXVXVXVXVXVXkXkXVXVXVXVXVXVXVXVXVXVXVXVXVXVXVXVXVXVXkXVXVXVXkXkXkXkXkXkXkXkXkXkXkXkXkXkXkXkXkXkXkXVXkXkXkXkXkXkXkXkXkXkXkXpXpXpXpXkXkXkXkXkXkXkXkXkXpXpXpXpXpXpXpXpXpXpXpXpXpXpXpXpXpXpXpXpXpXpXpXpXpXpXpXpX0X0X0X0X0X0X0X0X0X0X0X0X0X0X0X0X0X9X9X9X9X9X9X9X7XoX| } ( | hXqX7X7X7X8X7X7X7X7X7X7X7X7X7X7X7X7X3X3X3X3X3X3X3X3X1X3X3X1X1X1X1X1X1X1X1X1X1X1X<X<X:X:X1Xx.8.2X;X;X;X^.^.;X;X;X;X;X;X;X;X;X;X;X;X(.(.^.^.^.^.^.^.I.I.I.^.^.P.T 7.(.I.I.P.L.L.L.P.I.N.k.x.z.j.j.y.0.=.f.M.I g Z Z z j.;X;X:X;X;X;X;X>X>X>X1X",
"7X7X3X1X1X1X1X1X1X1X<XI.;.#.q.;.7.l.1X1X8.t.f.a.f.k.z.v.M.P.I.I.M.M.P.^.^.I.H.#.l y.I.I.(.(.-X-X;X;X;X^.^.;X:X:Xf.T.8XL.r.[.R r.b.P /.z.&.1X9XY.%.b.6X3X3X1X<X<X2X1X3X3X3X3X3X3X3X3X3X3X3X3X3X3X7X7X7X7X7X7X7X7X7X7X9X7X9X9X9X9X7X7X7X8X7X5XjX~... .' .XrX8X9X0X0X0X0X0X0X0X0X0X0X0X0X0X0X0X0X0XpXpXpXpXpXpXpXpXpXpXpXpXpXpXpXpXpXpXpXpXpXpXpXpXpXpXpXpXpXpXpXpXkXkXkXkXkXkXkXkXkXkXkXkXVXkXkXkXkXkXVXVXkXkXkXkXkXkXkXkXkXkXkXkXkXkXkXkXkXkXkXkXkXkXkXkXkXkXVXVXVXkXkXkXkXkXVXVXVXVXVXVXVXVXVXVXVXVXVXVXVXVXVXVXVXVXVXVXVXVXVXVXVXVXVXVXVXVXVXVXVXVXVXVXVXVXVXVXVXVXVXkXVXVXVXVXVXVXVXVXVXVXVXVXkXkXkXVXkXkXkXkXkXkXkXkXkXkXkXkXVXVXkXkXkXkXVXVXkXkXkXkXkXkXkXkXkXkXpXpXpXpXpXpXkXkXkXkXkXkXkXkXpXpXpXpXpXpXpXpXpXpXpXpXpXpXpXpXpXpXpXpXpXpXpXpXpXpXpXpX0X0X0X0X0X0X0X0X0X0X0X0X0X0X0X0X0X9X9X9X9X9X9X9X7XoX| } ( { hXqX7X7X7X8X7X7X7X7X7X7X7X7X7X7X7X7X3X3X3X3X3X3X3X3X3X3X1X1X1X1X1X1X1X1X1X>X1X1X<X<X:X:X1Xx.8.<X:X:X;X;X;X;X;X;X;X;X;X;X;X;X;X;X;X(.(.^.^.^.^.^.^.I.I.I.^.^.P.T 9.(.I.I.T.L.L.L.P.I.M.k.l.k.j.j.y.9.=.f.M.I g Z Z z j.;X;X:X;X;X;X;X>X>X>X>X",
"7X7X3X1X1X1X1X1X1X1X:XI.;.#.3.;.7.l.1X1X8.t.f.a.j.k.z.b.M.P.I.I.N.N.I.(.^.I.L.#.l y.I.I.(.(.-X-X;X-X-X^.^.;X:X:Xt.n.<X7.r.b.B /.'.b.2XY.>.1X9X;X%.z.2X1X1X1X2X2X2X1X3X3X3X3X3X3X3X3X3X3X3X3X3X3X7X7X7X7X7X7X7X7X9X9X7X7X7X7X7X7X7X7X7X8X8X5XhX~... .' oXrX8X9X0X0X0X0X0X0X0X0X0X0X0X0X0X0X0X0X0XpXpXpXpXpXpXpXpXpXpXpXpXpXpXpXpXpXpXpXpXpXpXpXpXpXpXpXpXpXpXpXpXkXkXkXkXkXkXkXkXkXkXkXkXpXpXkXkXkXkXkXkXkXkXkXVXkXkXkXkXkXkXkXkXkXkXkXkXkXkXkXkXkXkXkXkXkXkXkXkXVXVXVXkXVXVXVXVXVXVXVXVXVXVXVXVXVXVXVXVXVXVXVXVXVXVXVXVXVXVXVXVXVXVXVXVXVXVXVXVXVXVXVXVXVXVXVXVXVXVXkXkXkXkXVXVXVXVXkXkXVXVXVXVXkXkXkXkXkXkXkXkXVXVXkXkXkXkXkXkXkXkXkXkXkXkXkXkXkXkXkXkXkXkXkXkXkXkXpXpXpXpXpXpXkXkXkXkXkXkXkXkXpXpXpXpXpXpXpXpXpXpXpXpXpXpXpXpXpXpXpXpXpXpXpXpXpX0X0XpX0X0X0X0X0X0X0X0X0X0X0X0X0X0X0X0X0X9X9X9X9X9X9X9X7XoX| } ( { hXqX7X7X7X8X7X7X7X7X7X7X7X7X7X7X7X7X3X3X3X3X3X3X3X3X1X1X1X1X1X1X1X3X1X1X>X>X1X1X<X<X:X:X1Xx.8.<X:X:X:X;X;X;X;X;X;X;X;X;X;X;X;X(.(.(.^.^.^.^.^.^.^.I.I.I.^.^.I.T 8.(.I.I.N.N.N.N.P.I.M.k.l.k.k.j.y.9.=.f.M.I g Z Z z f.;X;X:X:X;X;X;X>X>X>X>X",
"7X7X3X1X1X1X1X1X1X1X:XI.;.#.3.;.7.l.1X1X8.t.f.a.f.k.z.b.M.P.I.I.P.P.I.(.I.I.H.T l r.I.I.(.(.-X-X^.;X^.^.^.;X;X:Xt.M.2X;.k.r.4.2X<X(.1X(.>.1X9X<XT z.2X1X1X1X1X2X<X1X3X3X3X3X3X3X3X3X3X3X3X3X3X3X7X7X7X7X7X7X7X7X9X9X7X7X7X7X7X7X7X7X7X7X8X5XhX~...#X' oXrX8X9X0X0X0X0X0X0X0X0X0X0X0X0X0X0X0X0X0XpXpXpXpXpXpXpXpXpXpXpXpXpXpXpXpXpXpXpXpXpXpXpXpXpXpXpXpXpXpXpXpXkXkXkXkXkXkXkXkXkXkXkXpXpXpXpXpXkXkXkXkXkXkXkXkXkXkXkXkXkXkXkXkXkXVXVXkXkXkXkXkXkXkXkXkXkXkXkXkXVXVXVXVXVXVXVXVXVXVXVXVXVXVXVXVXVXVXVXVXVXVXVXVXVXVXVXVXVXVXVXVXVXVXVXVXVXVXVXVXVXVXVXVXVXVXVXVXkXVXVXkXkXVXVXVXkXkXkXkXVXVXVXVXkXkXkXkXkXkXkXkXVXkXkXkXkXkXkXkXkXkXkXkXkXkXkXkXkXVXVXkXkXkXkXkXkXpXpXpXpXpXpXpXkXkXkXkXkXkXkXkXpXpXpXpXpXpXpXpXpXpXpXpXpXpXpXpXpXpXpXpXpXpXpXpX0X0XpXpX0X0X0X0X0X0X0X0X0X0X0X0X9X0X0X0X0X9X9X9X9X9X8X9X7XoX| } ( | hXqX7X7X7X8X7X7X7X7X7X7X7X7X7X7X7X7X3X3X3X3X3X3X3X3X3X1X1X1X1X1X1X3X1X1X>X>X1X:X<X<X:X:X1Xl.7.<X:X;X:X;X;X:X:X;X;X;X;X;X;X;X(.(.(.(.^.^.^.^.^.^.^.I.I.I.^.^.I.Y 7.(.^.I.N.L.N.N.I.I.M.k.l.k.k.j.y.9.=.f.M.I g C Z z f.;X;X:X,X;X;X;X>X>X>X>X",
"7X7X3X1X1X;X;X1X1X:X:XI.;.#.;.,.7.l.1X1X8.t.f.a.8.=.e.v.M.N.T.T.P.Y.(.(.I.I.H.T s r.I.(.^.^.-X-X-X;X(.I.^.(.;X:Xf.M.;X;.<X<X<X<X:X1X3XN.=.7X7X(.@.z.2X1X1X1X1X1X1X1X1X3X3X3X3X3X3X3X3X3X7X7X7X7X7X7X7X7X7X7X7X7X7X7X7X7X7X7X7X7X7X7X7X7X7X3XjX~... .' +X6X7X9X0X0X0X0X0X0X0X0X0X0X0X0X0XiXiXiX0X0X0X0X0XpXpXpXpXpXpXpX0XpXpXpXpXpXpXpXpXpXpXpXpXpXpXpXpXpXpXpXpXpXpXpXpXpXpXpXpXpXpXpXpXkXpXpXpX0X0XkXkXkXkXkXkXkXkXkXkXkXkXkXkXkXkXVXkXkXkXkXkXkXkXkXkXkXkXkXkXkXkXkXkXkXkXkXkXVXVXVXVXVXVXVXkXVXVXVXVXVXVXVXVXkXkXVXVXVXkXkXkXVXVXVXVXVXVXkXVXVXVXVXVXkXkXkXkXkXVXkXkXkXVXVXkXkXkXkXkXkXkXkXkXkXkXkXkXkXkXkXVXkXkXkXkXkXkXkXkXkXkXkXkXkXkXkXkXkXkXkXkX0X0XkXkXpXpXpXpXpXpXpXpXpXpXpXpXpXpXpXpXpXpXpXpXpXpXpXpXpXpXpXpXpXpXpXpXpX0X0X0X0X0X0X0XpXpXpXpX0X0X0X0X0X0X0X0X0X0X0X0X0X0X0X0X9X9X9X9X7X7X8X8X7X{.{ } ( { uX7X7X7X7X7X7X7X7X7X7X7X7X7X3X3X3X3X3X3X3X3X3X3X3X3X3X1X1X1X1X1X1X1X1X1X1X>X1X;XI.<X:X<X1Xl.7.<X;X;X;X:X:X;X;X;X;X;X;X;X;X;X;X^.^.^.-X-X^.^.(.^.^.^.I.I.^.I.I.P 4.(.I.I.P.N.N.P.P.I.M.k.j.k.k.j.t.9.=.f.V.I p S Z h f.;X;X:X;X;X;X:X>X>X>X>X",
"7X7X3X1X1X>X>X1X>X:X:XI.=.#.;.,.7.l.1X1X8.t.f.a.8.#.;.l.M.N.T.T.P.Y.(.^.I.P.H.T s r.I.^.^.^.-X-X-X-X^.I.^.(.;X;X8.v.<X@.k.2X1X(.<X3X3X$.t.5X7X(.@.z.<X1X1X1X1X1X1X1X1X3X3X3X3X3X3X3X3X3X7X7X7X7X7X7X7X7X7X7X7X7X7X7X7X7X7X7X7X7X7X7X7X7X7X3XjX~... .' oX6X7X7X0X0X0X0X0X0X0X0X0X0X0X0X0XiXiXiXiX0X0X0X0XpXpXpXpXpXpXpXpXpXpXpXpXpXpXpXpXpXpXpXpXpXpXpXpXpXpXpXpXpXpXpXpXpXpXpXpXpXpXpXpXkXkXpXpXkXkXkXkXkXkXkXkXkXkXkXkXkXkXkXkXkXkXVXkXkXkXkXkXkXkXkXkXkXkXkXVXkXkXkXkXkXkXkXkXVXVXVXVXVXVXkXkXVXVXVXVXVXVXVXVXVXVXVXVXkXkXkXkXVXVXVXVXVXVXkXkXVXVXVXVXkXkXkXVXVXVXkX8X8XkXVXkXkXkXkXkXkXkXkXkXkXkXkXkXkXkXVXVXkXkXkXkXkXkXVXVXkXkXkXkXkXkXkXkXkXkXkXkX0X0XkX0XpXpXpXpXpXpXpXpXpXpXpXpXpXpXpXpXpXpXpXpXpXpXpXpXpXpXpXpXpXpXpXpXpXpX0X0X0X0X0X0XpXpXpXpX0X0X0X0X0X0X0X0X0X0X0X0X0X0X0X0X9X9X9X9X7X7X8X7X7X{.{ } ( { uX7X7X7X7X7X7X7X7X7X7X7X7X7X3X3X3X3X3X3X3X3X3X3X3X3X3X1X1X1X1X1X1X1X1X1X>X1X1X;XM.;X:X<X1Xz.7.;X;X;X;X;X:X;X;X;X;X;X;X;X;X;X;X;X;X;X-X-X^.^.(.^.^.^.I.I.^.I.I.P 4.(.I.I.P.N.N.P.P.P.n.k.j.k.k.j.t.9.=.f.M.I p C Z k y.(.-X;X;X;X;X:X>X>X>X>X",
"7X7X7X1X1X1X1X1X>X:X:XI.:.#.;.,.7.v.3X<X8.t.f.j.e.,.,.l.M.N.B.T.P.Y.(.^.I.P.H.T s r.I.^.^.^.-X-X-X-X^.I.^.(.;X;Xf.M.5Xj.&.k.f.f.v.n.,.c I.1X7X:X@.z.<X>X1X1X1X1X1X1X1X3X3X3X3X3X7X3X3X3X7X7X7X7X7X7X7X7X7X7X7X7X7X7X7X7X7X7X7X7X7X7X7X7X7X3XjX~... .' oX6X9X0X0X0X0X0X0X0X0X0X0XiXiXiXiXiXiXiXiX0X0X0X0XpXpXpXpXpXpXpXpXpXpXpXpXpXpXpXpXpXpXpXpXpXpXpXpXpXpXpXpXpXpXpXpXpXpXpXpXpXpXkXkXkXkXkXpXkXkXkXkXkXkXkXkXkXkXkXkXkXkXkXkXkXkXkXkXkXkXkXkXkXkXkXkXkXkXkXkXkXkXkXkXkXkXVXVXVXVXVXVXVXVXVXVXVXVXVXVXVXVXVXVXVXVXVXVXVXVXkXkXkXkXkXkXVXkXkXkXVXVXVXVXkXkXkXkXVXVX0X7X8XkXVXkXkXkXkXkXkXkXVXkXkXkXkXkXkXkXkXkXkXkXkXkXkXkXkXkXkXkXkXkXkXkXkXkXkXkXkXkX0X0X0X0XpXpXpXpXpXpXpXpXpXpXpXpXpXpXpXpXpXpXpXpXpXpXpXpXpXpXpXpXpXpXpXpXpXpXpXpX0X0X0X0XpXpXpXpX0X0X0X0X0X0X0X0X0X7X7X0X0X0X0X0X9X9X9X9X7X7X8X7X5X{.{ } ( { uX7X7X7X7X7X7X7X7X7X7X7X7X7X3X3X3X3X3X3X3X3X3X3X3X3X3X3X3X3X1X3X1X1X1X1X1X1X1X:XN.;X<X<X1Xz.q.;X;X;X;X;X:X;X;X;X;X;X;X;X;X;X;X;X;X;X-X-X^.^.-X^.^.^.I.I.^.I.I.P ;.(.I.I.P.N.N.N.P.P.n.k.j.k.k.j.y.9.#.y.M.I t C A z y.(.-X;X;X;X>X>X>X>X>X>X",
"7X7X7X1X1X7X7X1X>X:X:XI.:.#.;.,.7.v.3X<X8.t.y.j.j.j.t.v.M.P.B.I.P.Y.(.^.I.I.H.T s r.I.^.^.^.-X-X-X-X^.I.^.(.;X;Xf.l.:X<Xl.,.,.l.N.e.#.y.1X<X7X<X#.z.<X>X1X1X1X1X1X1X1X3X3X3X3X3X7X3X3X3X7X7X7X7X7X7X7X7X7X7X7X7X7X7X7X7X7X7X7X7X7X7X7X7X7X3XjX~.`  .' +X6X9X8X0X0X0X0X0X0X0X0X0XiXiXiXiX0X0XiXiX0X0X0X0X0X0XpXpXpXpXpXpXpXpXpXpXpXpXpXpXpXpXpXpXpXpXpXpXpXpXpXpXpXpXpXpXpXpXpXpXpXpXkXkXkXkXkXpXkXkXkXkXkXkXkXkXkXkXkXkXkXkXkXkXkXkXkXkXVXkXkXkXkXkXkXkXkXkXkXVXkXkXkXkXkXkXkXkXVXVXVXVXVXVXVXVXVXVXVXVXVXVXVXVXVXVXVXVXVXVXVXkXkXkXkXkXVXVXkXkXVXVXVXVXkXkXkXkXkXkX0X8X0XkXVXkXkXkXkXkXkXkXkXkXkXkXkXkXkXkXkXkXkXkXkXkXkXkXkXkXkXkXkXkXkXkXkXkXkXkXkXkX0X0X0X0XpXpXpXpXpXpXpXpXpXpXpXpXpXpXpXpXpXpXpXpXpXpXpXpXpXpXpXpXpX0X0X0XpXpXpXpX0X0X0X0XpXpXpXpX0X0X0X0X0X0X0X0X7X1X7X9X0X0X0X0X9X9X9X9X7X7X8X7X5X{.{ } ( { uX7X7X7X7X7X7X7X7X7X7X7X7X7X3X3X3X3X3X3X3X3X3X3X3X3X3X3X3X3X1X3X3X1X1X1X1X1X1X<X;X<X<X<X1Xz.q.;X;X;X;X;X:X;X;X;X;X;X;X;X;X;X-X-X;X;X-X-X^.^.-X^.^.^.I.I.^.I.I.P ;.(.I.I.P.N.N.N.P.P.n.k.j.k.k.f.y.9.#.y.M.+.t C I z t.(.^.;X;X;X>X>X>X>X>X>X",
"7X7X1X1X1X1X1X1X:X:X:XI.=.#.;.;.,.v.3X3X8.8.y.f.z.z.b.v.M.N.I.P.I.L.Y.^.(.I.G.T s r.I.^.(.(.^.^.-X-X^.^.^.(.;X(.v.v.2X<X<X<X<X<X(.;X;X(.1X:X5X<X%.z.3X>X1X1X1X1X1X1X1X1X3X3X3X3X7X7X1X1X7X7X7X7X7X7X7X7X7X7X7X7X7X7X7X7X7X7X7X7X7X7X7X7X7X3XhX~.`  .^ oXrX7X9X0X9X9X9X9X0X0X0X0X9X9X9X9X9X7X7X0X0X0X0X0X0X0X0X0XpXpXpXpXpXpXpXpXpXpXpXpXpXpXpXpXpXpXpXpXpXpXpXpXpXpXpXpXpXpXpXpXpXpXpXpXkXkXkXkXkXkXkXkXkXkXkXkXkXkXkXkXkXkXkXkXkXkXkXkXVXkXkXkXkXkXkXkXkXkXkXkXkXkXkXVXVXkXkXkXkXkXVXVXVXVXVXVXVXVXVXVXVXVXVXVXVXVXVXVXVXVXVXVXVXVXVXVXkXkXkXkXkXkXkXkXVXVXVXVXkXkXkXkXkXkXVXkXkXkXkXkXVXVXkXkXkXkXkXkXkXkXkXkXkXkXkXkXkXkXkXkXkXkXkXkXkXkXkXkXkXkXkXkXkXpXpXpXpXpXpXpXpXpXpXpXpXpXpXpXpXpXpXpXpXpXpXpXpXpXpXpXpXpXpXpX0X0X0X0X0XpXpXpX0X0X0X0XpXpXpXpX0X0X0X0X0X0X0X0X9X9X7X9X9X9X9X9X9X9X9X9X7X7X9X9X5X{.{ } ) { yX7X7X7X7X7X7X7X7X7X3X3X3X3X3X3X3X3X3X3X3X3X3X3X3X3X1X1X1X1X1X1X1X1X1X>X>X>X:X1X<X<X1X1X1Xl.q.;X;X;X;X;X:X:X;X;X;X;X;X;X;X;X;X;X;X;X(.^.^.^.-X^.(.^.I.I.^.I.U.Y 7.(.I.I.N.N.N.N.P.P.n.k.k.k.f.f.e.,.@.f.v.I e B I N y.(.(.;X;X;X>X>X:X:X>X1X",
"7X7X1X1X1X1X1X1X:X:X:XI.=.#.;.;.,.v.3X3X7.8.y.j.z.z.b.v.M.N.I.P.n.v.I.^.^.I.G.Y s r.I.^.(.(.^.^.-X-X(.(.(.(.(.(.P.v.<X;X:X:X<X<X:X:X>X>X1X:X5X<X%.z.3X>X1X1X1X1X1X1X1X1X3X3X3X3X7X7X1X1X7X7X7X7X7X7X7X7X7X7X7X7X7X7X7X7X7X9X9X7X3X3X3X7X7X3XhX~.`  .^ oXrX8X9X0X9X9X9X9X0X0X0X0X9X9X9X9X8X5X5X8X0X0X0X0X0X0X0X0XpXpXpXpXpXpXpXpXpXpXpXpXpXpXpXpXpXpXpXpXpXpXpXpXpXpXpXpXpXpXpXpXpXpXpXpXkXkXkXkXkXkXkXkXkXkXkXkXkXkXkXkXkXkXkXkXkXkXkXkXkXkXkXkXkXkXkXkXkXkXkXkXkXkXkXkXkXkXkXkXkXkXVXVXVXVXkXkXVXVXVXVXVXVXVXVXVXVXVXVXVXVXVXVXVXVXVXVXkXkXkXkXkXkXkXkXVXVXVXVXkXkXkXkXkXkXkXkXkXkXVXkXkXkXkXkXkXkXkXkXkXkXkXkXkXkXkXkXkXkXkXkXkXkXkXkXkXkXkXkXkXkXkXkXkXpXpXpXpXpXpXpXpXpXpXpXpXpXpXpXpXpXpXpXpXpXpXpXpXpXpXpXpXpXpXpXpX0X0X0X0XpXpXpX0X0X0X0XpXpXpXpX0X0X0X0X0X0X0X0X0X9X9X9X9X9X9X9X9X9X9X9X7X7X9X9X5X{.{ } ( { yX7X7X7X7X7X7X7X7X7X3X3X3X3X3X3X3X3X3X3X3X3X3X3X3X1X1X1X1X1X1X1X1X1X1X>X1X1X1X1X<X<X1X1X1Xl.7.<X;X;X;X;X:X;X;X;X;X;X;X;X;X;X;X;X;X-X(.^.^.^.(.^.(.^.I.I.^.Y.U.Y 7.(.I.I.N.N.N.N.P.P.M.k.k.k.k.k.y.7.@.f.v.I e c I z y.(.;X:X;X;X>X>X:X:X>X1X",
"7X7X1X1X1X1X1X1X:X:X>XI.=.#.;.;.,.v.5X3X7.8.y.j.z.z.b.v.M.N.I.P.n.v.I.^.I.P.b.Y s r.I.^.(.^.^.^.-X-X(.(.(.(.;X;XI.v.;X(.:X:X<X<X:X:X>X>X1X:X5X<X%.k.3X>X1X1X1X1X1X1X1X1X3X3X3X3X7XwXwX1X7X7X7X7X7X7X7X7X7X7X7X7X7X7X7X7X7X<X<X7X3X3X3X7XwX3XhX~.`  .^ .XrX8X9X0X9X9X9X9X0X0X0X0X9X9X9X9X9X7X7X8X0X0X0X0X0X0X0X0XpXpXpXpXpXpXpXpXpXpXpXpXpXpXpXpXpXpXpXpXpXpXpXpXpXpXpXpXpXpXpXpXpXpXpXpXkXkXkXkXkXkXkXkXkXkXkXkXkXkXkXkXkXkXPXPXkXkXkXkXkXkXkXkXkXkXkXkXkXkXkXkXkXkXkXkXkXkXkXkXkXVXVXVXVXkXkXkXVXVXVXVXVXVXVXVXVXVXVXVXkXkXVXVXVXVXVXVXkXkXkXkXVXVXVXVXkXVXkXkXkXkXVXkXkXkXkXkXkXkXkXkXkXkXkXkXkXkXkXkXkXkXkXkXkXkXkXkXkXkXkXkXkXkXkXkXkXkXkXkXkXkXkXkXkXkXpXpXpXpXpXpXpXpXpXpXpXpXpXpXpXpXpXpXpXpXpXpXpXpXpXpXpXpXpXpXpXpX0X0X0XpXpXpX0X0X0X0X0X0XpXpX0X0X0X0X0X0X0X0X0X9X9X9X9X9X9X9X9X7X7X7X7X7X7X9X3X{.{ } ( | yX7X7X7X7X7X7X7X7X7X3X3X3X3X3X3X3X3X3X3X3X3X3X3X1X1X1X1X1X1X1X1X1X1X1X>X>X1X<X<X<X<X<X1X1Xl.7.<X:X;X;X;X:X:X;X;X;X;X;X;X;X;X;X;X;X;X;X;X;X;X(.^.^.^.I.I.^.Y.U.Y 7.(.I.I.N.N.N.N.P.P.M.z.k.z.k.k.y.7.@.f.v.I 9 z A z y.;X;X;X;X;X:X:X:X:X1X1X",
"7X7X1X1X1X1X1X1X:X:X>XI.=.#.;.;.,.v.5X3X7.8.y.j.z.z.b.v.M.N.I.P.I.L.I.^.I.P.b.P s r.I.^.(.^.^.^.-X-X(.(.(.(.;X;XI.v.;X<X:X:X<X<X<X<X>X>X1X:X5X<X*.k.3X1X1X1X1X1X1X1X1X1X3X3X3X3X7X7X1X1X7X7X7X7X7X7X7X7X7X7X7X7X7X7X5X5X3XL.L.3X3X3X3X7XwX3XjX~.`  .^ .XrX8X9X0X9X9X9X9X0X0X0X0X9X9X9X0XpX9X9XiX0X0X0X0X0X0X0X0X0XpXpXpXpXpXpXpXpXpXpXpXpXpXpXpXpXpXpXpXpXpXpXpXpXpXpXpXpXpXpXpXpXpXpXpXkXkXkXkXkXkXkXkXkXkXkXkXkXkXkXkXkXkXPXPXkXkXkXkXkXkXkXkXkXkXkXkXkXkXVXVXkXkXkXkXkXkXkXkXkXVXVXVXkXkXkXkXVXVXVXVXVXVXVXVXVXVXVXkXkXkXkXkXVXVXVXVXkXkXkXkXVXVXVXVXkXkXkXkXkXVXVXkXkXkXkXkXkXkXkXkXkXkXkXkXkXkXkXkXkXkXkXkXkXkXkXkXkXkXkXkXkXkXkXkXkXkXkXkXkXkXkXkXkXkXpXpXpXpXpXpXpXpXpXpXpXpXpXpXpXpXpXpXpXpXpXpXpXpXpXpXpXpXpXpXpXpXpX0XpXpXpXpX0X0X0X0X0X0X0X0X0X0X0X0X0X0X0X0X0X9X9X9X9X9X9X9X9X7X7X7X7X7X9X9X3X{.{ } ( | yX7X7X7X7X7X7X7X3X3X3X3X3X3X3X3X3X3X3X3X3X3X3X1X1X1X1X1X1X1X1X1X1X1X1X>X>X:X^.(.;X<X<X1X1Xl.7.<X:X;X;X>X;X;X;X;X;X;X;X;X;X;X;X;X;X;X;X;X;X;X(.^.^.^.I.I.^.I.U.Y 7.(.I.I.N.N.N.N.P.P.n.z.k.z.f.f.e.,.@.y.v.I 9 z A z t.(.;X;X;X;X;X;X>X>X1X1X",
"7X7X1X1X1X1X1X>X:X:X>X^.=.#.,.;.,.b.5X3X7.8.y.k.l.v.v.v.N.P.I.I.L.L.^.^.^.P.L.L a 9.P.-X^.^.^.^.-X-X^.^.(.(.;X;X(.M.;X<X:X:X:X:X:X:X<X<X1X<X5X2X%.k.3X1X>X1X1X1X1X1X1X1X1X1X1X3X3X3X3X3X3X3X3X3X3X3X3X3X7X7X7X7X5X5X5X5X5XU.I.5X7X7X7X7X7X5XhX~.`  .' oX6X8X9XiX0X9X9X9X9X9X9X0X0X0X0X0X0X0X0X0X0X0X0X0X0X0X0X0XpXpXpXpXpXpXpXpXpXpXpXpXpXpXpXpXpXpXpXpXpXpXpXpXpXpXpXpXpXpXpXpXpXpXpXpXkXkXkXkXkXkXkXkXpXpXpXpXkXkXkXkXkXkXfXfXkXkXkXkXkXkXkXkXkXkXkXkXkXkXkXkXkXkXkXkXkXkXkXkXkXkXVXVXVXVXkXkXVXVXVXVXVXVXVXkXkXkXVXVXVXVXkXkXVXVXVXVXkXkXVXVXVXVXVXVXVXVXVXVXkXkXkXkXkXkXkXkXkXkXkXkXVXVXVXVXkXkXkXkXkXkXkXkXkXkXkXkXkXkXVXVXkXkXkXkXkXkXkXkXkXkXkXpXpXpXpXpXkXkXkXkX0X0X0X0XpXpXpXpXpXpXpXpXpXpXpXpXpXpXpXpXpXpXpXpXpXpXpXpXpXpXpXpX0X0X0X0X0X0X0X0X0X0X0X0X0X0X0X0X0X9X9X9X9X9X9X9X9X9X7X7X7X7X9X9XwX{.{ } `  XoX7X5X5X7X7X7X7X3X3X3X3X3X3X7X7X3X3X3X3X3X3X3X3X3X3X1X1X1X1X1X1X1X1X1X1X<X:XN.^.;X<X<X:X1Xz.8.<X:X;X;X>X;X<X:X(.;X;X;X;X;X;X;X;X;X;X;X;X;X;X^.^.^.^.^.I.^.^.(.o.7.(.I.I.P.P.P.N.N.P.n.l.k.l.y.t.7.&.C y.b.I 8 c A z t.(.;X;X;X;X;X:X>X>X1X1X",
"7X7X1X1X1X1X1X>X:X:X>X^.=.#.,.;.,.v.5X6X7.8.f.k.l.v.v.v.N.P.I.I.L.N.^.^.^.P.L.L s 9.I.-X^.^.^.^.-X-X^.^.(.(.;X;X(.M.;X<X:X:X:X:X:X:X:X:X1X<X5X2X&.k.3X1X>X1X1X1X1X1X1X1X1X1X1X3X3X3X3X3X3X3X3X3X3X3X3X3X7X7X7X7X7X7X8X8XiX5X5XiX7X7X8X7X7X5XhX~.`  .' {.rX9X9XiX0X9X9X9X8X9X9X0X0X0X0X0X0X0X0X0X0X0X0X0X0X0X0X0XpXpXpXpXpXpXpXpXpXpXpXpXpXpXpXpXpXpXpXpXpXpXpXpXpXpXpXpXpXpXpXpXpXpXpXpXkXkXkXkXkXkXkXkXpXpXpXpXkXkXkXpXpXpXfXfXkXkXkXkXkXkXkXkXkXkXkXkXkXkXkXkXkXkXVXkXkXkXkXkXkXkXkXVXVXVXkXkXVXVXVXVXVXVXkXkXkXkXVXVXVXVXkXkXVXVXVXVXkXkXVXVXVXVXVXVXVXVXVXVXkXkXkXVXkXkXkXkXkXkXkXkXVXVXVXVXkXkXkXkXkXkXkXkXVXVXkXkXkXkXkXkXkXkXkXkXkXkXkXkXkXkXpXpXpXpXpXpXPXkXkXkX0X0X0X0XpXpXpXpXpXpXpXpXpXpXpXpXpXpXpXpXpXpXpXpXpXpXpXpXpXpXpX0X0X0X0X0X0X0X0X0X0X0X0X0X0X0X0X0X9X9X9X9X9X9X9X9X9X7X7X7X7X7X9X8X1X{.{ | `  XoX7X7X5X7X7X7X7X3X1X3X3X3X3X7X7X3X3X3X3X3X3X3X3X3X3X1X1X1X1X1X1X3X1X1X>X<X;X(.;X<X1X<X:X3Xv.8.<X:X:X;X>X<X<X<X;X;X;X;X;X;X;X;X;X;X;X;X;X;X;X^.^.^.^.^.^.^.^.U.#.8.(.I.I.P.P.P.M.N.P.n.l.z.l.j.t.7.=.Z f.v.Z 6 z A z e.(.;X;X;X;X;X:X>X>X1X1X",
"7X7X1X1X1X1X1X1X:X:X>X^.=.#.,.;.,.v.5X6X,.8.f.l.l.b.v.v.N.P.I.I.L.N.^.^.I.P.L.Y j i.I.-X^.^.^.^.-X-X;X(.(.(.;X;X(.M.:X<X>X>X:X:X:X:X:X<X1X<X5X2X;.x.3X1X>X1X1X1X1X1X1X1X1X1X3X3X3X3X3X3X3X3X3X3X3X3X3X3X7X7X7X7X7X7X7X8X8X8X8X7X7X7X8X7X7X5XhX~.{  .^ [.4X9XiXiX0X9X9X9X8X8X0X0X0X0X0X0X0X0X0X0X0X0X0X0X0X0X0X0XpXpXpXpX0X0XpXpXpXpXpXpXpXpXpXpXpXpXpXpXpXpXpXpXpXpXpXpXpXpXpXpXpXpXpXpXkXkXkXkXkXkXkXkXpXpXpXpXkXkXkXpX0X0XpXkXkXkXkXkXkXkXkXkXkXkXkXVXkXkXkXkXkXkXkXVXkXkXkXkXkXkXVXVXVXVXkXkXVXVXVXVXVXVXVXVXkXVXVXVXVXVXkXkXVXVXVXVXkXkXkXVXkXkXkXkXVXVXVXVXkXkXVXVXkXkXkXkXkXkXkXkXVXVXVXVXkXVXkXkXkXkXkXVXkXkXkXkXkXkXkXkXkXkXkXkXkXkXkXkXkXpXpXpXpXpXpXpX0X0XkXkX0XpXPX0XpXpXpXpXpXpXpXpXpXpXpXpXpXpXpXpXpXpXpXpXpXpXpXpXpXpX0X0X0X0X0X0X0X0X0X0X0X0X0X0X0X0X9X9X9X9X9X9X9X9X9X9X9X7X7X7X7X7X7X7X1X{.{  .`  XuX9X7X7X7X7X7X7X3X3X3X3X3X3X7X7X3X3X3X3X3X3X3X3X3X3X1X1X1X1X1X1X3X1X1X1X<X<X:X<X1X1X<X1X3Xl.8.<X:X:X>X:X<X(.I.^.;X;X;X;X;X;X;X;X;X;X;X;X;X;X^.^.^.^.I.I.^.^.I.#.8.^.I.I.I.P.N.m.n.^.n.x.z.x.k.y.8.;.P k.v.C 5 h z h t.(.;X;X;X;X;X:X>X>X1X1X",
"7X7X1X1X1X1X1X1X:X:X>X^.=.#.,.;.,.l.3X1X;.7.f.l.l.b.v.v.N.P.I.I.L.N.^.^.I.P.P.Y N p.I.-X^.^.^.^.-X^.(.(.(.(.;X;X(.M.:X<X>X:X:X:X:X:X:X<X1X<X5X2X3.x.3X1X>X1X1X1X1X1X1X1X1X1X3X3X3X3X3X3X3X3X3X3X3X3X3X3X7X7X7X7X7X7X7X7X8X9X9X7X7X7X7X7X7X5XhX~.{  .' [.rX9XiXiX9X9X8X8X8X8X0X0X0X0X0X0X0X0X0X0X0X0X0X0X0X0X0X0XpXpXpXpX0X0X0X0XpXpXpXpXpXpXpXpXpXpXpXpXpXpXpXpXpXpXpXpXpXpXpXpXpXpXpXpXkXkXkXkXkXkXkXpXpXkXpXpXkXkXkXpX0X0XpXpXkXkXkXkXkXkXkXkXkXkXVXkXkXkXkXkXkXkXkXkXkXkXkXkXVXkXVXVXVXVXkXkXkXVXVXVXVXVXVXVXVXVXVXVXVXVXkXkXVXVXVXVXkXkXVXVXVXkXkXkXVXVXVXVXkXkXkXkXkXkXVXkXkX0X0XkXVXkXkXkXkXkXkXVXkXkXkXVXkXkXkXkXkXkXkXkXkXkXkXkXkXkXkXkXpXpXpXpXpXpXpXpX0X0XkXkXkXpXPXPXpXpXpXpXpXpXpXpXpXpXpXpXpXpXpXpXpXpXpXpXpXpXpXpXpX0X0X0X0X0X0X0X0X0X0X0X0X0X0X0X8X7X7X1X9X9X9X9X9X9X9X9X9X9X7X7X7X7X7X7X1X{.|  .`  XuX7X7X7X7X7X7X7X7X7X3X3X3X3X7X7X3X3X3X3X3X3X3X3X3X3X1X1X1X1X1X1X1X1X1X1X1X<X<X<X<X:X<X1X3Xb.t.1X>X>X>X>X;Xv.t.N.(.;X;X;X;X;X;X;X;X;X;X;X;X;X^.^.^.^.I.I.^.^.I.#.e.^.I.I.P.P.N.v.v.^.n.x.l.x.k.j.0.;.o.j.l.C 0 p i t e.(.;X;X;X;X;X:X>X>X1X1X",
"7X7X1X1X1X1X1X1X:X:X>X^.=.#.;.;.,.l.1X1X;.8.f.l.b.b.v.v.N.T.I.I.P.I.^.^.I.P.P.Y l i.I.^.(.(.(.(.;X;X;X;X(.(.;X;X(.M.:X<X>X>X>X>X:X:X:X<X1X1X5X2X7.x.3X1X>X1X1X1X1X1X1X1X1X1X1X1X3X3X3X3X3X3X3X3X3X3X3X3X7X7X7X7X7X7X7X7X7X7X7X7X7X7X7X7X7X3XhX~.{ #X^ [.6X9X8XiX8X8X8X8X8X9X9X0X0X0X0X0X0X0X0X0X0X0X0X0X0X0X0X0XpXpXpXpX0XpXpXpX0X0X0X0XpXpXpXpXpXpXpXpXpXpXpXpXpXpXpXpXpXpXpXpXpXpXpXpXpXpXpXpXpXpXpXpXpXpXVXpXpXpXfXkX9X1X0XpXpXpXpXpXkXkXkXkXkXkXkXkXkXkXVXVXkXkXkXkXkXkXkXkXVXVXVXVXVXVXVXVXkXkXVXVXVXVXVXVXVXVXVXVXkXkXkXkXkXkXVXkXVXkXkXkXkXkXkXkXkXkXkXkXkXkXkXVXkXkXkXkX0X0X0XpXkXkXkXkXkXkXVXVXkXkXkXkXkXkXkXkXkXkXkXkXpXpXpXkXkXkXkXkXpXpXpXpXpXpXpXpX0X0X0X0XkXkXkXkXpXpXpXpXpXpXpXpXpXpXpXpXpXpXpXpXpXpXpXpXpXpXpXpX0X0X0X0X0X0X0X0X0X0X0X0X0X0X0X0X9X7X7X7X9X9X9X9X9X9X9X9X9X7X7X7X7X7X7X7X1X{.|  .`  XeX8X7X5X3X3X3X3X7X7XwXwX7X7X3X3X3X3X3X3X3X3X3X3X3X3X3X3X3X3X1X3X3X1X1X1X1X1X1X1X<X<X:X1X3Xv.t.1X1X>X:X>X;XM.v.^.;X;X:X:X:X:X;X;X;X;X;X;X;X;X^.^.^.^.^.^.^.(.I.#.e.(.I.N.P.N.N.N.^.^.n.x.x.x.z.j.t.,.@.k.v.z , t i 8 ;.(.;X-X>X>X:X>X>X>X1X1X",
"7X7X1X1X1X1X1X1X:X:X>X^.=.#.;.;.;.l.1X1X;.8.f.l.b.b.v.v.T.T.I.I.P.I.I.^.I.P.P.Y l i.I.^.(.(.(.(.;X;X;X;X;X(.;X;X(.M.:X<X>X>X>X>X:X:X<X<X1X1X5X2X7.x.3X1X>X1X1X1X1X1X1X1X1X1X1X1X3X3X3X3X3X3X3X3X3X3X3X3X7X7X7X7X7X7X7X7X7X7X7X7X7X7X8X7X7X3XhX~.{ #X^ [.6X9X9X9X9X8X8X8X8X8X9X0X0X0X0X0X0X0X0X0X0X0X0X0X0X0X0X0XpXpXpX0XpXpXpXpXpXpX0X0XpXpXpXpXpXpXpXpXpXpXpXpXpXpXpXpXpXpXpXpXpXpXpXpXpXpXpXpXpXpXpXkXpX0X9X0XpXpXfXVX9X(.<XpXpXpXpXpXkXkXkXkXkXkXVXVXkXkXkXkXkXkXkXkXkXkXkXkXVXVXVXVXVXVXVXVXkXkXVXVXVXVXkXkXVXVXVXVXkXkXkXkXkXkXVXkXVXkXkXkXkXkXkXkXkXkXkXkXkXkXkXkXkXkXkXkX0XqX0X0XkXkXkXkXkXkXkXkXkXkXkXkXkXkXkXkXkXkXkXkXpX0XkXkXkXkXkXkXpXpXpXpXpXpXpXpX0X0X0X0XpXpXkXkXpXpXpXpXpXpXpXpXpXpXpXpXpXpXpXpXpXpXpXpXpXpX0XpX0X0X0X0X0X0X0X0X0X0X0X0X0X0X0X0X8X8X9X7X9X9X9X9X9X9X9X9X9X9X7X7X7X7X5X5X3X{.|  .`  XeX8X7X5X3X3X3X3X7X7XwXwX7X7X3X3X3X3X3X3X3X3X3X3X3X3X3X3X3X3X1X1X1X1X1X1X1X1X1X1X1X1X:X1X3Xv.t.1X1X>X;X;X<X:X;X<X:X:X:X:X:X;X;X;X;X;X;X;X;X;X^.^.^.^.^.^.^.(.I.#.e.(.I.N.P.N.N.N.^.^.n.x.x.x.z.j.t.,.O.t.k.k , t u 7 ;.(.;X-X>X>X>X>X>X>X>X1X",
"7X7X1X1X1X1X1X1X>X>X>X^.;.#.;.;.;.l.1X1X;.8.j.l.v.v.v.v.T.P.I.I.P.I.I.^.I.P.P.Y N p.I.^.(.(.;X;X;X;X;X;X;X;X;X;X;XM.:X<X:X:X>X>X:X:X1X1X1X1X3X2X7.x.3X1X>X1X1X1X1X1X1X1X1X1X1X1X3X3X3X3X3X3X3X3X3X3X3X3X7X7X7X7X7X7X7X7X7X7X7X7X7X7X7X7X7X3XhX~.{ #X' {.6X9X9X9X9X8X8X8X8X8X8X8X0X0X0X0X0X0X0X0X0X0X0X0X0X0X0X0XpXpX0X0XpXpXpXpXpXpXpXpXpXpXpXpXpXpXpXpXpXpXpXpXpXpXpXpXpXpXpXpXpXpXpXpXpXpXpXpXpXpXpXpXVX9X7X0XpXpXfXVXpX:X:XpXsXsXpXpXkXkXkXkXkXkXkXkXkXkXkXkXkXkXVXVXkXkXkXkXkXVXVXVXVXVXVXVXkXkXVXVXVXkXkXkXVXVXVXVXkXkXkXkXkXkXkXkXkXkXkXkXkXkXkXkXkXkXVXkXkXkXkXkXkXkXkXkXVXkXkXkXVXkXkXkXkXkXkXkXkXkXkXkXkXkXkXkXkXkXkXkX0X0X0X0XkXkXkXkXpXpXpXpXpXpXpXpXkXkX0XkXpXpXpXpXpXpXpXpXpXpXpXpXpXpXpXpXpXpXpXpXpXpXpXpXpX0X0X0X0X0X0X0X0X0X0X0X0X0X0X0X0X0X0X0XqXqX8X9X9X9X9X9X9X9X9X9X9X7X7X7X7X7X7X5X3X{.|  .`  XeX8X7X3X3X5X3X3XwXwXwXwX7X3X3X3X3X3X3X3X3X3X3X3X3X3X3X3X3X3X1X1X3X1X1X1X<X<X1X1X1X1X:X1X3Xv.t.1X1X>X1X:X<X<X:X:X:X:X:X:X;X;X;X;X;X;X;X;X;X;X-X^.^.^.^.^.^.(.U.#.e.(.I.N.P.N.N.N.I.^.n.l.v.v.z.j.t.,.o.8.8.h , e r 5 ;.(.;X;X>X>X>X>X>X>X>X>X",
"7X7X1X1X1X1X1X1X>X>X>X^.;.#.;.;.,.l.1X1X;.8.j.l.v.v.v.v.T.P.I.I.P.I.I.^.I.P.P.Y z t.I.^.(.(.;X;X;X;X(.(.^.;X;X;X(.M.:X<X:X:X>X>X:X>X1X1X1X<X3X2X7.l.3X1X1X1X1X1X1X1X1X1X1X1X1X1X3X3X3X3X3X3X3X3X3X3X3X3X7X7X7X7X7X7X5X5X5X5X5X7X7X7X7X7X7X3XhX~.{ #X' {.6X9X8X9X8X8X8X8X8X8X8X8X0X0X0X0X0X0X0X0X0X0X0X0X0X0X0X0XpXpX0XpXpXpXpXpXpXpXpXpXpXpXpXpXpXpXpXpXpXpXpXpXpXpXpXpXpXpXpXpXpXpXpXpXpXpXpXpXpXpXpXkXpX0X9X0XpXpXfXpXpX0X7XpXsXsXpXpXkXkXkXkXkXkXkXkXkXkXkXkXkXkXkXkXkXkXkXkXkXVXVXVXVXVXVXVXkXkXVXVXVXVXkXkXVXVXVXVXkXkXkXkXkXkXkXkXkXkXkXkXkXkXkXkXkXkXkXkXkXkXkXkXkXkXkXkXkXkXkXpXkXkXkXkXkXkXkXkXkXkXkXkXkXkXkXkXkXkXkXkX0X0X0X0XkXkXkXkXpXpXpXpXpXpXpXpXkXkXkXkXpXpXpXpXpXpXpXpXpXpXpXpXpXpXpXpXpXpXpXpX0X0XpXpXpX0X0X0X0X0X0X0X0X0X0X0X0X0X0X0X0X0X0X0XqX8X8X0X9X9X9X9X9X9X9X9X7X7X7X7X7X7X7X7X3X{.~. .`  XeX7X7X3X5X5X3X1X3X7XwX1X7X3X3X3X3X3X3X3X3X3X3X3X3X3X3X3X3X3X1X1X3X1X1X1X<X<X1X1X1X1X:X1X3Xv.t.1X<X1X;X:X<X;X;X:X:X:X:X:X;X;X;X;X;X;X;X;X;X;X-X^.^.^.^.^.^.(.U.#.e.(.I.P.P.N.N.N.I.^.v.l.v.v.z.j.t.,.o.,.7.i , 7 7 , ;.(.;X;X>X>X>X>X>X>X>X>X",
"7X7X1X1X1X1X1X1X:X:X;XI.;.O.$.;.,.l.1X<X;.8.j.l.l.b.b.v.M.I.L.k.l.Y.(.(.I.I.U.T z 9.I.^.^.^.^.^.(.(.;X;X;X;X;X:X^.n.:X<X:X:X:X:X:X:X1X1X1X:X5X2X7.k.1X1X1X1X1X1X1X1X1X1X3X3X3X3X3X3X3X3X3X3X3X3X7X7X7X7X7X7X7X7X7X5X5X5X5X5X5X7X7X7X8X7X7X3XhX!.| #X' .X4X8X9X9X8X7X9X9X9X9X7X7X9X9X9X9X0X0X0X0X0X0X0X0X0X0X0X0X0X0X0X0XpXpXpXpXpXpXpXpXpXpXpXpXpXpXpXpXpXpXpXpXpXpXpXpXpXpXpXpXpXpXpXpXpXpXpXpXpXpXpXpXpXpXpXpXpXpXpXkXpXpXpXpXpXpXpXpX0X0XkXkXkXkXkXkXkXkXkXkXkXkXkXkXkXkXkXkXkXkXkXkXkXkXkXkXkXkXkXkXkXkXkXkXkXkXkXkXkXkXkXkXkXkXkXkXkXkXkXkXkXkXkXkXkXkXkXkXkXkXkXkXkXkXkXkXkXkXkX0XkXkXVXVXkXkXkXkXkXkXkXkXkXkXkXkX0X0X0X0XpXpXpXpXpXpXpXpXpXpXpXpXpXpXpXpXpXpXpXpXpXpXpXpXpXpXpXpXpXpXpXpXpXpXpXpXpXpXpXpX0X0XpXpXpX0X0X0X0X0X0X0X0X0X0X0X0X0X0X0X0X0X0X0X0X0X0X0X7X7X9X9X9X9X9X9X7X7X7X7X5X5X5X5X3X[.{  .` ~.oX7X3X3X7X7X7X7X7X7X1X1X7X7X3X3X3X3X3X3X3X3X3X3X3X3X1X1X1X1X1X1X1X1X1X1X1X1X1X1X1X1X:X1X3Xv.0.1X:X:X:X:X:X:X:X:X:X:X:X:X:X:X;X;X:X;X;X(.(.(.;X-X(.^.^.^.(.(.I.#.e.(.P.P.P.L.N.P.I.I.v.l.l.l.k.f.t.7.o.@.z 0 - 8 5 < ;.(.;X;X;X:X:X>X>X>X>X1X",
"7X7X1X1X1X1X1X1X:X:X;XI.;.O.$.;.,.c.1X<X=.8.j.l.l.l.b.b.N.I.P.b.n.Y.Y.I.I.I.U.T z 9.I.-X^.^.^.^.(.(.(.(.(.;X;X:X^.n.:X:X:X:X:X:X:X:X1X1X>X>X5X2X7.k.1X1X1X1X1X1X1X1X1X3X3X3X3X3X3X3X3X3X3X3X3X3X7X7X7X7X7X7X7X7X5X5X5X5X7X7X5X7X7X7X8X7X7X3XhX!.{ #X' .XrX8X9X9X7X7X9X9X9X9X7X7X9X9X9X9X0X0X0X0X0X0X0X0X0X0X0X0X0X0X0X0XpXpXpXpXpXpXpXpXpXpXpXpXpXpXpXpXpXpXpXpXpXpXpXpXpXpXpXpXpXpXpXpXpXpXpXpXpXpXpXpXpXpXpXpXpXpXpXpXpXpXpXpXpXpXpXpX0X0XkXkXkXkXkXkXkXkXkXkXkXkXkXkXkXkXkXkXkXkXkXkXkXkXkXkXkXkXkXkXkXkXkXkXkXkXkXkXkXkXkXkXkXkXkXkXkXkXkXkXkXkXkXkXkXkXkXkXkXkXkXkXkXkXkXkXkXkXkXkXkXkXkXkXkXkXkXkXkXkXkXkXkXkXkXkX0X0X0X0XpXpXpXpXpXpXpXpXpXpXpXpXpXpXpXpXpXpXpXpXpXpXpXpXpXpXpXpXpXpXpXpXpXpXpXpXpXpXpXpXpXpXpXpXpX0X0X0X0X0X0X0X0X0X0X0X0X0X0X0X0X0X0X0X0X0X0X0X7X7X9X9X9X9X9X9X7X7X7X7X5X5X7X5X3X[.{ #X` ~.oX5X3X3X7X7X7X7X7X7X1X1X7X3X3X3X3X3X3X3X3X3X3X3X3X3X1X1X1X1X1X1X1X1X1X1X1X1X1X1X1X1X:X1X3Xv.8.<X:X:X:X:X:X:X:X:X:X:X:X:X:X:X;X:X:X;X;X(.(.(.;X(.(.^.^.^.(.(.I.#.e.(.P.P.P.L.N.P.I.I.M.l.l.l.k.j.y.8.@.@.I g N A z i 8.(.;X;X;X:X;X>X>X>X1X1X",
"7X7X1X1X1X1X1X1X:X:X:XI.>.O.=.;.>.k.<X:X;.r.j.l.l.l.z.b.L.P.P.G.L.I.I.^.I.I.U.T z 0.I.^.^.^.^.^.(.(.(.(.(.;X;X:X^.v.<X:X>X>X:X:X:X:X1X1X>X>X5X2X7.k.1X1X1X1X1X1X3X3X1X1X3X3X3X3X3X3X3X3X3X3X3X3X7X7X7X7X7X7X7X7X7X7X7X7X7X7X7X7X7X7X7X7X7X3XiX!.{ #X' +XrX8X9X9X7X9X9X9X7X7X7X7X9X9X9X9X0X0X0X0X0X0X0X0X0X0X0X0X0X0X0X0XpXpXpXpXpXpXpXpXpX0X0X0XpXpXpXpXpXpXpXpXpXpXpXpXpXpXpXpXpXpXpXpXpXpXpXpXpXpXpXpXpXpXpXpXpXpXpXpXpXpXpXpXkXkXkXkX0XkXkXkXkXkXkXkXkXkXkXkXkXkXkXkXkXkXkXkXVXVXkXkXkXkXVXkXkXkXkXkXkXkXkXkXkXkXkXkXkXkXkXkXVXVXkXkXkXkXVXkXkXkXkXkXkXkXkXkXkXVXkXkXkXkXkXkXkXkXkXkX0X0X0X0XkXkXkXkXkXkXkXkXkXkXkXkXkXkX0X0XpXpXpXpXpXpXpXpXpXpXpXpXpXpXpXpXpXpXpXpXpXpXpXpXpXpXpXpXpXpXpXpXpXpXpXpXpXpXpXpXpXpXpXpXpXpXpXpX0X0X0X0X0X0X0X0X0X0X0X0X0X0X0X0X0X0X0X0X9X9X9X9X9X9X9X9X7X7X7X7X7X7X7X5X3X[.{ #X` ~.oX5X3X7X7X7X7X7X7X7X1X1X3X3X3X3X3X3X3X3X3X3X3X3X3X3X1X1X1X1X1X1X1X1X1X1X1X1X1X1X1X1X:X1X3Xv.8.<X:X:X:X:X:X:X:X:X:X:X:X:X:X:X;X;X:X;X;X(.(.(.;X(.(.^.^.^.(.(.I.#.e.(.P.P.P.L.N.I.I.I.M.l.l.l.k.k.f.t.&.o.,.,.e.8.-.I k.(.;X;X;X:X:X>X>X>X1X1X",
"7X7X1X1X1X1X1X1X:X:X:XI.;.O.=.;.;.k.<X;X;.r.j.z.l.l.z.z.N.P.L.L.n.P.I.;XI.I.U.T z 9.I.^.^.^.^.^.(.(.(.(.(.;X;X:X^.v.<X:X>X>X<X<X:X:X1X1X1X1X5X2X7.k.1X1X1X1X1X1X3X3X1X1X3X3X3X3X3X3X3X3X3X3X3X3X7X7X7X7X7X7X7X7X7X7X7X7X7X7X7X7X7X7X7X7X7X3XiX!.` #X' oXrX8X9X9X7X7X9X9X7X7X7X7X9X9X9X9X0X0X0X0X0X0X0X0X0X0X0X0X0X0X0X0XpXpXpXpXpXpXpXpXpXpX0X0X0XpXpXpXpXpXpXpXpXpXpXpXpXpXpXpXpXpXpXpXpXpXpXpXpXpXpXpXpXpXpXpXpXpXpXpXpXpXpXpXkXkXkXkX0XpXkXkXkXkXkXkXkXkXkXkXkXkXkXkXkXkXkXkXkXkXkXkXkXkXVXkXkXkXkXkXVXVXkXkXkXkXkXkXkXkXkXkXkXkXkXkXkXkXVXkXkXkXkXVXVXVXkXkXkXVXkXkXkXkXkXkXkXkXkX0X0X0X0X0XkXkXkXkXkXkXkXkXkXkXkXkXkXpXpX0XpXpXpXpXpXpXpXpXpXpXpXpXpXpXpXpXpXpXpXpXpXpXpXpXpXpXpXpXpXpXpXpXpXpXpXpXpXpXpXpXpXpXpXpXpXpXpXpX0X0X0X0X0X0X0X0X0X0X0X0X0X0X0X0X0X0X0X0X8X9X9X9X9X9X9X9X7X7X7X7X7X7X7X7X3X[.{ #X` ~.oX3X3X7X7X7X7X7X7X7X1X1X3X3X1X1X3X3X3X3X3X3X3X3X3X3X1X1X1X1X1X1X1X1X1X1X1X1X1X1X1X1X:X1X3Xv.8.<X:X:X:X:X:X:X:X:X:X:X:X:X:X:X;X;X:X;X;X(.;X;X;X(.(.^.^.^.(.(.I.#.e.(.P.P.P.L.N.P.I.I.M.l.l.l.k.k.f.f.&.C ;.8.8.3.;.#.k.(.;X;X;X:X:X>X>X1X1X1X",
"7X7X1X1X1X1X1X>X>X:X:XI.;.O.=.;.;.k.;X(.;.8.j.l.l.l.y.f.T.T.N.N.v.L.I.I.I.N.P.P z 9.I.I.^.^.^.^.(.(.(.(.(.(.;X:X^.n.<X<X<X>X:X:XN.P.:X1X1X1X1X2X7.k.1X1X1X1X1X<X3X3X1X1X3X3X3X3X3X3X3X3X3X3X3X3X3X3X3X3X7X7X7X7X7X7X7X7X7X7X7X7X7X5X1X7X7X5X9XA.` | ' +XrX9X9X8X7X7X7X7X8X0X0X0X0X0X0X0X0X0X0X0X0X0X0X0X0X0X0X0X0X0X0X0X0X0X0X0X0X0X0X0XpXpX0X0X0X0XpXpXpXpXpXpXpXpXpXpXpXpXpXpXpXpXpXpXpXpXpXpXpXpXpXpXpXpXpXpXpXpXpXpXpXpXpXpX0X0X0X0XpXpXpXpXkXkXkXkXkXkXkXkXkXkXkXkXkXkXkXkXkXkXkXkXkXkXkXkXVXkXkXkXkXkXVXkXVXkXkXkXkXkXkXkXkXkXkXkXkXkXkXkXkXkXkXkXkXkXVXkXkXkXkXkXkXkXkXkXkXkXkXkXkXpXpXpXpXpXpXpXkXkXkXkXkXkXkXkXkXkXkXkXpXpXpXpXpXpXpXpXpXpXpXpXpXpXpXpXpXpXpXpXpXpXpXpXpXpXpXpXpXpXpXpXpXpXpXpX0XpX0XpXpXpXpXpX0X0X0X0X0X0X0X0X0X0X0X0X0X0X0X0X0X0X0X0X8X8X0X0X9X7X7X7X7X7X7X7X7X7X7X7X7X7X7X7X5X[.{ #X` ~.uX7X3X7X7X7X7X7X7X7X1X1X3X3X1X1X3X3X3X3X3X3X1X1X1X1X1X1X1X1X1X1X1X1X1X1X1X1X1X1X>X>X:X1X3Xv.8.<X:X:X:X:X:X:X:X:X:X:X;X;X:X;X;X(.(.(.(.(.(.(.;X;X-X(.^.^.^.^.I.#.t.(.I.I.I.P.P.I.I.I.M.l.l.l.l.k.j.e.;.z #.7.7.7.;.#.k.(.;X-X;X:X>X>X>X1X1X1X",
"7X7X1X1X1X1X1X>X>X:X:XI.;.O.=.;.;.k.;X(.;.8.j.z.l.l.f.k.T.T.N.L.n.P.(.^.I.L./.T z 9.I.^.^.^.^.^.(.(.-X(.(.(.;X:X^.n.<X<X<X<X:X:XP.P.:X:X>X1X1X2X7.k.1X1X1X1X1X<X3X3X1X1X3X3X3X3X3X3X3X3X3X3X3X3X3X3X3X3X7X7X7X7X7X7X7X7X7X7X7X7X5X3X1X5X7X5XiXA.` | ' +XrX8X8X8X7X7X7X7X8X0X0X0X0X0X0X0X0X0X0X0X0X0X0X0X0X0X0X0X0X0X0X0X0X0X0X0X0X0X0X0XpX0X0X0X0X0XpXpXpXpXpXpXpXpXpXpXpXpXpXpXpXpXpXpXpXpXpXpXpXpXpXpXpXpXpXpXpXpXpXpXpXpXpXpX0X0X0X0XpXpXpXpXkXkXkXkXkXkXkXkXkXkXkXkXkXkXkXkXkXkXkXkXkXkXkXkXVXkXkXkXkXkXVXkXVXkXkXkXkXkXkXVXkXkXkXkXkXkXkXkXVXkXkXkXkXkXVXkXkXkXkXkXkXkXkXkXkXkXkXkXkXkXkXkXpXpXpXpXkXkXkXkXkXkXkXkXkXkXkXkXpXpXpXpXpXpXpXpXpXpXpXpXpXpXpXpXpXpXpXpXpXpXpXpXpXpXpXpXpXpXpXpXpXpXpXpX0X0XpXpXpXpXpXpX0X0X0X0X0X0X0X0X0X0X0X0X0X0X0X0X0X0X0X0X9X8X0X0X7X7X7X7X7X7X7X7X7X7X7X7X7X7X7X7X3X[.{ #X` ~.eX7X3X7X7X7X7X7X7X7X1X1X3X3X3X3X3X3X1X1X1X1X1X1X1X1X1X1X1X1X1X1X1X1X1X1X1X1X1X1X>X>X:X1X3Xv.8.<X:X:X:X:X:X:X:X:X:X:X:X:X:X;X(.(.(.(.(.(.(.(.;X-X-X(.^.^.(.^.I.#.t.(.I.I.I.P.P.I.I.I.M.l.l.l.l.k.f.e.;.c P ,.7.;.=.#.k.(.;X;X>X>X>X>X>X1X1X1X",
"7X7X1X1X1X1X1X>X>X:X:XI.;.#.:.;.;.k.;X(.;.8.j.z.b.k.y.n.N.N.P.L.v.L.I.I.N.M.I.T z 9.I.^.^.^.^.^.-X-X-X-X(.(.;X;X^.v.>X<X>X>X:X:X(.^.:X:X>X1X<X2X7.k.1X1X1X1X1X1X3X3X1X1X3X3X3X3X3X3X3X3X3X3X3X3X3X3X3X3X7X7X7X7X7X7X7X7X7X7X7X7X8X5X1X5X7X7XiXA.` | ^ +X6X7X9X9X8X9X7X7X8X8X0X0X0X0X0X0X0X0X0X0X0X0X0X0X0X0X0X0X0X0X0X0X0X0X0X0X0X0X0X0XpXpXpXpXpXpXpXpXpXpXpXpXpXpXpXpXpXpXpXpXpXpXpXpXpXpXpXpXpXpXpXpXpXpXpXpXpXpXpXpXpXpXpXpX0X0X0X0XpXpXpXpXkXkXkXkXkXkXkXkXkXkXkXkXkXkXkXkXkXkXkXkXkXkXVXVXkXkXkXkXkXkXkXkXkXkXkXkXkXkXkXVXkXkXkXkXkXkXVXVXkXkXkXkXkXkXkXkXkXkXkXkXkXkXkXkXkXkXkXkXkXkXkXkXpXpXpXpXkXkXkXkXkXkXkXkX0X0XkXPXpXpXpXpXpXpXpXpXpXpXpXpXpXpXpXpXpXpXpXpXpXpXpXpXpXpXpXpXpXpXpXpXpXpXpXpXpX0XpXpXpXpXpXpX0X0X0X0X0X0X0X0X0X0X8X8X0X0X0X0X0X0X0X0X9X9X0X0X9X9X7X7X7X7X9X9X7X9X7X7X8X8X7X7X3X}.' | ` ~.eX1X3X7X7X7X3X7X3X3X1X1X3X3X3X1X<X<X<X1X1X1X1X1X1X1X3X3X3X3X1X1X1X1X1X1X1X1X1X1X>X>X:X1X3Xv.8.<X:X:X:X:X:X:X:X:X:X:X:X:X:X;X;X;X(.;X(.(.(.(.;X;X-X(.^.^.(.(.I.#.t.(.I.I.I.P.P.P.I.I.M.l.l.l.l.k.k.e.;.;.;.,.7.7.;.#.k.(.;X-X>X>X>X>X>X1X1X1X",
"7X7X1X1X1X1X1X>X1X:X:XI.;.#.:.;.;.f.;X;X;.8.j.z.v.k.f.N.N.N.P.P.l.n.P.N.v.b.L.P z 9.I.^.^.^.^.^.(.-X-X-X(.(.;X;X^.v.>X>X>X>X:X<X<X:X1X1X1X1X<X(.7.j.2X1X1X1X1X1X3X3X1X1X3X3X3X3X3X3X3X3X3X3X3X3X3X3X3X3X7X7X7X7X7X7X7X3X7X7X7X7X7X5X1X5X7X7X9XA.` | ^ _.6X7X9X9X0X9X7X7X9X0X0X0X0X0X0X0X0X0X0X0X0X0X0X0X0X0X0X0X0X0X0X0X0X0X0X0X0X0X0X0XpXpXpXpXpXpXpXpXpXpXpXpXpXpXpXpXpXpXpXpXpXpXpXpXpXpXpXpXpXpXpXpXpXpXpXpXpXpXpXpXpXpXpXpX0X0X0X0XpXpXpXpXkXkXkXkXkXkXkXkXkXkXkXkXkXkXkXkXVXVXkXkXkXkXkXkXkXkXkXkXkXkXkXkXkXkXkXkXkXkXkXkXVXVXkXkXkXkXkXkXkXkXkXkXkXkXkXkXkXkXkXkXkXkXkXkXkXkXkXkXkXkXkXkXpXpXpXpXkXkXkXkXkXkXkXkX0X0X0X0XpXpXpXpXpXpXpXpXpXpXpXpXpXpXpXpXpXpXpXpXpXpXpXpXpXpXpXpXpXpXpXpXpXpXpXpXpXpXpXpXpXpXpXpX0X0X0X0X0X0X0X0X0X0X8X8X0X0X0X0X0X0X0X0X9X9X0X0X9X7X7X7X7X7X7X9X9X9X7X7X8X8X7X7X3X}.' | ` ~.eX1X3X3X7X7X3X3X3X3X1X1X3X3X1X<X;X(.;X:X1X1X1X1X1X1X3X3X3X3X1X1X1X1X1X1X1X1X1X1X1X1X:X1X3Xv.8.<X:X:X:X:X:X:X:X:X:X:X:X:X;X;X;X;X;X;X(.(.(.(.;X;X;X(.^.^.(.(.I.#.t.(.I.I.I.P.P.P.I.I.M.l.l.l.l.k.k.e.8.8.8.7.7.8.7.&.k.(.-X-X>X>X>X>X>X1X1X1X",
"7X7X1X1X1X1X1X>X1X>X>XI.:.#.=.:.,.f.;X;X,.8.k.l.b.v.n.n.M.P.P.P.M.M.I.^.I.P.P.Y z 9.I.^.(.(.(.-X^.^.;X;X;X;X;X;X^.v.:X<X:X:X>X>X<X1X>X>X:X1X2Xy.Y x.1X1X1X1X1X1X3X3X3X1X3X3X3X3X3X3X3X3X3X3X3X3X3X3X3X3X7X7X7X7X7X7X7X7X7X7X7X7X7X7X5X8X7X3X6XA.` | Q .XtX8X9X0X9X9X9X9X9X9X9X9X0X0X0X0X0X0X0X0X0X0X0X0X0X0X0X0X0X0X0X0X0X0X0X0X0X0X0X0XpXpXpXpXpX0XpXpXpXpXpXpX0X0X0X0X0XPXpXpXpXpXpXpXpXpXpXpXpXpXpXpXpXpXpXpXpXpXpXpXpXpXpXpXpXpXpXpXpXpXpXpXpXpXpXpXpXpXpXpXkXkXkXkXkXkXkXkXkXkXkXkXkXkXkXkXkXkXkXkXVXkXkXkXkXkXkXkXkXkXkXkXVXVXkXkXkXVXVXkXkXkXkXVXkXkXkXkXkXkXkXVXkXkXkXkXkXkXkXkXkXkXkXkXkXkXkXkX0X0XkXkXpXpXpXpXpXpXpXpXpXpXkXkXPX0X0X0XpXpXpXpXpXpXpXpXpXpXpXpXpXpXpXpXpXpXpXpXpXpXpXpXpXpXpXpXpXpXpXpX0X0X0XpX0X0X0X0X0X0X0X0X0X0X0X0X0X0X0X0X0X9X9X9X9X9X9X9X9X8X8X8X9X9X7X7X7X7X7X7X7X7X7X7X3X}.' | `  XuX7X7X7X7X7X7X7X3X3X3X3X3X3X2X<X(.;X;X:X1X1X3X3X3X3X3X3X3X3X1X1X1X1X1X1X1X1X1X1X1X1X<X1X3Xv.e.1X:X1X:X:X:X:X:X:X:X:X:X:X;X;X;X;X;X;X;X;X;X;X;X;X;X(.^.^.(.(.L.#.t.(.^.^.P.N.I.I.I.I.n.v.b.l.z.z.k.f.8.7.7.8.,.7.,.=.k.(.;X;X:X:X<X<X<X<X1X1X",
"7X7X1X1X1X1X1X>X>X>X:XP.=.#.:.:.;.t.;X;X7.8.j.l.k.l.n.P.M.P.P.P.P.L.I.(.:X(.(.T B t.(.;X(.(.-X-X^.^.;X;X;X;X;X;X^.v.:X<X:X:X>X>X:X>X:X:X<X<X'.9.;.k.;X1X1X1X1X1X3X3X1X1X3X3X3X3X3X3X3X3X3X3X3X3X3X3X3X3X7X7X7X7X7X7X7X7X7X7X7X7X7X7X5X5X5X3X6X!.` | Q .XiX7X7X0X9X9X9X9X9X9X9X9X0X0X0X0X0X9X0X0X0X0X0X0X0X0X0X0X0X0X0X0X0X0X0X0X0X0X0X0XpXpXpXpX0X0XpXpXpXpXpXpX0X0X0X0XPXPX0X0XpXpXpXpXpXpXpXpXpXpXpXpXpXpXpXpXpXpXpXpXpXpXpXpXpXpXpXpXpXpXpXpXpXpXpXpXpXpXpXpXkXkXkXkXkXkXkXkXkXkXkXkXkXkXkXkXkXkXkXkXVXkXkXkXkXkXkXkXkXkXkXkXkXVXkXkXkXkXkXkXkXkXkXkXkXkXkXkXkXkXkXVXkXkXkXkXkXkXkXkXkXkXkXkXkXkXkXkX0X0XkXkXpXpXpXpXpXpXpXpXpXpXkXkXPXPX0X0XpXpXpXpXpXpXpXpXpXpXpXpXpXpXpXpXpXpXpXpXpXpXpXpXpXpXpXpXpXpXpXpX0X0XpXpX0X0X0X0X0X0X0X0X0X0X0X0X0X0X0X0X0X9X9X9X9X9X9X9X9X9X8X8X9X9X7X9X7X7X7X7X7X7X7X7X5X}.' | `  XuX7X7X7X3X7X7X7X3X3X3X3X3X5X2X(.(.:X<X1X1X1X3X3X3X3X3X3X3X3X1X1X1X1X1X1X1X1X1X1X1X1X<X1X3Xx.f.1X:X1X:X:X:X:X:X:X:X:X:X:X;X;X;X;X;X;X;X;X;X;X;X;X;X(.^.^.(.(.P.%.t.(.^.^.P.N.I.I.I.I.n.v.b.l.k.z.k.f.8.7.,.7.,.7.,.=.k.(.:X;X:X:X<X<X<X<X1X1X",
"7X7X1X1X1X1X1X>X>X>X:XN.=.#.:.:.;.t.;X-X8.8.f.k.k.j.v.P.M.T.P.P.P.M.N.^.(.I.I.P N 0.I.^.(.(.(.(.^.^.;X;X;X;X;X;X^.v.:X<X:X:X:X>X:X:X:X:X1X2X'.z.7.j.;X1X1X1X1X1X3X3X1X1X3X3X3X3X3X3X3X3X3X3X3X3X3X3X3X3X7X7X7X5X3X1X7X7X7X7X7X7X7X7X5X5X3X3X8X}.` { ^ .XiX8X7X0X0X9X9X9X9X9X9X9X0X0X0X0X9X9X9X9X0X0X0X0X0X0X0X0X0X0X0X0X0X0X0X0X0X0X0X0XpXpXpXpX0XpXpXpXpXpXpXpX0X0X0X0XPX0X0X0XpXpXpXpXpXpXpXpXpXpXpXpXpXpXpXpXpXpXpXpXpXpXpXpXpXpXpXpXpXpXpXpXpXpXpXpXpXpXpXpXkXkXkXkXkXkXkXkXkXkXkXkXkXkXkXkXkXkXkXkXkXkXkXkXkXkXkXVXkXkXkXkXkXkXkXkXkXkXkXkXkXkXkXkXVXkXkXkXkXkXkXkXkXkXkXkXkXkXkXkXkXkXkXkXkXkXkXkX0X0X0XpXpXpXpXpXpXpXpXpXpXpXpXkXpXpX0X0XpXpXpXpXpXpXpXpXpXpXpXpXpXpXpXpXpXpXpXpXpXpXpXpXpXpXpXpXpXpXpXpXpXpXpXpX0X0X0X0X0X0X0X0X0X0X0X0X0X0X0X0X0X9X9X9X9X9X9X9X7X7X7X7X9X7X7X9X7X7X7X7X7X7X7X7X5X}.' | ` |.yX9X7X7X3X3X3X3X3X3X3X3X3X5X5XL.b.(.2X3X3X3X3X3X3X3X3X3X3X3X1X1X1X1X1X1X1X1X1X1X1X1X<X1X3Xx.f.1X:X:X:X:X:X:X:X:X:X:X:X:X;X;X;X;X;X;X;X;X;X;X;X;X;X(.(.^.(.(.P.%.y.(.^.^.I.N.I.I.I.I.n.v.v.l.k.k.k.f.8.,.,.,.,.7.,.=.j.(.:X:X:X:X<X<X<X<X1X1X",
"7X7X1X1X1X1X1X>X;X>X:XN.;.=.:.:.;.t.;X-X8.8.f.j.b.j.j.n.M.T.P.I.M.v.n.P.P.L.L.P N 0.Y.^.(.(.(.(.^.^.;X;X;X(.;X;X^.v.:X>X:X:X:X:X:X:X:X:X1X;X9.2.3.p.<X1X1X1X1X1X3X3X1X1X3X3X3X3X3X3X3X3X3X3X3X3X3X3X3X3X7X7X7X7X;X>X1X1X7X7X7X7X7X7X8X5X3X3X8X}.` | ^ _.5X7X7X9X9X9X9X9X9X9X9X9X0X0X0X0X9X9X9X9X0X0X0X0X0X0X0X0X0X0X0X0X0X0X0X0X0X0X0X0XpXpXpXpX0X0XpXpXpXpXpXpX0X0X0XPX0X0X0X0XpXpXpXpXpXpXpXpXpXpXpXpXpXpXpXpXpXpXpXpXpXpXpXpXpXpXpXpXpXpXpXpXpXpXpXpXpXpXpXpXkXkXkXkXkXkXkXkXkXkXkXkXkXkXkXkXkXkXkXkXkXkXkXkXkXkXkXVXkXkXkXkXkXkXkXkXkXkXkXkXkXkXkXkXkXkXkXkXkXkXkXkXkXkXkXkXkXkXkXkXkXkXkXkXkXkXkXkX0X0X0X0XpXpXpXpXpXpXpXpXpXpXpXkXkX0X0X0XpXpXpXpXpXpXpXpXpXpXpXpXpXpXpXpXpXpXpXpXpXpXpXpXpXpXpXpXpXpXpXpXpXpXpXpX0X0X0X0X0X0X0X0X0X0X0X0X0X0X0X0X0X9X9X9X7X9X9X9X7X7X7X7X9X9X7X7X7X7X7X7X7X7X7X7X5X}.' | ` |.yX9X7X7X3X3X3X3X3X3X3X3X3X3X1X(.U.<X3X3X3X3X3X3X3X3X3X3X3X3X1X1X1X1X1X1X1X1X1X1X1X1X<X1X3Xx.g.1X:X:X:X:X:X:X:X:X:X:X:X:X;X;X;X;X;X;X;X;X;X;X;X;X;X(.^.^.(.(.G.%.y.(.^.^.P.N.I.I.I.I.n.v.v.l.k.k.k.f.7.,.;.,.,.7.,.=.f.^.:X<X:X:X<X:X<X<X1X1X",
"7X7X1X1X1X1X1X>X;X:X:XN.;.=.-.=.;.f.I.;Xt.8.t.t.z.y.e.v.N.N.N.N.M.N.P.I.P.I.L.T B 0.I.^.(.(.^.^.^.^.;X;X;X;X;X;X^.v.>X:X:X:X:X:X;X:X:X:X;XP.q.2.3.p.<X1X1X1X1X<X1X1X1X1X1X1X3X3X3X3X3X3X3X3X3X3X3X3X3X3X5X5X5X5X^.v.:X3X5X5X3X3X7X7X7X7X3X3X9X}.'  X' [.5X7X5X7X7X9X9X9X9X9X9X9X0X0X9X0X0X0X9X9X0X0X0X0X0X0X0X0X0X0X0X0X0X0X0X0X0X0X0X0X0X0XpXpXpXpXpXpXpXpXpXpX0X0X0XPX0X0X0X0XpXpXpXpXpXpXpXpXpXpXpXpXpXpXpXpXpXpXpXpXpXpXpXpXpXpXpXpXpXpXpXpXpXpXpXpXpXpXpXpXpXpXpXpXpXpXpXpXkXkXkXkX0X0XkXkXkXkXkXkXkXkXVXkXkXkXkXVXVXkXkXkXkXkXkXkXkXkXkXVXkXkXkXkXkXkXkXkXkXkXkXkXkXkXkXkXkXkXkXkXkXkXkXkXkXkX0XpXpXpXpXpXpXpXpXpXpXpXpXpXkXkX0X0XkXkXkXkXpXpXpXpXpXpXpXpXpXpXpXpXpXpXpXpXpXpXpXpXpXpXpXpX0X0X0X0XpXpXpXpX0X0X0X0X0X0X0X0X0X0X0X0X0X0X0X0X0X0X0X9X9X9X9X9X7X7X0X8X8X9X7X7X9X9X9X7X7X7X7X7X7X3X3X7X6X}.'  X_ |.tX7X7X3X3X3X3X3X3X3X3X3X3X5X3X5X5X3X3X3X3X3X3X3X3X3X3X3X3X3X1X1X1X1X1X1X1X1X<X<X<X1X<X1X3Xv.g.1X:X:X:X:X:X:X:X:X:X:X:X:X;X;X;X;X;X;X;X;X;X;X;X;X(.^.^.I.(.(.G.=.y.(.^.I.P.n.P.P.I.I.n.l.l.l.k.k.k.y.8.,.;.&.,.8.;.@.7.I.:X(.^.:X<X:X1X1X1X1X",
"7X7X1X1X1X1X1X>X;X:X:XN.8.;.#.T #.f.-X;Xt.8.y.f.j.y.y.n.N.N.N.N.M.N.P.I.P.I.L.T B t.I.^.^.(.^.^.^.^.-X;X;X;X;X;X^.v.>X:X:X:X:X:X:X:X:X:X;X:X(.L.3.p.<X1X1X1X1X<X3X3X1X1X1X1X3X3X3X3X3X3X3X3X3X3X3X3X3X3X5X5X5X5X:XI.1X3X5X5X3X3X7X7X7X7X5X5XiX}.'  XZ.[.5X7X7X7X7X7X9X9X9X9X9X9X0X0X9X9X0X0X0X0X0X0X0X0X0X0X0X0X0X0X0X0X0X0X0X0X0X0X0X0X0X0XpXpXpXpXpX0XpXpXpXpX0X0X0X0X0X0X0X0XpXpXpXpXpXpXpXpXpXpXpXpXpXpXpXpXpXpXpXpXpXpXpXpXpXpXpXpXpXpXpXpXpXpXpXpXpXpXpXpXpXpXpXpXpXpXpXpXkXkXkXkX0X0XkXpXkXkXkXkXkXkXkXkXkXkXkXkXkXkXkXkXkXkXkXkXkXkXkXVXkXkXkXkXkXkXkXkXkXkXkXkXkXkXkXkXkXkXkXkXkXkXkXkX0X0X0XpXkXpXpXpXpXpXpXpXpXpXpXpXkX0X0X0XkXkXkXkXpXpXpXpXpXpXpXpXpXpXpXpXpXpXpXpXpXpXpXpXpXpXpXpXpXpX0X0XpXpXpXpX0X0X0X0X0X0X0X0X0X0X0X0X0X0X0X0X9X9X9X9X9X9X9X9X9X7X9X7X9X9X7X7X9X9X9X7X7X7X7X7X3X:X>X3X3X}.'  X` XXrXwX7X3X3X3X3X3X3X3X3X3X3X3X3X3X3X3X3X3X3X3X3X3X3X3X3X3X3X3X1X1X1X1X1X1X<X<X<X<X<X<X<X1X3Xv.g.1X:X:X:X:X:X:X:X:X:X:X:X:X;X;X;X;X;X;X;X;X;X;X;X;X(.^.I.I.(.(.n.%.t.(.^.P.L.n.P.P.I.I.n.l.l.l.k.k.k.f.8.8.o.k ;.8.8.;.8.I.(.(.I.:X<X:X1X1X1X1X",
"7X7X1X1X1X1X1X>X;X:X:XN.t.y.7.Y P 7.T.;Xt.8.j.k.k.j.y.l.N.N.N.N.M.N.P.I.P.I.L.T B 0.I.^.^.^.^.^.^.^.-X;X(.(.;X;X^.n.>X;X:X:X:X:X:X:X:X:X:X<X5XY.3.p.<X1X>X>X1X<X1X1X1X1X1X1X3X3X3X3X3X3X3X3X3X3X3X3X3X3X5X5X5X5X:X:X5X3X5X5X3X3X7X7X7X7X5X5XtX}.'  Xu.[.5XwX7X7X7X7X9X9X9X9X9X9X9X9X9X9X0X0X0X0X0X0X0X0X0X0X0X0X0X0X0X0X0X0X0X0X0X0X0X0X0X0XpXpXpXpX0X0XpXpXpXpX0X0X0X0X0X0X0X0XpXpXpXpXpXpXpXpXpXpXpXpXpXpXpXpXpXpXpXpXpXpXpXpXpXpXpXpXpXpXpXpXpXpXpXpXpXpXpXpXpXpXpXpXpXpXpXpXkXkXkXkX0X0X0X0XkXkXkXkXkXkXkXkXpXpXpXpXkXkXkXkXkXkXkXkXkXkXkXkXkXkXkXkXkXkXkXkXkXkXkXkXkXkXkXkXpXpXpXpXpXpXpXpX0X0XPXPXkXkXpXpXpXpXpXpXpXpXpXpXkXkX0X0X0X0XkXkXpXpXpXpXpXpXpXpXpXpXpXpXpXpXpXpXpXpXpXpXpXpXpXpXpXpXpXpXpXpXpXpX0X0X0X0X0X0X0X0X0X0X0X0X0X0X0X0X9X9X9X9X9X9X9X9X8X7X7X7X9X9X9X7X9X9X9X7X7X7X7X7X3X>X>X3X3X}.'  X' OXrXwX7X7X3X3X3X3X3X3X3X3X3X3X3X3X3X3X3X3X3X3X3X3X3X3X3X3X3X3X3X1X<X:X<X<X<X<X<X<X<X<X<X1X3Xv.g.1X:X:X:X:X:X:X:X:X:X:X:X:X;X;X;X;X;X;X;X;X;X;X;X;X;X^.I.I.(.(.G.#.t.(.^.P.L.n.P.P.I.I.n.l.l.l.k.k.k.f.t.8.A h 8.t.e.8.y.I.(.(.(.:X<X:X1X1X1X1X",
"7X7X1X1X1X1X1X>X;X:X;XN.e.k.v.k.e.t.M.I.t.8.k.b.b.z.t.f.N.N.N.M.M.N.I.I.P.I.L.T B t.I.^.^.^.^.^.^.^.;X(.(.;X;X;X^.n.>X;X:X:X;X:X:X<X:X:X:X1X1X:X3.p.<X1X>X1X1X<X1X1X1X1X1X1X3X3X3X3X3X3X3X3X3X3X3X3X3X3X5X5X5X5X(.<X5X3X5X5X3X3X7X7X7X7X5X5XtX}.'  Xu.[.5XwX7X7X7X7X9X9X9X9X9X9X9X9X9X9X0X0X0X0X0X0X0X0X0X0X0X0X0X0X0X0X0X0X0X0X0X0X0X0X0X0XpXpXpXpX0X0X0XpXpXpX0X0X0X0X0X0X0X0XpXpXpXpXpXpXpXpXpXpXpXpXpXpXpXpXpXpXpXpXpXpXpXpXpXpXpXpXpXpXpXpXpXpXpXpXpXpXpXpXpXpXpXpXpXpXpXpXkXkXkXkX0X0X0X0XkXkXkXkXkX0X0X0XpXpXpXpXpXpXkXkXkXkXkXkXkXkXkXkXkXkXkXkXkXkXkXkXkXkXkXkXkXkX0X0XpXpXpXpXpXpXpXpX0X0XPXkXkXkXpXpXpXpXpXpXpXpXpXpXkXkX0X0X0X0XPXkXpXpXpXpXpXpXpXpXpXpXpXpXpXpXpXpXpXpXpXpX0XpXpXpXpXpXpXpXpXpXpXpX0X0X0X0X0X0X0X0X0X0X0X0X0X0X0X0X9X9X9X9X9X9X9X9X7X7X7X7X9X9X9X9X9X9X9X7X7X7X7X7X5X3X3X5X5X}.'  X' XXrXwX7X3X3X3X3X3X3X3X3X3X3X3X3X3X3X3X3X3X3X3X3X3X3X3X3X3X3X3X3X1X:X:X<X<X<X<X<X<X<X<X<X1X3Xv.f.1X:X:X:X:X:X:X:X:X:X:X:X:X;X;X;X;X;X;X;X;X;X;X;X;X;X^.I.I.(.(.L.#.e.(.^.P.L.n.P.P.I.I.n.l.l.l.k.k.k.f.t.,.A #.t.k.t.7.k.(.;X;X;X:X:X:X1X1X1X1X",
"7X7X1X1X1X1X1X1X,X,X-XN.g.l.v.l.f.y.b.N.t.8.f.l.n.z.e.e.k.k.v.N.L.P.P.I.^.I.L.Y N f.^.^.(.(.;X;X;X;X;X;X;X;X;X:XP.l.:X;X;X;X;X;X:X:X:X:X:X1X1X<X;.p.2X1X1X>X1X1X1X1X1X1X1X1X3X3X3X3X1X1X1X1X1X3X3X3X3X3X3X3X3X3X;X3X3X3X3X3X3X3X5X5X5X5X3X<X6X}.' { u.[.5X7X7X7X7X7X7X7X9X9X9X9X9X9X9X9X9X9X9X9X0X0X0X0X0X0X0X0X0X0X0X0X0X0X0X0X0X0X0X0X0X0X0X0X0X0X0X0XpXpXpXpX0X0X0XpXpXpXpXpXpXpXpXpXpXpXpXpXpXpXpXpXpXpXpXpXpXpXpXpXpXpXpXpX0X0X0X0X0X0X0X0XpXpXpXpXpXpXpXpXpXpXpXpXpXpXpXpXpXpXpXpXpXpXpXpXkXkXkXkXkX0X0XkXpXpXpXpXpXpXpXpXkXkXkXkXkXkXkXkXkXkXkXkXkXkXkXkXkXkXkXkXVXkXkX0XpXpXpXpXpXpXpXpXpXpXpXpXpXpXpXpXkXkX0X0XpXpXkXkXpXpXpXpXpXpXpXpXpXpXpXpXpXpXpXpXpXpXpXpXpXpXpXpXpXpXpX0X0X0X0XpX0X0X0X0X0X0X0X0X0X0XqXqX0X0X0X0X0X0X0X0X0X0X0X0X7X9X9X9X8X9X9X9X7X7X9X9X8X8X8X8X7X7X7X7X7X7X7X7X5X5X5X5X6X[.S. X' +XrXwX3X3X3X3X7X7X7X7X3X3X3X3X3X3X3X3X3X3X3X3X3X3X3X3X3X3X3X3X1X1X1X<X<X1X1X1X1X1X1X1X>X>X3Xv.f.1X:X:X:X:X:X:X:X:X:X:X:X:X;X;X;X;X;X;X(.(.(.(.;X^.^.^.^.^.^.(.P.P r.(.^.I.P.N.P.N.P.^.M.b.l.l.c.k.k.f.e.=.I #.f.l.f.8.z.(.;X;X;X:X:X:X<X1X1X1X",
"7X7X1X1X1X1X1X1X,X,X-XM.g.l.v.l.f.y.b.N.t.8.y.k.k.j.e.t.k.k.l.M.P.P.I.I.I.Y.H.Y z j.^.^.;X;X;X;X;X;X;X;X<X<X<X<Xk.v.:X;X;X;X;X;X:X:X:X;X:X1X1X<X3.p.2X1X1X>X1X1X1X1X1X1X1X3X3X1X1X1X1X1X1X3X3X3X3X3X3X3X3X3X3X1X1X3X3X3X5X5X3X3X5X5X5X3X3X<X6X}.~.~.^ `.5X7X7X7X7X9X7X7X9X9X9X9X9X9X9X9X9X9X9X9X0X0X0X0X0X0X0X0X0X0X0X0X0X0X0X0X0X0X0X0X0X0X0X0X0X0X0X0XpXpXpXpX0XpX0XpXpXpXpXpXpXpXpXpXpXpXpXpXpXpXpXpXpXpXpXpXpXpXpXpXpXpXpXpX0X0X0X0X0X0X0X0XpXpXpXpXpXpXpXpXpXpXpXpXpXpXpXpXpXpXpXpXpXpXpXpXkXkXkXkXkX0X0X0XpXpXpXpXpXpXpXpXkXkXkXkXkXkXkXkXpXpXpXpXkXkXkXkXkXkXkXkXVXkX0X0XpXpXpXpXpXpXpXpXpXpXpXpXpXpXpXpXkXPX0X0XpXkXkXPXpXpXpXpXpXpXpXpXpXpXpXpXpXpXpXpXpXpXpXpXpXpXpXpXpXpXpXpX0X0XpXpX0X0X0X0X0X0X0X0X0XqXqXqX0X0X0X0X0X0X0X0X0X0X0X0X7X7X9X9X8X8X9X9X7X7X7X9X8X8X8X8X7X7X7X7X7X7X7X7X7X5X5X3X6X`.F. X' +X6X1X3X3X3X3X7X7X7X7X3X3X3X3X3X3X3X3X3X3X3X3X3X3X3X3X3X3X3X1X1X1X1X1X1X1X1X1X1X1X1X1X>X:X1Xv.f.1X:X:X:X:X:X:X:X:X:X:X:X:X;X;X;X;X;X;X(.(.(.(.;X^.^.^.^.^.^.^.L.P 8.(.I.I.P.M.L.M.L.I.M.b.l.l.c.k.k.f.e.;.P =.j.l.j.8.l.(.;X;X;X:X:X:X<X1X1X1X",
"7X7X1X1X1X1X1X1X,X,X-XN.c.v.v.x.f.y.b.N.t.8.t.f.j.j.t.y.b.j.k.n.I.P.P.L.I.Y.L.Y h 7.k.8.t.t.t.t.t.p.p.p.p.z.p.;.#.Y.<X;X:X:X:X:X:X:X;X;X:X1X1X<X7.j.2X1X>X>X>X>X1X1X1X1X1X:X:X:X1X1X1X1X1X1X1X1X3X3X3X3X3X3X3X3X3X3X3X3X5X5X5X5X5X5X3X3X1X:X6X}.|.|.^ [.5X7X7X7X9X9X9X9X9X9X9X9X9X9X9X9X9X9X9X9X0X0X0X0X0X0X0X0X0X0X0X0X0X0X0X0X0X0X0X0X0X0X0X0X0X0X0X0XpXpXpXpXpXpXpXpXpXpXpXpXpXpXpXpXpXpXpXpXpXpXpXpXpXpXpXpXpXpXpXpXpXpXpXpX0X0X0X0X0XpXPX0XpXpXpXpXpXpXpXpXpXpXpXpXpXpXpXpXpXpXpXpXpXpXpXpXkXkXkXkX0X0X0X0XpXpXpXpXpXpXpXpXkXkXkXkXkXkX0X0XpXpXpXpXkXkXkXkXkXkXkXkXVXkX0X0XpXpXpXpXpXpXpXpXpXpXpXpXpXpXpXpXkXkXpX0XpXpXPXPXpXpXpXpXpXpXpXpXpXpXpXpXpXpXpXpXpXpXpXpX0X0XpXpXpXpXpXpXpXpXpXpX0X0X0X0X0X0X0X0X0X0XqXqX0X0X0X0X0X0X0X0X0X0X0X0X9X9X9X9X0X0X0X0X7X7X9X9X9X9X8X8X7X7X7X7X7X7X7X7X7X5X3X3X5X`.F.|.' _.4X1X3X3X3X3X3X3X3X3X3X3X3X3X3X3X3X3X3X3X3X3X3X3X3X3X3X3X3X1X1X1X1X1X1X1X1X1X1X1X1X1X>X:X1Xv.f.1X:X:X:X:X:X:X:X:X:X:X:X:X;X;X:X:X;X;X;X(.;X;X;X^.^.^.^.^.^.^.L.P e.(.I.I.P.M.N.M.M.P.M.v.l.l.c.k.k.f.e.,.#.7.j.l.j.8.l.(.;X;X;X:X:X:X<X1X1X1X",
"7X7X1X1X1X1X1X1X,X,X-XM.c.v.v.x.f.y.b.N.t.8.8.t.z.l.f.a.n.j.f.n.L.L.n.v.I.I.L.Y s 7.k.8.7.7.7.7.9.9.9.9.9.9.3.%.x.;X<X:X:X:X:X:X:X:X;X;X:X1X1X<X9.z.1X1X1X>X>X>X1X1X1X1X<XI.N.;X1X1X1X1X1X1X1X1X3X3X3X3X3X3X3X3X3X3X3X3X5X5X5X5X5X5X3X3X1X:X6X}.|.$X^ [.5X7X7X7X9X9X9X9X9X9X9X9X9X9X9X9X9X9X9X9X0X0X0X0X0X0X0X0X0X0X0X0X0X0X0X0X0X0X0X0X0X0X0X0X0X0X0X0XpXpXpXpXpXpXpXpXpXpXpXpXpXpXpXpXpXpXpXpXpXpXpXpXpXpXpXpXpXpXpXpXpXpXpXpX0X0X0X0XkXpXPXPXpXpXpXpXpXpXpXpXpXpXpXpXpXpXpXpXpXpXpXpXpXpXpXpXkXkXkXkX0X0X0X0XpXpXpXpXpXpXpXpXkXkXkXkXkX0X0X0XpXpXpXpXkXkXkXkXkXkXkXkXkXkX0X0XpXpXpXpXpXpXpXpXpXpXpXpXpXpXpXpXkXkXpXpXpXpXPXPXpXpXpXpXpXpXpXpXpXpXpXpXpXpXpXpXpXpXpXpX0X0XpXpXpXpXpXpXpXpXpXpX0X0X0X0X0X0X0X0X0X0XqXqXqX0X0X0X9X0X0X0X0X0X0X0X9X9X9X9X0X0X0X0X7X7X9X9X9X9X8X8X7X7X7X7X7X7X7X7X7X5X3X3X5X`.F.|.' !.4X>X3X3X3X3X3X3X3X3X3X3X3X3X3X3X3X3X3X3X3X3X3X3X3X3X3X3X3X1X1X1X1X1X1X1X<X<X1X1X1X1X>X:X1Xv.f.1X:X:X:X:X:X:X:X:X:X:X:X:X;X;X:X:X;X;X;X;X;X;X;X^.^.^.^.^.^.^.L.P e.(.I.I.L.M.M.v.M.P.M.v.l.l.c.k.k.f.t.7.=.8.j.l.j.8.l.(.;X;X;X:X:X:X<X1X1X1X",
"7X1X1X1X1X1X1X>X>X;X-XM.c.x.v.l.k.f.v.M.j.8.t.k.k.k.y.f.M.v.l.b.P.L.j.y.M.P.L.P h i.I.I.(.(.(.(.'.'.'.'.'.(.(.'.'.:X;X;X;X;X:X:X:X:X;X;X,X1X1X<X9.z.1X1X>X>X:X:X<X<X<X<X<X^.^.:X1X1X1X1X1X1X1X1X3X3X3X3X3X3X3X3X3X3X3X5X5X3X5X5X5X5X7X7X3X<X5X}.~.OXu.`.6X3X7X7X7X7X7X9X9X9X9X9X9X9X9X9X9X9X9X9X9X9X9X9X0X0X0X0X0X0X0X0X0X0X0X0X0X0X0X0X0X0X0X0X0X0X0X0X0X0X0X0XpXpXpXpXpXpXpXpXpXpXpXpXpXpXpXpXpXpXpXpXpXpXpXpXpXpXpXpXpXpXpXpXPXPX0X0XkXkXkXkXpXpXpXpXpXpXpXpXpXpXpXpXpXpXpXpXpXpXpXpXpXpXpXpX0X0XkXkXkX0X0X0XpXpXpXpXpXpXpXpX0X0XkXkXkXkX0X0XpXpXpXpXpXpXpXpX0X0X0X0XkXpXpXkXpXpXpXpXpXpXpXpXpXpXpXpXpXpXpXpXkXkXkXPXpXpXpX0XpXpXpXpXpXpXpXpXpXpXpX0XpXpXpXpXpXpXpXpX0X0XpXpXpXpXpXpX0X0X0X0X0X0X0X0X0X0X0X0X0X0X0X0X8X8X8XqX9X9X0X0X9X9X9X9X8X8X9X9X7X7X9X9X7X7X7X7X7X7X7X7X7X7X7X9X7X7X7X7X7X5X3X3X<X`.S. X' D.4X>X3X3X3X3X3X3X3X3X3X3X3X3X3X3X3X3X3X3X3X3X3X3X3X3X1X1X1X1X1X1X1X1X1X<X<X:X>X>X>X:X:X:X1Xv.f.1X:X:X:X:X:X:X:X:X:X:X:X:X;X;X:X;X;X;X(.(.;X;X;X(.^.^.^.^.^.^.L.P e.(.I.I.L.v.P.P.P.P.M.v.l.l.k.k.j.f.e.;.=.8.k.v.k.e.l.(.;X;X;X:X:X:X<X1X1X1X",
"1X1X1X1X1X1X>X>X>X;X^.M.k.x.v.l.g.f.v.M.j.8.t.k.k.k.f.f.M.b.k.j.P.M.8.f.N.I.P.P s y.I.I.(.(.;X;X:X:X:X:X:X:X2X:X<X:X<X;X:X:X:X:X:X:X;X;X,X-X-X:X9.z.1X1X>X>X:X:X<X<X<X<X<X:X:X<X1X1X1X1X1X1X1X1X3X3X3X3X3X3X3X3X3X3X5X5X3X3X5X3X5X5X7X7X3X<X6X}.S.|.^ `.6X3X7X7X7X7X7X7X9X9X9X9X9X9X9X9X9X9X9X9X9X9X9X9X0X0X0X0X0X0X0X0X0X0X0X0X0X0X0X0X0X0X0X0X0X0X0X0X0X0X0X0XpX0XpXpXpXpXpXpXpXpXpXpXpXpXpXpXpXpXpXpXpXpXpXpXpXpXpXpXpXpXpXpXPXPX0X0XpXpXkXkXpXpXpXpXpXpXpXpXpXpXpXpXpXpXpXpXpXpXpXpXpXpXpXpX0X0XkXpXkXkX0X0XpXpXpXpXpXpXpXpX0X0XkXpXkXkX0X0XpXpXpXpXpXpXpXpX0X0X0X0XpXpXpXkXpXpXpXpXpXpXpXpXpXpXpXpXpXpXpXpXkXkX0X0XpXpXpXpXpXpXpXpXpXpXpXpXpXpXpXpXpXpXpXpXpXpXpXpX0X0XpXpXpXpXpXpX0X0X0X0X0X0X0X0X0X0X0X0X0X0X0X0X8X8X8X8X9X9X0X0X9X9X9X9X9X9X9X9X7X7X9X7X7X7X7X7X7X7X7X7X7X7X7X9X7X7X7X7X7X5X3X3X3X`.F.~.^ D.4X1X1X3X3X3X3X3X3X3X3X3X3X3X3X3X3X3X3X3X3X3X3X3X3X3X3X1X1X1X1X1X1X1X1X<X:X:X:X1X>X>X:X:X1Xv.f.1X:X:X:X:X:X:X:X:X:X:X:X:X;X;X;X;X;X;X(.(.;X;X;X(.^.^.^.^.^.^.L.P e.(.I.I.P.v.P.P.P.P.M.v.l.l.k.k.j.f.e.;.=.8.k.v.k.e.l.(.;X;X;X:X:X:X<X1X1X1X",
"1X1X1X1X1X1X>X>X>X;X^.M.l.v.v.v.f.f.v.N.k.8.t.k.l.l.g.k.M.n.l.j.n.b.8.j.I.Y.L.A s t.^.I.-X(.(.(.:X;X<X:X:X:X:X:X<X:X:X;X;X;X;X;X:X:X;X;X:XB.-X<X9.k.2X>X>X>X:X>X<X<X<X1X<X:X<X1X3X3X1X1X1X1X1X1X3X3X3X3X3X3X3X3X3X3X5X5X3X3X3X3X5X5X7X7X3X<X6X}.' ~.^ [.2X3X7X7X7X7X7X7X9X9X9X9X9X9X9X9X9X9X9X9X9X9X9X9X0X0X0X0X0X0X0X0X0X0X0X0X0X0X0X0X0X0X0X0X0X0X0X0X0X0X0X0X0X0XpXpXpXpX0X0XpXpXpXpXpXpXpXpXpXpXpXpXpXpXpXpXpXpXpXpXpXpXpXpX0X0X0X0XpXpXpXpXpXpXpXpXpXpXpXpXpXpXpXpXpXpXpXpXpXpXpXpXpXpXpXpX0X0X0X0XkXkXkX0XpXpXpXpXpXpXpXpX0X0X0XpXkXkXPX0XpXpXpXpXpXpXpXpXkXkX0X0XpXpXpXpXpXpXpXpXpXpXpXpXpXpXpXpXpXpXpXpX0X0X0X0XpXpXpXpXpXpXpXpXpXpXpXpXpXpXpXpXpXpXpXpXpXpXpXpXpX0XpXpXpXpXpXpX0X0X0X0X0X0X0X0X0X0X0X0XqXqXqXqX8X8X8X8X9X9X9X0X9X7X7X7X9X9X9X9X7X7X7X7X7X7X7X7X7X7X7X7X7X7X9X9X7X7X7X7X7X5X3X3X<X`.' ~.^ D.4X1X1X3X3X3X3X3X3X3X3X3X3X3X3X3X3X3X3X3X3X3X3X3X3X3X1X1X1X1X1X1X1X1X1X<X<X<X:X>X:X:X:X:X1Xv.f.1X>X:X:X:X:X:X:X:X:X:X:X;X;X;X;X;X;X;X(.(.;X;X;X(.^.^.^.^.^.^.L.T e.(.I.I.P.v.I.I.I.I.M.v.l.l.k.k.k.f.e.;.=.8.k.v.k.e.l.(.;X;X;X:X:X:X<X1X1X1X",
"1X1X1X1X1X1X>X>X>X;X^.M.l.x.v.l.t.t.v.P.j.8.t.k.v.v.k.k.M.L.N.b.G.L.M.L.I.^.L.A s e.I.^.-X(.(.(.;X;X;X;X;X;X;X;X:X:X;X;X;X;X;X;X;X:X;X;X:XI.<X2X9.k.2X>X>X>X:X>X<X<X<X<X1X<X1X1X3X1X1X1X1X1X1X1X3X3X3X3X3X3X3X3X3X3X5X5X3X3X3X3X5X3X7X7X3X1X6X}.F.~.! [.2X3X7X7X7X7X7X7X9X9X9X9X9X9X9X9X9X9X9X9X9X9X9X9X0X0X0X0X0X0X0X0X0X0X0X0X0X0X0X0X0X0X0X0X0X0X0X0X0X0X0X0X0X0XpXpXpXpX0X0X0XpXpXpXpXpXpXpXpXpXpXpXpXpXpXpXpXpXpXpXpXpXpXpX0X0X0X0XpXpXpXpXpXpXpXpXpXpXpXpXpXpXpXpXpXpXpXpXpXpXpXpXpXpXpXpX0X0X0X0XkXkXkXPXpXpXpXpXpXpXpXpX0X0X0XpXkXkX0X0XpXpXpXpXpXpXpXpXkXpX0X0XpXpXpXpXpXpXpXpXpXpXpXpXpXpXpXpXpXpXpXpX0X0X0X0XpXpXpXpXpXpXpXpXpXpXpXpXpXpXpXpXpXpXpXpX0XpXpXpXpXpXpXpXpXpXpXpX0X0X0X0X0X0X0X0X0X0X0X0XqXqXqXqX8X8X8X8X9X9X9X0X9X9X7X7X9X9X9X9X7X7X7X7X7X7X7X7X7X7X7X7X7X7X9X9X7X7X7X7X5X5X3X3X3X/.' ~.^ D.4X1X3X<X3X3X3X3X3X3X3X3X3X3X3X3X3X3X3X3X3X3X3X3X3X3X1X3X3X1X1X1X1X1X1X<X<X<X:X>X>X:X:X:X1Xv.f.1X>X:X:X:X:X:X:X:X:X:X:X;X;X;X;X;X;X;X(.(.;X;X;X(.^.^.^.^.^.^.L.T e.(.^.^.P.M.I.I.I.I.M.v.l.l.k.k.j.f.e.;.=.8.k.v.k.e.l.(.;X;X;X:X:X:X<X1X1X1X",
"1X1X1X1X1X1X<X:XN.;X;Xv.t.v.v.v.l.;.;.f.8.8.f.k.k.l.v.b.M.L.P.I.I.I.I.I.I.^.H.L s t.^.^.(.(.(.(.;X;X;X;X;X;X;X;X;X:X:X:X:X:X;X;X:X:X:X:X:X:X<X2X9.j.2X;X>X>X>X1X1X1X>X>X1X1X1X1X1X1X1X3X3X3X3X3X3X3X3X3X3X3X3X3X3X3X3X3X3X3X5X5X3X3X7X7X1X1X7X).F.!.! /.1X3X7X7X7X7X7X7X8X8X9X9X8X8X8X8X9X9X9X9X9X9X9X9X0X0X0X0X0X0X0X0X0X0X0X0X0X0X0X0X0X0X0X0X0X0X0X0X0X0X0X0XpXpXpXpX0X0X0X0X0X0X0X0XpXpXpXpX0X0XPXPX0X0X0X0XpXpXpXpXpXpXpXpXpXpXpXpXpXpXpXpXpXpXpXpXpXpXpXpXpXpXpXpXpXpXpXpXpXpXpXpXpXpXpXpXpXpXpXpXpXpXpXpXpXpXpXpXpXpXpXpXkXkXkXkX0X0X0X0XpXpXpXpXpXpXpXpXkXkXkXkXPXkXkXkXpXpXpXpXpXpXpXpXpXpXpXpXpXpXpXpXpXpXpXpXpXpXpXpX0X0X0X0X0X0X0X0XpXpXpXpXpXpXpXpXpXpXpXpXpXpXpXpX0X0X0X0X0X0X0X0X0X0X0X0X0X0X0X0X0X0X0X0X0X0X0X0X0X0X0X0X9X8X9X9X0X0X8X8X7X7X9X9X9X8X8X8X8X8X8X8X8X8X8X8X7X7X7X7X5X3X1X1X1X/.Z.~.~ A.6X1X3X3X4X4X3X3X6X3X1X1X3X3X3X3X3X3X3X3X3X3X3X3X3X3X3X3X3X3X1X1X1X1X1X1X<X<X:X:X>X1X1X<X1Xv.f.3X:X:X>X>X1X1X:X:X:X:X:X;X;X;X;X;X;X;X;X;X;X;X(.(.(.^.^.^.^.^.H.Y e.(.^.^.I.M.T.T.I.I.M.v.l.l.z.k.j.y.8.;.=.7.k.v.k.t.l.(.:X>X;X:X:X:X:X1X1X1X",
"1X1X1X1X1X1X<X:XN.-X;XM.y.v.v.v.k.I =.8.,.t.k.l.l.v.v.n.N.L.P.P.P.I.I.I.I.I.H.L s e.I.^.^.(.^.^.^.;X;X;X;X;X;X;X;X;X:X:X:X:X;X;X:X:X:X:X:X:X<X2X9.j.2X<X,X>X>X:X1X1X1X1X1X1X1X1X1X1X3X3X3X3X3X3X3X3X3X3X3X3X3X3X3X3X3X3X3X3X5X5X3X3X7X1X1X1X7XH.d.A.2.<X1X3X7X7X7X7X7X7X8X8X9X9X8X8X9X9X9X9X9X9X9X9X9X9X0X0X0X0X0X0X0X0X0X0X0X0X0X0X0X0X0X0X0X0X0X0X0X0X0X0X0X0XpXpXpXpX0X0X0X0X0X0X0X0XpXpXpXpX0X0X0XPX0X0X0X0XpXpXpXpXpXpXpXpXpXpXpXpXpXpXpXpXpXpXpXpXpXpXpXpXpXpXpXpXpXpXpXpXpXpXpXpXpXpXpXpXpXpXpXpXpXpXpXpXpXpXpXpXpXpXpXpXPXkXkXkX0X0X0X0XpXpXpXpXpXpXpXpXkXkXkXkX0X0XkXkXpXpXpXpXpXpXpXpXpXpXpXpXpXpXpXpXpXpXpXpXpXpXpXpX0X0X0XPX0X0X0X0XpXpXpXpXpXpXpXpXpXpXpXpXpXpXpXpX0X0X0X0X0X0X0X0X0X0X0X0X0X0X0X0X0X0X0X0X0X0X0X0X0X0X0X0X9X8X9X9X0X0X0X8X7X7X9X9X9X9X8X8X8X8X9X8X8X8X8X7X7X7X7X7X5X3X1X1XwX`.Z.S.^ A.6X1X3X3X4X4X3X3X6X3X1X1X3X3X3X3X3X3X3X3X3X3X3X3X3X3X3X3X3X3X1X1X1X1X1X1X<X<X:X:X:X:X1X1X1Xv.f.3X:X:X:X:X<X1X:X:X:X:X:X;X;X;X;X;X;X;X;X;X;X;X(.(.(.^.^.^.^.^.H.Y e.(.^.^.I.N.T.T.I.I.M.v.l.l.z.k.j.y.8.;.=.7.k.v.k.t.l.(.;X;X;X:X:X:X:X<X1X1X",
"1X1X1X1X1X1X<X:XI.;X;XN.f.v.n.v.v.$.#.,.7.f.z.k.l.l.v.v.N.L.P.I.M.L.I.I.I.^.H.L s t.^.^.^.^.^.^.^.^.;X;X;X;X;X;X;X;X;X:X:X:X;X;X:X:X:X:X:X:X<X2X0.j.<X1X,X>X>X:X1X1X1X1X1X1X1X1X1X3X3X3X3X3X3X3X3X3X3X3X3X3X3X3X3X3X3X3X3X3X3X5X3X3X7X1X3X3X8XP.u.u.-.<X1X3X7X7X7X7X7X7X8X8X8X9X9X9X9X9X9X9X9X9X9X9X9X9X0X0X0X0X0X0X0X0X0X0X0X0X0X0X0X0X0X0X0X0X0X0X0X0X0X0X0X0XpXpXpXpX0X0X0X0X0X0X0X0XpXpXpXpX0X0X0X0X0X0X0X0XpXpXpXpXpXpXpXpXpXpXpXpXpXpXpXpXpXpXpXpXpXpXpXpXpXpXpXpXpXpXpXpXpXpXpXpXpXpXpXpXpXpXpXpXpXpXpXpXpXpXpXpXpXpXpXpX0X0XkXkX0XpXPX0XpXpXpXpXpXpXpXpX0X0XkXPX0X0X0X0XpXpXpXpXpXpXpXpXpXpXpXpXpXpXpXpXpXpXpXpXpXpXpXpX0X0XPX0X0X0X0X0XpXpXpXpXpXpXpXpXpXpXpXpXpXpXpXpX0X0X0X0X0X0X0X0X0X0X0X0X0X0X0X0X0X0X0X0X0X0X0X0X0X0X0X0X9X9X9X9X8X8X8X8X7X7X9X9X9X9X9X9X8X8X8X8X8X8X8X7X7X7X7X7X5X3X5X1XwX'.Z.S.~ A.4X1X3X3X4X4X3X3X3X3X3X3X1X3X3X3X3X3X3X3X3X3X3X3X3X3X3X3X3X3X1X1X1X1X1X1X1X1X:X:X:X:X:X:X1Xv.f.3X:X:X:X:X:X:X:X:X:X:X:X:X;X;X;X;X;X;X;X;X;X;X(.(.(.^.^.^.^.).H.T r.(.^.^.I.N.I.I.I.I.M.v.l.l.k.k.j.y.8.;.=.7.k.v.k.t.v.(.-X^.;X:X:X:X:X:X1X1X",
"1X1X1X1X1X1X<X:X:X:X(.v.f.v.n.v.v.+.g $.,.f.k.l.k.k.l.l.M.L.P.P.n.N.P.I.I.^.H.L s t.^.^.(.(.^.^.^.^.(.;X;X;X;X;X;X;X:X:X;X:X;X:X:X:X:X:X:X:X<X2X9.j.<X1X,X>X>X>X1X1X1X1X1X1X1X1X1X1X3X3X3X3X3X3X3X3X3X3X3X3X3X3X3X3X3X3X3X3X3X3X3X3X1X1X1X1X7XP.! ! -.2X2X3X7X7X7X7X7X7X8X8X9X9X9X9X9X9X9X9X9X9X9X9X9X9X0X0X0X0X0X0X0X0X0X0X0X0X0X0X0X0X0X0X0X0X0X0X0X0X0X0X0X0XpXpXpXpX0X0X0X0X0X0X0X0XpXpXpXpX0X0X0X0X0X0X0X0XpXpXpXpXpXpXpXpXpXpXpXpXpXpXpXpXpXpXpXpXpXpXpXpXpXpXpXpXpXpXpXpXpXpXpXpXpXpXpXpXpXpXpXpXpXpXpXpXpXpXpXpXpXpXpXpX0X0XkXkXkXpXPXPXpXpXpXpXpXpXpXpX0X0X0X0X0X0X0X0XpXpXpXpXpXpXpXpXpXpXpXpXpXpXpXpXpXpXpXpXpXpXpXpX0X0X0X0X0X0X0X0XpXpXpXpXpXpXpXpXpXpXpXpX0XpXpXpX0X0X0X0X0X0X0X0X0X0X0X0X0X0X0X0X0X0X0X0X0X0X0X0X0X0X0X0X9X9X9X9X8X8X9X9X7X7X9X9X7X9X9X9X8X8X8X8X8X8X7X7X7X7X7X7X5X5X5X1X7X'.Z.F.~ F.2X1X3X3X3X3X3X3X1X1X1X3X1X1X3X3X3X3X3X3X3X3X3X3X3X3X3X3X3X3X1X1X1X1X1X1X1X1X:X:X:X:X:X:X1Xv.g.5X:X:X:X:X:X:X;X:X:X:X:X:X;X;X;X;X:X:X;X;X(.(.(.(.(.^.^.^.^.).H.T 0.(.^.^.I.N.I.I.I.I.M.v.l.l.k.k.j.y.8.;.=.7.k.x.k.t.l.(.-XI.;X:X:X:X:X:X<X1X",
"1X1X1X1X1X1X:X:X;X:X(.M.f.n.n.v.v.O.k >.7.t.k.z.l.c.k.k.M.P.P.P.M.n.P.I.I.(.H.L s t.^.^.(.(.-X-X^.^.;X;X;X;X;X;X;X;X;X;X;X;X:X:X:X:X:X:X:X<X2X1X9.j.2X1X>X1X1X<X:X:X>X1X1X1X1X1X1X1X1X1X3X3X3X3X3X3X3X3X3X3X3X3X3X3X3X3X3X3X3X3X3X3X1X3X7X3X8X/.w.6.R :X2X5X7X7X7X7X7X7X7X7X7X7X9X9X9X9X9X9X9X9X9X9X9X9X0X0X0X0X0X0X0X0X0X0X0X0X0X0X0X0X0X0X0X0X0X0X0X0X0X0X0X0X0X0X0X0XpXpXpXpXpXpXpXpX0X0X0X0X0X0X0X0X0X0X0X0XpXpXpXpXpXpXpXpXpXpXpXpXpXpXpXpXpXpXpXpXpXpXpXpXpXpXpXpXpXpXpXpXpXpXpXpXpXpXpXpXpXpXpXpXpXpXpXpXpXpXpXpXpXpXpXpX0X0X0X0XkXkXkXkXpXpXpXpXpXpXpXpX0X0X0X0XkXkX0X0XpXpXpXpXpXpXpXpXpXpXpXpXpXpXpXpXpXpXpXpXpXpXpX0X0X0X0XPX0X0X0X0XpXpXpXpXpXpXpXpXpXpXpXpXpXpXpXpX0X0X0X0X0X0X0X0X0X0X0X0X0X0X0X0X0X0X0X0X0X0X0X0X0X0X0X0X8X8X9X9X8X8X8X9X8X8X9X9X7X7X7X7X9X9X8X8X7X3X<X7X7X7X7X7X3X(.(.2X3X'.u.' W s.4X1X3X3X3X3X3X1X1X5X1X1X1X1X3X3X3X3X3X3X3X3X3X3X3X3X3X3X3X1X1X1X1X1X1X1X1X1X:X:X>X>X:X>X1Xv.k.5X:XN.m.P.(.:X;X;X:X:X:X:X:X:X;X;X:X(.(.(.(.(.(.(.(.^.^.^.^.(.I.@.0.(.^.^.I.P.I.I.I.I.v.l.l.l.k.k.j.t.8.:.=.,.l.v.c.t.l.(.:XI.^.;X:X:X:X:X<X1X",
"1X1X1X1X1X1X:X:X;X:X;XM.f.n.n.n.g.I v e.7.t.k.z.l.l.c.c.M.P.P.P.N.N.N.I.I.(.L.L s r.^.^.(.(.-X-X^.^.;X;X;X;X;X;X;X;X;X;X;X:X:X:X:X:X:X:X:X<X2X1X7.j.1X1X>X1X<X<X:X>X>X1X1X1X1X1X1X1X1X1X3X3X3X3X3X3X3X3X3X3X3X3X3X3X3X3X3X3X3X3X3X3X3X3X7X3X0X/.w.6.%.:X2X1X5X7X7X7X7X7X7X7X7X7X9X9X9X9X9X9X9X9X9X9X9X9X0X0X0X0X0X0X0X0X0X0X0X0X0X0X0X0X0X0X0X0X0X0X0X0X0X0X0X0X0X0X0X0XpXpXpXpXpXpXpXpX0X0X0X0X0X0X0X0X0X0X0X0XpXpXpXpXpXpXpXpXpXpXpXpXpXpXpXpXpXpXpXpXpXpXpXpXpXpXpXpXpXpXpXpXpXpXpXpXpXpXpXpXpXpXpXpXpXpXpXpXpXpXpXpXpXpXpXpX0X0X0X0XpXpXkXkXpXpXpXpXpXpXpXpX0X0X0X0XkXkXPXkXpXpXpXpXpXpXpXpXpXpXpXpXpXpXpXpXpXpXpXpXpXpXpXpX0X0XPXPX0X0X0X0XpXpXpXpXpXpXpXpXpXpXpXpX0X0XpX0X0X0X0X0X0X0X0X0X0X0X0X0X0X0X0X0X0X0X0X0X0X0X0X0X0X0X0X0X8X8X9X9X8X8X9X9X8X8X9X9X7X7X7X7X9X9X8X9X3XM.P.5X7X7X7X7X8X(.I.<X3X'.u.Z.W s.4X3X3X3X3X1X1X1X1X5X1X1X1X1X3X3X3X3X3X3X3X3X3X3X3X3X3X3X1X1X1X1X1X1X1X1X1X1X:X:X:X>X:X:X1Xv.k.5X(.n.l.M.).(.;X;X:X:X:X:X:X:X;X;X(.(.;X;X(.(.(.(.(.^.^.^.^.(.P.@.0.(.^.I.I.P.I.I.I.I.v.l.l.l.k.k.j.t.8.:.=.,.l.v.c.t.l.(.;XI.^.;X:X:X:X:X:X<X",
"1X1X1X1X1X1X:X:X;X:X;XM.f.n.n.v.t.+.e.t.7.t.k.k.l.l.x.x.M.P.P.P.P.P.N.^.I.(.L.L s t.^.^.(.(.-X-X^.^.;X;X;X;X;X;X;X;X;X:X:X:X:X:X:X:X:X:X:X<X2X1X7.j.1X1X>X>X:X:X>X>X1X1X1X1X1X1X1X1X1X1X3X3X3X3X3X3X3X3X3X3X3X3X3X3X3X3X3X3X5X5X3X3X3X3X7X3X0X/.6.2.%.<X2X1X7X8X7X7X7X7X7X7X7X7X9X9X9X9X9X9X9X9X9X9X9X9X0X0X0X0X0X0X0X0X0X0X0X0X0X0X0X0X0X0X0X0X0X0X0X0X0X0X0X0X0X0X0X0XpXpXpXpXpXpXpXpX0X0X0X0X0X0X0X0X0X0X0X0XpXpXpXpXpXpXpXpXpXpXpXpXpXpXpXpXpXpXpXpXpXpXpXpXpXpXpXpXpXpXpXpXpXpXpXpXpXpXpXpXpXpXpXpXpXpXpXpXpXpXpXpXpXpXpXpXkXkX0XkXpXpXpXpXpXpXpXpXpXpXpXpX0X0X0X0XkXkXkXkXpXpXpXpXpXpXpXpXpXpXpXpXpXpXpXpXpXpXpXpXpXpXpXpX0X0XPX0X0X0X0X0XpXpXpXpXpXpX0X0XpXpXpXpX0X0X0X0X0X0XqX0X0X0X0X0X0X0X0X0X0X0X0X0X0X0X0X0X0X0X0X0X0X0X0X0X8X8X9X9X8X8X9X9X8X8X8X8X7X7X7X7X9X9X9X9X3XM.I.7X7X7X7X7X8X;X(.1X3X'.u.Z.W s.4X3X3X3X1X1X1X1X5X5XwXwX7X7X3X3X3X3X3X3X3X3X3X3X3X3X3X1X1X1X1X1X1X1X1X1X1X1X:X:X>X>X>X>X1Xv.l.3X(.N.M.).:X:X;X;X;X;X:X:X:X:X;X;X(.(.;X;X;X;X(.(.(.^.I.^.^.^.P.#.0.(.^.I.I.T.I.I.I.I.v.l.l.l.k.k.j.t.8.:.=.,.c.V.c.t.b.I.;X-X^.;X:X:X:X:X:X<X",
"1X1X1X1X>X>X:X:X;X:X;XM.f.v.n.v.f.I g.t.7.t.k.k.l.l.v.v.M.P.P.P.I.I.I.I.I.^.L.L s r.I.I.(.(.-X-X^.^.;X;X;X;X;X;X;X;X;X:X:X:X:X:X:X:X:X:X:X<X2X1X7.j.<X>X>X>X:X:X>X>X1X1X1X1X1X1X1X1X1X1X3X3X3X3X3X3X3X3X3X3X3X3X3X3X3X3X3X3X5X5X3X3X7X3X7X3X0X/.2.2.#.<X2X3X5X7X7X7X7X7X7X7X7X7X9X9X9X9X9X9X9X9X9X9X9X9X0X0X0X0X0X0X0X0X0X0X0X0X0X0X0X0X0X0X0X0X0X0X0X0X0X0X0X0X0X0X0X0X0X0X0X0X0X0X0X0X0X0X0X0X0X0X0X0X0X0X0X0XpXpXpXpXpXpXpXpXpXpXpXpXpXpXpXpXpXpXpXpXpXpXpXpXpXpXpXpXpXpXpXpXpXpXpXpXpXpXpXpXpXpXpXpXpXpXpXpXpXpXpXpXpXpXpXpXkXkXkXkXpXpXpXpXpXpXpXpXpXpXpXpX0X0X0X0XkXkXkXkXpXpXpXpXpXpXpXpXpXpXpXpXpXpXpXpXpXpXpXpXpXpXpXpX0X0X0X0X0X0X0X0X0XpXpXpXpX0X0XpXpXpXpX0X0X0X0X0X8X8X0XqX0X0X0X0X0X0X0X0X0X0X0X0X0X0X0X0X0X0X0X0X0X0X0X0X9X8X9X9X8X8X8X8X8X8X8X8X7X7X7X7X9X9X9X9X8X7X1X8X7X7X7X7X3X1X6X8X7X2Xd.Z.E s.5X3X3X1X1X1X1X1X5X5X7X7X7X7X7X3X3X3X3X3X3X3X3X3X3X3X1X1X1X1X1X1X1X1X1X1X1X1X:X:X>X>X>X>X1Xv.l.3X:X).).(.:X:X;X;X;X;X:X:X:X;X;X;X;X;X;X;X;X;X(.(.(.(.P.I.^.^.U.#.0.(.^.I.P.N.I.I.I.I.v.l.l.l.k.j.f.t.8.:.=.,.c.V.k.t.b.I.;X-X^.:X:X:X:X:X:X:X",
"1X1X1X1X>X>X;X;X:X:X;XN.l.v.N.V.e.v I ;.#.0.k.k.l.l.l.x.M.I.I.I.P.I.I.I.P.^.L.P s r.I.I.(.(.-X-X(.(.;X;X;X;X;X;X;X;X;X;X:X:X:X:X:X:X:X:X:X<X2X1X7.j.;X:X>X>X:X:X:X<X1X1X1X1X1X1X1X1X1X1X1X1X1X3X3X3X3X3X3X3X3X3X3X3X3X3X3X3X3X3X5X5X7X7X7X3X9XP.R E #.2X<X3X3X7X7X7X7X7X7X7X9X9X7X7X9X9X8X8X8X8X9X9X9X9X9X9X9X9X9X9X9X9X9X9X9X9X0X0X0X0X0X0X0X0X0X0X0X0X0X0X0X0X0X0X0X0X0X0X0X0X0X0X0X0X0X0X0XpXpXpXpX0XpXpXpXpXpXpXpXpXpXpXpXpXpXpX0X0XpXpXpXpXpXpXpX0X0X0XpXpXpXpXpXpXpXpXpXpXpXpXpXpXpXpXpXpX0X0X0X0X0X0X0X0XpXpXpXpXpXpXpXpXpXpX0XpXpXpXpXpXpXpXpXpXpXpXpXpX0X0X0X0X0X0X0X0XpXpXpXpXpX0X0X0XpXpXpXpXpXpX0X0XpXpXpXpXpXpXpXpXpXpXpXpXpXpXpXpX0X0X0X0X0XpXpXpX0X0X0X0X0X0X0X0X0X0X0X0X0X0X0X0X0X0X0X0X0X0X0X0X0X0X0X0X9X9X9X9X9X9X9X9X7X7X7X7X7X7X7X8X7X7X7X7X7X7X7X7X7X7X7X7X7X7X7X7X7X7X7X7X7X7X5X5X7X2Xi.u.W s.3X>X1X1X1X1XwXwXwXwX1X1X3X3X3X3X3X3X3X3X3X3X3X3X3X3X1X1X1X3X1X1X1X1X1X1X1X1X>X>X>X>X>X<X3Xv.l.1X:X(.:X:X:X:X:X:X:X:X:X:X:X:X;X;X;X;X;X;X;X;X;X(.(.(.I.I.^.^.U.T 0.(.^.I.P.L.I.I.I.I.b.l.l.l.k.k.f.t.8.;.=.7.l.v.l.t.v.I.;X-X^.:X;X:X:X;X<X;X",
"1X1X1X1X>X:X-X;X:X:X;XN.l.v.N.V.e.v v =.@.8.l.l.l.l.x.x.v.v.v.L.I.I.I.I.P.^.L.L d r.I.I.(.(.-X-X(.(.;X;X;X;X;X;X;X;X;X;X:X:X:X:X:X:X:X:X:X<X2X1Xq.k.;X;X;X;X:X:X:X:X<X1X1X1X1X1X1X1X1X1X1X1X3X3X3X3X3X3X3X3X3X3X3X3X3X3X3X3X3X3X5X7X7X7X7X3X7XH.E E T 2X>X3X3X7X7X7X7X7X7X7X9X9X7X7X9X9X8X8X8X8X9X9X9X9X9X9X9X9X9X9X9X9X9X9X9X9X0X0X0X0X0X0X0X0X0X0X0X0X0X0X0X0X0X0X0X0X0X0X0X0X0X0X0X0X0X0X0XpXpXpX0X0X0X0X0X0XpXpXpXpXpXpXpXpXpXpX0X0XpXpXpXpXpXpXpXpX0X0XpXpXpXpXpXpXpXpXpXpXpXpXpXpXpXpXpXpX0X0X0X0X0X0X0X0XpXpXpXpXpXpXpXpXpXpXpXpXpXpXpXpXpXpXpXpXpXpXpXpX0X0X0X0X0X0X0X0XpXpXpXpX0X9X9X0XpXpXpXpXpXpX0X0XpXpXpXpXpXpXpXpXpXpXpXpXpXpXpXpXpXpX0X0XpXpXpXpX0X0X0X0X0X0X0X0X0X0X0X0X0X0X0X0X0X0X0X0X0X0X0X9X0X0X0X0X9X9X9X9X9X9X9X9X7X7X7X7X8X8X7X7X7X7X7X7X7X7X7X7X7X7X7X7X7X7X7X7X7X7X7X7X7X7X7X7X7X2Xi.w.W i.3X1X1X1X1X1X1X1XwXwX1X1X3X3X3X3X3X3X3X3X3X3X3X3X3X3X1X1X3X3X1X1X1X1X1X1X1X1X>X>X>X<X<X<X3Xv.k.<X:X:X:X:X:X:X:X:X:X:X:X:X:X:X;X;X;X;X;X;X;X;X;X(.(.(.Y.I.^.^.U.T 9.(.^.I.I.L.P.P.P.P.v.l.k.k.k.j.f.t.8.;.=.8.l.v.k.t.v.I.;X^.;X;X;X1X;X:X:X;X",
"1X1X2X;XP.I.;X;X;X:X;XM.l.v.N.V.e.I I ,.#.8.k.v.l.l.x.x.l.l.j.v.I.P.I.I.P.^.L.L d r.I.I.(.(.-X-X(.(.;X;X;X;X;X;X;X;X;X;X:X:X:X:X:X:X:X:X:X<X2X1Xq.k.;X;X;X;X:X;X:X:X<X1X1X1X1X1X1X1X1X1X1X1X1X1X3X3X3X3X3X3X3X3X3X3X3X3X3X3X3X3X5X7X7X7X3X1X5XH.R E T 2X:X3X3X3X7X7X7X7X7X7X7X9X7X7X9X9X8X9X8X8X9X9X9X9X9X9X9X9X9X9X9X9X9X9X9X9X0X0X0X0X0X0X0X0X0X0X0X0X0X0X0X0X0X0X0X0X0X0X0X0X0X0X0X0X0X0X0X0XpX0X0X0X0X0X0X0X0XpX0XpXpX0X0X0XpXpXpX0XpXpX0XpXpXpXpXpXpXpXpXpXpXpXpXpXpXpXpXpXpXpXpXpXpXpXpXpX0X0X0X0XPXPX0X0XpXpXpXpXpXpXpXpX0X7X0XpXpXpXpXpXpXpXpXpXpXpXpXpX0X0X0XPX0X0X0X0XpXpXpXpX0X7X7X0XpXpXpXpXpXpX0X0XpXpX0X0XpXpXpXpXpXpXpXpX0X0XpXpXpXpXpXpXpXpXpXpX0X0X0X0X0X0X0X0X0X0X0X0X0X0X0X0X0X0X0X0X0X0X9X7X9X0X0X0X9X9X9X9X9X9X9X9X7X7X7X9X7X9X7X7X7X7X7X7X7X7X9X9X9X9X7X7X7X7X7X7X7X7X7X7X7X7X7X7X7X<X5.6.W i.3X1X1X1X1X1X1X1X1X1X1X1X3X3X3X3X3X3X3X3X3X3X3X3X3X3X1X1X1X1X1X1X1X1X1X1X1X1X>X>X>X<X<X<X3Xv.k.<X:X:X:X:X:X:X:X:X:X:X;X:X:X:X;X;X;X;X(.(.(.;X;X(.(.(.Y.I.^.^.P.U 9.Y.^.I.I.L.P.P.P.P.v.l.k.k.k.f.f.t.8.;.=.8.l.n.z.t.v.I.;X^.;X;X:XI.N.P.I.:X",
"k.t.7.;.o.8.^.:X:X:X;XN.l.v.N.V.<.c P ,.&.8.j.k.l.l.l.x.l.v.k.j.N.I.I.I.P.^.L.L s r.I.I.(.(.-X-X(.(.;X;X;X;X;X;X;X;X;X;X:X:X:X:X:X:X:X:X:X<X2X1X;.k.;X;X;X;X;X;X:X:X:X<X1X1X1X1X1X1X1X1X1X1X1X1X3X3X3X3X3X3X3X3X3X3X3X3X3X3X3X3X5X7X7X7X1X1X6XH.R E T 2X>X3X3X3X7X7X7X7X7X7X7X7X7X7X9X9X9X9X8X8X9X9X9X9X9X9X9X9X9X9X9X9X9X9X9X9X0X0X0X0X0X0X0X0X0X0X0X0X0X0X0X0X0X0X0X0X0X0X0X0X0X0X0X0X0X0X0X0X0X0X0X0X0X0X0X0X0X0X0XpXpXpX0X0XpXpXpXpXpXpX0X0XpXpXpXpXpXpXpXpXpXpXpXpXpXpXpXpXpXpXpXpXpXpXpXpX0X0X0X0XPX0X0X0XpXpXpXpXpXpXpXpX0X-X1X0XpXpXpXpXpXpXpXpXpXpXpXpX0X0X0XPX0X0X0X0XpXpXpXpX0X0X0X0XpXpXpXpXpXpX0X0XpXpX0X0XpXpXpXpXpXpXpXpX0X0X0X0XpXpXpXpXpXpXpXpX0X0X0X0X0X0X0X0X0X0X0X0X0X0X0X0X0X0X0X0X0X0X7X7X9X0X0X0X9X9X9X9X9X9X9X9X9X7X9X9X7X7X7X7X7X7X7X7X7X7X9X9X9X9X7X7X7X7X7X7X7X7X7X7X7X7X7X7X7X;X5.6.W d.3X1X1X1X1X1X1X1X1X1X1X1X3X3X3X3X3X3X3X3X3X3X3X3X3X3X1X1X1X1X1X1X1X1X1X1X1X>X>X>X>X>X<X<X3Xv.f.<X:X:X:X:X:X:X:X:X:X:X;X:X:X:X;X;X;X;X(.(.(.(.;X(.(.(.Y.I.^.^.P.U 9.Y.^.I.I.L.P.L.P.P.v.l.k.k.k.j.f.t.8.;.=.8.l.n.z.t.v.^.;X^.^.;X;Xf.I Z o.f.",
"t.j.k.x.y.C I.:X:X:X;XP.l.v.N.V.<.v I ;.&.e.k.l.l.l.l.x.x.n.k.,.n.P.P.I.I.^.L.A s t.I.I.(.(.^.(.(.(.;X;X;X;X;X;X;X;X;X;X:X:X:X:X:X:X:X:X:X<X2X2X;.k.;X;X-X(.;X;X:X:X:X<X1X1X1X1X1X1X1X1X1X1X1X1X3X3X3X3X3X3X3X3X3X3X3X3X3X3X3X3X5X7XwXwX1X1X5Xb.R U T <X<X1X3X7X7X7X7X7X7X7X7X7X7X7X7X7X7X7X7X8X9X9X9X9X9X9X9X9X9X9X9X9X9X9X8X8X0X0X0X0X0X0X0X0X0X0X0X0X0X0X0X0X0X0X0X0X0X0X0X0X0X0X0X0X0X0X0X0X0X0X0X0X0X0X0X0XpXpXpXpXpXpXpXpXpXpXpXpXpXpXpX0X0X0XpXpXpXpX0X0XpXpXpXpXpXpXpXpXpXpXpXpXpXpXpXpX0X0X0X0XPX0X0X0XpXpXpXpXpXpXpX0X0X0X0X0XpXpXpXpXpXpXpXpXpXpXpXpX0X0XPXPX0X0X0X0XpXpXpXpX0X0X1XI.B.1X0XpXpX0X0X0XpXpX0X0X0X0X0X0XpXpXpXpX0X0X0X0XpXpXpXpX0X0X0X0X0X0X0X0XqXqX0X0X0X0X0X0X0X0X0X0X0X0X0X0X0X0X9X9X9X0X0X0X9X9X9X9X9X9X9X9X9X9X9X9X7X7X9X9X7X7X7X7X7X7X7X7X7X7X7X7X7X7X7X7X3X3X:X^.;X7X7X1X7X:X5.! E s.3X1X1X1X1X1X1X1X1X1X3X3X3X3X3X3X3X3X3X3X3X3X1X1X1X1X1X1X1X1X>X>X1X1X1X1X>X>X>X>X>X>X>X>X<Xv.f.>X:X:X:X:X:X:X:X:X:X:X;X:X:X(.;X;X;X;X;X;X;X;X;X(.(.(.Y.I.^.^.P.P 7.Y.(.I.I.L.N.P.M.M.b.k.k.k.k.f.f.t.8.;.#.8.k.v.k.t.z.I.;X^.-X;X;Xt.g.:XN.k.",
"2X2X1X1X^.O.^.>X:X:X(.P.l.v.N.V.,.Z I ;.&.e.k.l.l.z.x.x.n.n.a.:.n.P.P.I.I.^.L.A s t.I.I.(.(.^.(.(.(.;X;X;X;X;X;X;X;X;X;X:X:X:X:X:X:X:X:X:X<X2X2X;.j.;X;XP.I.;X;X:X:X:X<X1X1X1X1X1X1X1X1X1X1X1X3X3X3X3X3X3X3X3X3X3X3X3X3X3X3X3X3X5X7XwXwX1X3X5Xb.R U T <X>X1X3X7X7X7X7X7X7X7X7X7X7X7X7X7X7X7X7X7X9X9X9X9X9X9X9X9X9X9X9X9X9X9X9X8X0X0X0X0X0X0X0X0X0X0X0X0X0X0X0X0X0X0X0X0X0X0X0X0X0X0X0X0X0X0X0X0X0X0X0X0X0X0X0X0XpXpXpXpXpXpXpXpXpXpXpXpXpXpXpX0X0XpXpXpXpXpX0X0XpXpXpXpXpXpXpXpXpXpXpXpXpXpXpXpX0X0X0X0X0X0X0X0XpXpXpXpXpXpXpXpXpXpXpXpXpXpXpXpXpXpXpXpXpXpXpXpX0X0XPXPX0X0X0X0XpXpXpXpX0X8X1X^.1X7XpX0XpXpX0X0XpXpX0X0X0XpX0X0XpXpXpXpX0X0X0X0XpXpXpXpX0X0X0X0X0X0X0X0XqXqX0X0X0X0X0X0X0X0X0X0X0X0X0X0X0X0X0X0X0X0X0X0X9X9X9X9X9X9X9X9X9X9X9X9X7X7X9X9X7X7X7X7X7X7X7X7X7X7X7X7X7X7X7X7X5X3X;XI.:X3X7X1X7X:X5.6.E s.6X1X1X1X1X1X1X1X1X1X3X3X3X3X3X3X3X3X3X3X3X3X1X1X1X1X1X1X1X1X>X>X1X1X1X1X>X>X>X>X>X>X:X>X<Xk.t.:X:X:X:X:X:X:X:X:X:X:X;X:X(.(.;X(.;X;X;X;X;X;X;X(.(.(.Y.Y.^.^.P.Y 7.Y.(.I.I.L.L.L.l.b.b.k.k.k.k.f.f.t.8.;.#.8.k.v.k.t.z.I.;X^.-X;X;Xt.M.0X5X3X",
"1X1X:X:XI.+.^.:X:X:X-XP.l.v.N.V.y.I P ;.%.0.k.k.l.l.x.l.l.x.l.j.n.P.I.I.I.(.L.A s t.I.I.(.(.^.(.(.(.;X;X;X;X;X;X;X;X;X;X:X:X:X:X:X:X:X:X:X<X2X2X;.j.;X;XP.I.;X;X:X:X:X<X1X1X1X1X1X1X1X1X1X3X3X3X3X3X3X3X3X3X3X3X3X3X3X3X3X3X3X3X5X7XwXwX1X3X5Xb.R E T <X<X1X3X7X7X7X7X7X7X7X7X7X7X7X7X7X7X7X7X7X9X9X9X9X9X9X9X9X9X9X9X8X8X8X8X8X0X0X0X0X0X0X0X0X0X0X0X0X0X0X0X0X0X0X0X0X0X0X0X0X0X0X0X0X0X0X0X0X0X0X0X0X0X0X0X0XpXpXpX0XpX0XpXpXpXpX0X0XpXpXpXpX0X0XpXpXpXpX0XpXpXpXpXpXpXpXpXpXpXpXpXpXpXpXpXpX0X0X0X0X0XpX0X0XpXpXpXpXpXpXpXpXpXpXpXpXpXpXpXpXpXpXpXpXpXpXpXpX0X0X0X0X0X0X0X0XpXpXpXpX0X0X0X0X0X0XpX0XpXpX0X0XpXpX0XpXpXpXpXpXpXpXpXpX0X0X0X0XpXpXpXpX0X0X0X0X0X0X0X0XqX0X0X0X0X0X0X0X0X0X0X0X0X0X0X0X0X0X0X0X0X0X0X0X9X9X9X9X9X9X9X9X7X7X9X9X9X9X9X9X7X7X7X7X9X9X9X9X5X5X7X7X7X7X5X5X5X3X:X;X3X3X1X1X7X:X5.! E s.6X1X1X1X1X1X1X1X<X1X1X1X1X1X3X3X3X3X3X3X3X3X1X1X1X1X1X1X1X1X>X>X1X1X1X>X>X>X>X>X>X>X:X<X<Xf.8.:X>X:X:X:X:X:X:X:X:X:X:X(.(.(.(.(.;X;X;X;X;X;X;X(.(.(.Y.Y.^.^.G.#.7.Y.(.I.I.L.P.N.t.k.v.k.k.k.k.k.f.t.e.;.#.8.k.v.k.t.z.I.;X^.-X;X;Xe.N.7X<X<X",
"1X1X1X:X^.$.^.:X:X:X;XP.l.v.N.V.y.I P ;.%.e.j.k.l.l.l.j.l.n.N.M.n.P.P.I.I.(.L.A s i.I.I.^.(.^.(.(.(.;X(.;X;X;X;X;X;X;X;X:X:X:X:X:X:X:X:X:X:X<X2X;.k.;X;XI.-X:X;X;X:X:X<X1X1X1X1X1X1X1X1X1X3X3X3X3X3X3X3X3X3X3X3X3X3X3X3X3X3X3X3X5X7XwXwX1X3X5Xb.R E T <X>X1X3X5X7X7X7X7X7X7X7X7X7X7X7X7X7X7X7X7X9X9X9X9X9X9X9X9X9X9X9X8X8X8X8X8X0X0X0X0X0X0X0X0X0X0X0X0X0X0X0X0X0X0X0X0X0X0X0X0X0X0X0X0X0X0X0X0X0X0X0X0X0X0X0X0XpXpXpX0X0X0XpXpXpX0X0X0XpXpXpXpXpXpXpXpXpXpXpXpXpXpXpXpXpXpXpXpXpXpXpXpXpXpXpXpXPXPX0X0X0XpXpXpXpXpXpXpXpXpXpXpXpXpXpXpXpXpXpXpXpXpXpXpXpXpXpXpX0X0X0X0X0X0X0X0XpXpXpXpX0X0X0XpXpX0X0XpXpXpX0X0XpXpXpXpXpXpXpXpXpXpXpXpX0X0X0X0XpXpXpXpX0X0X0X0X0X0X0X0XqXqX0X0X0X0X0X0X0X0X0X0X0X0X0X0X0X0X0X0X0X0X0X0X9X9X9X9X9X9X9X9X9X9X7X9X9X9X9X9X7X7X7X7X9X9X9X9X5X5X7X7X7X7X5X5X5X3X3X5X7X3X1X1X7X:X5.! E s.6X>X1X1X1X1X1X1X:X1X1X1X1X1X3X3X3X3X3X3X3X3X1X1X1X1X1X1X1X1X>X>X1X1X1X1X>X>X>X>X>X>X:X<X<Xt.;.(.<X>X:X:X:X:X:X:X:X:X:X(.(.(.(.;X;X;X(.(.;X;X-X(.(.(.Y.Y.^.^.n.%.7.Y.(.I.I.L.P.n.7.k.v.k.k.k.k.k.f.t.8.;.#.8.k.v.k.t.z.I.;X^.-X;X;Xe.N.5X<X1X",
"1X1X1X:XI.,.-X;X:X:X;XP.l.v.N.v.f.;.;.P z ;.f.l.l.b.k.q.l.x.n.L.v.f.M.I.I.I.I.A s t.I.I.I.(.(.-X-X^.^.^.;X;X;X;X;X;X;X;X;X;X;X;X:X:X:X:X:X:X<X1X7.k.:X;X;X(.:X;X:X>X:X>X>X1X1X1X1X1X1X1X1X1X1X1X3X3X3X3X3X3X3X3X3X3X3X3X3X3X5X5X3X9XwX7X7X1X3Xb.R E Y <X1X1X3X7X7X7X7X7X7X7X7X7X7X7X7X7X9X9X9X9X9X9X7X7X7X8X8X8X9X9X9X9X9X8X8X8X0X0X0X0X0X0X0X0X0X0X0X0X0X0X0X0X0X0X0X0X0X0X0X0X0X0X0X0X0X0X0X0X0X0X0X0X0X0X0X0X0X0X0X0X0X0X0X0X0X0X0X0XpXpXpXpXpXpXpXpXpXpXpXpXpXpXpXpX0X0X0X0XpXpXpXpXpXpXpXpXpXpXpXpXpXpXpXpXpXpXpXpXpXpXpXpXpXpXpXpXpXpXpXpXpXpXpXpXpXpXpXpXpXpXpXpXpXpXpXpXpXpXpXpX0X0X0XpXpX0X0XpX0X0X0X0XpXpXpXpX0X0XpXpXpXpXpXpX0X0X0X0X0X0X0X0X0X0X0X0X0X0X0X0X0X0X0X0X0X0X0X0X0X0X0X0X0X0X0X0X0X0X0X0X9X9X9X9X9X9X9X9X9X9X9X9X9X9X7X7X7X7X9X9X7X7X7X7X7X7X7X7X7X7X7X7X7X7X7X7X5X5X3X3X3X1XwX1X7X:X6.! E s.<X>X1X3X1X5X3X1X1X1X1X1X1X1X1X1X1X1X3X3X3X3X1X1X1X1X1X1X1X1X1X1X>X>X1X1X<X<X:X:X:X:X:X:X:Xg.,.;X1X<X:X:X:X:X:X:X:X:X;X;X(.(.;X;X;X;X;X;X;X;X(.(.(.(.Y.;X^.I.n.#.,.Y.(.I.L.I.P.M.8.l.l.l.k.k.k.k.f.t.8.;.O.8.k.v.k.t.l.I.;X^.-X;X;Xe.I.5X1X1X",
"1X1X1X1XI.8.;X:X:X:X;XP.l.v.N.v.t.8.7.c e #.t.f.g.k.f.7.j.x.n.P.P.n.N.I.I.I.I.A s i.T.T.I.^.^.^.^.^.^.^.^.^.;X;X;X;X;X;X:X:X;X;X:X:X:X:X:X:X<X<X8.l.:X^.(.(.:X;X:X:X:X>X>X1X1X1X1X1X1X1X1X1X1X1X3X3X3X3X3X3X3X3X3X3X3X3X7X7X7X5X8X7X1X7X8X7X<Xb.E E Y :X1X1X3X7X7X7X7X7X7X7X7X7X7X7X7X7X7X7X9X9X7X9X7X7X9X8X8X8X9X8X9X9X8X8X8X9X0X0X0X0X0X0X0X0X0X0X0X0X0X0X0X0X0X0X0X0X0X0X0X0X0X0X0X0X0X0X0X0X0X0X0X0X0X0X0X0X0X0X0X0X0X0X0X0X0X0X0X0XpXpXpXpXpXpXpXpX0X0XpXpXpXpXpXpX0XpX0X0XpXpXpXpXpXpXpXpXpXpXpXpXpXpXpXpXpXpXpXpXpXpXpXpXpXpXpXpXpXpXpXpXpXpXpXpXpXpXpXpXpXpXpXpXpXpXpXpXpXpXpXpX0X0XpXpXpX0X0XpX0X0X0X0XpXpXpXpX0X0XpXpXpXpXpXpX0X0X0X0X0X0X0X0X0X0X0X0X0X0X0X0X0X0X0X0X0X0X0X0X0X0X0X0X0X0X0X0X0X0X0X0X9X9X9X9X9X9X9X9X9X9X9X9X9X9X7X7X7X7X9X9X7X7X7X7X7X7X7X7X7X7X7X7X7X7X7X7X5X5X5X3X1X1XwX1X7X:X6.! W s.2X<X3X3X9X8X7X7X8X5X1X1X1X1X3X3X1X1X3X3X3X3X1X1X1X1X1X1X1X1X1X1X1X>X>X1X1X<X:X:X:X:X:X:X:Xg.,.;X1X<X:X:X:X:X:X:X:X:X;X;X(.(.;X;X;X;X;X;X;X;X(.(.(.(.I.P.M.I.n.#.7.Y.(.(.P.^.P.v.j.M.l.l.k.k.k.k.f.t.e.,.&.e.k.v.k.t.l.I.;X^.-X;X;Xe.I.5X2X3X",
"1X1X1X1XI.t.;X>X:X:X;XI.v.v.N.v.t.,.7.S j 7.j.f.l.l.l.f.k.n.M.M.^.P.N.I.I.I.I.A s i.T.T.I.^.(.(.^.^.-X-X-X-X;X;X;X;X;X;X;X;X;X;X:X:X:X:X;X:X<X<Xe.v.:XM.(.;X:X;X:X>X:X>X>X1X1X1X1X1X1X1X1X1X1X1X3X3X3X3X3X3X3X3X3X3X3X3X3X3X5X7X7X7XpX1X1X3X1Xz.U E Y (.1X1X3X7X7X7X7X7X7X7X7X7X7X7X7X7X7X7X7X7X7X7X7X7X9X9X8X8X9X8X8X0X8X8X8X9X0X0X0X0X0X0X0X0X0X0X0X0X0X0X0X0X0X0X0X0X0X0X0X0X0X0X0X0X0X0X0X0X0X0X0X0X0X0X0X0X0X0X0X0X0X0X0X0X0X0X0X0XpXpXpXpX0X0XpXpX0X0XpXpX0X0XpXpXpXpXpXpXpXpXpXpXpXpXpXpXpXpXpXpXpXpXpXpXpXpXpXpXpXpXpXpXpXpXpXpXpXpXpXpXpXpXpXpXpXpXpXpXpXpXpXpXpXpXpXpXpXpXpXpXpXpXpXpXpX0X0XpX0X0X0X0XpXpXpXpXpXpXpXpXpXpXpXpX0X0X0X0X0X0X0X0X0X0X0X0X0X0X0X0X0X0X0X0X0X0X0X0X0X0X0X0X0X0X0X0X0X0X0X0X9X9X9X9X9X9X9X9X9X9X9X9X9X9X9X7X7X7X9X9X7X7X7X7X7X7X7X7X7X7X7X7X7X7X7X7X7X7X7X3X1X1XwXwX7X<X6.! E s.2X<X1X8X8X5X;X>X8X3X1X1X1X1X3X3X3X1X3X3X3X3X1X1X1X1X1X1X1X1X1X1X1X1X>X>X:X:X:X:X:X:X:X:X:Xg.,.;X1X<X:X:X:X:X:X:X:X;X:X;X:X:X;X:X;X;X;X;X;X;X(.(.(.(.I.l.f.P.b.#.7.(.(.(.M.n.N.l.8.k.l.l.k.k.k.k.j.y.8.;.=.t.k.v.k.t.l.P.;X^.-X;X;X8.M.5X1X9X",
">X>X:X:XP.f.;X:X:X:X;XI.v.v.N.v.t.,.7.P N 7.y.k.k.f.f.f.x.L.n.l.P.).N.I.I.I.I.A h i.T.T.I.^.^.(.^.^.-X-X-X-X;X;X;X;X;X;X;X;X;X;X:X:X;X;X;X:X<X<X8.k.^.k.(.;X;X;X:X>X:X>X>X1X1X1X1X1X1X1X1X1X1X1X3X3X3X3X3X3X3X3X5X5X3X3X;X<X3X7X7X9X1Xg.B.1X1Xz.U R T ;X1X1X3X3X7X7X7X7X7X7X7X7X7X7X7X7X7X7X7X7X7X7X7X7X9X9X8X8X8X8X8X0X8X8X9X9X0X0X0X0X0X0X0X0X0X0X0X0X0X0X0X0X0X0X0X0X0X0X0X0X0X0X0X0X0X0X0X0X0X0X0X0X0X0X0X0X0X0X0X0X0X0X0X0X0X0X0X0XpXpXpXpX0X0X0X0X0XpXpXpXpX0X0X0XpXpXpXpXpXpXpXpXpXpXpXpXpXpXpXpXpXpXpXpXpXpXpXpXpXpXpXpXpXpXpXpXpXpXpXpXpXpXpXpXpXpXpXpXpXpXpXpXpXpXpXpX0XpXpXpXpXpXpXpXpX0X0XpX0X0X0X0XpXpXpXpXpXpXpXpXpXpXpXpX0X0X0X0X0X0X0X0X0X0X0X0X0X0X0X0X0X0X0X0X0X0X0X0X0X0X0X0X0X0X0X0X0X0X0X0X9X9X9X9X9X9X9X9X9X9X9X9X9X9X7X7X7X7X9X9X7X9X7X7X7X7X7X7X7X7X7X7X7X7X7X7X7X7X3X3X7X7XwXwX7X:X4.! W w.b.P.I.1XP.P.T.;XpX9X1X1X1X1X3X3X3X1X3X3X3X3X1X1X3X3X1X1X1X1X1X1X1X1X:X:X:X:X1X:X:X:X:X:X:Xg.,.;X1X<X:X:X:X:X:X:X:X;X:X:X:X:X;X:X;X;X;X;X;X;X(.(.(.^.P.t.8.L.z.#.8.(.(.(.l.y.M.k.o.=.l.l.k.k.k.k.j.y.,.=.$.e.k.v.k.t.l.P.;X;X-X;X;X8.v.2XP.(.",
"1X;Xl.;Xv.k.;X;X;X:X;XI.v.M.M.v.f.8.7.A B 4.f.k.k.t.;.x.n.L.M.v.I.N.v.I.I.I.I.Y j i.I.I.I.^.^.^.^.^.^.-X;X;X;X;X;X;X;X;X;X;X;X;X:X;X;X:X:X<X1X1Xt.t.(.M.;X;X;X;X:X:X:X:X1X1X:X1X1X1X1X1X1X1X1X1X1X1X1X1X3X3X3X3X5X5X3X3X<X5X9X7X7X7XI.;XI.v.M.e.U E #.(.1X3X3X3X3X3X7X7X7X7X7X7X7X7X7X7X7X7X7X7X7X7X7X7X9X9X8X8X8X8X0X0X9X8X8X0X9X9X9X9X9X9X9X9X0X0X0X0X0X0X0X0X0X0X0X0X0X0X0X0X0X0X0X0X0X0X0X0X0X0X0X0X0X0X0X0X0X0X0X0X0X0X0X0X0X0X0X0X0X0X0X0X0XpXpXpXpX0XpXpX0X0X0X0XpXpXpXpXpXpXpXpXpXpXpXpX0X0X0X0XpXpXpXpXpXpXpX0X0X0XpXpXpXpXpXpXpXpXpXpXpXpXpXpXpXpXpXpX0X0X0XpXpX0X0X0X0X0XpXpXpXpXpXpX0X0X0X0X0X0X0X0X0X0X0X0X0X0X0X0X0X0X0X0X0X0X0X0X0X0X0X0X0X0X0X0X0X0X0X0X0X0X0X0X0X0X0X0X0X0X0X0X9X9X9X9X0X0X0X0XqXqXqXqX0X0X0X9X9X9X9X9X9X9X9X9X9X7X9X9X7X8X3X>X3X9X7X7X7X7X7X7X7X7X7X7X7X7X7X7X5X7X7XwX7X:X5.R D E H.T.e.^.6X5X5X1X3XiX3X1X8X1X1X1X1X1X1X1X1X1X1X1X1X1X1X1X1X1X>X1X1X1X:X:X:X:X1X<X<X:X;X:X:Xl.,.;X:X;X:X:X:X:X:X:X:X;X;X;X;X:X;X;X;X;X;X;X;X;X^.^.^.^.P.P.N.b.a.#.8.(.^.I.v.l.M.v.8.,.v.l.k.k.k.k.f.t.7.;.#.e.f.v.k.t.z.P.(.^.-X-X;X8.M.<Xy.(.",
"7X;Xk.<Xv.k.;X;X;X;X;XI.v.M.M.v.f.8.9.A S 7.f.f.g.f.7.x.n.L.M.v.n.b.M.^.I.I.I.@.j p.Y.I.I.^.^.^.^.^.^.^.;X;X;X;X;X;X;X;X;X;X;X;X:X;X:X:X:X:X1X1Xe.y.<X;X:X;X;X;X:X:X:X:X:X1X:X1X1X1X1X1X1X1X1X1X1X1X1X1X3X3X3X3X3X3X5X7X7X7X7X1X1X1X1X1Xk.e.g.7.Y E #.(.1X3X3X3X3X3X7X7X7X7X7X7X7X7X7X7X9X7X7X7X7X7X7X7X9X9X9X9X8X8X0X0X9X8X8X0X9X9X9X9X9X9X9X9X0X0X0X0X0X0X0X0X0X0X0X0X0X0X0X0X0X0X0X0X0X0X0X0X0X0X0X0X0X0X0X0X0X0X0X0X0X0X0X0X0X0X0X0X0X0X0X0XpXpXpXpX0X0XpXpX0X0X0X0XpXpXpXpXpXpXpXpXpXpXpXpXpXpX0X0XpXpXpXpXpXpXpXpX0X0XpXpXpXpXpXpXpXpXpXpXpXpXpXpXpXpXpXpXpXpX0XpXpX0X0X0X0X0XpXpXpXpXpXpX0X0X0X0X0X0X0X0X0X0X0X0X0X0X0X0X0X0X0X0X0X0X0X0X0X0X0X0X0X0X0X0X0X0X0X0X0X0X0X0X0X0X0X0X0X0X0X0X9X9X9X9X0X0X0X0XqXqX9X9X0X0X9X9X9X9X9X9X9X9X7X7X9X9X7X9X7X9X;XN.;X5X7X7X7X7X7X7X7X7X7X7X7X7X7X7X5X5X7X7X7X:X2.E D E x.j.;.L.1X5X7X1X3X5X9X6X2X1X1X1X1X1X1X1X1X1X1X1X1X1X1X1X1X1X>X1X>X>X:X:X:X:X1X<X:X:X;X;X:Xl.,.;X:X;X;X;X;X:X:X:X;X;X;X;X;X;X;X;X;X;X;X;X;X(.^.^.^.^.^.(.^.N.j.#.e.;XI.I.M.M.M.l.k.f.v.l.l.k.k.k.f.t.7.;.#.e.f.v.k.t.z.P.(.-X-X-X;X8.v.;Xy.(.",
"7X;Xk.2Xv.k.;X;X;X;X;XI.v.M.M.v.f.7.7.A L 9.f.f.g.k.y.x.n.L.M.v.b.j.n.I.I.I.I.T j p.Y.I.I.^.^.(.^.^.^.^.(.-X;X;X;X;X;X;X;X;X;X;X:X:X:X:X:X:X1X1X8.f.5X3X:X;X;X(.;X:X:X>X>X>X-X;X1X1X1X1X1X1X1X1X1X1X1X1X1X1X3X1X1X3X7X8XiX7X1X1X1X1X7X-X;.t.P.t.Y E #.(.1X3X3X3X3X3X7X7X7X7X7X7X7X7X7X7X9X9X9X7X7X7X7X7X7X7X7X7X9X9X7X7X9X9X0X0X9X9X9X9X9X9X9X9X0X0X0X0X0X0X0X0X0X0X0X0X0X0X0X0X0X0X0X0X0X0X0X0X0X0X0X0X0X0X0X0X0X0X0X0X0X0X0X0X0X0X0X0X0X0X0X0XpXpXpXpX0XpXpXpX0X0X0X0XpXpXpXpXpXpXpXpXpXpXpXpXpXpXpXpXpXpXpXpXpXpXpXpXpXpXpXpXpXpXpXpXpXpXpXpXpXpXpXpXpXpXpXpXpXpXpXpXpXpXpXpXpXpXpXpX0X0X0XpX0X0X0X0X0X0X0X0X0X0X0X0X0X0X0X0X0X0X0X0X0X0X0X0X0X0X0X0X0X0X0X0X0X0X0X0X0X0X0X0X0X0X0X0X0X0X0X0X9X9X9X9X0X0X0X0X9X9X9X9X0X0X8X8X9X9X9X9X9X9X7X9X9X9X9X9X7X7X^.N.;X5X7X7X7X7X7X7X7X7X7X7X7X7X7X7X5X7X7X7X7X(.2.2.D U j.t.k.I.3X3X7X3X1X<X5X9X6X1X1X1X1X3X1X1X1X1X1X1X>X>X>X>X>X>X>X>X>X>X>X>X>X>X:X:X:X:X;X;X:Xg.,.;X:X;X;X;X-X:X;X:X;X;X;X;X;X;X;X;X;X;X;X;X^.^.^.^.^.^.I.^.^.).a.#.8.^.-XI.v.M.n.j.j.k.k.l.l.k.k.k.f.t.7.;.#.e.f.v.k.t.z.P.(.-X-X;X;X8.v.(.y.<X",
"1X:Xl.<Xv.k.;X;X;X;X;XI.v.M.M.v.f.7.7.A P t.y.f.f.k.k.x.n.L.M.v.n.j.l.P.I.I.I.T j p.I.I.^.^.^.(.^.^.^.^.^.-X;X;X;X;X;X;X;X;X;X;X:X:X:X:X:X:X1X1Xe.f.3X1X2X:X(.^.;X:X>X>X>X:XB.M.1X1X1X1X1X1X1X1X1X1X1X1X1X1X3X3X1X3X7X8X9X3X1X3X7X1X1X9X:X<X1Xk.Y R #.(.>X3X1X3X3X3X7X7X7X7X7X7X7X7X7X7X9X9X9X9X7X7X7X7X7X7X7X7X7X7X7X7X7X7X0X0X9X9X9X9X9X9X9X9X0X0X0X0X0X0X0X0X0X0X0X0X0X0X0X0X0X0X0X0X0X0X0X0X0X0X0X0X0X0X0X0X0X0X0X0X0X0X0X0X0X0X0X0X0X0X0X0XpXpXpXpXpXpXpXpX0X0X0X0XpXpXpXpXpXpX0X0XpXpXpXpXpXpXpXpXpXpXpXpXpXpXpXpXpXpXpXpXpXpXpXpXpXpXpXpXpXpXpXpXpXpXpXpXpXpXpXpXpXpXpXpXpXpXpXpX0X0XpXpX0X0X0X0X0X0X0X0X0X0X0X0X0X0X0X0X0X0X0X0X0X0X0X0X0X0X0X0X0X0X0X0X0X0X0X0X0X0X0X0X0X0X0X0X0X0X0X0X9X9X9X9X0X0X0X0X9X9X9X9X0X0X0X9X9X9X9X9X9X7X7X9X9X9X9X7X7X3X;X>X3X7X7X7X7X7X7X7X7X7X7X7X7X7X7X7X5X5X5X7X3X(.5.u.R R G.P.^.;X>X3X>X3X4X2X2XaX8X6X1X1X1X3X1X1X1X1X1X1X>X>X>X>X>X>X>X>X>X>X>X>X>X>X:X:X:X;X^.(.;Xf.,.;X:X:X;X;X;X;X;X;X;X;X;X;X;X;X;X;X;X;X;X^.^.^.^.^.^.^.^.IXB.^.f.#.8.(.(.I.v.n.k.f.f.8.k.k.k.k.k.k.f.t.7.;.#.e.g.l.k.t.k.P.(.-X-X;X;X8.v.(.t.2X",
"1X:Xv.;Xv.g.:X;X;X;X(.I.v.v.M.l.f.7.7.Y @.t.f.f.f.k.k.x.n.N.M.v.v.j.x.T.P.P.U.T h y.P.N.^.^.^.(.^.^.^.(.(.(.;X;X;X;X;X;X;X;X;X;X;X;X;X;X;X:X1X1X7.y.5X6X:X;XI.^.:X:X:X>X>XB.<.g.;X1X1X1X1X1X1X1X1X1X1X1X1X1X3X1X1X8X8X8X3X3X3X3X1X1X1X1X3X5X5Xj.U Y T (.1X1X3X3X3X3X3X3X7X7X7X7X7X7X7X7X7X7X7X7X7X7X7X7X7X7X7X7X8X8X8X8X9X9X9X8X9X9X9X9X9X9X9X9X9X9X9X9X9X9X9X9X0X0X0X0X0X0X0X0X0X0X0X0X0X0X0X0X0X0X0X0X0X0X0X0X0X0X0X0X0X0X0X0X8X9X9X9X9X9X9X9X0X0X0X0X0X0X0X0X0X0X0X0X0X0X0X0X0X0X0X0X0X0X0X0X0X0X0X0X0X0X0X0X0X0X0X0X0X0X0X0X0X0X0X0X0X0X0X0XpXpXpX0X0X0XpXpXpXpXpXpX0X0XpXpX0X0X0X0X0X0X0X0XpX0X0XpXpXpXpXpX0X0X0X0X0X0X0X0X0X0X0X0X0X0X0X0X0X0X0X0X0X0X0X0X0X0X0X0X0X0X0X0X0X0X0X0X9X9X9X9X9X9X9X9X9X9X9X9X9X9X9X8X9X9X7X7X9X9X9X9X9X9X9X9X7X7X7X7X7X3X5X5X7X7X7X7X7X7X7X7X7X7X7X7X7X7X7X7X7X7X7X7X1X(.d.K.2.R U.;X;X;X:X3X3X3X3X3X<X2XlX5X<X1X1X3X1X1X1X1X>X>X>X>X>X>X>X>X>X>X>X>X>X>X>X>X:X;X;X^.).^.<Xk.,.^.:X;X;X;X;X;X;X;X;X;X;X;X;X;X;X;X;X;X-X-X-X-X^.^.^.^.^.^.I.I.j.#.t.I.M.l.n.n.v.j.f.k.v.k.k.k.j.f.a.e.7.:.#.,.g.l.k.y.z.P.-X-X-X;X:X8.v.I.f.<X",
"1X:XM.;Xv.k.:X;X;X;X(.I.x.v.M.l.f.8.7.Y @.e.f.f.f.k.k.x.n.N.M.v.f.f.x.Y.P.I.(.#.h t.I.N.B.B.I.I.I.I.I.I.^.(.;X;X;X;X;X;X;X;X;X;X;X;X;X;X:X:X>X1X;.3.P.(.L.(.Y.(.<X>X:X;X:XB.e.g.Y.;X1X1X1X1X1X1X1X1X1X1X3X3X1X3X7X9X8X3X3X3X3X3X1X1X1X1X3X5X5Xy.U T P ^.1X1X1X3X3X3X3X3X7X7X7X7X7X7X7X7X7X7X7X7X7X7X7X7X7X7X7X9X8X8X8X8X7X7X8X8X9X9X9X9X9X9X9X9X9X9X9X9X9X9X9X9X0X0X0X0X0X0X0X0X0X0X0X0X0X0X0X0X0X0X0X0X0X0X0X0X0X0X0X0X0X0X0X0X8X9X9X9X9X9X9X9X0X0X0X0X0X0X0X0X0X0X0X0X0X0X0X0X0X0X0X0X0X0X0X0X0X0X0X0X0X0X0X0X0X0X0X0X0X0X0X0X0X0X0X0X0X0X0X0XpXpXpXpX0X0XpXpXpXpXpXpX0X0XpXpX0X0X0X0X0X0X0X0XpX0X0XpXpXpXpXpX0X0X0X0X0X0X0X0X0X0X0X0X0X0X0X0X0X0X0X0X0X0X0X0X0X0X0X0X0X0X0X0X0X0X0X0X9X9X9X9X9X9X9X9X9X9X9X9X9X9X9X9X9X9X7X7X9X9X9X9X8X8X9X9X7X7X7X7X7X7X5X5X7X7X7X7X7X7X7X7X7X7X7X7X7X7X7X7X7X7X7X7X1X(.s.J.2.2.'.<X;X(.;X1X3X3X3X3X6X<X<XcX5X1X5X1X1X1X1X1X>X>X>X1X1X1X1X>X>X>X>X>X>X>X>X>X:X:X;X;XP.P.(.k.=.^.:X:X;X;X;X;X;X;X;X;X;X;X;X;X;X;X;X;X-X-X-X-X^.^.^.^.^.I.I.P.j.#.t.I.M.b.n.b.t.e.j.v.v.l.k.k.j.f.y.e.7.:.#.,.g.l.j.y.z.P.(.-X-X;X:X8.v.P.f.<X",
"1X:Xv.:Xv.g.:X;X;X;X(.I.x.v.M.v.f.8.7.Y @.e.t.f.f.k.k.l.n.N.M.v.k.k.n.P.P.I.(.#.j y.T.B.B.B.I.I.I.I.I.I.I.I.^.(.(.(.;X;X;X;X;X;X;X;X;X;X:X:X1X1X@.j *.3.z.(.'.(.(.(.(.(.-XI.N.I.(.:X<X:X1X1X1X1X>X>X3X3X3X1X3X7X9X8X1X1X3X3X1X1X1X1X1X1X3X3X1Xe.U T P ^.1X1X3X3X3X3X3X3X7X7X7X7X7X7X7X7X7X7X7X7X7X7X7X7X7X7X7X7X9X9X9X9X7X7X7X7X9X9X9X9X9X9X9X9X9X9X9X9X9X9X9X9X0X0X0X0X9X9X9X9X0X0X0X0X0X0X0X0X0X0X0X0X0X0X0X0X0X0X0X0X0X0X0X0X0X0X0X0X9X0X0X9X0X0X0X0X0X0X0X0X0X0X0X0X0X0X0X0X0X0X0X0X0X0X0X0X0X0X0X0X0X0X0X0X0X0X0X0X0X0X0X0X0X0X0X0X0X0X0X0XpXpXpXpXpXpXpXpXpXpXpXpXpXpXpXpX0X0X0X0X0X0X0X0XpX0X0XpXpXpXpXpX0X0X0X0X0X0X0X0X0X0X0X0X0X0X0X0X0X0X0X0X0X0X0X0X0X0X0X0X0X0X0X0X0X0X0X0X9X9X9X9X9X9X9X9X9X9X9X9X8X8X8X8X7X7X7X7X9X9X9X9X8X8X8X8X7X7X7X7X7X7X5X5X7X7X7X7X7X7X7X7X7X7X7X7X7X7X7X7X7X7X7X7X1X'.r.i.U -.'.:X;X^.^.;X3X3X3X3X1X6X:X2XzX5X1X3X1X1X1X1X1X1X1X1X1X1X1X1X>X>X1X1X>X>X>X>X>X>X:X:X^.N.g.I I ^.;X;X;X;X;X;X;X;X;X;X;X;X;X;X;X;X;X;X-X-X-X-X^.^.^.^.^.I.I.P.j.#.t.I.P.v.z.y.7.7.t.v.v.l.k.k.j.j.t.e.7.;.#.,.g.l.k.y.z.P.(.-X-X;X:X8.l.P.k.3X",
"1X:Xv.;Xv.g.:X;X;X;X(.I.x.v.M.v.f.8.7.Y @.e.t.f.f.k.k.l.n.N.M.v.M.M.L.L.P.P.U.T h t.P.N.B.I.I.I.I.I.I.I.I.I.I.^.(.(.;X;X;X;X;X;X;X;X;X;X:X:X<X1X@.N 0.*.z.2X2X(.L.I.^.;X;X<X;X<X1X1X<X:X<X<X1X1X1X1X1X1X1X3X5X8X7X1X1X1X3X3X1X1X1X1X1X1X5X3X<X8.A U P I.1X1X3X3X3X3X3X3X7X7X7X7X7X7X7X7X7X7X7X7X7X7X7X7X7X7X7X7X9X9X9X9X7X7X7X7X9X9X9X9X9X9X9X9X9X9X9X9X9X9X9X9X0X9X9X9X9X9X9X9X9X9X0X0X0X0X0X0X0X0X0X0X0X0X0X0X0X0X0X0X0X0X0X0X0X0X0X0X0X0X0X0X0X0X0X0X0X0X0X0X0X0X0X0X0X0X0X0X0X0X0X0X0X0X0X0X0X0X0X0X0X0X0X0X0X0X0X0X0X0X0X0X0X0X0X0X0X0X0X0XpXpXpXpXpXpXpXpXpXpXpXpXpXpXpXpX0X0X0X0X0X0X0X0XpX0X0XpXpXpXpXpX0X0X0X0X0X0X0X0X0X0X0X0X0X0X0X0X0X0X0X0X0X0X0X0X0X0X0X0X0X0X0X0X0X0X0X0X9X9X9X9X9X9X9X9X9X9X9X9X8X8X8X8X7X7X7X7X9X9X9X9X8X8X8X8X7X7X7X7X7X3X5X5X7X7X7X7X7X7X7X7X7X7X7X7X7X7X7X7X7X7X3X7X<X:X-.V d U '.;X;X^.^.;X1X7X3X3X1X3X<X:X<XsXaX9X5X3X3X3X3X5X3X3X1X1X1X1X2X<X<X<X<X<X<X1X1X1X:X:X:X(.e.i N (.:X;X;X;X;X;X;X;X;X;X(.(.(.(.(.;X;X;X(.(.(.^.^.^.I.^.^.I.I.I.k.#.e.I.I.n.z.4.#.@.;.e.v.l.k.k.j.j.t.e.,.;.#.,.f.l.k.y.z.P.(.-X-X;X;X8.l.P.k.3X",
"1X:Xv.<Xv.g.:X-X;X;X^.T.x.v.M.v.f.8.7.#.@.8.t.k.f.k.k.l.b.N.M.v.N.L.T.T.M.x.G.Y s T t.f.f.j.j.j.j.j.z.b.b.b.z.l.k.j.k.l.z.k.k.j.a.a.k.k.k.z.b.G.T @.a.-.p.b.b.y.8.j.z.l.k.k.j.k.j.j.k.k.k.j.j.j.j.k.k.k.l.x.x.(.6X<X1X1X1X1X1X1X1X1X1X1X5X3X<X8.A U I I.1X:X3X3X3X3X3X3X3X3X3X3X7X7X7X7X7X7X7X7X7X7X7X7X7X7X7X7X7X7X7X7X9X9X7X7X9X9X9X9X9X9X9X9X9X9X9X9X9X9X9X9X9X9X7X7X7X9X9X9X7X9X0X0X0X0X0X0X0X0X0X0X0X0X0X0X0X0X0X0X0X0X0X0X0X0X0X0X0X0X0X0X0X0X0X0X0X0X0X0X0X0X0X0X0X0X0X0X0X0X0XqXqXqXqX0X0X0X0X0X0X0X0X0X0X0X0X0X0X0X0X0X0X0X0X0X0X0X0X0X0X0XpXpXpXpX0X0X0X0X0X0XpXpX0X0X0X0X0X0X0X0X0X0X0X0X0X0X0X0X0X0X0X0X0X0X0X0X0X0X0X0X0X0X0X0X0X0X0X0X0X0X0X0X0X0X0X0X0X0X0X0X0X0X9X9X9X9X9X9X9X9X9X9X9X9X9X9X9X9X9X9X9X9X7X:X;X7X7X7X7X9X7X7X7X7X7X7X9X7X7X3X5X5X7X7X7X7X7X7X7X7X7X7X7X7X3X3X3X3X3X3X3X1X<X2X%.V V T '.;X:X:X;X;X1X7X7X7X1X<X6X2X'.z.j.p.k.z.z.l.x.x.x.x.z.k.z.k.k.k.k.j.p.p.p.p.t.t.t.0.j.z.4.j A a.z.z.k.k.k.k.z.k.k.a.z.z.a.a.p.p.p.p.p.p.p.y.y.t.t.t.t.r.9.9.4.P j.I.n.v.0.%.#.P I &.v.l.k.k.y.t.e.8.,.;.@.7.f.l.k.t.v.P.(.-X-X;X1X7.v.P.l.1X",
"<X;Xv.<Xv.g.:X-X;X;X^.T.x.v.M.v.t.8.7.@.Y 8.t.f.f.k.k.l.v.N.M.v.P.P.P.M.M.x.b.%.N j z I P P P P P #.#.=.;.;.#.C z A @.&.@.#.P I T T #.#.#.P l a %.9.3.%.#.#.#.#.#.7.9.3.q.8.;.=.&.#.=.=.=.=.-.-.%.=.3.7.;.7.#.z b.2X<X5X1X1X3X1X1X1X1X1X5X3X<X8.A U P I.1X:X3X3X3X3X3X3X3X3X3X3X7X7X7X7X7X7X7X7X7X7X7X7X7X7X7X7X7X7X7X7X9X9X7X9X9X9X9X9X9X9X9X9X9X9X9X9X9X9X9X9X9X9X7X7X7X9X9X9X7X9X0X0X0X0X0X0X0X0X0X0X0X0X0X0X0X0X0X0X0X0X0X0X0X8X0X0X0X0X0X0X0X0X0X0X0X0X0X0X0X0X0X0X0X0X0X0X0X0X0X0XqXqX0X0X0X0X0X0X0X0X0X0X0X0X0X0X0X0X0X0X0X0X0X0X0X0X0X0X0XpXpXpXpXpX0X0X0XpX0X0XpX0XpXpX0X0X0X0X0X0X0X0X0X0X0X0X0X0X0X0X0X0X0X0X0X0X0X0X0X0X0X0X0X0X0X0X0X0X0X0X0X0X0X0X0X0X0X0X0X0X0X0X9X9X9X9X9X9X9X9X9X9X9X9X9X9X9X9X7X7X9X9X1XN.^.7X7X7X7X7X7X7X7X7X7X7X9X7X7X7X7X7X7X7X7X7X7X7X7X7X7X7X7X7X3X3X3X3X3X3X1X1X1X2X-.V V T '.(.;X:X>X;X3X3X7X3X3X1X2X(.3.A P #.@.@.#.@.#.#.#.@.#.@.#.#.#.#.#.#.#.#.#.@.@.P P I C L Y -.A B A L A A A A A A A B Y P L L L L L I A A A A A C S C B S N h z Y j.P.M.M.t.#.P #.=.8.v.l.k.k.y.t.e.8.,.=.O.,.f.l.k.t.v.P.^.^.-X-X1X7.v.P.x.1X",
":X;Xv.<Xv.g.:X;X;X;X(.P.x.n.M.v.f.8.;.P P e.y.t.f.k.k.l.v.N.N.M.P.I.P.x.k.x.b.%.-.b.P.N.N.B.P.P.M.n.v.v.v.M.v.f.t.l.N.n.M.n.b.l.M.M.N.N.P.P.z.P N %.z.b.b.b.l.v.P.(.(.(.:X<X(.^.I.I.^.^.).).).).(.(.<X2X:X2X2Xp.V a.2X6X1X3X1X3X1X1X1X1X5X3X<Xr.U Y P ^.3X:X3X3X3X3X3X3X3X3X3X3X7X7X7X7X7X7X7X7X7X7X7X7X7X7X7X7X7X7X7X7X9X9X9X9X9X9X9X9X9X9X9X9X9X9X9X9X9X9X9X9X9X9X9X9X9X9X9X9X9X9X0X0X0X0X0X0X0X0X0X0X0X0X0X0X0X0X0X0X0X0X0X0X8X8X8X8X0X0X0X0X0X0X0X0X0X0X0X0X0X0X0X0X0X0X0X0X0X0X0X0X0X0X0X0X0X0X0X0X0X0X0X0X0X0X0X0X0X0X0X0X0X0X0X0X0X0X0X0X0X0XpXpXpXpX0XpXpXpXpXpXpXpXpXpX0X0X0X0X0X0X0X0X0X0X0X0X0X0X0X0X0X0X0X0X0X0X0X0X0X0X0X0X0X0X0X0X0X0X0X0X0X0X0X0X0X0X0X0X0X0X0X0X9X9X9X9X9X9X9X9X9X9X9X9X9X9X9X9X7X7X9X7X3X:X3X7X9X7X7X7X7X7X7X7X7X7X9X9X7X7X5X3X3X7X7X7X7X7X7X7X7X7X7X7X3X3X3X3X3X3X1X1X<X2X:.L A %.2X(.;X:X1X1X3X3X3X3X4X6X(.%.S U.2X2X2X<X<X<X<X<X<X;X(.(.;X;X;X;X;X;X;X;X;X;X(.(.Y.Y.(.'.(.b.L r.L.L.L.P.P.P.P.P.G.b.n.G.G.H.G.G.L.L.M.M.M.n.n.b.b.b.z.b.z.e.t.P j.I.P.P.y.#.@.7.f.v.v.l.k.k.y.y.e.8.7.=.o.;.f.l.k.t.l.P.I.I.I.-X1X7.v.P.x.1X",
"<X;Xv.<Xv.k.:X:X;X;X(.P.x.n.M.v.f.8.;.A I 0.y.t.f.k.k.l.l.N.N.M.P.(.P.l.7.l.b.T #.N.^.I.^.-X-X(.^.^.^.^.^.^.^.^.I.;X:X;X(.(.(.(.(.(.;X;X<X<X4XH.h #.(.<X:X:X:X:X>X>X<X1X2X<X:X<X<X>X1X1X<X<X<X<X<X<X:X<X1X1X3X4XG.U r.2X1X1X3X1X1X1X1X1X5X3X<Xr.U Y #.(.3X:X3X3X3X3X3X3X3X3X3X3X7X7X7X7X7X7X7X7X7X7X7X7X7X7X7X7X7X7X7X7X9X9X9X9X9X9X9X9X9X9X9X9X9X9X9X9X9X9X9X9X9X9X9X9X9X9X9X9X9X9X0X0X0X0X0X0X0X0X0X0X0X0X0X0X0X0X0X0X0X0X0X0X8X8X8X8X0X0X0X0X0X0X0X0X0X0X0X0X0X0X0X0X0X0X0X0X0X0X0X0X0X0X0X0X0X0X0X0X0X0X0X0X0X0X0X0X0X0X0X0X0X0X0X0X0X0X0X0XpXpXpXpXpXpXpXpXpXpXpXpXpXpXpXpX0X0X0X0X0X0X0X0X0X0X0X0X0X0X0X0X0X0X0X0X0X0X0X0X0X0X0X0X0X0X0X0X0X0X0X0X0X0X0X0X0X0X0X0X0X0X0X0X9X9X9X9X9X9X9X9X9X9X9X9X9X9X9X9X9X8X8X7X7X8X7X7X7X7X7X7X7X7X7X7X7X7X9X9X7X7X3X;X7X7X7X7X7X7X7X7X7X7X7X7X3X3X3X3X3X3X1X1X<X2X3.U U -.2X(.;X<X1X7X3X3X3X6X4X/.3.Y (.4X6X2X1X1X1X1X<X1X1X1X1X1X1X1X1X1X1X1X<X:X:X<X1X1X<X<X1X2X2Xj.P U.(.:X:X:X<X<X;X;X(.(.(.(.(.(.(.(.;X;X(.(.(.(.(.^.I.^.^.I.I.P.j.S t.N.P.I.f.@.#.f.n.P.v.l.k.j.a.y.e.8.7.=.P &.f.l.k.t.l.N.I.I.I.;X1X7.v.T.l.1X",
"3X;Xb.1Xv.g.:X:X:X;X^.P.x.v.M.v.l.7.;.A A 0.y.y.f.k.k.l.v.N.N.N.I.(.P.x.f.v.b.#.-.n.I.I.^.^.^.^.-X-X-X-X-X-X-X-X^.I.^.;X;X(.(.(.(.(.;X:X<X<X<XM.z ;.(.:X:X:X:X:X:X>X>X<X<X>X:X<X<X<X<X<X<X<X:X:X<X<X1X1X1X<X4X4XrX(.%.9.2X1X7X7X1X3X3X3X1X5X<Xe.Y Y T (.3X1X3X3X3X3X3X3X3X3X3X3X7X7X7X7X7X7X7X7X7X7X7X7X7X7X7X9X7X7X9X9X8X8X8X8X7X7X7X7X9X9X9X9X8X8X8X8X8X8X8X8X9X9X9X9X9X9X9X9X9X9X0X0X0X0X0X0X0X0X0X0X0X0X0X0X0X0X0X0X0X0X0X0X0X0X0X0X0X0X0X0X0X0X0X0X0X0X0X0X0X0X0X0X0X0X0X0X0X0X0X0X0X0X0X0X0X0X0X0X0X0X0X0X0X0X0X0X0X0X0X0X0X0X0X0X0X0X0X0X0X0X0X0X0X0X0X0XpXpXpXpX0X0X0X0X0X0X0X0X0X0X0X0X0X0X0X0X0X0X0X0X0X0X0X0X0X0X0X0X0X0X0X0X0X0X0X0X9X9X9X9X9X0X0X9X7X7X7X7X9X9X9X9X9X9X9X9X9X9X9X9X9X9X9X9X9X9X9X9X9X9X9X9X9X9X9X9X9X9X9X9X7X7X9X9X8X8X8X7X7X7X<XP.7X7X7X7X7X7X7X7X7X7X7X3X3X3X3X3X3X3X1X1X1X2X9.R U %.2X2X;X1X3X1X7X1X5X4X'.4.-.'.2X1X1X1X3X3X3X1X<X1X1X1X>X>X>X>X:X:X>X>X:X:X:X:X:X:X:X:X;X;X1Xk.P (.(.:X;X:X:X;X;X;XY.I.(.(.(.^.(.(.;X;X(.(.(.^.(.^.I.^.^.I.I.P.b.c t.^.P.I.b.&.t.l.N.P.b.l.k.k.j.y.e.7.7.=.I O.t.k.k.e.k.N.I.I.^.:X:X,.l.I.c.1X",
"7X^.l.<Xl.f.;X;X:X;X^.P.l.v.M.v.x.q.#.B A 9.y.y.f.k.k.l.v.N.N.N.I.I.P.n.M.I.G.#.=.n.I.I.^.^.^.^.-X-X-X-X-X-X-X-X^.^.^.^.(.(.;X;X(.;X;X:X:X:X<Xm.N 7.<X:X:X;X:X:X:X:X>X>X>X>X<X<X<X<X3X3X<X<X<X<X<X<X1X1X1X1X4X4X2X4X'.%.p.5X1X1X1X3X3X3X<X7X<Xe.Y Y #.(.3X>X3X3X3X3X3X3X3X3X3X3X7X7X7X7X7X7X7X7X7X7X7X7X7X7X7X9X7X7X9X9X8X8X8X8X7X7X7X7X8X8X9X9X8X8X8X8X8X8X8X8X9X9X9X9X9X9X9X9X9X9X0X0X0X0X0X0X0X0X0X0X0X0X0X0X0X0X0X0X0X0X0X0X0X0X0X0X0X0X0X0X0X0X0X0X0X0X0X0X0X0X0X0X0X0X0X0X0X0X0X0X0X0X0X0X0X0X0X0X0X0X0X0X0X0X0X0X0X0X0X0X0X0X0X0X0X0X0X0X0X0X0X0X0X0X0X0XpXpXpXpX0X0X0X0X0X0X0X0X0X0X0X0X0X0X0X0X0X0X0X0X0X0X0X0X0X0X0X0X0X0X0X0X0X0X0X0X9X9X9X9X0X0X0X0X7X7X7X7X9X9X9X9X9X9X9X9X9X9X9X9X9X9X9X9X9X9X9X9X9X9X9X9X9X9X9X9X9X9X9X9X7X7X7X9X8X8X8X7X7X8X5X:X7X7X7X7X7X7X7X7X7X7X7X3X3X3X3X3X3X3X1X1X1X2X9.R L %.2X2X<X1X1X1X7X1X5X2X9.w.4X5X1X1X1X1X3X3X3X1X<X<X1X1X>X>X>X>X>X>X>X>X:X:X:X:X<X<X:X:X1X:X<Xk.P '.<X;X:X:X;X;X;X;XI.I.-X(.(.(.(.(.;X;X(.(.(.^.(.^.I.^.^.I.I.P.M.c 8.P.N.N.N.k.v.n.P.P.b.l.k.k.j.t.e.7.7.&.h k f.n.g.f.k.P.I.^.(.:X;X,.l.I.c.1X",
"3XP.k.<Xl.f.;X;X:X;X^.P.b.v.M.v.x.P N L N 4.y.y.f.g.k.l.v.M.N.N.P.I.P.L.I.(.L.T -.N.^.I.^.^.^.^.^.^.^.^.^.^.^.^.(.;X(.(.(.;X;X;X;X;X;X:X:X:X<Xa.C t.<X:X:X:X:X:X:X:X>X>X>X>X<X<X1X1X1X1X<X<X<X3X3X3X3X3X1X1X4X4X5X2XiX2X*.x.7X9X1X3X3X3X<X7X<Xe.Y Y #.(.5X1X3X3X3X3X3X3X3X3X3X3X7X7X7X7X7X7X7X7X7X7X7X7X7X7X7X7X7X7X9X9X9X9X8X8X7X7X7X7X8X8X7X7X8X8X8X8X0X0X8X8X9X9X9X9X9X9X9X9X0X0X0X0X0X0X0X0X0X0X0X0X0X0X0X0X0X0X0X0X0X0X0X0X0X0X0X0X0X0X0X0X0X0X0X0X0X0X0X0X0X0X0X0X0X0X0X0X0X0X0X0X0X0X0X0X0X0X0X0X0X0X0X0X0X0X0X0X0X0X0X0X0X0X0X0X0X0X0X0X0X0X0X0X0X0X0X0XpXpXpXpX0X0X0X0X0X0X0X0X0X0X0X0X0X0X0X0X0X0X0X0X0X0X0X0X0X0X0X0X0X0X0X0X0X0X0X0X9X9X0X0X0X0X0X0X0X8X7X9X9X9X9X9X9X9X9X9X9X9X9X9X9X9X9X9X9X9X9X9X9X9X9X9X9X9X9X9X9X9X9X9X7X7X9X9X8X9X7X7X7X7X8X5X7X7X7X7X7X7X7X7X7X7X7X3X3X3X3X3X3X3X1X1X1X2X9.%.L %.'.2X<X1X1X7X7X5X6Xb.3.4XrX6X3X3X1X1X1X1X1X1X3X1X1X1X1X>X1X1X>X>X>X>X:X:X:X:X<X<X<X:X1X<X:Xv.Y /.<X:X:X:X;X;X;X;X-X-X;X;X;X;X(.(.(.;X(.(.(.^.(.^.I.^.^.I.I.P.L.c ;.P.L.P.L.M.v.v.N.P.v.l.k.j.f.t.e.;.;.Z 5 5 >.v.k.t.k.I.I.^.;X;X;X8.k.I.l.:X",
":Xv.c.1Xl.f.;X;X:X;X^.P.x.v.M.v.g.Z 8.N N 4.y.j.f.g.k.l.v.M.N.N.P.P.L.P.I.(.L.#.;.L.(.^.(.(.^.^.^.^.^.^.^.^.-X-X(.(.(.(.;X;X;X;X-X;X;X:X<X<X(.8.C j.<X:X:X:X:X:X:X:X>X:X>X>X<X<X1X1X1X1X<X<X<X3X3X3X3X3X3X1X4X1X5X5XrX4X(.&.I.7X1X3X3X3X<X5X<Xe.Y Y #.(.3X1X3X3X3X3X3X3X3X3X3X3X7X7X7X7X7X7X7X7X7X7X7X7X9X7X7X7X7X7X9X9X9X9X8X8X9X7X7X7X9X9X9X7X8X8X8X8X0X8X8X8X9X9X9X9X9X9X9X9X0X0X0X0X0X0X0X0X0X0X0X0X0X0X0X0X0X0X0X0X0X0X0X0X0X0X0X0X0X0X0X0X0X0X0X0X0X0X0X0X0X0X0X0X0X0X0X0X0X0X0X0X0X0X0X0X0X0X0X0X0X0X0X0X0X0X0X0X0X0X0X0X0X0X0X0X0X0X0X0X0X0X0X0X0X0X0X0XpXpXpXpX0X0X0X0X0X0X0X0X0X0X0X0X0X0X0X0X0X0X0X0X0X0X0X0X0X0X0X0X0X0X0X0X0X0X0X0X0X0X0X0X0X0X0X0X0X8X8X9X9X9X9X9X9X9X9X9X9X9X9X9X9X9X9X9X9X9X9X9X9X9X9X9X9X9X9X9X9X9X9X9X7X7X9X9X9X8X7X7X7X7X5X5X7X7X7X7X7X7X7X7X7X7X7X3X3X3X3X3X3X3X1X1X1X2X9.%.L %.'.2X1X:X1X7X7X8X4X-.U.4X6X1X1X3X1X1X1X1X1X1X3X<X<X<X1X1X1X1X>X>X>X>X:X:X:X:X:X:X<X:X:X:X<XI.@.b.(.:X:X:X;X;X;X;X;X;X;X;X;X;X;X(.(.;X(.(.(.^.(.^.I.^.^.I.I.P.n.z ;.I.I.P.L.M.v.M.P.^.v.l.k.j.y.t.e.=.#.g i ,.k.k.k.t.k.P.I.^.;X;X;X8.g.^.l.:X",
";XI.I.2Xk.t.;X;X:X;X^.P.x.b.M.v.8.;.U.N l 7.y.j.f.g.k.l.v.v.L.n.M.N.L.P.N.I.L.#.;.L.(.I.(.(.^.^.^.^.^.^.^.^.^.^.;X;X;X(.(.(.;X;X-X;X;X;X<X:Xn.#.,.I.:X(.:X:X:X:X:X:X:X:X>X>X1X1X1X1X1X1X<X<X<X<X1X3X3X3X3X3X3X3X3X5X5X6X4X;.f.9X1X1X3X3X1X7X2Xe.A U #.<X3X1X1X1X3X3X3X3X3X3X3X3X7X7X7X7X7X7X7X7X7X7X7X7X7X7X7X7X7X7X7X7X7X7X7X7X8X8X9X9X9X9X7X7X9X8X9X7X9X9X9X9X9X9X9X9X9X9X9X9X9X9X9X9X0X0X0X0X0X0X0X0X0X0X0X0X0X0X0X0X0X0X0X0X0X0X0X0X0X0X0X0X0X0X0X0X0X0X0X0X0X0X0X0XqXqX0X0X0X0X0X0X0X0X0X0X0X0X0X0X0X0X0X0X0X0X0X0X0X0X0X0X0X0X0X0X0X0X0X0X0X0X0X0X0X0X0X0X0X0X0X0X0X0X0X0X0X0X0X0X0X0X0X0X0X0X0X0X0X0X0X0X0X0X0X0X0X0X0X0X0X0X0X0X0X0X0X0X0X0X0X0X0X0X0X0X0X0X9X9X9X9X9X9X9X9X9X9X9X9X9X9X9X9X9X9X9X9X9X9X9X9X9X9X7X7X7X9X7X7X7X7X7X7X7X9X9X8X8X8X7X7X5X5X7X7X7X7X7X7X7X7X7X7X7X7X3X3X3X3X3X3X1X1X<X2X9.P L R '.2X;X:X1X1X5XiXP.-.2X1X2X<X1X1X1X1X1X1X1X1X1X1X1X1X>X>X1X1X>X:X:X:X:X:X:X:X:X:X:X:X:X:X<X<Xt.;.^.1X:X;X;X;X;X;X;X;X;X;X;X;X;X;X;X;X(.(.^.^.(.(.(.(.I.I.I.I.N.C 7.(.P.I.P.M.v.M.N.P.v.k.k.f.y.t.e.;.Z h k t.v.l.k.k.v.T.I.I.;X^.-Xf.k.I.v.;X",
"-X-X;X:Xf.e.;X;X:X;X^.P.x.b.M.v.f.&.Y.3.a ;.y.f.f.f.k.l.v.v.L.n.M.N.L.P.N.I.L.#.;.L.(.I.(.(.^.^.^.^.^.^.^.^.-X-X;X;X;X;X(.(.;X;X-X;X;X;X:XI.r.7.N.:X:X;X:X:X:X:X:X>X>X<X<X<X1X1X1X1X1X1X1X<X:X<X1X3X3X3X3X3X3X3X1X1X3X6X2X=.e.5X1X1X3X3X1X5X2Xt.A U T <X3X1X1X1X3X3X3X3X3X3X3X3X7X7X7X7X7X7X7X7X7X7X7X7X7X7X7X7X7X7X7X7X7X7X7X7X8X8X9X9X9X9X7X7X9X9X9X7X9X9X9X9X9X9X9X9X9X9X9X9X9X9X9X9X0X0X0X0X0X0X0X0X0X0X0X0X0X0X0X0X0X0X0X0X0X0X0X0X0X0X0X0X0X0X0X0X0X0X0X0X0X0X0X0XqXqX0X0X0X0X0X0X0X0X0X0X0X0X0X0X0X0X0X0X0X0X0X0X0X0X0X0X0X0X0X0X0X0X0X0X0X0X0X0X0X0X0X0X0X0X0X0X0X0X0X0X0X0X0X0X0X0X0X0X0X0X0X0X0X0X0X0X0X0X0X0X0X0X0X0X0X0X0X0X0X0X0X0X0X0X0X0X9X0X0X0X0X0X9X9X9X9X9X9X9X9X9X9X9X9X9X9X9X9X9X9X9X9X9X9X9X9X9X9X7X7X7X7X7X7X7X7X7X7X9X9X8X8X8X8X7X7X5X5X7X7X7X7X7X7X7X7X7X7X7X7X3X3X3X3X3X3X1X1X1X4X7.L L T `.<X:X>X1X1X7XiXb.U :X<X<X<X1X1X1X1X1X1X1X1X1X1X1X1X>X>X1X1X>X:X:X:X:X:X:X:X:X:X:X:X:X:X<X<XP.:.f.;X:X:X;X;X;X;X;X;X;X;X;X;X;X;X;X;X(.^.^.I.^.(.(.(.I.I.I.I.N.C 7.(.P.I.P.M.v.M.N.P.v.k.k.f.f.t.e.;.I h x 8.v.l.k.k.v.N.I.I.^.^.;Xf.k.^.v.^.",
";X;X:X:Xt.8.;X;X:X;X^.P.b.b.M.v.f.@.k.z.a T y.y.f.f.k.l.v.v.L.n.M.N.L.P.P.I.L.#.=.L.(.I.^.^.^.^.^.^.^.^.-X-X-X-X;X;X;X;X(.(.;X;X;X;X;X;X^.j.=.n.:X:X:X:X:X:X:X:X:X:X<X<X<X1X1X1X1X1X1X1X1X1X<X<X3X1X3X3X3X3X3X3X1X7X3X3X<X=.r.3X3X1X3X3X1X5X2Xt.A U T <X3X1X1X1X3X3X3X3X3X3X3X3X7X7X7X7X7X7X7X7X5X5X7X7X5X5X9X9X7X7X7X7X7X7X7X7X8X8X8X8X9X7X7X7X9X9X7X7X7X7X9X7X9X9X9X9X9X9X9X9X9X9X9X9X0X0X0X0X9X9X9X9X0X0X0X0X0X0X0X0X0X0X0X0X0X0X0X0X0X0X0X0X0X0X0X0X0X0X0X0X0X0X0X0X0X0X0X0X0X0X0X0X0X0X0X0X0X0X0X0X0X0X0X0X0X0X0X0X0X0X0X0X0X0X0X0X0X0X0X0X0X0X0X0X0X0X0X0X0X0X0X0X0X0X0X0X0X0X0X0X0X0X0X0X0X0X0X0X0X0X0X0X0X0X0X0X0X0X0X0X0X0X0X0X0X0X0X0X9X0X9X9X9X9X0X0X0X8X8X9X9X9X9X9X9X9X9X9X9X9X9X9X9X9X9X9X9X9X9X9X9X9X9X9X7X7X7X7X7X7X7X7X7X7X7X7X8X7X8X8X7X7X5X5X7X7X7X7X7X7X7X7X7X7X7X7X3X3X3X3X3X3X1X1X1X6X9.B A T (.:X:X<X1X1X7X5Xb.L (.:X1X1X1X1X1X1X1X1X3X3X1X1X1X1X>X>X1X1X>X>X:X:X:X:X:X:X:X:X:X:X;X:X:X:X<Xj.#.P.:X:X;X;X;X;X;X;X;X;X;X;X;X;X;X(.(.^.I.I.^.^.(.(.I.I.I.I.N.C 7.(.P.I.P.M.n.M.N.P.v.k.k.f.f.t.e.;.I k z 7.v.l.k.k.v.N.I.^.I.^.;X8.f.;XN.I.",
";X;X:X<Xt.8.;X;X:X;X-XP.b.b.M.v.t.P #.G.z T r.f.f.f.k.l.v.v.L.n.M.N.L.P.P.I.L.T =.N.^.I.^.^.^.^.^.^.^.^.-X-X-X^.;X;X;X;X(.(.(.(.;X;X;X;Xz.#.9.:X1X1X:X1X:X:X:X;X^.(.:X:X<X<X1X1X1X1X1X1X1X1X1X<X1X3X3X3X3X3X3X3X1X3X3X3X<X:.e.5X3X1X3X3X1X5X2Xt.A U T <X1X1X1X1X3X3X3X3X3X3X3X3X7X7X7X7X7X7X7X7X5X5X5X7X5X5X9X9X7X7X7X7X7X7X7X7X8X8X8X8X9X7X7X7X9X9X7X7X7X7X7X7X9X9X9X9X9X9X9X9X9X9X9X9X0X0X9X9X9X9X9X9X9X9X0X0X0X0X0X0X0X0X0X0X0X0X0X0X0X0X0X0X0X0X0X0X0X0X0X0X0X0X0X0X0X0X0X0X0X0X0X0X0X0X0X0X0X0X0X0X0X0X0X0X0X0X0X0X0X0X0X0X0X0X0X0X0X0X0X0X0X0X0X0X0X0X0X0X0X0X0X0X0X0X0X0X0X0X0X0X0X0X0X0X0X0X0X0X0X0X0X0X0X0X0X0X0X0X0X0X0X0X0X0X0X0X0X0X9X9X9X9X9X9X0X0X0X8X9X9X9X8X9X9X9X9X9X9X9X9X9X9X9X9X9X9X9X9X9X9X9X9X9X9X7X7X7X7X9X7X7X7X7X7X7X7X8X8X8X7X7X7X5X5X3X3X7X7X7X7X7X7X7X7X7X7X3X3X3X3X3X3X1X1X1X5X9.B A Y (.(.;X<X1X1X7X9XK.U (.>X1X1X1X1X1X1X3X3X3X3X1X1X1X1X>X>X1X1X>X>X:X:X:X:X:X:X:X:X;XI.:X:X:X:X:X(.=.,.(.:X:X;X;X;X;X;X;X;X;X;X;X;X;X(.^.I.I.I.I.I.(.(.I.I.I.I.N.C 7.(.P.I.P.M.n.M.N.P.v.k.k.f.y.t.e.;.I z z ,.v.l.k.k.v.N.I.^.;X;X^.>.7.;XI.(.",
";X:X;X;X=.>.;X:X;X;X;XP.v.v.n.v.f.C c 7.I =.8.y.t.f.f.f.x.v.L.M.n.N.P.P.I.P.H.T #.n.^.I.^.^.^.^.^.^.^.^.;X(.(.(.;X;X;X;X-X^.^.^.T.-X;Xn.%.T z.2X<X:X:X:X:X:X<X<XI.z.I.:X<X1X1X1X1X1X1X1X1X3X3X3X1X3X3X3X3X3X3X1X1X1X3X3X4X;.e.3X1X1X1X1X1X1X2X7.A A Y ;X1X1X1X1X1X1X3X3X3X3X3X3X3X3X3X3X3X3X3X3X3X3X7X7X7X7X7X7X7X7X7X7X7X7X7X7X7X7X7X7X7X7X7X7X9X9X7X7X7X9X8X8X9X9X9X9X9X9X9X9X9X9X9X9X9X9X9X9X9X9X9X9X0X0X0X0X7X7X7X7X0X0X0X0X0X0X0X0X0X0X0X0X0X0X0X0X0X0X0X0X0X0X0X0X0X0X0X0X0X0X0X0X0X0X0X0X0X0X0X0X0X0X0X0X0X0X0X0X0X0X0X0X0X0X0X0X0X0X0X0X0X0X0X0X0X0X0X0X0X0X0X0X0X0X0X0X0X0X0X0X0X0X0X0X0X0X0X0X0X0X0X0X0X0X0X0X0X0X0X0X0X0X0X0X0X0X0X0X9X9X9X7X9X9X9X9X9X7X7X7X7X9X9X9X9X9X9X9X9X9X9X9X0X0X0X0X9X7X7X7X7X7X7X7X7X7X7X7X7X7X7X7X7X7X7X7X7X7X7X7X7X3X3X3X3X3X3X3X7X7X7X7X3X3X3X3X3X3X3X3X3X3X1X1X1X5X9.B C Y (.2X;X:X1X1X5X9Xb.T ;X1X1X3X1X1X1X1X<X2X1X1X1X1X1X1X:X:X>X>X:X:X:X:X:X:X:X:X:X^.N.M.:X:X:X:X:X;Xv.I t.(.;X>X;X;X;X;X;X;X;X;X;X(.(.(.^.^.^.^.I.I.I.I.I.I.I.I.z.I ;.I.L.I.N.V.n.N.P.P.v.k.f.f.t.t.t.,.P B z ;.z.l.k.k.z.L.I.(.^.;X;X+.$.I.(.^.",
";X-Xl.>.k 8.;X;X;X;X(.M.v.v.n.v.g.C z &.o.;.r.t.t.y.f.j.x.v.L.n.n.N.P.P.I.P.H.T #.n.^.I.^.^.^.^.^.I.I.^.(.(.(.(.;X;X;X;X-X^.^.^.I.-XP.i.3.9.z.P.<X:X:X:X:X:X<X<X(.N.I.;X<X<X<X<X1X1X1X>X>X1X3X3X<X1X3X3X3X3X1X1X3X3X3X3X<X:.e.3X1X1X1X1X1X1X2X7.A A P (.1X1X1X1X1X3X3X3X3X3X3X3X3X3X3X3X3X3X3X3X3X3X7X7X7X7X7X7X7X7X7X7X7X7X7X7X7X7X7X7X7X7X7X7X9X9X7X7X9X9X8X8X9X9X9X9X9X9X9X9X9X9X9X9X9X9X9X9X9X9X9X9X0X0X0X0X7X7X7X7X0X9X0X0X0X0X0X0X0X0X0X0X0X0X0X0X0X0X0X0X0X0X0X0X0X0X0X0X0X0X0X0X0X0X0X0X0X0X0X0X0XqX0X0X0X0X0X0X0X0X0X0X0X0X0X0X0X0X0X0X0X0X0X0X0X0X0X0X0X0X0X0X0X0X0X0X0X0X0X0X0X0X0X0X0X0X0X0X0X0X0X0X0X0X0X0X0X0X0X0X0X0X0X0X0X0X0X0X9X9X7X7X9X9X9X9X7X7X7X7X9X9X9X9X9X9X9X9X9X9X9X9X0X0X0X9X9X7X7X7X7X7X7X7X7X7X7X7X7X7X7X7X7X7X7X7X7X7X7X7X7X3X3X3X3X3X3X3X7X7X7X7X3X3X3X3X3X3X3X3X3X3X1X1X2X5X9.B C T (.:X;X:X1X1X3X9Xb.T ;X1X1X1X1X1X1X1X2X2X1X1X1X1X1X1X:X:X>X>X:X:X:X:X:X:X:X:X<X;X^.^.:X:X:X:X;X:X(.e.I b.:X;X;X;X;X;X;X;X;X;X;X(.(.^.^.^.^.^.I.I.I.I.I.I.I.I.z.I ;.P.P.P.N.V.n.N.P.P.v.j.f.t.t.t.t.,.#.C k ;.z.z.k.k.z.L.I.(.^.;X;X=.k +.>.=.",
">X-Xg.>.g.^.;X;X^.(.(.M.v.v.n.v.f.v k o.#.7.e.e.t.y.f.j.x.v.L.n.n.N.P.P.I.P.H.T #.n.^.^.^.^.^.^.^.I.I.^.(.(.(.(.-X-X;X;X-X^.^.^.Q.;XY.0.3.i.9.n.<X:X:X:X:X:X:X:X:X(.;X<X:X<X<X<X1X1X>X>X>X>X3X3X<X1X3X3X1X1X1X1X3X3X3X3X<X:.t.3X3X3X1X1X1X1X2X7.A A A I.1X1X3X>X1X3X3X3X3X3X3X3X3X3X3X3X3X3X3X3X3X3X7X7X7X7X7X7X7X7X7X7X7X7X7X7X7X7X7X7X7X7X7X7X7X7X7X7X9X9X9X9X9X9X9X9X9X9X9X9X9X9X9X9X9X9X9X9X9X9X9X9X0X0X0X0X0X8X7X9X9X9X9X9X0X0X0X0X0X0X0X0X9X9X0X0X0X0X9X9X0X0X0X0X0X0X0X0X0X0X0X0X0X0X0X0XqX0X0X0XqXqXqXqX0X0X0X0X0X0X0X0X0X0X0X0X0X0X0X0X0X0X0X0X0X0X0X0X0X0X0X0X0X0XqXqX0X0X0X0X0X0X0X0X0X0X0X0X0X0X0X0X0X0X0X0X0X0X0X0X9X9X0X0X9X9X9X9X9X9X7X7X9X9X9X9X9X9X7X7X9X9X9X9X9X9X9X9X9X9X9X9X7X7X7X7X7X7X7X7X7X7X7X7X7X7X7X7X7X7X7X7X7X7X7X7X7X7X7X7X7X7X3X3X3X3X3X3X7X7X7X7X3X3X3X3X3X3X3X3X3X3X1X1X<X6Xr.B L T (.;X;X:X1X3X1X5Xb.%.:X1X1X1X1X1X1X3X2X2X1X1X1X1X1X1X:X:X>X>X:X:X:X:X:X:X:X:X:X:X:X:X:X:X:X;X;X;X:XI.;.#.P.:X;X;X;X;X;X;X;X;X(.(.(.^.^.^.^.^.I.I.I.I.I.I.I.I.k.I 7.L.P.P.N.V.n.M.P.P.l.f.t.t.t.t.t.,.@.C h =.z.z.k.k.l.L.^.(.;X(.;XI.8.Z c c ",
"1X1X1X1X1X1X1X;X^.(.(.n.v.v.M.v.8.c k o.@.7.e.e.t.y.f.j.x.v.L.n.n.N.P.P.I.P.H.Y #.n.^.^.^.^.^.^.(.^.^.^.;X(.(.(.-X-X-X;X-X^.^.^.(.;Xn.%.%.p.T.:X<X:X:X:X:X:X:X:X:X<X<X<X<X<X<X<X>X>X>X>X>X>X>X<X1X<X1X3X1X1X1X1X3X3X3X3X<X:.t.3X3X3X1X1X1X1X2X7.A A A P.1X1X3X>X1X3X3X3X3X3X3X3X3X3X3X3X3X3X3X3X3X3X7X7X7X7X7X7X7X7X7X7X7X7X7X7X7X7X7X7X9X7X7X7X7X7X7X7X9X9X9X9X9X9X9X9X9X9X9X9X9X9X9X9X9X9X9X9X9X9X9X9X0X0X0X0X0X8X8X8X9X9X9X9X0X0X0X0X0X0X0X0X9X0X0X0X0X0X0X9X0X0X0X0X0X0X0X0X0X0X0X0X0X0X0X0XqX0X0X0XqXqXqXqX0X0X0X0X0X0X0X0X0X0X0X0X0X0X0X0X0X0X0X0X0X0X0X0X0X0X0X0X0X0X0XqX0X0X0X0X0X0X0X0X0X0X0X0X0X0X0X0X0X0X0X0X0X9X9X9X9X0X0X0X9X9X9X0X9X9X7X7X9X9X9X9X9X9X7X7X9X9X9X9X9X9X9X9X9X9X7X7X7X7X7X7X7X7X7X7X7X7X7X7X7X7X7X7X7X7X7X7X7X7X7X7X7X7X7X7X7X7X5X3X3X3X3X3X7X7X7X7X3X3X3X3X3X3X3X3X3X1X1X1X;X6Xr.C L #.(.(.;X:X1X3X1X5Xb.-.:X1X1X1X1X1X1X3X2X1X1X1X1X1X1X1X:X:X1X1X:X:X:X:X:X:X:X:X:X<X:X:X:X:X:X;X;X;X1X;Xn.#.9.(.;X;X;X;X;X;X;X;X(.(.(.^.^.^.^.^.I.I.I.I.I.I.I.I.j.P 7.L.P.P.N.V.n.M.P.P.l.f.t.e.t.t.e.,.#.C h &.l.z.k.k.l.L.^.(.(.;X;X<X1X:X;Xv.",
"wX1X1X1X1X1X1X;X;X;X(.v.z.v.n.v.g.c z Z O.7.e.e.t.t.y.p.x.n.I.n.M.M.P.P.I.P.M.P #.n.^.I.^.^.^.^.^.^.(.^.(.(.-X-X^.^.^.;X-X^.^.I.;XI.7.z ;.L.(.;X:X:X:X:X:X:X:X:X<X:X:X<X<X:X:X:X:X:X1X1X1X1X<X<X2X<X1X1X1X1X1X3X3X3X3X3X4X7.t.3X1X1X1X1X1X<X<X3.U U A P.1X1X3X3X3X3X3X3X3X3X3X3X3X3X3X3X7X7X7X7X3X7X7X7X7X7X7X7X7X7X7X7X7X7X7X7X9X7X7X7X7X7X7X7X7X7X7X7X7X7X7X7X9X9X9X9X9X9X9X9X9X9X9X9X9X9X9X9X9X9X9X9X0X0X0X0X0X0X9X9X0X0X9X9X0X0X0X0X0X0X0X0X9X9X0X0X0X0X9X9X0X0X0X0X0X0X0X0X0X0X0X0X0X0X0X0X8X8XqXqX0X0X0XqX0X0X0X0X0X0X0X0X0X0X0X0X0X0X0X0X0X0X0X0X0X0X0X0XqXqX0X0X0X0XqXqX0X0X0X0X0X0X0X0X0X0X0X0X0X0X0X0X0X0X0X0X9X9X9X9X7X7X0X0X0X0X9X9X9X9X9X9X9X9X9X9X9X9X9X9X9X9X9X9X9X9X9X9X9X9X9X9X7X7X7X7X7X7X7X7X9X7X7X7X7X7X7X7X7X7X7X7X7X7X7X7X7X7X7X7X7X7X5X5X3X3X3X3X3X3X3X3X3X3X3X3X3X3X3X3X1X1X1X1X1X2Xa.P C #.(.(.;X:X1X3X3X3Xz.-.;X1X1X3X1X1X1X1X<X<X1X1X>X>X>X>X:X:X>X>X:X:X:X:X:X:X:X:X:X:X:X:X:X;X;X;X;X;X;X;X(.j.Y y.I.:X;X;X;X;X;X(.(.(.(.^.^.^.^.^.I.I.I.I.I.I.I.I.f.P 8.P.P.P.N.V.M.P.P.v.t.8.8.t.t.t.e.,.#.C h &.l.z.k.k.l.P.^.(.(.(.^.;X:X:X1X1X",
"wXwX1X1X1X1X1X;X;X;X;Xv.z.v.n.v.f.c k v +.,.8.e.e.e.t.t.k.n.I.I.N.M.N.P.P.P.n.I #.n.^.^.^.^.^.^.^.^.^.^.^.^.^.^.^.^.^.^.^.^.^.I.I.t.z A k.(.;X;X:X:X:X:X:X:X:X:X:X:X:X:X:X:X:X:X:X:X>X1X1X1X<X<X<X<X1X1X1X1X3X3X3X3X3X3X4X9.t.3X1X1X1X1X1X<X<X3.A R P P.1X1X1X3X3X3X3X3X3X3X3X3X3X3X3X3X7X7X7X7X3X7X7X7X7X7X7X7X7X7X7X7X7X7X7X7X7X7X7X7X7X7X7X9X7X7X7X7X7X7X7X7X9X9X9X9X9X9X9X9X9X9X9X9X9X9X9X9X9X9X9X9X9X9X0X0X0X0X9X9X0X0X0X0X0X0X0X0X0X0X0X0X9X9X0X0X0X0X9X9X0X0X0X0X0X0X0X0X0X0X0X0X0X0X0X0X8X8XqXqX0X0X0X0X0X0X0X0X0X0X0X0X0X0X0X0X0X0X0X0X0X0X0X0X0X0X0X0XqXqX0X0X0X0XqXqX0X0X0X0X0X0X0X0X0X0X0X0X0X0X0X9X9X9X9X9X9X9X9X9X7X7X0X8X0X0X9X0X9X9X9X9X9X9X9X9X9X9X9X9X9X9X9X9X9X9X9X9X9X9X9X9X7X7X7X7X7X7X7X7X7X7X7X7X7X7X7X7X7X7X7X7X7X7X7X7X7X7X7X7X7X7X5X5X3X3X3X3X3X3X3X3X3X3X3X3X3X3X3X3X1X1X1X1X2X2Xa.P C #.(.(.;X:X1X3X7X3Xz.-.;X1X1X3X1X1X1X1X<X<X<X1X>X>X>X>X:X:X>X>X:X:X:X:X:X:X:X:X:X:X;X:X;X;X;X;X;X;X;X;X(.).4.P P.(.;X;X;X;X(.^.(.(.^.^.^.^.^.^.I.I.I.I.I.I.I.I.f.P 8.P.P.P.N.M.v.M.P.n.k.8.7.8.t.t.e.,.#.C h #.z.k.k.f.k.L.^.(.(.(.^.;X:X:X<X1X",
"wXwX1X1X1X1X>X;X;X;X;Xv.z.z.v.v.t.c k k Z =.8.r.e.e.t.t.p.x.n.Y.I.N.N.P.N.L.b.L #.n.I.I.I.^.^.^.^.^.^.^.^.^.^.^.^.^.^.^.(.(.I.M.7.N N p.P.;X^.-X;X:X:X:X:X:X:X:X:X:X:X:X<X<X:X:X:X:X>X1X1X1X3X3X<X1X<X1X1X1X3X3X3X3X3X3X4X9.y.3X1X1X1X1X1X<X<X3.A 2.#.P.>X>X3X3X3X3X3X3X3X3X3X3X3X3X3X3X7X7X7X7X7X7X7X7X7X7X7X7X7X7X7X7X7X7X7X7X7X7X7X7X7X7X7X7X7X7X7X7X7X7X7X7X9X9X9X9X8X8X9X9X9X9X9X9X9X9X9X9X9X9X9X7X7X7X9X9X0X8X8X9X0X0X0X0X0X0X0X0X0X0X0X0X9X9X9X0X0X0X9X9X0X0X0X0X0X0X0X0X0X0X0X0X0X0X0X0X8X8X8X8X0X0X0X0X0X0X0X0X0X0X0X0X0X0X0X0X0X0X0X0X0X0X0X0X0X0X0X0XqXqXqX0X0X0X0XqX0X0X0X0X0X0X0X0X0X0X0X0X0X0X0X9X7X7X7X7X7X7X9X9X7X7X9X9X0X0X0X0X0X0X0X8X9X9X9X9X9X9X9X7X9X9X9X9X9X9X9X9X9X9X9X9X7X7X9X7X7X7X7X7X7X7X7X7X7X7X7X7X7X7X7X7X7X7X7X7X7X7X7X7X7X7X5X5X3X3X3X3X3X3X3X3X3X3X3X3X3X3X1X1X1X1X1X1X:X2Xb.P C #.(.;X;X:X1X3X7X3Xz.-.;X1X1X3X1X1X1X<X<X<X1X1X1X1X>X1X:X:X:X:X:X:X:X:X:X:X:X:X:X;X;X;X;X;X;X;X;X;X;X;X^.;XH.T #.P.;X:X;X(.^.^.(.^.^.^.^.^.^.^.I.I.I.I.I.I.I.I.f.P 8.P.P.P.N.M.P.I.P.b.z.7.,.t.t.t.e.,.#.C h #.k.k.f.f.f.M.^.(.(.(.^.;X:X:X<X1X",
"wXwX1X1X1X1X>X;X;X;X;Xv.z.z.v.v.e.c h h v #.7.8.8.8.0.0.t.j.k.L.^.^.P.P.N.L.m.L #.m.I.I.I.I.^.^.I.I.^.^.-X^.^.^.^.^.^.^.^.I.l.,.Z @.t.P.(.(.^.^.;X:X:X:X:X:X:X:X:X:X:X:X>X<X:X:X:X:X1X1X1X1X<X3X1X1X2X2X1X1X1X1X3X3X3X3X4X9.y.3X1X1X1X1X1X<X<X3.A w.;.P.>X>X3X3X3X3X3X3X3X3X3X3X3X3X3X3X7X7X7X7X7X7X7X7X7X7X7X7X7X7X7X7X7X7X7X7X7X7X7X7X7X7X7X7X7X7X7X7X7X7X7X7X9X9X9X9X9X9X9X9X9X9X9X7X9X9X9X9X9X9X9X7X7X7X9X9X0X0X9X9X0X0X0X0X0X0X0X0X0X0X0X0X9X9X0X0X0X0X9X9X0X0X0X0X0X0X0X0X0X0X0X0X0X0X0X0X8X8X8X8X0X0X0X0X0X0X0X0X0X0X0X0X0X0X0X0X0X0X0X0X0X0X0X0X0X0X0X0XqXqXqX0X0X0X8X8X0X0X0X0X0X0X0X0X0X0X0X0X0X0X0X9X9X9X9X9X9X9X9X9X7X7X9X9X0X0X0X0X0X0X8X8X9X9X9X9X9X9X9X7X7X9X9X9X9X9X9X9X9X9X9X9X7X7X7X7X7X7X9X7X7X7X7X7X7X7X7X7X7X7X7X7X7X7X7X7X7X7X7X7X7X7X5X5X3X3X3X3X3X3X3X3X3X3X3X3X3X1X1X1X1X1X1X1X(.'.b.P C #.(.(.;X:X1X3X7X5Xb.;.;X1X1X3X1X1X1X<X<X<X1X1X1X1X1X1X:X:X:X:X:X:X:X:X:X:X:X:X:X:X(.(.;X;X;X;X;X;X;X;X;X;X(.b.C ,.(.(.(.^.^.-X^.^.^.^.^.^.^.^.I.I.I.I.I.I.I.I.f.P 8.I.L.P.N.M.P.N.x.e.j.7.7.f.t.y.e.,.#.B h #.k.j.f.f.t.v.I.(.;X;X(.;X:X:X<X1X",
"3X3X1X1X1X1X1X:X;X:X(.v.l.l.v.v.t.z k g C #.;.8.8.8.0.0.8.y.k.n.^.(.(.I.I.I.n.C L H.^.I.I.I.^.^.I.I.Q.Q.I.I.I.^.^.^.(.-XM.8.$.o.,.v.^.^.^.^.^.^.:X:X:X:X:X:X:X:X>X>X>X:X<X<X<X<X:X<X<X1X1X1X1X1X1X1X1X1X1X1X1X1X1X1X1X3X4X9.t.3X1X1X1X3X1X:X<X4.A 2.@.j.:X3X5X3X3X7X3X3X7X7X7X7X3X3X3X3X7X7X7X7X7X7X7X7X7X7X7X7X7X7X7X7X7X7X7X7X7X7X7X7X7X7X7X7X7X7X7X7X7X7X8X8X8X9X9X8X7X9X8X5X8X8X7X7X9X9X9X7X7X7X9X7X7X7X7X9X8X8X8X8X8X8X8X9X9X9X9X9X0X0X0X0X0X0X0X0X0X0X0X0X0X0X0X0X0X0X0X0X0X0X0X0X9X9X9X9X0X0X0X0X0X0X0X0X0X0X0X0X0X0X0X0X0X0X0X0X0X0X0X0X0X0X0X0X0X0X0X0X0X0X0X0X0X0X0X0X0X0X0X0X0X0X0X0X0X0X0X0X0X0X0X0X9X9X9X9X9X9X9X9X8X8X0X8X8X8X8X0X8X8X8X8X8X8X8X8X7X7X7X7X7X7X7X7X9X9X7X7X7X7X7X7X8X8X9X9X7X7X7X7X7X7X7X7X7X7X7X7X7X7X7X9X7X7X7X7X7X7X7X7X7X7X7X3X3X3X3X3X3X3X3X3X3X3X3X3X3X1X1X1X7X5X1X<X(.'.z.L z #.^.:X;X;X1X3X7X5Xb.-.;X1X3X3X1X1X1X1X1X1X1X1X1X1X1X:X>X>X1X<X:X:X:X:X:X:X:X:X;X;X^.^.;X;X:X:X:X:X;X;X;X;X(.(.z.B 4.`.(.I.;X;X-XY.Y.(.(.^.I.I.I.I.I.I.T.N.I.I.8.o.j.P.M.v.N.P.P.j.#.&.;.;.t.j.t.e.7.,.&.C h o.y.l.j.t.f.N.I.(.-X-X(.;X;X;X>X1X",
"3X3X1X1X1X1X1X:X;X:X(.v.l.l.v.b.8.b c c P ;.7.8.8.8.8.8.8.8.t.m.P.I.(.(.(.(.I.#.P z.P.I.I.I.^.^.I.I.Y.Y.I.I.I.I.I.(.I.M.,.o.@.f.N.^.^.).^.^.^.^.:X:X:X:X:X:X:X:X>X>X>X>X<X<X<X<X:X<X<X1X1X1X1X1X1X1X1X1X1X1X1X1X1X1X1X3X4X9.t.3X1X1X1X3X1X:X2X9.U 2.&.0.P.;X3X5X3X7X7X3X3X3XwXwX3X3X3X3X7X7X7X7X7X7X7X7X7X7X7X7X7X7X7X7X7X7X7X7X7X7X7X7X7X7X7X7X7X7X7X7X7X7X8X8X7X9X9X9X7X8X9X8X8X8X7X7X9X9X7X7X7X9X9X7X9X7X7X9X8X8X8X8X8X8X8X7X9X9X9X9X0X0X0X0X0X0X0X0X0X0X0X0X0X0X0X0X0X0X0X0X0X0X0X0X9X9X9X9X0X0X0X0X0X0X0X0X0X0X0X0X0X0X0X0X0X0X0X0X0X0X0X0X0X0X0X0X0X0X0X0X0X0X0X0X0X0X0X0X0X0X0X0X0X0X0X0X0X0X0X0X0X0X0X0X9X9X9X9X9X9X9X9X0X8X8X8X8X8X8X8X8X8X8X8X0X8X8X9X7X7X7X7X7X7X7X7X8X9X9X9X7X7X7X7X8X8X9X9X7X7X7X7X7X7X7X7X7X7X7X7X7X7X7X7X7X7X7X7X7X7X7X7X7X7X3X3X3X3X3X3X3X3X3X3X3X3X3X3X3X3X3X3X5X1X1X;XI.4Xz.V B =.(.<X;X;X>X3X7X7Xb.;.;X1X1X3X1X1X1X1X1X1X1X1X1X1X:X:X>X:X1X<X:X:X:X:X:X:X:X:X;X;X^.^.;X;X:X:X:X:X;X;X-X-X-X(.(.9.l 9.'.;X;X;X;X;X;X;X;X(.I.I.I.I.I.I.T.T.I.N.@.o.b.P.n.l.v.L.L.;.@.&.#.7.j.y.t.8.7.;.&.C h o.t.k.j.t.f.N.I.I.(.-X-X;X;X;X>X1X",
"7X7X1X1X1X1X1X:X:X:X(.v.z.l.v.v.7.k c +.&.7.8.8.8.8.8.8.e.9.7.y.v.M.P.I.;X<X2Xn.#.9.H.(.L.L.P.P.P.P.P.P.P.P.P.P.(.M.t.7.>.@.8.I.^.^.^.^.^.^.^.^.:X:X:X:X:X:X:X:X1X1X1X1X<X<X<X<X:X:X:X:X1X1X1X1X1X1X1X1X1X1X1X1X1X1X1X3X4X9.y.3X1X1X1X3X1X<X5Xt.U U U i.z.I.-X>X3X7X3X3X3X1X1X1X3X3X3X3X7X7X7X7X7X7X7X7X7X7X7X7X7X7X7X7X7X7X7X7X7X7X7X7X7X7X7X7X7X7X7X7X7X7X7X7X9X9X9X9X7X5X5X:XY.5X7X0X9X9X9X9X7X7X9X9X8X9X7X7X9X9X0X8X8X8X7X7X9X9X0X0X0X0X0X0X0X0X0X0X0X0X0X0X0X0X0X0X0X0X0X0X0X0X0X0X9X9X0X0X0X0X0X0X0X0X0X0X0X0X0X0X0X0X0X0X0X0X0X0X0X0X0X0X0X0X0X0X0X0X0X0X0X0X0X0X0X0X0X0X0X0X0X0X0X0X0X0X0X0X0X0X0X0X0X0X9X9X9X9X9X9X9X9X8X8X8X8X8X8X8X8X8X0X8X8X0X8X8X8X9X9X7X9X7X7X9X9X8X9X9X9X8X9X7X7X8X8X8X8X7X7X7X7X7X7X7X7X7X7X7X7X7X7X7X7X7X7X7X7X7X7X7X7X7X3X3X3X3X3X3X3X3X3X3X3X3X3X3X3X3X3X3X3X5X<X;XI.I./.4.B B ;.<X3X;X;X1X3X7X7Xb.;.;X1X1X3X1X1X1X1X1X1X1X1X1X:X:X:X:X:X:X:X:X:X:X:X:X:X:X:X;X;X;X;X;X;X;X;X;X;X;X;X;X;X-X(.(.).7.l 7.L.U.(.:X;X(.(.(.).^.^.P.I.I.I.N.I.I.e.Z t.v.N.v.t.l.M.8.o.@.o.;.t.k.y.e.8.,.=.&.C g Z 8.f.f.t.f.N.I.I.(.(.(.;X;X;X>X1X",
"3X3X1X1X1X1X1X:X:X:X(.v.z.l.v.v.8.k C @.q.0.e.8.7.7.9.9.-.4.e.a.f.k.l.x.M.T.;X1Xn.T =.a.l.l.b.b.x.x.b.b.b.x.x.x.k.;.=.t.k.t.g.I.;X-X^.^.^.^.^.^.:X:X:X:X:X:X:X:X1X1X1X1X<X<X<X<X:X:X:X:X1X1X1X1X1X1X1X1X1X1X1X1X1X1X1X3X3X9.y.7X1X1X1X3X1X1X5Xy.U E N R k.b.N.^.3X3X3X3X3X1X3X1X3X3X3X3X7X7X7X7X7X7X7X7X7X7X7X7X7X7X7X7X7X7X7X7X7X7X7X7X7X7X7X7X9X7X7X7X7X7X7X7X9X9X9X9X7X5X2Xk.j.1X8X7X9X9X9X9X7X7X9X9X9X9X7X7X9X9X0X0X0X0X7X7X9X9X0X0X0X0X0X0X0X0X0X0X0X0X0X0X0X0X0X0X0X0X0X0X9X9X0X0X0X9X0X0X0X0X0X0X0X0X0X0X0X0X0X0X0X0X0X0X0X0X0X0X0X0X0X0X0X0X0X0X0X0X0X0X0X0X0X0X0X0X0X0X0X0X0X0X0X0X0X0X0X0X0X0X0X0X0X0X9X9X9X9X9X9X9X9X9X9X8X8X8X8X8X8X8X8X8X8X8X8X8X8X9X7X7X7X7X7X7X9X8X9X9X9X8X9X9X7X8X8X8X8X7X7X7X7X7X7X7X7X7X7X7X7X7X7X7X7X7X7X7X7X7X7X7X7X3X3X3X3X3X3X3X3X3X3X3X3X3X3X3X3X3X3X3X3X5X<XI.L./.a.B N C 7.3X3X;X:X1X3X7X7Xb.;.;X1X1X1X1X1X1X1X1X1X1X1X:X:X:X:X:X:X:X:X:X:X:X:X:X:X:X:X:X:X:X:X:X;X;X;X;X;X;X;X;X;X-X-X;X(.^.,.l P 3.t.t.t.e.e.k.l.m.M.L.L.L.L.P.P.,.C 8.n.P.v.v.e.k.k.&.o.O.7.k.j.f.y.e.7.;.=.#.C g C 7.f.f.y.f.N.I.I.(.(.(.;X;X;X;X>X",
"3X1X1X1X1X1X:X:X:X:X(.l.f.k.v.v.y.$.$.$.>.;.9.y.;.7.7.;.T T a.a.k.j.f.0.8.t.c.T.<Xb.#.B P P L A C A Y T #.Y Y #.Y ;.8.l.f.k.v.M.^.I.I.I.(.^.^.(.;X:X:X:X:X:X:X:X>X>X>X>X<X<X>X>X1X1X>X>X>X>X>X>X1X1X1X1X1X1X1X1X1X1X1X3X4X4.t.8X1X1X1X1X1X-XiXI.L 2.E V %.z.M.^.;X1X7X7X3X3X3X3X3X3X3X3X7X7X7X7X7X7X7X7X7X7X7X7X7X7X7X7X7X7X7X7X7X7X7X7X7X7X7X7X7X7X9X7X7X7X7X7X7X8X8X9X7X5X4XL.L.6X0X7X7X7X7X7X7X9X9X9X9X9X7X7X9X8X8X8X9X9X9X7X7X9X9X9X8X8X8X0X0X0X0X0X9X9X9X9X0X0X0X0X0X0X0X0X9X9X9X9X0X0X0X0X0X0X0X0X0X0X0X0X0X0X0X0X0X0X0X0X0X0X0X0X0X0X0X0X0X0X0X0X0X0X0X0X0X0X0X0X0X0X0X0X0X0X0X0X9X9X9X9X9X9X9X9X9X9X9X9X9X9X9X9X9X9X9X7X7X9X8X0X0X0X8X8X9X9X9X9X9X8X7X9X9X9X7X7X7X7X9X9X9X9X8X8X7X7X7X7X7X7X7X7X7X7X7X7X7X7X7X7X7X7X7X7X7X7X7X7X7X7X7X7X7X7X7X;X1X3X7X3X3X3X3X3X3X3X3X3X3X3X3X3X3X3X1X1X:X(.U./.G.N j U P L.7X1X<X<X3X3X3X9Xz.=.:X1X1X3X1X1X1X1X1X1X1X1X:X:X:X>X>X>X:X:X:X:X:X:X:X:X:X:X:X>X>X:X;X;X;X:X;X;X;X;X;X;X;X;X(.(.(.n.:.h l %.=.#.#.#.Y P P P #.;.;.#.C a l 9.L.N.M.v.l.k.v.v.f.f.k.l.k.y.e.e.e.,.;.=.;.o.c Z 8.f.f.f.t.M.T.I.^.(.;X;X;X;X;X;X",
"7X1X1X1X1X1X:X:X:X;X^.k.f.k.l.v.M.M.M.x.7.#.#.%.;.4.4.;.:.L :.a.l.f.7.7.e.8.>.f.P.(.P.:.T T Y A S B z z C I #.#.;.t.x.M.k.l.v.M.M.N.N.P.^.(.(.^.;X:X:X:X:X:X:X:X>X>X>X>X<X<X>X>X1X1X>X>X>X>X>X>X1X1X1X1X1X1X1X1X1X1X1X3X3X7.t.8X1X1X1X1X<X(.3XsXy.%.2.U V -.b.b.I.;X1X7X3X3X3X3X3X3X3X3X7X7X7X7X7X7X7X7X7X7X7X7X7X7X7X7X7X7X7X7X7X7X7X7X7X7X7X7X7X7X7X7X7X7X7X7X9X7X7X7X7X8XiX6X6X8X7X7X7X7X7X7X7X7X9X9X9X9X7X7X8X8X8X8X9X9X9X9X9X9X9X9X8X9X8X0X9X0X0X0X9X9X9X9X0X0X0X0X0X0X0X0X9X9X9X9X0X0X0X0X0X0X0X0X0X0X0X0X0X0X0X0X0X0X0X0X0X0X0X0X0X0X0X0X0X0X0X0X0X0X0X0X0X0X0X0X0X0X0X0X0X0X0X0X9X9X9X9X9X9X9X9X9X9X9X9X9X9X9X9X9X9X7X7X7X9X8X8X8X8X8X8X9X9X9X9X9X9X7X7X9X9X7X7X7X7X9X9X9X9X9X8X7X7X7X7X7X7X7X7X7X7X7X7X7X7X7X7X7X7X7X7X7X7X7X7X7X7X7X7X7X7X3X:X1X7X7X3X3X3X3X3X3X3X3X3X3X3X3X1X7X3X1X1X(.P.L.b.B j U *.7.5X5X:X<X<X3X3X7X7Xz.%.:X1X>X1X1X1X1X1X<X<X<X<X:X:X:X:X>X>X:X:X:X:X:X:X:X:X:X:X>X>X>X:X;X;X;X;X-X-X;X;X;X;X;X;X(.(.(.(.^.k.%.I I Z I o.I #.#.I B z s q u T p.b.L.P.L.n.l.v.v.b.l.v.v.v.k.f.t.e.;.;.:.=.7.f.g.k.k.c.k.t.8.l.M.P.^.(.;X;X;X;X;X;X",
"1X1X1X1X1X1X:X:X;X;X^.k.t.g.l.v.M.T.I.I.l.=.I I #.;.4.:.4.L U r.#.C f.P.v.k.,.;.f.I.(.^.L.L.L.b.L.z.t.7.8.l.M.v.M.M.P.P.x.n.L.T.P.L.v.l.n.L.(.<X;X:X:X:X:X:X:X:X>X>X:X:X<X<X>X>X1X1X>X>X>X>X>X>X1X1X1X1X1X1X1X1X1X1X1X1X6X8.8.8X1X1X1X1X7X:X;XiXaXk.T 2.E V R s.P.-X>X7X3X3X3X3X3X3X3X3X7X7X7X7X7X7X7X7X7X7X7X7X7X7X7X7X7X7X7X7X7X7X7X7X7X7X7X7X7X7X7X7X7X7X7X7X7X7X7X7X7X7X7X8X8X8X8X7X7X7X7X7X9X9X9X8X9X9X9X9X8X8X8X8X9X9X9X9X9X9X9X9X7X7X7X7X9X9X0X0X9X9X9X9X0X0X0X0X0X0X0X0X0X0X9X0X0X0X0X0X9X9X0X0X0X0X0X0X0X0X0X0X0X0X0X0X0X0X0X0X0X0X0X0X0X0X0X0X0X0X0X0X0X0X0X0X0X0X0X0X0X0X0X0X9X9X9X9X9X9X9X9X9X9X9X9X9X9X9X9X9X9X7X9X7X7X9X9X7X8X9X9X7X7X9X9X9X9X7X7X9X9X7X7X7X9X9X9X9X9X8X8X7X7X7X7X7X7X7X7X7X7X7X7X7X7X7X9X7X7X7X7X7X7X7X7X7X7X7X7X7X7X3X1X1X7X3X7X3X3X3X3X3X3X3X3X3X3X3X1X3X1X:X;XI.I.b.L j A &.9.(.8X<X1X1X1X3X3X7X3Xy.%.:X1X>X1X1X1X1X1X<X<X<X<X:X<X:X:X>X>X1X<X:X:X:X:X:X:X:X:X>X>X,X,X;X;X:X:X;X;X;X:X;X;X;X;X(.(.(.(.^.<X(.m.t.8.>.P Z #.;.:.:.,.8.e.z.L.L.N.N.I.v.8.,.f.v.n.n.v.v.v.j.y.e.,.;.=.=.;.t.b.M.M.v.v.k.8.>.k.v.N.^.(.;X;X;X;X;X;X",
"1X1X1X>X1X1X:X:X;X(.I.g.t.f.k.l.M.M.M.P.M.e.#.T #.;.4.:.T l l 4.Y O.n.^.n.8.8.$.>.l.N.N.L.I.(.^.(.(.I.P.I.(.(.I.I.P.P.M.M.L.T.T.P.T.M.n.b.t.t.b.;X:X:X:X:X:X:X:X>X>X>X:X<X<X>X>X1X1X>X>X>X>X>X>X1X1X1X1X1X1X1X1X1X1X1X1X6X9.7.7X1X1X1X1X5X1X;X-XzXiXH.-.2.E V E k.P.-X>X3X3X3X3X3X3X3X3X7X7X7X7X7X7X7X7X7X7X7X7X7X7X7X7X7X7X7X7X7X7X7X7X7X7X7X7X7X7X7X7X7X7X7X7X7X7X7X7X7X9X9X7X7X7X7X7X7X7X7X7X9X9X9X9X9X9X9X9X8X8X8X8X9X9X9X9X9X9X9X9X7X7X7X7X9X9X9X0X9X9X9X9X0X0X0X0X0X0X0X9X0X0X0X0X0X0X0X0X9X0X0X0X0X0X0X0X0X0X0X0X0X0X0X0X0X0X0X0X0X0X0X0X0X0X0X0X0X0X0X0X0X0X0X0X0X0X0X0X0X0X0X0X9X9X9X9X9X9X9X9X9X9X9X9X9X9X9X9X9X9X7X9X8X8X7X7X7X9X9X9X7X7X7X9X9X9X7X7X9X9X7X7X7X9X9X9X9X9X8X8X7X7X7X7X7X7X7X7X7X7X7X7X7X7X7X7X7X7X7X7X7X7X7X7X7X7X7X7X7X3X3X3X3X3X3X3X3X3X3X3X3X3X3X3X3X3X1X1X1X:X^.I.I.M.T h I ;.q.Q.sX<X1X1X1X1X3X3X7X1Xy.#.<X1X1X1X1X1X1X1X<X<X<X<X<X<X:X:X>X>X<X<X:X:X:X:X:X:X:X:X>X>X,X,X;X;X:X:X;X-X-X:X;X;X;X(.(.(.(.(.(.).(.).I.-XI.I.N.P.P.I.I.P.P.P.P.N.P.N.N.n.,.z ,.l.v.M.v.v.l.l.y.e.;.O.I C P ,.y.v.v.l.l.l.f.8.&.f.v.M.^.(.;X;X;X;X;X;X",
"1X1X1X1X1X<X:X;X^.I.N.e.8.f.l.l.M.M.T.P.b.j.#.-.,.4.4.4.T < 8 ;.y.k.v.L.n.;.7.8.7.g.M.M.P.L.L.L.P.P.P.P.I.I.I.I.I.P.P.P.T.T.T.Y.Q.Q.Y.I.I.j.C #.b.(.:X<X:X:X:X:X:X:X:X:X:X:X:X:X:X>X>X1X<X:X:X:X>X>X>X>X1X1X1X1X1X1X1X1X6Xk.#.1X7X1X1X1X7X7X1X:X3XkXcX/.2.2.E V R G.I.(.1X3X1X3X3X7X7X3X7X7X7X7X3X3X3X3X3X3X3X3X7X7X7X7X7X7X7X7X7X3X7X7X7X7X7X7X7X7X7X7X7X7X7X7X7X7X7X7X7X7X7X7X9X9X7X7X7X7X9X9X8X8X8X9X9X9X9X9X9X9X9X9X9X9X9X9X7X7X9X9X8X9X9X9X9X9X9X9X9X9X9X9X7X7X0X0X0X0X0X0X9X9X9X9X9X9X9X9X0X0X0X0X0X0X0X0X0X0X0X0X0X0X0X0X0X0X0X0X0X0X0X0X9X9X9X9X9X9X9X9X9X9X9X9X9X9X9X9X9X9X9X9X9X9X9X9X9X9X9X9X9X9X9X9X9X9X9X9X9X9X9X7X9X9X9X9X9X9X9X9X8X7X7X7X8X8X9X9X7X7X7X7X7X7X7X7X7X7X7X7X9X9X9X9X7X7X7X7X7X7X7X7X7X7X7X7X7X7X7X7X7X7X7X7X7X7X7X7X7X7X7X7X1X1X1X7X3X3X3X3X3X3X3X3X>X>X7X7X1X;XI.P.m.L l I #.,.;XCX5X1X1X1X1X1X1X1X1X<X7.3.2X1X1X1X:X;X;X:X:X:X:X:X:X:X:X>X:X:X:X:X:X:X:X:X:X:X:X:X:X:X:X:X;X;X;X:X;X(.(.:X:X(.(.(.(.).(.(.:X(.).P.^.^.P.N.N.N.N.M.N.N.M.n.L.v.v.M.M.e.&.8.k.v.v.v.n.v.l.g.7.P I Z A C I ;.t.t.l.v.v.x.f.<.>.f.v.n.I.^.;X;X;X;X;X;X",
"1X1X1X1X1X1X:X;XI.I.M.8.8.f.l.l.M.M.N.P.n.v.#.#.;.;.4.9.:.l z r.y.k.x.x.n.7.a.z.l.M.M.M.L.L.N.N.N.N.N.N.M.M.N.N.N.P.I.I.Y.-X;X;X;X;X;X(.(.I.z.C P n.1X(.:X:X:X:X:X:X:X:X:X:X:X:X<X>X>X>X:X:X:X>X>X>X>X>X1X1X1X1X1X1X1X1X5X(.o.l.3X7X3X1X1X7X7X1X1X3XkXlXU.4.5.D V E G.P.^.>X3X5X1X1X7X3X1X7X7X7X3X3X3X3X3X3X3X3X7X7X7X7X7X7X7X7X7X7X7X7X7X7X7X7X7X7X7X7X7X7X7X7X7X7X7X7X7X7X7X7X9X9X9X7X7X7X7X9X7X8X8X8X9X9X7X7X9X9X9X9X9X9X9X9X7X7X9X7X8X9X9X9X9X9X9X9X9X9X9X9X7X7X8X8X7X1X7X0X9X9X9X9X9X9X9X9X0X0X0X0X9X9X9X9X9X9X9X9X0X0X0X0X0X0X0X0X0X0X0X0X9X9X9X9X9X9X9X9X9X9X9X9X9X9X9X9X9X9X9X9X9X9X9X9X9X9X9X9X9X9X9X9X9X9X9X9X9X9X9X7X9X9X9X9X9X9X9X9X8X7X7X7X9X8X9X9X7X7X7X7X7X7X7X7X7X7X7X7X9X9X9X9X7X7X7X7X7X7X7X7X7X7X7X7X7X7X7X7X7X7X7X7X7X7X7X7X7X7X7X7X1XwX1X1X3X3X3X3X3X3X3X3X:X:X>X,XI.(.U.b.L l I #.=.I.CXsX1X2X1X1X1X1X1X3X5XP.P k.2X1X1X1X:X;X;X:X:X:X:X:X:X;X;X:X:X:X:X:X:X:X:X:X:X:X:X:X:X:X:X:X;X;X;X;X(.(.;X:X:X(.I.^.P.I.(.(.^.).P.L.P.N.M.n.v.v.v.v.v.v.v.v.l.v.M.N.f.,.k.b.n.v.v.v.v.l.k.f.;.O.&.=.#.P #.e.8.t.b.M.v.x.f.,.=.f.v.v.I.I.(.;X;X;X;X;X",
"1X1X1X1X<X:X;X^.I.I.N.8.,.e.k.l.v.v.M.M.n.M.8.P &.=.7.8.9.-.4.y.j.k.j.t.f.:.k.b.P.M.M.P.P.P.P.P.N.N.N.N.I.I.I.I.I.(.(.^.;X;X;X;X;X-X(.I.(.).).z.z #.I.<X:X:X:X:X:X:X:X:X:X:X:X:X>X:X>X<X:X:X>X>X1X1X1X1X1X1X1X1X1X1X1X1X1X3Xk.#.M.1X7X3X5X3X7X7X1X1X5XzXlX(.9.5.D V E b.P.(.<X7X7X1X1X3X1X1X7X7X3X3X3X3X3X3X3X3X7X7X7X7X7X7X7X7X7X5X1X3X7X7X7X7X7X7X7X7X7X7X7X7X7X7X7X7X7X7X7X7X7X9X7X7X9X7X7X7X7X8X8X8X7X7X7X7X9X9X9X9X9X9X9X9X7X7X7X7X7X7X9X9X9X9X9X9X9X9X9X9X7X7X7X8X7X1X3X7X0X9X9X9X9X9X9X9X0X0X0X0X9X9X9X9X9X9X9X9X0X0X0X0X0X0X0X0X0X0X0X0X9X9X9X9X9X9X9X9X9X9X9X9X9X9X9X9X9X9X9X9X9X9X9X9X9X9X9X9X9X9X9X9X9X9X9X9X9X9X9X9X9X9X9X9X9X9X9X9X8X7X7X7X9X9X9X9X7X7X7X7X7X7X7X7X7X7X7X7X7X7X7X7X7X7X7X7X7X7X7X7X7X7X7X7X7X7X7X7X7X7X7X7X7X7X7X7X7X7X7X7XwX7X7X7X3X3X3X3X3X3X3X3X:X:X;X^.I.Y.n.I j L O.,.^.7X9X1X1X1X1X1X1X1X3X3X2X#.Y 2X1X1X1X>X:X-X;X:X:X:X:X:X:X;X;X:X:X:X:X:X:X:X:X:X:X:X:X:X:X:X:X:X;X;X;X:X;X;X;X;X(.^.I.I.^.I.L.M.n.M.L.L.P.N.N.N.n.n.n.v.v.v.v.v.v.n.M.v.t.z.l.v.v.v.v.l.l.g.f.t.8.;.&.O.I I 7.j.e.f.v.N.M.l.e.;.$.e.l.v.N.I.^.(.^.^.^.^.",
"1X1X1X1X;X(.I.M.P.I.N.7.>.e.k.l.v.v.v.M.v.v.v.o.#.;.q.8.8.7.t.f.k.k.y.,.t.;.k.n.P.N.M.I.I.I.^.^.^.^.^.^.:X:X:X:X<X:X;X;X(.(.(.(.I.P.P.N.L.^.(.(.t.v ;.L.<X:X:X:X:X;X:X:X:X:X:X:X:X:X<X:X:X:X>X>X1X1X1X1X1X1X1X1X1X1X1X1X1X<X1X8.o.(.7X8X8X5X5X7X7X7X1X7XiXaXU.9.2.D V R K.H.I.1X7X7X1X1X1X1X1X7X3X3X3X3X3X3X3X7X7X7X7X7X7X7X7X7X3X;XP.;X3X7X7X7X7X7X7X7X7X7X7X7X7X7X7X7X7X7X7X7X9X9X7X7X7X7X7X7X7X8X8X8X7X7X7X7X9X9X9X9X9X9X9X9X7X7X7X7X7X7X7X9X9X9X9X9X9X9X9X9X7X7X9X9X7X0X3X7X9X9X9X9X9X9X9X9X0X0X0X0X9X9X9X9X9X9X9X9X0X0X0X0X0X0X0X0X0X0X0X0X9X9X9X9X9X9X9X9X9X9X9X9X9X9X9X9X9X9X9X9X9X9X9X9X9X9X9X9X9X9X7X9X9X9X9X9X9X9X9X9X9X9X9X9X9X9X9X9X8X7X7X7X9X9X9X9X9X7X7X7X7X7X7X7X7X7X7X7X7X7X7X7X7X7X7X7X7X7X7X7X7X7X7X7X7X7X7X7X7X7X7X7X7X7X7X7X7X7X7X7XwX7X7X7X3X3X3X3X3X3X3X3X1X:X(.I.T.M.#.h C Y ,.;X0X1X1X7X1X1X1X1X3X3X3X4Xy.A I.<X1X1X>X>X;X;X;X:X:X:X:X:X:X:X:X:X:X:X:X:X:X:X:X:X:X:X:X:X:X:X:X:X;X;X;X:X:X:X;X^.(.^.I.I.P.L.N.N.l.b.M.L.I.I.I.^.N.N.N.N.P.P.P.P.N.N.b.f.k.z.b.v.v.b.l.l.k.f.t.e.8.;.#.Z A #.f.t.j.j.v.M.M.l.8.$.$.8.k.l.N.P.I.^.^.^.^.^.",
":X:X<X:X:X;X^.I.;X^.M.8.=.t.f.l.v.v.M.M.v.M.N.,.C &.7.8.e.t.f.c.c.k.f.7.j.z.m.m.n.n.M.M.M.M.v.v.N.N.N.N.M.N.N.M.v.L.P.N.N.M.M.n.M.P.P.M.N.I.(.:XI.8.C 7.(.(.(.(.;X;X;X;X:X:X:X:X:X:X:X:X:X:X>X>X1X1X>X>X>X1X1X1X>X1X1X1X1X3X3X:X,.o.I.6XiXiX5X5X1X1X1X1X1X8XzXP.3.2.U V %.G.n.^.1XwX1X1X1X1X1X1X1X1X3X3X3X3X3X3X7X7X7X7X7X7X5X5X5XP.k.<X5X5X7X7X7X7X7X7X7X7X7X7X7X7X7X7X7X7X7X7X7X7X7X7X7X7X7X7X8X8X8X8X7X7X7X7X7X7X8X8X8X8X8X7X7X7X9X9X7X7X7X7X9X9X9X9X8X8X8X8X9X9X9X8X7X7X7X7X9X9X9X9X9X9X9X9X9X9X9X9X9X9X9X9X9X9X9X9X9X9X9X9X9X9X9X9X9X9X9X9X9X9X9X9X9X9X9X9X9X9X9X9X9X9X9X9X9X9X9X9X9X9X9X9X9X9X9X9X7X7X7X9X9X9X9X9X9X9X9X9X9X9X9X9X9X9X9X9X8X7X7X7X7X7X7X7X7X7X7X7X7X7X7X7X7X7X9X9X7X7X7X7X7X7X7X7X7X7X7X7X7X7X7X7X7X7X7X7X7X7X7X7X3X3X3X3X7X7X7X7X3X1X3X7X3X3X3X1X1X7X:X;X>XI.I.Y.z.P j A I e.(.0X3X1X1X1X1X1X5X6X6X2X<Xr.L b.<X1X>X>X>X>X:X:X:X:X:X:X:X:X:X:X:X:X:X:X:X:X:X:X:X:X;X:X:X:X;X;X;X;X;X;X:X:X<X;X-X^.I.I.I.I.P.I.I.I.(.I.P.I.^.I.P.N.P.P.P.P.I.I.I.I.P.b.k.k.l.v.v.v.b.l.l.k.k.f.t.e.t.;.o.Z &.y.,.7.y.l.M.M.N.g.>.+.I 8.v.v.N.T.I.I.I.I.I.;X",
";X;X:X:X3X5X<XI.v.v.l.8.O.8.t.l.v.n.M.M.v.M.(.P.P O.=.>.e.f.f.g.c.k.j.t.v.n.M.m.n.n.n.M.M.M.M.M.n.M.M.M.n.v.f.e.e.v.P.P.v.v.v.M.P.I.(.I.P.P.I.I.^.P.8.C e.<X<X;X;X;X;X;X;X;X:X:X:X:X:X:X<X<X>X>X1X1X>X>X1X1X1X1X>X>X1X1X1X3X3X3X<X=.I U.6X6X6X5X3X1X1X1X1X<X1X9Xb.3.-.T V T b.x.Y.1X3X1X1X1X1X1X1X1X3X3X3X3X3X3X7X7X7X7X7X7X5X5X2Xn.I.2X5X5X7X7X7X7X7X7X7X7X7X7X7X7X7X7X7X7X7X3X3X7X7X7X7X7X7X7X8X9X8X8X7X7X7X7X7X7X8X8X8X8X8X7X9X7X7X9X7X7X7X7X9X9X9X9X8X8X8X8X9X9X9X8X7X7X9X7X9X9X9X9X9X9X9X9X9X9X9X9X9X9X9X9X9X9X9X9X9X9X9X9X9X9X9X9X9X9X9X9X9X9X9X9X9X9X9X9X9X9X9X9X9X9X9X9X9X9X9X9X9X9X9X9X9X9X9X9X7X7X7X7X9X9X9X9X9X9X9X9X9X9X9X9X9X9X9X9X7X7X7X7X7X7X7X7X7X7X7X7X7X7X7X7X7X9X9X9X7X7X7X7X7X7X7X7X7X7X7X7X7X7X7X7X7X7X7X7X7X7X7X7X3X3X3X3X7X7X7X7X3X3X3X3X3X3X1X1X3X1XP.M.;XI.(.j.A z Y #.,.^.9X3X3X3X1X1X1X1X5X6X<X2Xp.B z.2X<X3X>X>X>X>X>X:X:X:X:X:X:X:X:X:X:X:X:X:X:X:X:X:X:X:X;X;X:X:X;X;X;X;X;X:X:X:X:XI.I.-XI.I.T.T.M.M.P.P.^.I.P.I.I.P.N.M.N.N.N.N.L.L.N.N.n.b.v.b.v.v.v.v.l.l.k.g.g.f.t.e.7.,.I &.M.k.,.8.l.M.P.N.N.x.>.Z x @.8.,.M.(.;X^.^.^.^.^.",
"1X1X3X1X1X;XN.l.M.N.N.v.>.>.t.l.n.n.L.L.N.I.1XsX:X=.#.,.e.f.g.g.l.l.v.l.n.n.m.m.n.n.n.M.P.P.M.M.M.N.N.N.M.n.l.t.b.n.L.P.n.b.n.P.^.(.(.I.M.N.P.P.I.I.I.8.z t.<X(.;X;X;X;X;X;X:X:X:X:X:X:X:X<X:X:X1X>X>X>X1X1X1X1X>X>X>X1X1X1X1X3X6X(.#.A L.2X2X2X3X3X3X1X1X7X;X1X9Xk.7.7.%.N #.b.M.I.1X3X3X1X1X1X1X1X3X3X3X3X3X3X7X7X7X7X7X7X5X5X(.k.2X5X5X5X7X7X7X7X7X7X7X7X7X7X7X7X7X7X7X7X3X1X3X7X7X7X7X7X9X9X8X8X8X8X7X7X7X7X7X7X8X8X8X8X7X7X9X7X9X9X8X8X9X9X9X9X9X9X9X9X0X8X9X9X8X8X9X9X9X9X9X9X9X9X9X9X9X9X9X9X9X9X9X9X9X9X9X9X9X9X9X9X9X9X9X9X9X9X9X9X9X9X9X9X9X9X9X9X9X9X9X9X9X9X9X9X9X9X9X9X9X9X9X9X9X9X9X9X9X9X7X7X7X7X9X9X9X9X9X9X9X9X9X9X9X9X7X7X7X7X7X7X7X7X7X7X7X7X7X7X7X7X7X7X7X7X7X7X9X9X7X7X7X7X7X7X7X7X7X7X7X7X7X7X7X7X7X7X7X7X7X7X7X7X3X3X3X3X7X7X7X7X3X3X3X3X3X3X1X1X1X(.v.M.P.I.a.z l P -.9.^.9X5X:X3X3X1X1X1X1X3X6X<Xa.L a.2X3X<X3X>X>X1X1X:X:X:X:X:X:X:X:X:X:X:X:X:X:X:X:X:X:X:X:X:X:X:X:X;X;X;X;X;X>X>X;X^.T.I.^.I.P.T.N.v.M.N.P.P.I.I.I.I.I.N.N.N.M.M.M.M.n.M.v.b.n.M.n.v.v.b.b.l.k.g.f.f.t.e.8.7.o.@.P.(.n.l.M.T.I.I.P.N.g.=.Z +.8.f.e.g.M.I.N.(.:X<X:X",
"7X3X<X;XN.M.I.1X3X7X3X;XM.>.8.l.n.N.P.P.3X7X7XpXzX:X,.=.e.t.g.k.k.l.v.v.m.m.m.m.n.n.n.M.P.P.M.M.N.N.N.N.N.N.v.a.j.z.n.P.(.n.n.I.(.(.I.n.l.v.P.I.^.(.:XL.;.h f.2X;X;X;X;X;X;X:X:X:X:X:X:X:X:X:X<X1X1X>X>X1X1X1X1X>X>X>X1X1X1X1X1X3X6XU.&.A x.2X5X3X3X3X1X1X1X1X3X3X7XB.8.&.T B T j.M.Y.1X1X3X1X1X1X1X3X3X3X3X3X3X7X7X7X7X7X3X5X5XL.k.1X3X5X5X7X7X7X7X7X7X7X7X7X7X7X7X7X7X7X7X3X:X3X5X7X7X7X7X7X9X8X7X7X7X7X7X7X7X7X7X8X8X8X8X7X7X7X7X9X9X8X8X8X9X9X9X9X9X9X9X0X0X9X9X0X0X9X9X9X9X9X9X9X9X9X9X9X9X9X9X9X9X9X9X9X9X9X9X9X9X9X9X9X9X9X9X9X9X9X9X9X9X9X9X9X9X9X9X9X9X9X9X9X9X9X9X9X9X9X9X9X9X9X9X9X9X9X9X9X9X7X7X7X7X9X9X9X9X9X9X9X9X9X9X9X7X7X7X7X7X7X7X7X7X7X7X7X7X7X7X7X7X7X7X7X7X7X7X9X7X7X7X7X7X7X7X7X7X7X7X7X7X7X7X3X3X3X7X7X7X7X7X7X7X3X3X3X3X7X7X7X7X3X3X3X3X3X3X1X1X3XI.z.n.L.f.C l P T 9.'.iX5X1X>X3X3X3X3X3X3X6X4Xy.B a.2X<X3X>X>X>X<X1X1X:X:X:X:X:X:X:X:X:X:X:X:X:X:X:X:X:X:X:X:X:X:X:X:X;X;X;X;X:X>X;X-XN.T.I.I.I.N.M.M.M.N.P.P.N.I.(.I.(.I.P.P.N.M.M.M.M.M.M.M.n.M.M.v.v.v.b.v.k.k.f.f.f.t.e.8.O.@.P.:X(.I.;X(.;X;X-XI.N.f.$.o.v.;X1X;X^.I.N.v.M.(.:X:X",
"I.-X;X>X7X7X0X0X7X7X7X3X1XM.,.f.l.I.<X5X7X7X8X7X7XpX;X7.>.8.e.f.k.k.c.l.b.v.v.n.n.M.n.n.L.L.L.P.N.I.^.I.P.I.P.v.;.y.n.I.L.P.I.I.^.(.^.P.v.P.(.(.(.(.(.(.P.8.z g.;X:X^.-X-X;X:X:X:X:X:X:X:X:X<X:X>X>X:X:X>X1X1X1X1X1X1X1X1X1X1X1X5X5X5XP.&.S b.5X2X1X3X1X1X1X1X3X3X3X3X(.;.;.#.N Y z.n.M.>X7X7X7X1X1X3X3X3X3X3X7X7X7X7X7X7X3X3X3X3X1X1X3X5X7X7X7X7X7X7X7X7X7X7X7X7X7X7X7X7X7X7X7X7X7X7X7X7X7X9X9X8X7X5X3X3X7X8X7X7X7X9X9X7X7X7X7X9X9X9X7X7X7X8X8X9X9X9X9X8X8X8X0X9X9X9X9X9X9X9X9X9X9X9X9X9X9X9X9X9X9X9X9X9X9X9X9X9X9X9X9X9X9X9X9X9X9X9X9X8X8X8X8X8X8X0X8X8X8X8X8X9X9X9X9X9X9X9X9X9X9X9X9X9X9X9X9X9X9X9X9X9X7X7X7X7X9X9X9X9X9X9X9X9X9X9X9X9X9X7X7X7X7X7X9X7X7X7X7X7X7X9X9X7X7X7X7X7X7X7X7X7X7X7X7X7X7X7X7X7X7X7X7X7X7X1X1X3X7X7X7X7X7X7X7X7X7X7X7X3X3X3X3X5X5X5X3X3X3X7X7X;XM.n.b.t.C C P #.e.(.5X5X5X5X5X1X1X1X3X1X1X4Xr.B a.4X3X<X>X>X>X>X>X1X1X>X>X>X;X>X>X>X>X:X:X:X:X:X:X:X:X;X;X;X:X;X;X;X;X;X;X;X;X1X;XT.M.x.B.I.I.I.P.I.(.I.P.I.P.I.I.I.I.(.(.I.P.N.L.N.L.P.M.M.M.M.N.M.n.n.v.v.x.k.j.f.f.f.e.,.O.O.N.3X(.M.(.1X3X:X:X^.N.v.e.$.l.:X:X1X7X7X1X1X1X;XI.B.-X",
"7X9XpXpXpX0X0X0X7X7X7X3X1X-X8.8.t.v.;X8X9X9X9X9X9XpXpX-X,.=.,.8.f.g.k.c.l.b.n.n.v.v.n.n.L.P.P.P.^.(.(.I.P.L.N.b.t.n.I.I.I.I.^.(.^.(.(.I.P.^.(.(.(.(.(.(.(.I.e.c l.<X(.;X;X;X:X:X:X:X:X:X:X:X:X:X>X>X:X:X>X1X1X1X1X1X1X1X1X1X1X1X3X5X5X1X(.3.C Y.5X1X3X3X1X1X1X3X3X3X7X1X(.;.-.%.B %.k.v.I.>X7X7X7XwX1X1X3X3X7X7X7X7X7X7X3X3X5X5X5X5X5X5X7X7X7X7X7X7X7X7X7X7X7X7X7X7X7X7X7X7X7X7X7X7X7X7X7X7X7X9X0X8X7X7X7X7X7X5X7X7X7X7X7X7X7X7X9X9X7X7X7X7X8X9X9X9X9X9X8X8X8X8X9X9X9X9X9X9X9X9X9X9X9X9X9X9X9X9X9X9X9X9X9X9X9X9X9X9X9X9X9X9X9X9X9X9X9X9X8X8X8X8X8X8X0X0X8X8X8X8X9X9X9X9X9X9X9X9X9X9X9X9X9X9X9X9X9X9X9X9X9X9X7X7X7X9X9X9X9X9X9X9X9X9X9X9X9X9X7X7X7X7X9X9X7X7X7X7X7X7X9X9X7X7X7X7X7X7X7X7X7X7X7X7X7X7X7X7X7X7X7X7X7X7X3X3X3X7X7X7X7X7X7X7X7X7X7X7X3X3X3X3X5X5X5X5X3X3X3X;XP.v.P.t.I C P #.y.(.8X8X5X5X5X5X1X1X1X1X5X2Xy.B z.'.3X:X1X>X>X>X>X>X>X1X1X>X>X;X>X>X>X>X:X:X:X:X:X:X:X:X;X:X:X:X;X;X;X;X;X;X;X;X1XI.M.l.M.T.^.(.<X(././.(.I.(.P.I.I.I.I.(.I.P.P.L.L.L.M.n.M.M.N.N.N.L.M.M.n.b.z.j.f.f.y.e.t.;.#.M.1X;XN.I.:X3X3X:X;XI.M.g.8.v.:X(.;X1X7X7X7X7X7X7X1X:X;X",
"pXpXkXkXpX0X0X8X8X7X7X7X3X1XI.&.,.j.I.5X9X9X9X9X0X9XpXpX(.=.=.,.8.f.k.k.k.l.b.b.M.n.M.n.L.L.P.P.(.I.(.(.I.N.n.n.M.I.I.P.P.I.^.^.^.^.(.^.(.(.(.(.(.(.(.(.^.^.I.f.I f.(.(.;X;X;X:X:X:X:X:X<X:X:X:X>X>X:X:X>X>X1X1X>X>X1X1X1X1X1X1X1X1X3X5X<X(.>.Z (.7X3X1X3X>X1X1X1X3X3X1XiXn.%.;.=.N #.z.M.I.,X7X7XwX1X1X3X1X7X7X7X7X7X7X>X1X3X5X7X7X7X7X7X7X7X7X7X7X7X7X7X7X7X7X7X7X7X7X7X7X7X7X7X7X7X7X7X7X7X7X8X8X8X8X7X7X3X5X7X7X7X7X7X7X7X7X9X9X9X9X7X7X7X9X7X7X7X7X8X8X8X8X9X9X9X9X9X9X9X9X9X9X9X9X9X9X9X9X9X9X9X9X9X9X9X9X9X9X9X9X9X9X9X9X9X9X9X9X8X8X8X8X8X8X8X8X9X9X9X9X9X9X9X9X9X9X9X9X9X9X9X9X9X9X9X9X9X9X9X9X9X9X7X9X7X9X9X9X9X9X9X9X8X9X8X8X9X7X7X7X7X7X9X9X9X9X9X9X7X7X7X7X7X7X7X7X7X7X7X7X7X7X7X7X7X7X7X7X7X7X7X7X7X7X7X7X7X7X7X7X7X7X7X7X7X7X7X7X3X3X3X3X5X5X5X5X5X3X:XI.I.(.j.C I o.o.,.;X9X9X7X7X7X7X7X1X1X1X1X2Xp.C t.(.<X1X1X1X1X1X1X1X1X>X>X1X1X>X>X>X>X>X>X:X:X:X:X:X:X:X:X:X:X:X:X:X:X:X:X;X;X;X;X-XV.l.v.I.(.;XI.e.@.=.b.P.I.I.I.I.I.I.I.I.P.P.P.L.L.L.L.y.l.M.M.M.M.M.M.n.n.x.k.f.f.f.t.8.;.#.^.3X:XI.I.:X3X5X1X1X^.I.l.;.8.I.;XI.;X1X7X7X9X9X0X9X9X0X7X",
"pXpXkXpXpX0X0X8X8X8X7X7X7X7X2Xf.&.t.v.;X7X7X8X7X7X8X7X9X0X:X8.O.>.8.f.g.k.k.l.b.n.v.n.n.L.P.P.P.M.M.I.;X(.L.M.N.P.P.P.P.N.N.P.^.^.^.(.(.(.^.(.(.(.(.(.(.(.(.I.M.e.P j.(.(.;X;X;X:X:X:X:X:X<X:X:X>X>X:X:X>X>X1X1X>X>X1X1X1X1X1X1X1X1X1X1X:X<X;X7.Z (.3X1X3X1X1X1X1X1X1X<X5X1Xk.Y 8.&.S Y f.M.B.,X7X7X1X1X3X1X7X7X7X7X7X7X:X1X3X5X5X5X5X5X7X7X7X7X7X7X7X7X7X7X7X7X7X7X7X7X7X7X7X7X7X7X7X7X7X7X7X7X7X7X7X7X7X3X5X8X7X7X7X7X7X7X7X7X9X9X9X9X7X7X7X9X7X7X7X7X8X8X8X8X9X9X9X9X9X9X9X9X9X9X9X9X9X9X9X9X9X9X9X9X9X9X9X9X9X9X9X9X9X9X9X9X9X9X9X9X8X8X8X8X8X8X8X8X8X9X9X9X9X9X9X9X9X9X9X9X9X9X9X9X9X9X9X9X9X9X9X9X9X9X9X9X7X9X9X9X9X9X9X9X8X8X8X8X7X7X7X7X7X7X7X9X9X9X9X9X7X7X7X7X7X7X7X7X7X7X7X7X7X7X7X7X7X7X7X7X7X7X7X7X7X7X7X7X7X7X7X7X7X7X7X7X7X7X7X7X3X3X3X3X5X5X5X5X3X;XI.^.I.c.I I @.o.>.;XpXpX8X7X7X7X7X7X1X1X1X1Xp.A b.<X:X:X:X1X1X1X1X1X1X1X>X>X1X1X>X>X>X>X>X>X:X:X:X:X:X:X:X:X:X:X:X:X:X:X:X:X:X;X;X;XM.g.l.P.(.;Xl.@.A o.@.#.o.z.I.I.I.I.I.I.P.P.P.P.L.L.L.L.8.k.n.v.n.n.n.n.n.b.l.j.t.f.y.8.@.;.I.5X:XI.^.:X5X5X5X1X<XI.N.e.O.l.I.v.N.-X3X5X7X9X0X0X0X0X0X0X",
"pXpXpXpXpXpX0X8X8X8X8X7X7X7X3X;X,.@.f.N.1X7X8X7X7X7X7X9X7XpX8Xc.@.;.t.f.k.l.b.v.b.v.M.M.N.M.n.N.N.v.v.I.(.I.P.P.P.P.N.N.^.^.^.^.^.^.^.(.(.(.(.(.(.(.(.(.(.(.^.I.M.8.C k.(.<X:X(.:X:X:X:X:X:X:X:X:X>X>X>X:X1X1X1X>X>X>X>X1X1X1X1X1X1X1X1X1X1X:X;X7.@.;X3X1X3X7X7X3X1X1X1X5X6XiXj.o.8.3.z T z.N.I.;X1X7X7X3X1XwXwXwXwXwXwX7X3X3X3X3X3X3X3X5X5X5X5X7X7X7X7X7X7X5X5X7X7X7X7X7X7X7X7X7X7X7X7X7X7X7X7X7X7X7X7X7X7X7X8X7X7X7X7X7X7X9X9X7X7X7X7X8X8X8X8X7X7X9X9X0X0X9X8X9X9X9X9X9X9X9X9X9X9X9X9X9X9X9X9X9X9X0X9X9X9X9X9X9X9X9X9X9X9X9X9X7X7X9X9X8X8X7X9X9X9X9X9X9X9X9X9X9X9X9X9X9X9X9X9X9X9X9X9X9X9X9X9X9X9X9X9X9X7X7X7X9X9X9X9X7X7X7X7X9X9X9X7X7X7X8X8X7X7X7X7X7X7X7X7X7X7X7X7X7X7X7X7X7X7X7X7X7X7X7X7X7X7X7X7X7X7X7X7X7X7X7X7X7X7X7X7X7X7X7X7X3X3X3X3X3X3X3X3X7X5X3X3X;XN.P.P.l.C C &.+.;.;XpXsX8X7X7X7X7X3X1X<X1X5Xf.Z L.<X1X<X<X<X<X1X1X1X1X1X1X1X>X1X1X>X>X>X>X>X>X:X:X:X:X:X:X:X:X:X:X:X:X;X;X;X;X<X<X(.l.t.k.P.;XM.=.P t.b.n.y.y.,.k.I.(.(.;X(.P.P.P.P.P.L.P.P.f.8.l.v.v.v.v.v.v.b.x.k.j.t.8.e.&.=.(.5X<X;X;X1X7X3X3X3X1X;XB.e.=.t.l.v.N.;X3X7X0X0X0XpX0X0X0X0X0X",
"pXpXpXpXpXpXpX0X8X9X8X8X7X7X7X3XM.;.&.k.I.>X7X8X9X9X9X9X9X9X0X7Xl.,.8.t.y.k.l.v.b.v.v.n.N.M.M.P.M.v.v.L.(.(.I.I.P.P.N.N.^.^.^.^.^.^.^.(.(.(.(.(.(.(.(.(.(.(.(.(.I.L.&.B z.:X(.:X:X:X:X:X:X:X:X:X:X:X:X>X:X:X1X1X>X>X1X1X1X1X1X1X1X1X1X1X1X1X>X1X;X8.P ;X1X1X7X1X3X3X3X1X1X(.G.<X,.$.,.#.z #.v.P.-X,X7X3X3X1XwXwXwXwXwXwX7X3X3X3X3X3X3X3X5X5X5X5X7X7X7X7X7X7X5X5X7X7X7X7X7X7X7X7X7X7X7X7X7X7X7X7X7X7X7X7X8X8X7X7X7X7X7X7X7X7X9X9X7X7X7X7X8X8X8X8X7X7X8X8X8X8X8X8X9X9X9X9X9X9X9X9X9X9X9X9X9X9X9X9X9X9X9X9X9X9X9X9X9X9X9X9X9X9X9X9X7X7X7X7X8X8X9X9X9X9X9X9X9X9X9X9X7X7X9X9X9X9X9X9X9X9X9X9X9X9X9X9X9X9X9X9X7X7X7X7X9X9X9X9X7X7X7X7X9X9X8X8X7X7X7X8X7X7X7X7X7X7X7X7X7X7X7X7X7X7X7X7X7X7X7X7X7X7X7X7X7X7X7X7X7X7X7X7X7X7X7X7X7X7X7X7X7X7X7X7X3X3X3X3X3X3X3X3X5X3X1X:XN.M.P.v.I I Z o.&.v.1X8XiX1X1X1X7X7X1X1X1X1Xk.P T.2X5X1X1X1X<X<X1X1X1X1X1X1X1X1X1X1X>X>X>X>X>X>X:X:X:X:X:X:X:X:X:X:X:X:X;X;X;X;X<X;Xl.,.k.N.;Xv.P P y.L.P.8.>.k.N.M.I.(.<X:X(.I.P.P.P.P.I.I.v.8.t.v.v.b.b.b.b.b.x.l.k.k.t.8.&.;.;X<X:X(.;X1X7X7X7X3X1X;XT.g.$.8.l.f.f.M.1X7X8X0X0X0X0X0X0X0X0X0X",
"pXpXpXpXpXpXpX0X0X9X8X8X8X7X7X7X1Xl.;.,.x.I.>X7X9X9X9X9X9X8X7XiX8Xc.,.8.t.f.l.x.v.b.v.l.v.v.v.L.M.n.v.v.P.(.(.^.^.^.^.I.^.^.^.^.^.^.^.^.^.^.^.^.(.(.(.(.(.(.(.(.;X(.L.3.N x./.(.:X:X:X:X:X:X:X:X:X:X:X:X:X:X:X1X1X1X1X1X1X1X1X1X1X1X1X1X1X>X>X>X<X1Xq.A Y.5X5X3X3X3X3X3X5X7.a q.1Xk.$.>.I z #.b.T.-X:X3X3X1X1XwXwXwXwXwX7X3X3X3X3X3X3X3X5X5X5X5X7X7X7X7X7X7X5X5X5X5X7X7X7X7X7X7X7X7X7X7X7X7X7X7X7X7X7X7X8X8X8X7X9X9X7X7X7X7X9X9X7X7X7X7X9X9X8X8X7X9X8X8X8X8X8X8X9X9X9X9X9X9X9X9X9X9X9X9X9X9X9X9X9X9X9X9X9X9X9X9X9X9X9X9X9X9X9X9X7X7X7X7X8X8X9X9X9X9X9X9X9X9X7X7X7X7X7X7X7X7X9X9X9X9X9X9X9X9X9X9X9X9X9X9X7X7X7X7X9X9X9X9X7X7X7X7X9X9X9X9X7X7X7X7X7X7X7X7X7X7X7X7X7X7X7X7X7X7X7X7X7X7X7X7X7X7X7X7X7X7X7X7X7X7X7X7X7X7X7X7X7X7X7X7X7X7X7X7X3X3X7X7X3X3X3X3X3X1X;X^.P.P.n.P I I Z ,.L.L.,.#.l.2X5X7X3X3X1X1X5X8.S x.<X2X5X2X1X>X1X>X1X1X1X1X1X1X1X1X>X>X1X>X>X>X>X>X:X:X:X:X:X:X:X:X:X:X:X:X;X:X;X;X;Xz.e.j.I.I.j.A #.m.P.v.t.P ;.T.P.P.(.;XL.I.I.P.P.P.P.P.I.L.f.8.k.v.v.v.v.v.v.v.v.k.k.k.t.;.,.(.1X:X:X;X1X5X7X7X7X1X;XN.l.$.,.v.M.l.N.;X3X7X8XiX0X0X0X0X0X0X0X0X",
"pXpXpXpXpXpXkXpX0X0X8X8X8X9X7X7X9X1Xg.$.f.v.I.>X9X9X9X9X7X0X3X3X8X8Xk.7.8.f.j.l.v.b.l.k.k.j.l.n.M.M.n.v.v.(.;X(.^.^.^.^.^.^.^.^.^.^.^.^.^.^.^.^.(.(.(.(.(.(.(.(.;X(.'.G.3.S z.(.<X:X:X:X:X:X:X:X:X:X:X:X:X:X:X>X1X1X1X1X1X1X1X1X1X1X1X1X1X1X>X>X3X5X;Xq.A P.3X3X3X3X3X3Xk.C u I 2X8Xv.$.=.P z #.v.P.^.;X3X3X1XwXwXwXwXwX7X3X3X3X3X3X3X3X5X5X5X5X7X7X7X7X7X7X5X5X5X5X7X7X7X7X7X7X7X7X7X7X7X7X7X7X7X7X7X7X8X8X8X7X9X7X7X7X7X7X9X9X7X7X7X7X9X9X8X8X9X9X8X8X8X8X8X8X9X9X9X9X9X9X9X9X9X9X9X9X9X9X9X9X7X7X7X7X9X9X9X9X9X9X9X9X9X9X9X9X7X7X7X7X8X8X9X9X9X9X9X9X9X9X7X7X7X7X5X5X7X7X9X9X9X9X9X9X9X9X9X9X9X9X9X9X7X7X7X7X9X9X9X9X9X7X7X7X9X9X9X9X7X7X7X7X7X7X7X7X7X7X7X7X7X7X7X7X7X7X7X7X7X7X7X7X7X7X7X7X7X7X7X7X7X7X7X7X7X7X7X7X7X7X7X7X7X7X7X7X3X7X7X7X3X3X7X7X1X:X^.P.P.v.P P I C 8.<X3X(.z i z I.8X<X3X1X1X1X,.Z M.<X1X2X2X2X2X1X1X>X>X>X1X1X1X1X1X>X>X>X>X>X>X>X>X>X:X:X:X:X:X:X:X:X:X:X:X:X;X;X;X;Xk.t.b.(.(.t.I ;.M.I.n.7.#.8.P.I.I.(.(.M.y.l.M.M.P.L.P.P.N.k.e.k.v.v.v.v.l.l.l.l.l.k.k.j.t.f.^.<X<X;X(.1X5X7X7X3X7X:XN.c.$.8.v.v.v.(.1X1X5X7X0XpX0X0X0X0X0X0X0X0X",
"gXpXpXCXpXpX0X0X0X0X8X8X8X9X7X7X7X3X-Xf.>.e.B.-X1X7X7X7X0X9X7X7X8X9X1Xg.t.f.c.l.v.l.g.f.g.g.l.x.v.v.M.M.v.M.I.(.^.I.^.^.I.I.I.I.^.I.^.^.^.^.^.^.^.^.^.^.(.(.(.(.;X;X'.Y.n.3.A x.<X;X:X;X:X:X:X:X:X:X:X:X:X:X:X:X1X1X1X>X:X:X:X<X1X1X1X1X1X1X1X1X1X5X1XY.$.A P.<X3X3X5X>X7.O.;.b.7XiX5Xl.;.#.L B -.b.I.P.;X1X1X1X1X3X1X1X1X1X3X3X3X3X7X7X7X7X7X7X7X7X7X7X3X>X^.^.3X5X5X7X7X7X7X7X7X7X7X7X7X7X7X7X7X7X7X7X7X7X7X7X7X7X7X7X7X7X7X7X7X7X7X7X7X7X7X7X7X7X7X7X9X9X9X9X9X9X9X9X9X9X9X9X7X7X7X9X9X9X9X9X9X9X9X9X9X9X9X9X9X9X9X9X9X9X9X9X9X9X9X9X9X9X9X9X7X7X7X7X7X7X8X8X5XM.N.3X7X9X7X7X9X9X9X9X9X9X9X9X9X9X7X7X7X7X9X9X7X7X7X7X7X7X7X7X7X7X7X7X7X7X7X7X7X7X7X7X7X7X7X7X7X7X7X7X7X7X7X7X7X7X7X7X7X7X7X7X7X7X7X7X7X7X7X7X7X7X7X7X7X7X7X7X7X7X7X7X7X7X7X7X3X7X7X1X;X-X(.P.z.O.I #.C 7.1X7X6X6XH.I P I.3X3X3X<X:X=.+.l.1X1X<X<X1X1X1X1X<X:X>X>X:X:X>X>X>X>X:X:X:X:X:X:X:X:X:X:X:X:X:X:X;X;X;X;X:X:X:X;X(.y.f.n.:X(.7.P 7.P.(.n.;.%.j.n.P.I.(.(.n.t.l.n.L.L.I.I.I.I.j.7.8.l.M.v.b.v.l.v.l.k.k.j.f.k.f.v.P.^.;X;X1X7X7X7X3X1X;X(.k.;.f.l.M.I.;X3X7X9X7X9X0X0XpX0X8X9X0X8X0XzX",
"pXpXiXpXpXpX0X0XpX0X0X8X9X9X7X7X7X7X1X^.f.=.f.B.^.1X1X7X7X7X5X3X1X1X;XY.M.n.v.n.M.v.l.c.x.x.l.l.l.v.v.v.v.v.M.I.^.^.I.N.I.I.I.I.^.I.^.^.^.^.^.(.(.^.^.^.(.(.(.(.(.;X(.(.I.b.=.C l.(.;X:X;X:X:X:X:X:X:X:X:X:X:X:X>X>X1X1X:X:X:X:X1X1X1X1X1X1X1X1X1X1X5X1X(.#.z n.2X1X1X<Xn.b.P.1X1X1X1X:Xk.=.T I B -.b.P.I.(.<X3X1X1X1X1X7X1X:X3X3X3X7X7X7X7X7X7X7X7X7X7X9X^.8.e.^.3X5X3X7X7X7X7X7X7X7X7X7X7X7X7X7X7X7X7X7X7X7X7X7X7X7X7X7X7X7X7X7X7X7X7X7X7X7X7X7X7X7X7X9X9X9X9X9X9X9X9X9X9X9X9X7X7X7X7X9X9X9X9X9X9X9X9X9X9X9X9X9X9X9X9X9X9X9X9X9X9X9X9X9X9X9X9X7X7X7X7X7X7X8X8X<Xv.:X5X7X9X7X7X7X7X7X7X9X9X9X9X9X9X9X7X7X7X9X7X1X>X1X1X7X7X7X7X7X7X7X7X7X7X7X7X7X7X7X7X7X7X7X7X7X7X7X7X7X7X7X7X7X7X7X7X7X7X7X7X7X7X7X7X7X7X7X7X7X7X7X7X7X7X7X7X7X7X7X7X7X7X7X7X7X7X>X;XQ.I.T.j.P A O.C ;.1X8X;X2X<X3X(.(.:X2X2X6X'.:.P n.;X:X:X:X:X<X<X1X1X<X<X1X>X;X;X>X>X>X>X:X:X:X:X:X:X:X:X:X:X:X:X:X:X;X;X;X;X:X:X:X(.j.t.I.(.;Xt.S y.(.(.n.7.,.j.v.P.I.(.(.P.b.v.P.P.I.P.P.^.P.j.7.8.f.v.v.v.b.v.l.v.l.k.f.j.l.b.l.g.e.n.(.<X7X8X7X1X1X;XI.k.#.t.v.N.^.:X1X7X7X9X8X0X0X0XpX0X7X3X9XiXzXAX",
"8XpXpXpXpXpXpXpXpXpX0X0X9X9X7X7X7X7X3X>XB.<.$.e.M.I.:X1X3X3X1X<X1X(.T.5X;XP.P.N.N.N.v.x.N.v.h.f.k.k.l.v.v.v.v.M.I.^.^.N.I.I.I.I.I.I.I.^.^.^.^.^.^.^.^.^.(.(.(.(.(.(.(.(.).I.n.=.z j.^.(.;X;X;X;X:X:X:X:X:X:X:X:X:X>X:X:X:X:X:X:X1X1X1X1X1X1X1X1X1X1X1X1X2XY.A h v.3X3X3X5X5X5X3X8X1X<X1X2Xb.=.L L B %.k.n.P.(.<X1X1X1X1X5X<XI.(.2X5X7X5X7X7X7X7X7X7X7X7X5X:XN.M.v.<X5X0X7X7X7X7X7X7X7X7X7X7X7X7X7X7X7X7X7X7X7X7X7X7X7X7X7X7X7X7X7X7X7X7X7X7X7X7X7X7X7X7X9X7X9X9X7X7X7X7X9X9X9X9X7X7X7X7X7X7X9X7X9X9X9X9X9X9X9X9X9X9X9X9X9X9X9X9X9X9X9X9X9X9X9X9X7X7X7X7X7X7X8X8X5X:X3X5X7X9X7X7X7X7X7X7X9X9X9X9X9X9X7X7X7X7X9X9X1X;X;X1X7X7X7X7X7X7X7X7X7X7X7X7X7X7X7X7X7X7X7X7X7X7X7X7X7X7X7X7X7X7X7X7X7X7X7X7X7X7X7X7X7X7X7X7X7X7X7X7X7X7X3X3X7X7X7X7X7X7X7X7X7X>XQ.T.-XT.0.Z z I A 7.1X1X1X;X6X1X1X1X1X1X5X3X(.%.I l.:X;X,X1X>X>X1X1X1X1X<X<X1X:XB.N.:X:X>X:X:X:X:X:X:X:X:X:X:X:X:X:X:X:X:X:X;X;X:X:X(.z.e.n.:X(.t.C e.(.(.M.,.8.M.N.N.P.^.(.P.v.M.L.I.I.I.I.^.I.j.;.8.f.l.v.v.v.v.l.l.f.f.v.M.N.N.N.v.k.8.f.(.<X1X5X1X1X;XN.k.#.8.N.N.^.>X3X3X7X7X0X0X0X0X0X0X0X8X7X0XzXzXiX",
"M.5XsXpXpXpXpXpXpXpX0X0X9X9X7X7X7X7X7X>X;XV.$.+.8.M.I.;X1X<X:X;X;X<X5X1XI.T.P.M.N.M.v.l.N.v.g.f.y.f.k.k.v.v.v.v.M.^.;X^.I.I.I.I.I.I.I.^.^.^.^.^.^.^.^.^.(.(.(.(.(.(.(.(.(.(.(.b.%.j k.;X;X;X;X;X:X:X:X:X:X:X:X:X:X:X:X:X:X:X:X:X1X1X1X1X1X1X1X1X1X1X1X1X1X5XU.I g f.<X7X5X3X3X5X1X5X2X5X3X1Xb.@.S A S #.y.n.N.^.>X1X1X1X1X1XL.P.(.1X5X5X5X5X7X7X7X7X7X7X5X5X5X<X).5X5X9X7X7X7X7X7X7X7X7X7X7X7X7X7X7X7X7X7X7X7X7X7X7X7X7X7X7X7X7X7X7X7X7X7X7X7X7X7X7X7X7X7X7X7X7X7X7X7X7X9X9X9X9X7X7X7X7X7X7X7X7X9X9X9X9X9X9X9X9X9X9X9X9X9X9X9X9X9X9X9X9X9X9X9X9X7X7X7X7X7X7X8X8X7X1X5X5X7X9X7X7X7X7X7X7X9X9X9X9X9X9X7X7X7X7X9X9X7X>X>X7X7X7X7X7X7X7X7X7X7X7X7X7X7X7X7X7X7X7X7X7X7X7X7X7X7X7X7X7X7X7X7X7X7X7X7X7X7X7X7X7X7X7X7X7X7X7X7X7X7X3X3X1X7X7X7X7X7X7X7X7X1X-XT.T.;Xj.Z B P z #.<X5X1X<X1X1X1X5X1X1X5X1X;XP L M.(.3X1X>X>X>X>X1X1X1X1X<X<X1X>X-X^.:X:X:X:X:X:X:X:X:X:X:X:X:X:X:X:X:X:X:X:X;X;X:X:Xv.8.v.(.^.t.P 8.;X(.L.e.7.M.^.^.N.I.(.I.v.M.N.n.I.I.I.I.N.k.8.8.l.v.v.b.v.l.l.k.j.,.8.P.I.^.P.M.M.v.k.t.I.(.;X;X1X;XN.c.@.;.n.(.I.-X>X7X7X7X8X0X0X0X0X0X0XpXpXkXzXAXiX:X",
"@.n.8XsXpXpXpXpXpXpXpXpX0X0X8X8X8X7X7X7X1X>Xl.c v t.v.I.(.;X^.P.P.<XsX(.l.M.P.P.N.M.v.v.M.M.l.e.f.t.t.e.k.v.v.n.n.M.P.(.(.^.P.P.I.I.I.I.^.^.^.^.^.^.^.^.^.^.^.^.(.(.(.(.(.(.(.I.n.&.z y.;X:X:X^.;X;X;X;X:X:X:X:X:X:X:X:X:X:X:X:X1X1X<X<X1X1X1X1X7X1X1X1X1X3X3XI.Z h t.1X5X5X5X5X5X5X5X5X1X5X1XL.@.S L B C k.^.N.;X1X1X1X1X1X2X/.<X1X1X1X5X5X3X3X5X5X3X3X3X3X5X5X3X3X3X3X7X7X7X7X7X7X7X7X7X7X7X7X7X7X7X7X7X7X7X7X7X7X7X7X7X7X7X7X7X7X7X7X7X7X7X7X7X7X7X7X7X7X7X7X7X7X7X7X7X7X7X7X7X7X7X7X7X7X7X7X9X9X9X9X7X7X9X9X7X7X7X7X7X7X7X9X7X7X7X7X7X7X7X7X7X7X7X7X7X7X7X3X3X3X5X5X7X9X7X7X8X7X7X7X7X7X7X7X7X7X7X7X7X7X7X7X7X7X7X7X7X7X7X7X7X7X7X7X7X7X7X7X7X7X7X7X7X7X7X7X7X7X7X7X7X7X7X7X7X7X7X7X7X7X7X7X7X7X7X7X7X7X7X7X1X1X7X7X7X7X1X1X3X3X3X3X3X3X3X<X-XI.(.Y.j.A N P z &.;X8X1X1X1X1X1X1X1X1X1X1X-XP L z.(.<X1X>X1X1X>X1X1X1X1X1X1X1X>X1X:X:X:X:X:X:X:X:X:X:X:X:X:X:X:X:X:X:X:X:X:X:X:X;X;XN.8.k.(.(.j.@.,.(.(.n.y.j.n.v.N.;X:X^.M.l.P.P.L.L.I.I.(.P.f.7.t.k.M.v.l.k.k.k.k.k.t.,.8.k.M.I.^.P.M.v.N.n.b.N.M.b.v.v.k.o.z 8.P.P.I.:X3X3X7X7X8X0X0X0X0X0XpXkXVXCXAXzX:X,.",
"z #.M.8XpXsXpXpXpXpXpXpXpXpX0XqX8X8X8X7X>X;Xl.v e P t.M.^.^.^.P.n.L.(.b.z.L.I.I.N.M.v.l.x.x.v.l.k.y.8.8.k.v.v.n.M.N.N.N.(.(.^.I.I.I.I.I.I.I.^.^.(.(.^.^.^.^.^.^.(.(.(.(.(.(.(.(.I.n.;.C j.;X:X;X;X;X;X;X:X:X:X:X:X:X:X:X:X:X:X:X1X1X<X<X1X1X1X1X1X1X1X>X1X1X5X5X^.C g e.:X7X5X<X5X5X5X5X1X5X8X2XL.o.A P l C l.^.(.;X1X1X1X1X6X2X2X5X3X1X1X3X3X3X5X5X3X3X3X3X5X5X5X3X5X3X7X7X7X7X7X7X7X7X7X7X7X7X7X7X7X7X7X7X7X7X7X7X7X7X7X7X7X7X7X7X7X7X7X7X7X7X7X7X7X7X7X7X7X7X7X7X7X7X7X7X7X7X7X7X7X7X7X7X7X7X9X9X9X9X7X9X9X9X7X7X7X7X7X7X7X7X7X7X7X7X7X7X7X7X7X7X7X7X7X7X7X7X7X7X7X7X9X9X7X9X8X8X9X7X7X7X7X7X7X7X7X7X7X7X7X7X7X7X7X7X7X7X7X7X7X7X7X7X7X7X7X7X7X7X7X7X7X7X7X7X7X7X7X7X7X7X7X7X7X7X7X7X7X7X7X7X7X7X7X7X7X7X7X7X1X1X3X3X7X7X1X1X3X3X3X3X3X3X<X-XI.T.I.y.z j @.C &.<XiX2X1X1X1X1X1X1X1X1X1X;XO.C L.2X4X3X1X1X1X1X1X1X1X1X1X1X1X1X>X:X:X:X:X:X:X:X:X:X:X:X:X:X:X:X:X:X:X:X:X;X;X;X:X;Xg.t.N.^.L.t.;.y.Y.(.L.t.0.n.I.b.v.^.(.N.b.n.P.P.L.G.L.I.I.k.,.8.v.M.n.v.v.l.k.k.k.k.y.8.8.k.v.P.^.I.n.v.L.L.v.v.l.y.0.t.P t k ;.f.n.I.>X3X1X7X8X0X0X0X0X0XpXpXVXVXCXAX3Xt.I ",
"z B &.L.0XkXpXpXpXpXpXkXkXkXkX0XqX8X7X,X-Xl.=.g t h &.y.n.I.^.I.L.L.b.a.b.L.I.^.M.v.l.k.k.k.l.v.v.k.t.8.k.v.v.n.M.M.N.N.I.(.;X(.I.I.I.I.I.I.I.I.^.^.^.^.^.^.^.^.-X(.(.(.(.(.(.(.I.P.L.;.z j.(.(.;X;X;X;X:X:X:X:X:X:X:X1X:X:X:X:X1X1X<X<X1X1X1X1X1X>X>X>X1X<X1X5X5XI.Z g 8.:X9X1X5X5X5X5X5X5X7X5X9XP.I L Y l C b.I.(.;X1X1X3X5X5X3X5X3X3X1X3X3X3X3X3X3X3X3X3X5X5X5X3X3X3X7X7X7X7X7X7X7X7X7X7X7X7X7X7X7X7X7X7X7X7X7X7X7X7X7X7X7X7X7X7X7X7X7X7X7X7X7X7X7X7X7X7X9X9X9X9X7X9X9X9X9X9X7X7X7X7X9X9X9X9X7X7X7X7X7X7X9X9X7X7X7X7X7X7X7X7X7X7X7X7X7X7X7X9X7X7X7X7X7X7X7X7X7X7X7X7X9X9X9X7X7X7X8X7X9X7X9X9X7X7X7X7X7X7X7X7X7X7X7X7X7X7X7X7X7X7X7X7X7X7X7X7X7X7X7X7X7X7X7X7X7X7X7X7X7X7X7X7X7X7X7X7X7X7X7X7X7X7X7X7X7X7X7X7X1X3X3X3X7XwXwX1X3X7X3X3X3X<X;XI.Y.I.t.z h P S %.;XiX1X2X2X2X2X2X1X2X2X2X<X@.P P.2X2X<X3X1X>X1X1X1X1X1X1X1X1X1X1X>X>X:X:X:X:X:X:X:X:X:X:X:X:X:X:X:X:X:X:X;X;X;X;X;XI.8.v.(.L.t.=.l.(.(.L.t.8.z.I.P.M.M.L.v.v.v.N.P.P.L.G.(.I.k.e.f.v.v.v.v.b.b.v.l.l.l.l.j.e.e.j.f.P.(.^.n.v.n.L.x.n.I.P.l.;.k u h k P 7.v.<X7X3X8X0X0X0XpX0XpXpXkXVXCXAX5Xk.P z ",
"C z C ;.(.0XpXpXpXpXpXpXCXVXkXkX0X8X>XB.8.$.$.$.P h c ;.j.L.I.I.).(.G.z.b.L.(.^.n.v.l.k.f.k.k.v.n.v.k.t.k.l.v.n.M.M.N.N.P.^.;X:X;XI.I.I.I.I.I.I.^.^.^.^.^.^.^.^.(.(.(.(.(.(.(.(.(.(.(.G.;.z z.;X:X:X;X;X:X:X:X:X:X:X:X:X:X:X:X:X1X1X<X<X1X1X1X1X>X,X:X:X<X:X<X3X5X5XM.o.z e.<X5X5X5X5X5X5X1X1X1XwX7Xn.C P L z Y z.Y.(.;X:X3X7X5X3X3X3X3X3X3X3X3X3X3X3X3X3X3X5X5X5X3X3X3X7X7X7X7X7X7X7X7X7X7X7X7X7X7X7X7X7X7X7X7X7X7X7X7X7X7X7X7X7X7X7X7X7X7X7X7X7X7X7X7X7X7X7X9X9X9X9X9X9X9X9X9X9X7X7X7X9X9X9X9X7X7X7X7X7X7X9X9X9X7X7X7X7X7X7X7X9X7X7X7X9X7X9X9X7X7X7X7X7X7X7X7X9X7X7X7X7X7X7X7X7X7X8X8X9X9X9X9X9X7X7X7X7X7X7X7X7X7X7X7X7X7X7X7X7X7X7X7X7X7X7X7X7X7X7X7X7X7X7X7X7X7X7X7X7X7X7X7X7X7X7X7X7X7X7X7X7X7X7X7X7X7X7X7X3X3X3X3XwXwX1X1X7X7X3X3X<X;XI.I.Y.f.z h P z #.2X8X2X2X<X2X2X2X2X1X2X2X2X#.A P.1X5X5X<X<X1X>X>X1X1X1X1X1X1X1X1X1X>X>X:X:X:X:X:X:X:X:X:X:X:X:X:X:X:X:X:X;X;X;X;X;Xv.M.:X(.L.e.,.v.;X;XM.t.t.k.T.I.M.:X(.x.t.v.I.N.P.P.L.G.I.z.t.v.I.L.l.M.b.b.b.b.b.v.v.l.k.t.t.f.t.M.^.^.L.k.z.x.x.n.Y.P.x.#.C B z h c o.e.^.7X9X0X0X0X0XpXpXpXkXkXVXCXpXn.O.C z ",
"I I I A 0.;XiXpX0XpXpXpXkXVXCXkX7X;XM.f.f.g.v.N.k.@.C P ,.k.L.P././.z.z.U.U.^.P.v.b.z.k.y.p.p.p.b.x.k.8.k.l.b.b.M.M.M.P.N.P.I.(.(.(.^.^.^.P.I.I.^.^.(.(.^.^.^.^.(.(.(.(.(.(.(.(.(.(.(.(.L.;.C b.2X2X;X;X:X:X:X:X:X:X:X:X:X:X:X:X<X<X<X1X1X1X1X1X:X^.I.;X:X:X1X3X1X7X7XI.O.c e.:X5X1X5X3X5X5X1X1X1X7X5XP.A P I N #.z.I.P.;X<X2X1X7X3X3X3X3X3X3X5X3X3X3X3X3X3X3X3X3X3X3X3X7X7X7X7X7X7X7X7X7X7X7X7X7X7X7X7X7X7X7X7X7X7X7X7X7X7X7X7X7X7X7X7X7X7X7X7X7X7X9X9X7X7X7X7X7X7X7X7X7X7X7X7X9X9X9X9X7X7X7X7X7X7X9X9X9X9X9X9X7X7X7X7X7X7X9X9X9X9X7X7X7X7X7X7X7X7X7X7X3X7X7X3X7X7X7X7X9X9X9X9X7X7X7X9X7X7X7X7X7X7X7X7X7X7X7X7X7X7X7X7X7X7X7X7X7X7X7X7X7X7X7X7X1X1X1X1X7X7X7X7X7X7X7X7X7X7X7X7X7X7X7X7X7X7X7X7X7X7X7X7X7X7X7X7X7X7X7X7X3X3X3X3X3X3X5X3X;XP.P.T.j.z i I N =.:X8X5X1X1X1X1X:X1X5X5X5X<X@.z v.1X3X1X1X1X1X1X1X1X1X:X:X:X:X:X:X:X>X>X<X:X:X:X:X:X:X>X>X>X>X>X>X>X>X:X:X:X;X:X:X(.M.l.3X5X(.e.;.v.(.(.P.k.7.x.P.Y.I.(.(.n.k.v.T.T.T.T.L.L.L.z.-.b.).;XP.N.P.v.v.v.n.v.k.f.f.k.e.8.t.j.l.I.^.P.v.j.f.k.M.(.v.,.;.=.;.,.;.;.8.,.e.I.7X0X0X0X0XpXpXpXpXpXCXpXN.#.v c c ",
"I I A I P 8.^.iXpXpXkXkXpXkX0X1X^.B.B.;X^.^.^.^.;Xv.8.o.+.7.n.(.(.b.a.z.U.(.I.P.v.l.k.y.t.t.i.p.x.l.k.k.k.l.b.b.v.M.M.M.T.P.P.I.^.(.;X^.N.I.P.I.I.I.I./.(.(.^.^.^.(.(.;X;X;X(.(.(.(.(.(.(.L.=.A n.2X;X:X:X:X:X:X:X:X:X:X:X:X:X:X<X<X1X1X1X1X1X1X;XN.I.:X:X:X>X1X1X3X8X7X^.O.z t.3X5X5X3X5X5X5X1X1X5X8X5Xx.S P I B #.j.P.^.;X2X1X5X3X3X3X3X3X3X5X3X3X3X3X3X3X3X3X3X3X3X3X7X7X7X7X7X7X7X7X7X7X7X7X7X7X7X7X7X7X7X7X7X7X7X7X7X7X7X7X7X7X7X7X7X7X7X7X7X7X7X7X7X7X7X7X7X7X7X7X7X7X7X7X9X9X7X9X7X7X7X7X7X7X9X9X9X9X9X9X7X7X7X7X7X7X9X9X9X9X7X7X7X7X7X7X7X7X7X7X7X0X8X7X7X7X7X7X7X7X7X9X9X7X7X7X7X7X7X7X7X7X7X7X7X7X7X7X7X7X7X7X7X7X7X7X7X7X7X7X7X7X7X3X7X3X3X3X7X7X7X7X7X7X7X7X7X7X7X7X7X7X7X7X7X7X7X7X7X7X7X7X7X7X7X7X7X7X7X7X3X3X3X3X3X3X1X:XM.P.Y.k.c i A C =.:X5X<X1X1X1X1X1X1X1X5X5X2X@.z b.1X1X1X1X1X1X1X1X1X1X1X:X:X:X:X:X:X:X<X>X1X:X:X:X:X:X:X>X>X>X>X>X>X>X>X:X:X:X;X^.P.M.I.3X1X<Xz.;.x.;X(.I.M.k.t.P.(.(.;X:XP.v.M.T.T.T.N.T.P.(.z.I ;.N.^.(.L.N.L.v.n.n.M.b.y.0.y.0.7.7.y.j.l.I.^.P.b.j.j.k.M.L.f.8.,.8.e.v.v.P.^.N.g.f.I.7X0X0X0XpXpXpXpXVXkXI.;.I C C C ",
"I I I I C P 8.;X0XpXkXVXkX7X;XB.^.:X3X3X7X5X1X;X;XI.B.h.$.7.b.(.).p.y.n.Y.(.I.N.b.k.y.e.7.7.7.8.j.k.k.k.l.v.b.b.v.v.M.M.T.P.P.I.P.(.:X:XI.I.I.n.a.a.a.z.b.L.^.^.I.^.(.:X:X:X:X:X;X;X;X(.:X(.N.,.S M.;X<X:X:X:X:X:X:X:X:X:X:X:X:X<X<X1X1X1X1X1X1X:X^.^.1X1X>X<X<X1X1X3X7X3XI.O.h t.<X7X3X3X3X5X3X1X1X5X5XiXf.C O.A C @.z.L.(.;X<X3X5X5X5X3X3X5X5X3X3X3X3X3X3X3X3X3X3X5X5X7X7X7X7X7X7X7X7X7X7X7X7X7X7X7X7X7X7X7X7X7X7X7X7X7X7X7X7X7X7X7X7X7X7X7X7X7X7X7X7X7X7X7X7X7X7X7X7X7X7X7X7X7X7X7X7X9X9X9X9X7X9X9X9X9X9X9X9X9X9X9X9X7X9X9X9X9X9X9X7X9X9X9X9X7X7X3X1X1X<X3X0X7X7X7X7X1X1X7X7X7X7X7X7X7X7X7X7X7X7X7X7X7X7X7X7X7X7X7X7X7X7X7X7X7X7X7X7X7X7X7X7X7X7X7X7X7X7X7X7X7X7X7X7X7X7X7X7X7X7X7X7X7X7X7X7X7X7X7X7X7X7X7X3X7X7X7X7X3X3X3X3X5X1X<XI.M.I.k.P g C A ,.;X7X:X1X1X1X1X1X1X3X1X<X2X@.h x.2X1X3X3X1X1X1X1X1X1X1X1X:X:X:X:X>X<X:X>X>X>X<X:X:X:X:X:X>X>X>X>X>X>X>X>X:X:X;X;XN.l.v.I.iX1Xx.=.k.'.;X;XP.k.z.I.(.(.<X;X^.M.N.I.I.T.T.M.T.(.x.=.;.y.N.(.^.N.N.L.L.b.j.t.7.7.7.t.;.&.q.j.j.l.I.^.I.v.k.k.l.n.l.f.k.f.g.v.M.I.:X1X:X1X^.k.g.1XkXpXpXpXpXpXkX^.8.I I I Z Z ",
"I I I I A C P e.;X0XkXVX1XB.V.^.;X1X3X7XpXpX7X;X;X:X;X-XM.l.v.L.P.j.z.L.(.(.I.M.l.k.e.7.&.&.&.&.7.e.f.k.l.v.v.n.v.v.v.M.N.P.P.I.P.I.;X:X:XI.(.j.P T -.-.4.n.;X-XN.I.^.;X;X;X(.(.;X;X;X;X;X(.I.N.;.c k.;X:X:X:X:X:X:X:X:X:X:X:X:X<X<X<X1X1X1X1X1X1X1X:X1X1X1X3X1X1X1X1X1X1X7X(.&.k f.1X7X5X3X3X5X5X1X1X1XiX9Xt.v O.A C #.x.P.(.;X1X5X5X3X3X3X5X5X3X3X3X3X3X3X3X3X3X3X5X5X7X7X7X7X7X7X7X7X7X7X7X7X7X7X7X7X7X7X7X7X7X7X7X7X7X7X7X7X7X7X7X7X7X7X7X7X7X7X7X7X7X7X7X7X7X7X7X7X7X7X7X7X7X7X7X7X9X9X9X9X7X7X9X9X7X7X7X7X9X9X9X9X7X7X9X9X9X9X7X7X9X9X9X9X7X7X1X<XN.l.N.7X7X7X7X7X;X1X1X7X9X7X7X7X7X7X7X7X7X7X7X7X7X7X7X7X7X7X7X7X7X7X7X7X7X7X7X7X3X3X3X3X7X7X7X7X7X7X7X7X7X7X7X7X7X7X7X7X7X7X7X7X7X7X7X7X7X7X7X7X7X7X7X3X7X7X7X7X3X3X3X3X7X1X(.M.I.l.@.r A P &.;X8X1X3X1X1X1X1X1X1X5X1X;XP A n.:X3X1X5X:X1X1X1X1X1X1X1X1X:X:X:X:X:X:X:X>X>X:X>X>X:X:X:X:X>X>X>X>X>X>X>X>X:X:X;X;XI.^.:X;X:Xl.@.k.P.'.Y.P.k.z.N.:X;X<X<XI.M.P.I.P.I.T.M.M.P.k.%.3.z.b.N.P.I.L.N.L.L.n.k.y.k.t.7.q.&.&.q.j.j.l.I.^.I.n.l.k.v.b.g.n.N.M.v.M.I.;X1X1X:X:X1XM.e.l.:XpXpXpXpXpX:X<.+.I I Z A C ",
"I I I I A I C C f.3X0X>XB.M.-X1X7X0X0X7X0XpX0X1X1X1X>X>X;X^.N.N.v.f.k.P.(.-XI.N.c.g.f.f.8.q.&.#.,.;.8.e.l.v.v.v.c.c.l.v.T.P.T.I.P.N.N.M.:X<X<X8.B B V B 4.(.1X>X^.^.^.^.;X;X(.(.;X;X;X;X;X(.(.(.M.@.k f.;X3X1X:X:X:X:X:X:X:X:X:X:X<X<X(.v.<X1X1X3X3X3X1X1X1X1X1X1X1X1X1X1X1X3X3X=.c g.1X7X5X3X5X3X1X1X1X1X7XiXg.v O.P S &.P.(.P.(.2X5X5X3X3X5X5X3X3X3X3X3X3X3X3X5X5X5X5X7X7X7X7X7X7X7X7X7X7X7X7X7X7X7X7X7X7X7X7X7X7X7X7X7X3X3X3X7X7X7X7X7X7X7X7X7X7X7X7X7X7X7X7X7X7X7X7X7X7X7X7X7X7X7X7X7X7X7X7X7X7X7X7X7X7X7X7X7X7X7X7X7X7X7X7X7X7X7X7X7X7X7X7X7X1X^.v.e.e.l.^.(.(.-X-X>X1X3X7X7X7X7X7X7X7X7X7X7X7X7X7X7X7X7X7X7X7X7X7X7X7X7X7X7X7X7X7X3X3X3X3X7X7X7X7X7X7X7X7X7X7X7X7X7X7X7X7X7X7X7X7X3X3X3X3X3X3X3X3X3X3X3X3X5X5X5X5X1X1X1X3X;XI.P.P.v.@.k S @.7.;XiX2X<X<X<X1X1X1X1X1X1X;XC P P.<X5X1X1X1X1X1X1X1X1X1X1X1X1X<X<X:X:X:X:X>X>X:X:X:X:X:X:X:X:X:X:X:X:X:X:X:X:X:X^.I.I.:X:X<X:Xv.o.f.I.<X(.x.f.x.L.^.;X:X:X(.v.I.I.I.I.I.P.P.L.8.#.&.0.k.I.^.^.I.P.L.P.M.L.L.L.n.7.&.&.3.&.q.p.k.l.M.I.I.n.l.l.c.c.M.I.N.M.M.B.:X1X3X3X3X7X3X^.e.l.V.B.^.1XpX3X=.P I I I I I I ",
"I I I I I I C c O.B.>XI.M.-X0XCXkXpX0X7X0X0XpX0X7X3X1X>X;X;X^.I.n.v.N.;X;X-XT.M.x.M.N.N.M.k.8.q.l.f.,.7.t.k.l.v.k.c.l.v.M.M.P.P.P.N.N.M.I.5X3X8.L A B T p.I.:X:X(.(.(.(.(.(.(.(.;X;X;X;X;X;X(.(.(.M.$.h t.:X:X:X:X:X:X:X:X:X:X:X:X:X:X(.7.^.1X1X1X3X3X1X1X1X>X>X1X1X1X1X1X1X1X3X:X>.x v.1X3X3X5X3X3X1X1X:X:X7X0Xg.@.&.S z =.M.P.I.(.1X5X3X3X3X3X3X3X3X3X3X3X3X3X5X5X5X5X7X7X7X7X7X7X7X7X7X7X7X7X7X7X7X7X7X7X7X7X3X3X3X3X3X3X3X3X7X7X7X7X7X7X7X7X7X7X7X7X7X7X7X7X7X7X7X7X7X7X7X7X7X7X7X7X7X7X7X7X7X7X7X7X7X7X7X7X7X7X7X7X7X7X7X7X9X9X9X7X7X7X7X7X7X3X:X(.N.l.v.(.;X;X;X;X1X7X7X7X7X7X7X7X7X7X7X7X7X7X7X7X7X7X7X7X7X7X7X7X7X7X7X7X3X3X3X3X3X3X3X3X7X7X7X7X7X7X7X7X7X7X7X7X7X7X7X7X1X1X3X3X3X3X3X3X3X3X3X3X3X3X3X3X5X5X5X5X5X5X3X1X(.T.I.c.o.k @.@.q.<XiX1X2X<X<X<X1X1X1X1X:X:XI C :X2X2X1X1X1X1X1X1X1X1X1X1X1X1X1X<X<X:X:X:X:X>X>X:X:X:X:X:X:X:X:X:X:X:X:X:X:X:X:X;XI.I.;X1X1X:X;X8.7.;X^.;XT.k.y.L.(.:X:X:XI.M.P.I.I.I.I.P.P.I.b.3.4.9.0.x.P.).).P.L.L.L.M.v.L.x.8.7.0.t.t.0.0.t.l.l.v.N.I.N.v.l.c.M.I.I.B.B.^.:X3X7X7X7X9X0X0X8X:Xg.g.^.^.v.N.l.v x Z P P I P I ",
"I I I I I A A Z O.v.I.N.>X0XVXkXkXpXpXpX0X0XpXkX8X8X3X>X:X:X;X^.I.N.B.^.-XT.T.T.I.Q.;X;X:XI.M.l.I.;Xv.8.8.t.k.v.k.l.l.v.M.M.N.P.N.N.N.N.N.;X:XN.7.;.r.a.n.L.I.-X:X:X;X(.(.(.(.(.(.(.;X;X;X;X;X;X;X;XP.@.c f.:X>X>X:X:X:X:X:X:X:X:X<X<X;Xl.I.:X1X>X>X1X1X>X1X>X>X1X1X1X1X1X1X1X1X7X;X=.c l.3X9X3X3X3X3X1X1X3X:X7XpXx.Z &.C h #.b.L.I.;X1X1X1X3X3X3X3X3X3X3X3X3X3X5X5X5X5X7X7X7X7X7X7X7X7X7X7X5X5X7X7X7X7X7X7X7X3X3X3X3X3X3X3X3X3X7X7X7X7X7X7X7X7X7X7X7X7X7X7X7X7X7X7X7X7X7X7X7X7X7X7X7X7X7X7X7X7X7X7X7X7X7X7X7X7X7X7X7X7X7X7X7X7X7X>X>X7X7X7X7X7X7X3X1X1X3X(.;X3X3X3X7X7X7X7X7X7X7X7X7X7X7X7X7X7X7X7X7X7X7X7X7X7X7X7X7X7X7X7X7X7X3X3X3X3X3X3X3X3X7X7X7X7X7X7X7X7X5X5X7X7X7X7X7X7X3X1X1X1X3X3X3X3X3X3X3X3X3X3X3X3X5X7X7X7X3X5X<X^.P.I.l.o.g P &.8.<XiX<X:X2X<X<X<X1X1X1X<X:X&.C P.2X2X5X1X1X1X1X1X1X1X1X1X1X1X1X1X:X>X>X>X<X:X:X>X:X:X:X:X:X:X:X:X;X;X,X,X:X>X:X:X(.N.I.:X;X:X;XI.7.G.(.;XT.x.G.I.^.;X:X;X^.M.B.^.I.Y.Y.Y.I.I.l.;.t.y.t.p.x.P.P.N.M.L.L.v.x.M.b.0.t.b.L.L.T.n.x.x.c.k.k.l.P.n.k.t.M.I.I.-XI.;X>X3X7X7X7X3X7X8X8X0XkX1XM.N.1X:XN.v.O.v Z I o.o.P Y ",
"L L L I P Z Z P e.l.v.M.7XCXCXkXkXkXkXkXkXpXpXkX0XqX7X>X>X>X:X-X;XM.v.V.B.M.B.I.;X;X;X;X1X1X1X;X;X1X1XP.t.8.t.l.l.l.v.v.v.M.M.P.N.N.N.N.n.n.;X3X(.n.M.M.L.n.M.^.3X1X:X;X(.(.(.(.(.(.(.(.;X;X;X;X^.(.;XM.O.c f.-X:X:X:X:X:X:X:X:X:X<X<X:X;X:X1X<X>X>X:X:X>X1X>X>X1X1X1X1X1X1X1X1X1X1X;X;.k g.5X5X3X3X3X3X:X1X:X1X9XzXf.Z o.c h -.k.L.I.;X1X1X3X3X3X3X3X3X3X3X3X3X5X5X5X5X7X7X7X7X7X7X7X7X7X7X5X5X7X7X7X5X7X7X7X7X3X3X3X3X3X3X3X3X7X7X7X7X7X7X7X7X7X7X7X7X7X7X7X7X7X7X7X7X7X7X7X7X7X7X7X7X7X7X7X7X7X7X7X7X7X7X7X7X7X7X7X7X9X7X7X7X1XM.M.1X7X7X7X7X7X1X>X>X:X>X3X3X3X3X7X7X7X7X7X7X7X7X7X7X7X7X7X7X7X7X7X7X7X7X7X7X7X7X7X7X7X7X7X7X3X3X3X3X3X3X3X3X7X7X7X7X7X7X7X7X5X5X7X7X7X7X7X7X1X1X1X1X3X3X3X3X3X3X3X3X3X3X3X3X5X5X5X5X1X1X;XM.M.l.@.t Z o.>.<XiX<X2X1X1X1X<X<X1X1X<X;XO.Z M.1X2X2X1X1X1X1X1X1X<X<X1X1X1X1X1X1X>X>X>X>X<X:X:X:X:X:X:X:X:X:X:X:X:X,X,X,X>X>X:X:X^.M.M.(.^.:X;XI.b.L.L.v.T.M.'.<X;X;X;X^.M.T.^.I.I.Y.Y.Y.Y.k.#.7.r.z.k.k.x.P.N.M.M.M.M.k.n.v.8.t.b.P.(.Y.(.(.I.P.l.f.f.f.f.t.f.b.I.I.-X-X;X1X7X7X7X5X5X3X9X0X0X0XpXpX7X^.l.t.v.;Xf.o.Z Z O.o.T T ",
"M V A A +.Z $.f.b.b.k.k.I.0XkXpXkXVXVXCXkXkXkXkXkX0XpX9X1X1X>X;X;X;XI.M.M.I.-X>X;X,X1X1X7X7X7X8X1X;XQ.I.N.f.8.k.l.l.l.b.v.v.n.M.N.N.N.N.N.M.N.;X5X:XN.v.P.P.N.I.;X1X1X:X;X;X(.(.(.(.(.;X;X;X;X;X;X;X(.(.v.&.v f.(.:X;X-X;X:X:X:X:X<X<X:X:X:X:X:X:X:X>X>X1X1X1X1X1X1X1X1X1X1X1X1X1X1X1X1X$.k t.8X9X1X5X1X1X1X1X3X1X5XiXk.P @.P z Y a.N.P.-X>X1X1X1X1X1X1X1X1X1X1X1X1X1X1X1X1X1X1X5X3X3X5X5X5X3X3X3X1X2X6X3X1X<X<X^.;X1X3X3X3X3X3X7X7X7X7X7X7X7X7X7X7X7X7X7X7X7X7X7X7X7X7X7X7X7X7X7X7X7X7X7X3X7X7X7X7X7X7X7X7X7X7X3X3X3X3X3X1X3X9X<XN.^.1X9X9X7X7X3X1X,X;X;X,X1X7X3X3X3X3X8X9X7X7X7X7X7X7X7X7X7X7X3X3X3X3X3X3X3X3X3X3X3X3X1X1X1X1X1X1X1X1X3X3X3X3X8X3X1X3X1X3X:X;X:X<X1X1X1X1X1X1X;X;X:X:X<X<X<X<X<X1X<X;Xz.k.P.N.^.^.v.N.<X;Xn.x.M.#.k Z $.$.-X9X;X;X1X1X8X1X<X3X3X1XI.v Z M.:X1X5X1X1X1X1X1X1X1X1X1X1X1X<X>X:X:X:X:X:X:X:X:X:X:X:X:X:X:X:XP.N.^.^.B.^.:X:X:X;X;X;X;X;X;X;X(.^.I.L.G.b.l.I.(.<X<X:X(.N.v.I.I.P.I.P.L.Y.Y.x.Y &.8.k.k.k.l.v.M.M.N.M.z.k.v.v.8.e.M.I.^.;X;X;X;X;X;X^.M.k.f.k.v.N.^.;X;X;X>X1X7X7X7X9X8X9X0XPXPXPX0XpXzXCX6XI I M.I.v.=.I I P P U M ",
"4 f M V I I f.v.b.b.z.j.z.;XiXkXkXkXVXkXVXkXkXkXkXkXkXpX9X7X1X1X1X;X;X-XI.I.;X>X,X>X1X1X7X7X9X9XwX1X;XI.-XN.f.,.f.l.l.l.b.v.v.M.M.M.N.N.P.N.M.N.:X<X(.N.N.P.I.P.I.;X1X1X:X;X;X;X^.^.(.;X;X(.;X;X;X;X;X(.(.v.#.v z.<X:X>X;X:X:X:X:X:X>X:X:X:X:X:X:X:X>X>X1X1X1X1X1X1X1X1X>X>X1X1X1X1X1X1X<X#.h f.2X2X1X5X1X1X1X1X3X3X8X8Xf.#.;.@.c #.j.N.I.-X,X,X>X:X:X:X:X:X:X:X3X3X3X3X3X3X3X3X3X1X<X:X;X:X<X<X;Xj.7.r.P.;X5X3X3X3X3X7X7X7X7X7X7X7X7X7X7X7X7X7X7X7X7X7X7X7X7X7X7X7X7X7X7X7X7X7X7X7X7X7X7X7X7X7X7X7X7X7X7X7X7X7X7X7X8X9X7X7X7X0X7X1X7X8X0X9X9X7X9X7X7X1X1X1X7X7X7X7X7X7X9X9X9X9X9X9X7X7X7X7X7X7X7X7X7X7X7X7X7X7X7X7X7X7X7X7X7X7X7X7X7X7X7X7X7X7X3X1X<X1X3XI.o.P x.I.<X<X1X1X1X1X1X1X1X1X1X1X1X1X:X<X(.I.k.k.N.N.N.M.m.).I.b.b.n.=.k P @.$.;XiX1X;X>X1X1X1X1X1X5X1XP.C Z I.<X1X1X1X1X1X1X1X1X1X1X<X>X1X1X:X:X:X:X:X:X:X:X:X:X:X:X:X:X:X:X;X^.B.^.B.g.I.:X:X:X;X;X;X;X;X;X;X(.).).b.n.v.n.(.;X1X:X(.P.M.M.I.I.I.I.L.I.Y.p.#.@.p.k.l.l.v.n.M.M.M.M.c.k.P.M.7.j.P.^.(.;X:X:X:X:X:X:X;XI.M.v.N.I.(.;X;X:X1X1X7X9X9X7X7X9X0XkXPX0XPX0XpXsX5Xe.C =.b.P.v.>.+.I L W f 3 ",
"{ K 4 M V #.j.7.z.z.a.a.t.n.1XsXzXzXkXkXVXkXkXkXkXkXkXkXpX0X9X7X7X1X:X;X-X-X;X>X>X1X3X7X9X9X7X7X8XwX1X;X-X-XM.t.t.f.l.l.l.b.v.v.M.M.M.M.P.P.N.M.N.(.:X;XN.N.P.I.P.I.;X1X1X;X;X-X^.^.^.(.;X(.^.^.;X;X;X;X;X(.N.#.z b.;X:X:X:X:X:X:X:X:X:X:X:X:X:X:X:X:X>X1X1X1X1X1X1X1X>X>X>X>X>X>X>X1X1X5X;X@.z k.2X1X1X1X1X1X1X3X5X<XiXiXy.@.;.I C #.a.k.v.N.M.N.N.N.N.N.T.N.N.B.B.N.N.N.N.N.N.n.n.n.b.M.I.I.P.f.*.3.i.j.N.^.;X;X;X(.(.(.;X;X;X;X;X;X;X-X-X-X-X-X-X-X-X-X-X-X-X-X-X-X-X-X-X-X-X-X-X-X-X;X;X;X;X-X-X-X-X^.^.-X;X;X;X;X;X;X;X(.(.P.N.I.I.I.I.^.^.^.^.^.I.I.I.I.^.I.I.I.I.I.I.I.I.^.^.^.^.I.I.^.^.^.^.^.^.^.^.^.^.^.^.^.^.^.^.^.^.^.^.^.^.^.^.^.^.I.I.I.^.;Xv.+.Z =.l.N.N.I.I.I.I.B.B.B.B.B.B.B.N.M.N.M.l.l.g.g.f.k.k.v.P.k.t.a.#.h z o.O.I.9X,X,X1X1X1X1X1X3X1X:X^.P C ^.1X;XwX1X1X1X1X1X1X1X1X1X:X:X:X:X:X:X:X:X:X:X:X:X:X:X:X:X:X:X:X:X;X-X-X-X^.v.^.<X:X:X;X;X;X;X;X;X(.).).).I.I.M.M.I.;X:X;XL.n.M.I.I.I.I.I.(.I.z.o.o.7.x.v.l.v.M.M.N.M.v.l.j.n.v.8.c.P.(.;X;X;X:X:X:X:X:X:X;XI.I.I.^.-X;X:X>X1X1X7X9X9X9X9X7X0XkXkXpX0X0XpXzXsXp.P P =.9.l.c.,.o.B W 4 n ' ",
" X| / 4 f ! i.%.z.a.a.a.y.f.P.3XpXzXkXkXkXkXkXkXkXkXkXkXpXpXpX0X9X7X1X>X;X;X-X;X1X1X7X7X9X9X7X7XpX9X7X1XI.I.Q.I.f.t.f.l.l.l.v.v.v.v.M.M.N.P.P.N.v.N.;X1X^.P.P.^.I.P.I.;X1X1X;X;X^.^.^.^.;X(.^.^.(.(.;X;X:X(.^.n.*.N k.:X:X:X:X;X:X:X:X:X:X:X:X:X:X:X:X>X>X1X1X1X1X1X1X>X>X>X>X>X>X>X1X1X3X1X(.&.C z.1X9X1X1X1X1X3X7X1X<X8X5Xf.&.;.I c Y ,.8.t.t.t.t.t.t.t.t.t.t.e.e.t.t.t.e.e.e.7.8.e.y.e.f.f.7.>.t.9.r.9.t.t.t.t.f.f.f.f.f.f.f.g.g.g.g.f.f.f.f.f.f.f.f.f.f.f.f.g.g.g.g.g.g.g.g.g.g.g.g.f.f.g.g.g.g.g.g.f.f.f.f.f.f.f.f.t.f.t.7.7.;.7.8.8.8.8.t.t.t.t.t.t.t.t.t.e.e.e.e.0.t.t.t.t.t.t.t.t.t.t.t.f.f.f.f.f.f.f.e.t.e.e.e.8.8.8.8.8.8.8.8.8.8.8.8.8.8.e.f.>.&.8.+.&.7.,.7.8.8.8.8.8.8.8.8.8.8.8.8.8.t.t.t.t.t.e.e.7.t.f.f.e.a.C i v P +.^.7X>X,XwX1X1XwX5X5X6X:X).I =.^.1X5X>X>X1X1X1X1X1X1X1X1X1X:X:X:X:X:X:X:X:X:X:X:X:X:X:X:X:X:X:X;X:X-X;X;X;X-X;X;X;X;X;X;X;X;X;X;X;X(.).).I.z.b.v.M.P.(.(.v.b.n.I.^.I.I.I.I.M.f.7.;.7.k.x.M.v.N.N.M.M.n.b.k.L.v.8.k.P.-X;X<X;X;X;X;X;X;X;X;X(.I.I.^.;X;X:X>X1X7X7X7X9X9X9X9X0XpXkXpXpXpXpXpXpXT.#.#.=.&.&.q.h.,.P l 4 ~ *X$X",
"/ ` #XQ 4 ^ ! L s.a.p.p.t.t.a.M.1XsXVXkXVXVXVXVXkXkXpXpXpXpXpX0X9X9X7X7X1X>X;X;X>X1X7X7X7X7X7X7X7X7X7X7X1X;XQ.-XI.k.0.f.k.l.l.b.v.v.v.v.M.P.P.M.M.M.N.N.;X^.P.P.I.I.I.I.-X:X1X>X^.^.^.^.(.(.(.(.(.(.(.(.;X;X;X(.L.%.B k.:X(.:X;X:X:X:X:X:X:X:X:X:X:X:X:X:X:X:X:X>X>X>X>X1X1X>X>X>X>X1X1X<X3X7X(.@.C f.1X1X5X1X1X1X1X1X1X5X8XiXj.O.$.C z I #.=.=.;.;.;.=.7.&.#.#.&.&.&.;.;.,.,.,.;.:.;.=.;.q.q.>.q.q.Y U -.7.7.8.8.8.8.8.8.7.7.7.7.7.7.7.,.,.,.;.8.7.7.,.,.,.,.,.,.;.;.;.;.;.;.;.;.;.;.;.3.3.3.q.,.,.>.;.,.,.,.,.q.q.,.,.q.q.>.&.3.;.&.q.&.;.;.;.;.;.-.-.&.;.;.;.=.;.;.;.;.;.;.;.;.;.;.;.;.;.;.;.&.&.&.&.&.&.=.$.>.>.>.;.;.;.;.&.;.;.;.;.,.;.=.=.;.=.,.8.8.=.I I ;.;.=.=.;.;.>.>.7.4.4.4.#.#.=.=.Y #.T I Y #.#.#.8.l.k.;.T h 7 z C O.N.3X:X>X1X1X7X1X1X5X5X:XM.I ,.M.<X1X:X,X,X,X>X1X1X1X1X1X1X1X>X:X:X:X:X:X:X:X:X:X:X:X:X:X:X:X:X:X;X;X-X;X;XT.T.^.;X;X;X;X;X;X;X;X(.(.(.^.^.I.l.8.v.P.L.n.n.b.N.I.^.^.(.I.n.x.,.&.,.7.t.k.b.n.M.M.Y.L.z.j.n.L.v.f.x.-X-X;X;X>X:X:X:X:X;X;X;X^.^.^.-X:X;X:X1X1XwX7X8X9X9X9X9X0XpXpXpXpXpXpXpX8X(.0.&.%.%.%.*.$.<.,.W 1 ~ *X*X!.",
"| { ` { Q ^ K V s.a.p.i.r.t.t.j.L.3XkXkXVXVXVXVXVXkXpXpXpXpXpXpX0X0X9X7X1X1X>X>X;X;X1X1X7X7X7X7X7X7X7X7X7X7X1X;X-XM.y.t.f.k.l.l.x.l.v.v.v.v.v.l.n.M.N.N.I.;X^.P.I.^.I.I.I.-X1X1X;X(.^.^.(.(.(.(.(.(.(.(.(.(.;X;X(.L.;.N x.2X<X;X:X:X:X:X:X:X:X:X:X:X:X:X:X:X:X:X>X>X>X>X1X>X>X>X>X>X1X1X<X1X7X7XY.&.z t.:X1X5X1X1X1X1X1X2X5X8X8Xf.$.o.I C i q u z z z l h h z a r a z N h j h i h j z C A S Z @.$.A w w P -.#.#.=.=.#.=.=.#.#.#.#.#.#.#.O.o.P P #.#.#.@.#.#.@.@.@.@.P P P P Y P P P P P @.@.@.#.#.@.o.P @.@.@.@.@.@.@.@.#.#.@.o.&.#.#.@.@.#.#.#.#.@.T Y P Y Y @.@.o.P P P o.o.P P P o.o.I I I I Z Z Z Z Z Z Z Z Z Z Z Z P P o.o.P P P o.o.o.I I O.+.I Z c k 9 p A C C C C c z k u u u u s s s s i a i u u u q q p h i 8 , e z z O.^.7X;X,X1X1X1X1X1X5X5X4Xm.C 7.M.<X3X<X:X>X,X,X>X1X1X1X1X1X1X1X>X<X:X:X:X:X:X:X:X:X:X:X:X:X:X:X:X:X;X;X1X-XI.c.M.(.:X^.;X;X;X;X;X;X(.(.(.^.^.P.v.M.L.I.I.n.b.L.I.^.^.I.;Xl.7.=.Z ;.;.8.t.k.b.n.n.n.n.j.e.b.L.b.f.x.I.;X;X;X;X>X:X:X:X:X;X;X^.^.^.-X:X:X:X>X1X7X7X9XqX9X9X9X0XpX0X0XpXpXsXpXiX(.t.3.;.-.;.&.*.#.&.%.M 4 @X*X|.K ",
"' { | ` H ] ~ M d.i.i.r.i.y.y.y.k.I.7XzXVXVXVXVXVXVXkXpXpXpXpXpXpX0X0X9X7X7X1X1X>X;X;X>X3X3X3X3X5X5X7X7X8XsX9X1XY.P.b.f.t.f.k.l.l.l.x.l.l.h.k.l.v.v.M.M.N.I.;X^.^.^.^.^.I.I.;X1X>X;X-X^.^.;X(.(.(.(.(.(.(.(.(.(.:X:XY.3.N x.2X(.:X:X:X:X:X:X:X:X:X:X:X:X>X:X:X:X1X1X1X1X1X1X>X>X>X>X1X1X<X<X1X5X5X(.,.z 7.;X1X5X1X1X1X1X<X1X<XpX7Xc.$.8.f.;.T P P @.A h h I P i r z Y P A N h u i z I #.@.@.@.@.$.Y < y R r.t.t.j.k.j.j.k.j.a.a.f.f.f.f.y.t.t.e.8.e.t.t.f.f.f.f.f.y.t.t.t.t.t.t.t.t.t.t.y.y.y.t.t.t.8.8.t.t.t.t.f.f.f.f.f.g.e.$., =.e.f.t.t.f.f.e.e.e.8.8.8.e.t.t.8.8.7.7.8.8.8.7.7.7.7.8.8.8.8.8.8.8.7.8.8.8.8.8.7.8.8.8.0.0.t.t.t.t.t.f.0.8.8.8.7.>.@.P c 0 ; i L T @.&.#.P A h h h h z z z z z B N l h h s a s s i u p x C y.3X8X;X>X>X1X1X1X1X5X5X<Xm.c r.).<X3X<X<X:X:X;X;X1X1X1X1X1X1X1X1X1X<X>X>X:X:X:X:X:X:X:X:X:X:X;X>X:X;X;X;X;XP.t.O.N.;X;X(.;X;X;X;X;X;X(.(.(.).^.P.I.<X^.^.I.G.H.(.^.^.I.I.b.=.#.A $.t.;.$.t.k.b.n.n.b.j.e.k.G.b.y.l.I.;X;X;X;X>X>X;X;X;X;X;X^.^.^.-X:X:X>X>X3X8X9XqX9X0X0XqX0XpXfXpXpXpXzXzX8XI.p.7.7.3.3.3.&.*.*.#.A 3 2 { | ` / ",
"2 4 ' ] _ ` K M d.i.i.9.r.y.p.p.y.v.;X9XVXVXVXVXVXVXVXkXpXpXpXpXpXpX0X0X9X7X7X7X1X;X;X;X>X>X:X:X7X5X7X7X7X9X1XQ.I.P.L.n.k.t.f.k.l.l.l.l.g.g.k.M.v.v.n.M.M.N.I.;X;X(.^.^.I.I.^.;X>X>X:X^.^.^.(.(.(.(.(.(.(.(.(.;X;X;X:XP.*.N b.:X:X:X:X:X:X:X:X:X:X:X:X:X>X:X:X:X1X1X1X1X1X1X>X1X1X>X1X1X<X<X1X1X5X8X(.,.b 7.<X1X1X1X1X1X1X1X<X1X0X9X;XN.T.P.P.P.L.I.n.e.y.<X(.U.I.I.I.L.(.L.G.U.H.I./.:X<X2X;XY.;Xb.4.2.a.'.6X6XiXiXiXiXiXiX9X9X0X0X0XiXiXiX8X8XiXaXsXsXsXsXsXsXsXsXiXiXiXiXiXiXiXiXiXiXiXiXiXpXzXzXpXiXiXiXiX0X0X0X0X0X0X0X8X0Xy.8X0X0X0XiXiXpXpXpXpXiXkXCXCXCXCXkXpX0X0XpXpXpXiXiXpXpXpXpXpXpXpXpXiXiXiXiXiXiX0X0X0X0X7X9XsXsXpXpXpXpXpXiX9X9XiXsXsXiXM.f.>.;.4.8.(.(.;X(.I.P.x.x.l.l.k.k.k.k.z.b.z.j.j.z.z.z.y.y.a.f.8.f.:X9X0X:X:X>X>X>X1X1X7X7X1XP.C 8.:X<X3X<X<X<X<X:X:X:X1X1X1X1X1X1X1X1X>X>X:X>X>X>X:X:X:X:X:X:X:X:X;X>X:X;X;X;XP.,.g h N.<X;X;X;X;X;X;X;X;X(.(.(.).^.I.;X:X;XI.P.I.U.(.(.I.I.I.y.;.y.t.l.l.e.e.t.k.b.n.n.z.e.j.b.x.j.l.I.;X;X>X;X;X;X;X;X;X;X;X^.^.^.^.:X:X>X>X3X7X9X0X9X0X0X0X0XpXVXpXpXkXpXzX8X(.k.9.9.9.9.9.w.-.*.Y A ! OX X/ / Q 4 ",
"K > > 4 ` [ n n ~ u.i.r.p.y.r.y.j.j.n.<X0XkXVXVXVXVXCXkXVXkXkXpXpXpXpX0X9X7X7X7X3X1X:X;X-X-X;X;X1X3X7X7X9X9X,XN.;X;X(.I.L.k.y.k.k.l.k.k.t.k.v.M.n.v.v.n.N.N.I.^.;X;X(.^.^.I.I.^.:X1X1X:X;X^.(.(.;X;X(.(.(.;X;X;X;X;X;X;XL.#.z b.:X<X;X;X:X;X:X:X:X:X:X:X:X:X1X1X1X1X1X1X1X1X1X1X1X1X1X1X<X1X1X1X1X1X1X1X8.z ;.2X5X<X<X1X1X1X1X1X1X7XpX0XY.P.M.P.P.P.P.P.L.I.(.;X(.(.(.(.(.(.^.^.).I.I.I.(.2XP.8.2Xj.P :.m.(.5X3X3X1X1X1X1X1X1X1X1X1X3X3X3X3X3X3X3X3X3X3X3X3X3X3X3X3X3X3X3X3X3X3X3X3X3X3X3X3X3X3X5X3X3X3X3X1X1X1X>X>X>X>X>X>X>X>X3X3X3X3X3X3X3X3X3X3X3X3X3X3X3X3X7X7X7X7X1X1X1XwX3X3X3X3X3X3X3X3X3X3X3X3X3X3X3X3X1X1X1X1X1X1X1X1X1X1X1X1X1X1X1X1X1X1X1X1Xf.f.n.;X'.;.z.6X1X:X;X;X;X;X^.I.I.I.I.I.^.(.(.(.-X-X;X;X^.N.N.^.0X0X0X5X1X1X1X1X>X7X>X1X3X7XN.c ,.^.3X1X1X1X1X1X<X<X<X1X:X:X:X:X:X:X:X:X>X:X:X>X:X:X:X:X:X:X:X:X:X;X;X;X;X;X;XM.,.I =.g.^.;X(.(.;X;X;X;X(.(.(.(.^.^.(.;X^.^.^.^.L.^.(.^.(.(.M.8.v.v.v.v.v.v.v.v.j.k.k.v.k.t.p.b.z.k.M.(.;X;X;X;X;X;X;X;X;X;X;X;X-X-X;X;X:X1X1X3X7X9X0XpXpXpXpXpXfXfXfXPXVX0XpXpX(.j.0.z.k.p.i.i.9.4.R E K %X*X| J J 2 1 ",
"NX~ * > n ` n 2 K ' u.i.p.a.p.y.z.j.y.y.P.3XpXVXVXVXCXCXVXVXVXkXkXpXpXpX0X9X9X9X7X3X1X:X-X-X;X;X1X1X1X7X7X9X7X;XiX9X5X1X2XL.z.j.k.f.f.f.f.l.b.v.n.l.l.n.N.N.N.I.^.;X;X(.^.^.^.^.^.:X1X1X:X;X^.(.;X;X;X;X(.;X;X;X;X;X;X;X(.n.T B x.<X;X:X:X:X:X:X:X:X:X:X:X:X>X>X<X<X1X1X1X1X1X1X1X1X1X1X1X1X1X1X1X1X1X1X<Xt.z 8.2X5X<X>X>X1X1X1X1X1X3X7XsXpXiXiX8X8X8X8X5X5X5X5X5X5X5X5X5X5X3X3X3X3X3X1X8X5XM.(.5X2X(.3X5X1X1X1X1X1X1X1X1X1X1X1X1X1X3X3X3X3X3X3X3X3X3X3X3X3X3X3X3X3X3X3X3X3X3X3X3X3X3X3X1X1X1X1X3X3X3X3X3X3X3X3X3X3X3X3X1X1X1X1X1X3X3X3X3X3X3X3X3X3X3X3X3X3X3X3X7X1X3X1X3X3X1X1X3X3X3X3X3X3X3X3X3X3X3X3X3X3X3X3X1X1X1X1X1X1X1X1X1X1X1X1X>X>X>X>X1X1X1X1X:X;X(.(.:XU.;.v.0X7X3X9XpXpXpXpXpXpXpX0X0X0X0X0X9X9X7X7X0X7X7XiX0X9X3X1X1X1X1X1X7X7X1X3X1XN.C $.B.1X7X>X1X1X1X1X<X<X<X<X:X:X:X:X:X:X:X:X>X>X:X:X:X:X:X:X:X:X:X:X;X;X;X;X;X;XN.;.7.v.I.^.(.(.(.;X;X;X;X(.(.(.(.(.^.(.:X;X^.^.^.^.I.(.(.(.^.n.t.7.v.v.v.v.v.v.v.l.k.l.k.f.0.f.k.f.k.n.Y.<X;X;X;X;X;X;X;X;X;X;X;X;X;X;X:X:X>X3X3X7X9X0XpXpXpXpXpXfXfXfXPX0XqX0XpX;Xj.p.c.z.z.j.a.i.r.5.R W Q #X` 2 2 2 4 d ",
"NX%XM * > Q n 2 H _ ' A.s.a.a.a.k.k.t.7.0.L.5XzXzXzXzXCXCXCXVXVXVXkXkXpX0X0X0X0X9X7X3X1X;X;X;X;X>X1X1X1X7X7X7X7XiX8X5X1X3X:XP.l.t.8.t.k.k.l.l.v.v.k.k.v.M.N.N.N.I.^.;X(.(.^.^.^.^.(.;X:X1X>X-X^.(.(.;X;X;X;X-X;X;X;X;X;X;X(.G.=.B n.;X<X:X:X:X:X:X:X:X:X:X:X:X:X<X<X<X<X<X<X1X1X>X>X1X1X<X<X1X1X1X1X1X1X5X2Xz.B 0.2X5X<X1X1X1X1X<X<X1X3X1X7X7X5X7X7X7X7X5X3X1X<X3X1X1X1X3X1X1X3X3X3X3X1X1XM.l.1X1X5X3X3X3X1X1X1X1X1X1X1X1X1X1X3X1X1X3X3X3X3X3X3X3X3X3X3X3X3X3X3X3X3X3X3X3X3X3X3X3X3X3X3X1X1X1X1X3X3X3X3X3X3X3X3X3X3X3X3X3X3X3X3X1X1X3X7X7X3X3X3X3X3X3X3X3X3X3X3X3X1X1X1X3X3X3X3X3X3X3X3X3X3X3X3X3X3X3X3X3X3X3X3X1X1X1X1X1X1X7X7X1X1X1X1X1X>X1X1X1X1X1X1X5X7X1X;X(.1XP.>.P.1X1X:X1X1X3X3X3X3X3X1X1X1X1X1X1X1X1X1X1X:X<X1X3X1X1X1X1X1X1X1X1X1X5X1Xx.c 8.Y.1X1X1X>X<X1X1X1X<X<X<X<X:X:X:X:X<X<X:X:X:X:X:X:X:X:X:X:X:X:X:X:X;X;X;X;X:XI.;.&.l.;X;X;X;X(.;X;X;X;X;X-X(.(.(.(.^.:X<X;X^.^.^.^.^.(.(.^.n.e.7.t.v.v.v.v.v.v.l.k.l.l.f.8.0.k.l.j.M.Y.;X;X;X;X;X;X-X-X-X-X-X;X;X;X;X:X>X1X3X7X9X0X0X0X0X0XpXpXVXVXpXpXpXpXkXpX-Xj.p.z.E.z.z.z.a.a.r.2.~ Q H m m m n K b.).",
"%XvX+XM 1 M n J ` ( / ' s.a.a.a.p.k.k.y.7.j.U.6XaXzXzXzXCXVXVXVXVXVXVXkXpXpXpX0X0X9X7X3X>X;X;X;X>X>X1X1X1X1X3X7X8X8X7X7X<X<X(.L.y.7.8.f.l.k.l.l.v.k.k.v.M.M.N.N.N.I.^.(.(.(.^.^.^.^.^.(.;X1X>X;X(.(.(.(.;X;X-X;X;X;X;X;X(.:X/.n.*.z j.(.:X:X:X:X:X:X:X:X:X:X:X:X:X:X:X:X<X<X1X1X>X1X1X:X;X;X1X3X1X1X1X1X1X1X2Xz.N x.2X1X1X1X>X1X:X:X1X1X<X1X7X3X3X3X3X3X3X1X1X1X1X1X3X3X1X1X1X1X7X3X1X1XV.f.>X1X1X7X7X1X1X1X1X1X1X1X1X1X1X1X1X1X1X1X3X3X3X3X3X3X3X3X3X3X3X3X3X3X3X3X3X3X3X3X3X3X3X3X3X3X3X3X3X3X3X3X3X3X3X3X3X3X7X7X7X7X3X3X3X3X7X7X1X1X1X3X3X3X3X3X3X3X3X3X3X3X1X1X1X1X3X3X3X7X3X3X3X3X3X3X3X3X3X3X3X3X3X3X3X3X1X1X1X1X7X7X7X7X1X1X1X1X1X1X1X1X1X1X1X1X1X5X1XI.;X:X:XM.>.x.1X1X;X:X1X1X1X1X1X1X1X1X1X1X1X1X1X1X1X1X1X1X:X:X<X<X1X1X1X1X1X3X1XM.C f.;X1X7X1X>X>X<X1X1X1X<X<X<X<X:X:X:X:X<X<X<X<X:X:X:X:X:X:X:X:X:X:X:X:X;X;X;X;XY.8.o.l.(.(.^.;X;X(.;X;X;X;X-X-X(.(.(.(.^.<X1X;X^.^.^.^.^.^.I.N.j.f.l.v.v.v.v.v.v.l.k.k.k.g.t.8.f.k.c.M.Q.<X;X<X;X;X;X;X-X-X-X-X-X-X;X;X:X>X1X1X7X8X0X0X0X0X0X0XpXVXVXVXpXpXpXpXpX(.l.t.x.b.z.z.z.z.a.a.2.! K H J J J J ^ {.(.>X",
"dXoXoXoXT 1 4 n } } ` / u.s.p.z.a.a.p.p.a.a.z.P.2XaXCXkXVXVXVXVXVXVXVXVXkXpXpX0X0X0X9X7X7X1X>X;X;X;X:X>X1X1X1X1X8X8X8X8X3X:X(.^.n.8.;.8.f.k.k.k.v.k.f.k.M.M.N.N.N.N.P.^.:X;X^.^.^.^.^.^.-X:X1X>X;X^.^.^.;X;X;X;X;X;X;X;X(.(.(.(.n.;.N k.(.<X;X^.:X:X:X:X:X:X:X:X:X:X:X:X<X<X<X<X:X:X>X:X;X;X1X3X1X1X1X1X1X1X2X1Xk.C j.2X1X:X3X1X1X:X:X:X1X1X1X3X7X5X3X3X<X1X1X1X1X1X1X1X7X3X1X1X1X1X1Xx.8.I.1X1X1X1X1X1X1X1X1X1X1X1X1X1X>X>X1X1X1X1X3X3X3X3X3X3X3X3X3X3X3X3X3X3X3X3X3X3X3X3X3X3X3X3X3X3X3X3X3X3X3X3X3X3X3X3X3X3X5X5X7X5X3X3X3X3X5X3X3X3X3X3X3X3X3X3X3X3X3X1X1X1X7X7X3X3X1X3X7X7X3X3X3X3X3X3X3X3X3X3X3X3X3X3X3X3X1X1X3X1X1X1XwX7X1X1X1X1X1X1X1X1X1X1X1X1X1X5X1XI.P.(.<X;Xk.>.N.;X:X;X:X1X:X:X:X:X:X:X:X:X:X3X3X3X:X:X:X:X>X>X<X<X>X>X<X<X5X1Xl.C k.<XwX1X1X>X>X>X<X<X<X<X<X<X<X<X>X^.;X:X<X:X:X:X:X:X:X:X:X:X:X:X:X:X:X:X-X;X;XI.,.g ,.M.I.^.;X;X;X;X;X;X(.(.^.-X^.^.^.(.:X:X;X^.^.^.^.^.(.P.v.e.v.v.M.M.b.b.v.l.l.l.k.k.f.f.,.@.8.f.M.I.;X;X;X;X;X;X-X-XI.I.I.^.-X-X;X:X>X1X1X7X9X0XpX0X0X0X0XpXpXfXfXkXpXkXzXiX:Xn.x.b.E.E.E.z.z.z.s.u.^ ^  X..( J J ^ oX4X:XIX",
"{.oXtXtX'.R y K } }  ...' ^ u.s.p.p.p.p.a.a.z.z.H.2XsXCXVXVXVXVXVXVXVXVXkXkXkXpXpX0X0X9X7X7X3X1X>X>X;X;X1X1X1X3X8X8X8X7X9X5X(.v.b.b.f.7.t.f.k.k.v.k.g.l.v.M.M.N.N.N.N.P.^.(.(.^.^.^.^.^.^.-X>X1X<X:X;X;X(.;X;X;X;X;X(.(.(.(.(.(.Y.n.*.N z.<X:X>X:X:X:X:X:X:X:X:X:X:X:X:X<X<X<X<X:X:X>X>X>X1X1X1X1X1X1X1X1X1X2X1X2Xx.z j.2X3X1X1X1X1X1X:X1X1X1X1X1X1X:X:X:X<X1X1X1X1X1X1X7X7X1X1X5X1XM.q.v.;X1X1X1X1X1X1X1X1X1X1X1X1X1X1X>X>X1X1X1X1X3X3X3X3X3X3X3X3X3X3X3X3X3X3X3X3X3X3X3X3X3X3X3X3X3X3X3X3X3X3X3X3X3X3X3X3X3X3X3X3X3X3X3X3X3X3X3X3X3X3X3X3X3X3X3X3X3X3X3X3X3X3X7X7X3X7X3X3X7X7X3X3X3X3X3X3X3X3X3X3X3X3X3X3X3X3X1X1X3X3X1X1X1X1X1X1X1X1X1X1X1X1X1X1X1X1X1X1X<X^.I.-X:X:X;X8.&.(.7X3X1X1X:X:X:X:X^.^.^.^.(.:X;X^.:X:X:X:X>X>X<X<X>X>X<X1X1Xz.I y.<X5X1X1X1X>X>X>X<X<X<X<X<X<X1X1X:X-X:X:X<X:X:X:X:X:X:X:X:X:X:X:X;X;X:X:X:X:XI.;.5 k g.P.^.^.;X;X;X;X;X;X(.^.^.-X^.^.(.:X:X;X^.^.I.(.;X(.I.v.e.k.v.v.n.n.b.v.l.k.k.g.g.f.f.8.8.f.8.g.;X;X;X;X;X;X;X;X-X-X-X-X-X-X-X;X:X>X1X1X7X9X0XpX0X0X0X0XpXpXfXfXfXkXkXzXiX<XG.x.E.G.E.E.K.z.G.s.d.u.~.@X#X .} / ^ {.6X7XwX>X",
"'.4XrXtXaX[.6.~ .. . . . .{ ^ u.s.p.p.p.a.a.a.a.b.P.1XpXVXVXVXVXVXCXCXVXVXkXkXkXpXpX0X0X7X7X3X1X1X1X>X:X1X3X7X7X7X7X7X7X7X5X:XP.M.I.N.f.y.t.j.l.k.g.k.v.v.v.M.M.N.N.N.N.I.I.(.(.^.^.^.^.^.^.;X:X1X1X:X;X;X;X;X;X-X^.(.(.(.(.(.(.(.(.n.%.z v.;X;X:X:X:X:X:X:X:X:X:X:X:X:X<X<X<X<X:X:X<X<X<X1X>X>X1X1X1X1X1X1X2X1X2X:Xj.N 0.2X1X1X<X<X<X1X1X1X<X<X1X:X;X^.^.:X<X1X1X1X1X1X1X1X1X<X<XM.q.l.;X1X1X1X1X1X1X1X1X1X1X1X1X1X3X3X1X1X1X1X3X3X3X3X3X3X3X3X3X3X3X3X3X3X3X3X3X3X3X3X3X3X3X3X3X3X3X3X3X3X3X3X3X3X3X3X3X3X3X3X3X3X3X3X3X3X3X3X3X3X3X3X3X3X3X3X3X3X3X3X3X3X3X3X3X3X3X3X3X3X3X3X3X3X3X3X3X3X3X3X3X3X3X3X3X3X3X3X1X1X3X3X1X1X1X1X3X1X1X1X1X1X1X1X1X1X1X1X1X1X>X;X-X;X>X1X1X(.7.q.:X3X1X:X:X:X:X:X:X:X:X:X^.N.M.I.:X:X>X>X>X>X<X<X:X<X<X:Xv.I y.(.5X5X1X1X1X>X1X1X<X<X<X<X<X<X<X1X>X;X1X:X:X:X:X:X:X:X>X>X;X;X;X;X;X;X;X:X<XP.;.i k t.I.^.^.-X-X;X-X-X;X;X(.^.(.(.^.(.:X:X;X^.(.(.^.;X;XI.v.t.g.v.M.M.v.v.b.l.k.k.f.f.t.e.8.e.v.;XV.l.^.:X:X:X:X:X<X:X;X;X-X-X-X-X;X,X>X1X1X7X9X0XpX0X0X0X0X0XpXfXPXfXkXkXzXiX2XP.G.G.G.E.E.K.K.K.K.s.A.~. X#X . .{ ~.{.{.5X7X7XwX",
"2X4X4XrXrXiX4XF.{  . . . . .{ ^ d.s.i.p.i.i.p.i.b.b.L.1XpXVXVXVXCXCXCXCXVXVXVXkXkXpXpX0X7X7X7X1X3X1X1X1X1X3X7X7X7X7X7X7X1X1X5X9X1X(.^.N.v.y.t.j.k.f.k.v.l.v.M.M.M.M.N.N.N.P.I.^.;X(.^.^.^.^.^.^.1X3X1X<X;X(.;X-X-X^.^.(.(.(.(.(.^.(.P.z.#.z g.;X:X:X:X:X:X:X:X:X:X:X:X:X:X:X:X:X:X:X>X:X>X:X:X>X1X1X1X1X1X<X<X1X1X1X:Xj.z j.<X3X1X<X<X<X1X1X1X2X3X<X;X^.N.I.:X1X1X1X1X1X:X:X;X;XP.;.0.;X1X1X:X1X3X3X3X3X1X1X3X3X3X3X3X3X1X1X1X1X3X3X3X3X3X3X3X3X3X3X3X3X3X3X3X3X3X3X3X3X3X3X3X3X3X3X3X3X3X3X3X3X3X3X3X3X3X3X3X3X3X3X3X3X3X3X3X3X3X3X3X3X3X3X3X3X3X3X3X3X3X3X3X3X3X3X3X3X3X3X3X3X3X3X3X3X3X3X3X3X3X3X3X3X3X3X3X3X1X1X3X3X1X1X1X1X3X1X1X1X1X1X1X1X1X1X1X1X1X<X;X;X;X;X:X1X:X1XY.;.f.;X:X^.:X:X:X:X:X:X:X:X:X;X:X1X:X:X:X:X:X>X<X<X<X<X(.N.I a.'.4X1X1X1X;X1X>X1X1X<X<X<X<X<X<X1X1X1X:X1X>X:X:X:X:X:X:X:X;X;X;X;X;X;X;X;X;XT.,.v &.l.I.;X;X^.-X-X;X-X-X(.(.^.^.^.(.(.:X:X:X^.^.(.(.^.(.I.l.t.v.v.M.M.M.v.v.l.k.k.k.f.t.e.8.8.M.;X>X;X^.B.I.<X<X<X1X1X1X;X;X;X;X;X;X;X>X1X1X7X9X0XpX0X0X0X0X0XpXkXkXfXVXkXkXiX<XP.b.G.E.E.z.z.K.K.A.A.F.~.@X.. .#X| ~.XXtX5X8X7X1X;X",
"2X2X2X2X2X5X5X[.~.|  . . . . .{ ' d.d.p.r.t.i.i.b.G.n.n.Y.sXFXCXFXCXCXCXVXVXkXkXkXkXpXpX9X7X7X7X3X3X3X1X:X:X1X5X7X3X1X;X:X3X0X0X8X3X:X;X;XM.8.8.g.k.g.k.l.v.v.M.M.M.M.N.N.N.N.I.(.(.(.^.^.^.^.^.^.;X:X1X1X-X^.^.;X(.^.^.^.(.(.(.(.(.(.^.n.O.v f.;X;X:X;X;X;X;X;X:X:X:X:X:X:X:X:X:X:X:X:X:X:X:X:X1X1X1X1X1X1X1X1X1X1X1X<Xe.z 8.:X3X<X1X>X:X<X2X2X1X:X-XI.N.8.T.<X1X<X<X<X<X<X<X<XT.>.I.1X1X1X<X<X1X1X<X<X3X3X3X3X1X1X1X1X>X1X1X1X3X3X3X3X3X3X3X3X3X3X3X3X1X1X1X1X1X1X1X7X7X7X1X1X1X1X1X1X1X1X1X1X3X3X3X3X3X3X3X3X3X3X3X3X3X3X3X3X3X3X3X3X3X3X3X3X3X3X3X3X3X3X3X3X3X3X3X3X3X3X3X3X3X3X3X3X3X3X3X3X3X3X3X3X3X3X3X3X1X1X1X1X1X1X1X1X3X3X1X1X1X1X1X1X1X1X1X1X1X1X1X1X>X>X:X:X1X1X<XN.+.t.7X7X>X1X1X1X>X>X>X:X:X>X1X>X>X>X>X>X1X;X:X<X:X4XN.I g.).<X<X1X1X1X1X1X1X1X1X>X>X>X>X>X>X>X>X>X>X1X>X;X;X<X<X;X;X;X;X;X;X;X;X,X;X;XM.&.I e.M.I.:X:X;X;X;X;XI.I.I.(.-X^.(.^.I.:X<X:X;X;X^.(.;X;XN.k.f.v.v.M.M.V.v.l.l.c.g.f.f.f.8.7.e.N.;X;X>X3X5X<X(.N.;X:X:X:X;X;X;X;X,X1X1X>X1X1X7X7X0XpXpX0X0X0X0XkXkXkXkXkXVXkXiX2XP.G.G.G.G.b.b.b.b.a.A.F.~.#X . . . .|.oX6X7X9X0X8X1X,X",
"1X1X2X2X2X5XiXyXoX|.#X . . . .} { ' u.i.r.i.i.i.z.G.G.p.p.'.sXCXFXCXCXCXCXVXkXkXkXkXkXpX0X9X7X7X3X3X3X3X:X^.;X3X7X:X^.-X7X0X0X7X0X0X7X:X:X(.n.,.8.t.f.g.l.l.v.v.M.M.M.M.N.N.N.N.N.P.^.^.^.^.^.^.^.(.;X:X1X:X-X^.^.^.^.^.^.^.(.(.(.(.(.(.(.v.O.v f.;X;X;X;X;X;X;X:X:X:X:X:X:X:X:X:X:X:X:X:X:X:X:X>X>X:X:X<X<X1X1X:X1X1X1X>Xy.x k.<X3X5X:X:X<X2X2X5X<X;XY.T.f.T.:X;X;X:X;X<X<X<X<XI.T.1X1X1X1X<X<X1X1X<X<X3X3X3X3X1X1X1X1X1X1X1X1X3X3X3X3X3X3X3X3X3X3X3X3X1X1X1X1X1X1X1X7X1X7X1X1X1X1X1X1X1X1X1X1X3X3X3X3X3X3X3X3X3X3X3X3X3X3X3X3X3X3X3X3X3X3X3X3X1X3X3X3X3X3X3X3X3X3X3X3X3X3X3X3X3X3X3X3X3X3X3X3X3X3X3X3X3X3X3X3X1X1X1X1X1X1X1X1X1X1X1X1X1X1X1X1X1X1X1X1X1X1X1X1X>X>X>X1X1X1X1X:XN.P g.1X1X;X>X1X:X:X:X:X<X1X1X1X1X1X1X1X;X<X<X2X2Xn.I y.).4X<X>X1X1X1X1X1X1X1X1X>X>X>X>X>X>X>X>X>X>X>X>X;X;X<X<X;X;X;X;X;X;X;X;X>X-XM.@.o.f.B.^.;X;X;X;X^.^.^.M.I.I.^.(.^.^.^.^.<X:X;X^.^.^.(.;XP.l.k.v.M.M.M.v.v.l.l.c.g.g.f.t.t.7.8.v.;X1X1X1X7X9X8X7X7X:XI.:X;X-XI.;X;X,X1X1X1X1X7X7X9X0XpXpX0XpXpXkXkXkXkXkXkXzXiX2XL.b.G.G.b.b.b.b.b.s.A.!.' | }  . . . XXXtXsX9X9X0X8XwX,X",
"2X2X2X2X2X2X8XaXtXuXOX#X . . . .| { ^ u.i.i.i.i.a.b.b.k.t.z.'.aXCXFXCXCXCXCXVXkXkXkXkXkX0X0X9X9X7X7X3X3X1X:X1X7X;XM.M.7XpXVXkX0X0X0X0X7X:X:X^.f.8.8.t.f.k.l.l.v.v.M.M.M.M.M.N.N.n.M.^.^.^.^.^.^.^.^.^.^.:X<X:X^.I.I.I.P.^.(.(.;X(.(.(.(.I.^.v.P I v.;X(.;X;X;X;X:X:X:X:X:X:X:X:X:X:X:X:X:X:X:X:X:X:X<X<X<X<X1X1X:X:X:X1X:X<Xt.x 7.(.<X<X3X3X6X5X5X5X2X1XP.v.(.;X(.;X:X<X<X<X<X<X1X1X1X1X1X1X<X<X1X<X<X<X<X<X3X3X>X>X3X3X1X1X1X1X3X3X3X3X3X3X3X3X3X3X3X3X1X1X1X1X1X1X1X1X1X1X1X1X1X1X7X1X1X1X1X1X1X1X1X1X1X1X1X1X3X3X3X3X3X3X3X3X3X3X3X3X1X1X3X3X1X1X3X3X1X1X3X3X3X3X3X3X3X3X3X3X3X3X3X3X3X3X3X3X3X3X3X3X3X3X3X3X1X1X1X1X1X1X1X1X1X1X1X1X1X1X1X1X1X1X1X1X1X1X1X1X:X:X1X1X1X1X1X1X1Xv.C x.2X2X<X1X2X<X<X<X<X2X1X2X2X2X2X2X(.(.2X2Xz.L j.:X<X<X3X3X1X1X1X1X1X1X1X1X>X>X>X>X>X>X>X>X>X>X1X>X:X:X:X:X:X:X:X;X;X;X;X;X-XM.$.@.k.B.^.^.;X(.(.;X^.I.I.M.I.^.^.^.^.^.-X;X:X;X^.^.^.;X;XI.v.k.v.N.N.M.v.v.l.l.g.g.g.f.t.8.,.8.M.:X:X1X1X7X9X0X0X0X0X0X;Xh.N.;X(.-X;X:X>X1X1X7X7X9X0X0X0XpXpXpXkXkXkXkXkXkXpX9X<XP.z.n.G.G.G.G.G.E.z.A.}.|.| } .. . .| XXuXsXsX9X8X8XwX<XQ.",
"2X2X2X2X;X<X2X8XpXiXuXXX . . . . .| ' ^ u.i.i.i.p.z.b.b.z.a.b.4XaXCXFXCXCXCXCXVXVXkXkXkXpX0X0X9X9X7X7X7X3X;XB.V.,.8.M.1XqX0XVXkX0X0XpXpX7X1X^.^.n.t.8.e.f.k.l.l.v.v.M.M.M.M.M.M.v.n.^.(.^.^.^.^.^.).I.I.;X:X:X;XI.P.P.P.^.(.(.;X;X(.(.(.(.I.I.f.I P k.;X;X;X;X;X:X:X:X:X:X:X:X:X:X:X:X:X:X:X:X:X:X:X:X:X<X<X1X1X:X:X:X:X;X:X:Xf.A ;.y.j.z.k.v.v.v.x.x.x.y.L.:XY.(.;X<X1X<X<X<X<X1X1X1X1X1X1X<X<X1X<X<X<X<X3X3X3X1X1X1X3X3X1X1X1X3X3X3X3X3X3X3X3X3X3X3X3X1X1X1X1X1X1X1X1X1X1X1X1X1X1X7X7X7X7X1X1X1X1X1X1X1X1X1X1X3X3X3X3X3X3X3X3X3X3X3X3X1X1X3X3X1X3X3X3X1X1X3X3X3X3X3X3X3X3X3X3X3X1X1X1X1X1X1X1X1X1X1X1X3X3X3X3X1X1X1X1X1X1X1X1X1X1X1X1X1X1X1X1X1X1X1X1X1X1X1X1X:X:X1X1X1X1X1X1X<X1Xl.A l.T.P.Y.Y.Y.Y.Y.P.P.I.P.P.P.P.P.U.U./.4.C z.(.<X<X<X3X<X:X>X1X1X1X1X>X>X>X>X>X>X>X>X>X>X>X>X>X>X:X:X:X:X:X:X:X;X;X;X;X;XM.@.C g.^.^.^.-X^.^.;X;X(.^.^.M.I.^.^.(.I.I.;X;X;X^.^.(.^.;X^.b.l.M.N.M.n.v.v.v.l.h.g.g.f.t.8.8.8.M.;X;X;X3X7X0XqX0XPX0X0X1XB.>.t.(.(.I.;X:X>X1X3X7X0X0X0X9X0X0XpXfXkXkXpXpXkXzX8X<XL.b.z.b.b.b.b.G.K.K.F.A.|.@X..}  . .| XXjXiXsXqX8X7X1X<XY.T.",
"2X2X2X2X:X(.<X5X9XpXiXuX!.|.#X#X#X#X#X' ^ ! 6.i.a.a.a.a.a.a.z.z.(.sXCXCXCXVXCXCXVXkXkXkXkXpX0X0X8X7X7X7X3X:Xf.v c +.<.V.,X9X0XpXCXpX0XpXpX7X1X:X:XN.f.e.8.f.k.l.l.l.v.v.M.M.M.v.n.v.M.I.I.^.^.:X).P.N.I.I.(.<X1X:XI.N.N.(.(.(.;X(.(.(.(.(.^.^.I.t.z I v.^.(.;X:X;X:X:X:X:X:X:X:X:X:X:X:X:X:X:X:X:X:X:X:X:X:X>X>X:X:X>X:X>X>X<X<Xn.A z I ;.,.y.t.8.t.t.t.b.Y.P.P.;X<X1X1X<X<X<X<X1X1X1X1X1X1X>X1X<X1X1X1X<X<X<X<X1X3X1X3X3X3X1X1X1X1X3X3X1X1X1X1X1X1X1X1X1X1X1X1X1X1X1X1X1X1X1X1X1X1X1X1X1X1X1X1X1X1X1X1X1X1X1X1X3X3X3X3X3X3X3X3X3X3X3X3X1X1X1X1X1X1X1X3X1X1X3X3X3X3X3X3X3X3X3X3X1X1X1X1X1X>X>X1X1X1X1X1X1X1X1X1X1X1X1X1X1X1X1X1X1X1X1X1X>X1X1X1X1X1X1X1X1X1X1X1X:X:X:X:X:X<X1X<X5X2X<Xx.#.#.#.#.;.&.&.$.=.;.;.=.;.&.;.#.P L P L b.:X<X<X:X:X:X:X>X>X1X1X1X1X>X>X>X>X>X>X>X>X>X>X:X:X:X:X:X;X;X(.:X;X(.^.(.:X;XM.@.A j.I.^.^.^.^.^.^.^.^.^.^.^.^.^.^.^.I.I.^.;X:X;X^.(.;X(.L.l.v.M.N.N.n.M.v.v.l.f.f.f.t.8.,.>.l.I.;X;X1X7X8X0X8XpX0XpXpX1XM.>.o.Z =.n.(.;X:X1X7X7X7X7X0X0X9X0XpXpXkXpXpXfXpXsXsX;Xn.b.b.b.b.b.b.G.K.A.F.' { | |  .#X#X|.XXjXiXpXsXsX7X1X(.(.Y.U.",
"2X2X2X2X<X:X:X2X5X0X0X9XjXoX|.#X#X#X#X X' ^ w.i.a.k.k.k.k.k.z.z.b.(.9XCXCXVXCXCXVXVXkXkXkXkXpX0X0X8X7X7X8X7XP.Z 9 g UX>.l.-X7X0XVXpX0XpXpXpXpX5X<X1X;Xv.8.8.f.f.g.l.l.l.v.v.v.v.M.n.l.f.f.L.;X^.^.P.P.N.P.^.;X1X;X^.^.(.(.(.(.;X(.(.(.(.(.(.(.^.P.;.h O.v.;X(.(.;X;X;X:X:X:X:X:X;X:X:X:X:X:X:X:X:X:X:X:X:X:X>X>X:X:X>X:X>X>X>X>X6Xk.h N n.(.<X:X<X<X<X2XI.j.z.I.;X<X1X2X<X<X<X<X1X1X1X1X1X1X1X1X<X1X1X1X<X<X<X<X1X1X1X3X1X3X1X1X1X1X3X3X1X1X1X1X1X1X1X1X1X1X1X1X1X1X1X1X1X1X1X1X1X1X1X1X1X1X1X1X1X1X1X1X1X1X1X1X3X3X3X3X3X3X3X3X3X3X3X3X1X1X1X1X1X1X1X3X1X1X3X3X3X3X3X3X3X1X1X1X1X1X1X1X>X:X:X1X1X1X1X1X1X1X1X1X1X1X1X1X1X1X1X1X1X1X1X1X>X>X1X1X1X1X1X1X1X1X1X1X:X:X:X:X1X1X<X1X1X2X5X<XT.T.T.T.L.M.v.v.v.M.M.n.L.L.n.P.z.P T L.<X1X1X<X:X:X:X:X>X>X>X>X1X>X>X>X:X:X:X:X:X:X:X>X;X:X:X:X:X;X(.^.^.(.(.^.(.(.v.&.C j.(.;X^.^.^.^.^.^.^.^.^.^.^.^.^.^.I.I.I.^.(.;X^.^.(.(.I.v.z.n.N.M.n.v.v.l.k.f.f.f.t.8.,.>.v.;X;X:X1X9X0X0XpXpXpXpX0X;Xx.&.c k z y.(.;X:X1X7X8X9X0X0X9X9X9X0XpXkXkXpXpXgXzXiX2XP.b.z.b.b.b.b.b.b.A.F.~. X|  . .#X@X|.XXjXaXiX0XiX8X1X;XI.U.J.R.",
"2X2X2X2X2X:X(.<X<X5X0X0XiXcX=X|.#X#X#X#X X' ! 9.a.p.p.p.k.z.z.z.z.b.).9XzXVXCXCXVXVXVXkXkXkXkX0X0X0X8X7X0X3X>Xl.c q h Z ;.f.I.5XsXpXpXpXpXVXCXCX5X5X1X1XP.t.7.t.f.g.l.l.l.v.v.v.n.M.n.x.j.n.N.k.k.y.n.P.N.I.(.:X;X^.(.:X(.(.;X;X(.(.(.(.(.(.(.(.^.^.y.I P j.:X(.(.(.;X;X;X;X:X:X:X:X;X;X:X:X:X:X:X:X:X:X:X:X>X>X:X:X:X:X:X:X:X:X>X3Xv.z k 9.l.(.5X1X1X;XT.M.I.;X:X1X1X<X<X>X:X:X1X1X1X1X1X1X1X>X<X<X3X3X1X1X<X<X1X1X1X1X1X1X1X1X1X1X1X1X1X1X3X3X1X3X1X1X1X1X1X1X1X1X1X1X1X1X1X1X1X1X1X1X1X1X1X1X1X1X1X1X1X1X1X1X3X3X3X3X3X3X3X3X3X3X3X3X1X1X1X1X1X1X1X1X1X1X3X3X3X3X3X1X3X1X1X1X1X1X1X1X1X:X>X1X1X1X1X1X1X1X1X1X1X1X1X1X1X1X1X1X1X1X1X1X1X1X1X1X1X1X1X1X1X1X1X1X1X>X:X:X>X>X1X:X,X1X1X1X1X1X1X1X1X>X:X;X;X:X:X;X;X2X<X1X(.=.M.<X<X1X1X1X>X>X:X>X>X>X>X>X1X>X:X:X:X:X:X:X;X;X;X;X:X:X:X:X:X(.N.v.M.P.^.(.^.v.#.z y.(.^.^.^.^.(.(.^.^.^.^.^.^.^.^.^.^.^.I.P.^.(.^.P.).(.^.n.v.n.N.n.n.m.v.v.k.j.f.f.t.8.8.>.M.:X;X;X1X7X0X0XiXsXzXkX0X(.t.P g i S t./.<X1X1X3X7X7X9X0X3X7X9X0XpXpXkXkXpXpXpXsX2XP.G.G.G.b.b.b.b.b.H.A.~.@X@X .#X&X$XXXoXlXiXpX0X9X8X1X:X).b.a.s.A.",
"2X2X2X2X2X:X:X:X(.5X9X0XpXpXbX=X|.@X#X#X#X| ^ 6.i.i.t.0.j.z.z.z.k.z.b.).6XzXCXCXVXVXVXVXkXkXkXkXpX0X0X0X0X8X3X<XL.@.t r B #.e.(.7X0XpXkXpX0XpXpXpX7X7X8X5XI.f.7.8.f.g.c.l.l.l.v.n.b.v.M.M.L.L.t.n.e.v.P.N.P.^.(.;X^.^.^.(.(.;X;X(.(.(.(.(.(.(.(.;X;X(.l.I c k.(.(.(.;X;X;X;X;X;X:X;X;X;X:X:X:X:X:X:X:X:X:X:X>X>X:X:X:X:X:X;X;X;X>X;X1Xv.z r z ;.T.1X1X-X1X7X1X>X:X1X1X<X>X>X:X:X>X1X1X1X1X1X1X>X<X<X3X3X1X1X1X<X1X1X1X1X1X1X1X1X1X1X1X1X1X3X3X3X3X3X1X1X1X1X1X1X1X1X1X1X1X1X1X1X1X1X1X1X1X1X1X1X1X1X1X1X1X1X1X1X3X3X3X3X3X3X3X3X3X3X3X3X1X1X1X1X1X1X1X1X1X1X3X3X3X3X3X1X1X1X>X>X1X1X1X1X1X:X1X1X1X1X1X1X3X3X1X1X1X1X1X1X1X1X1X1X1X1X1X1X1X1X1X1X1X1X1X1X1X1X1X1X1X>X:X:X>X>X>X:X;X;X1X1X;X;X;X;X;X;X^.^.^.^.^.^.;X:X(.c.O.l.<X<X<X<X1X1X>X>X>X>X>X>X>X1X1X>X;X;X:X:X:X:X;X;X;X;X:X:X:X:X;X(.n.8.f.n.).(.N.;.C t.I.;X(.^.^.^.(.(.^.^.^.^.^.^.^.^.^.^.^.I.I.^.^.P.N.^.(.I.n.n.M.N.n.b.v.v.l.f.f.t.e.8.8.,.^.1X1X>X1X9X0X0X0XiXzXzX5XN.,.B q w A j.'.2X5X5X7X7X9X0X7XM.g.1X0XpXpXpXkXpXpXpXiX2XY.G.G.J.G.b.b.b.b.K.A.F.|.&X&X&X&XXXoXjXlXiXpX0X9X9X2X:X/./.J.A.A.R.",
"2X6X5X5X2X2X<X<X(.(.2X5XiXaXzXhXjX|.|.#X#X#X X' ~ w.9.0.j.z.k.x.z.z.z.z.G.9XzXVXVXVXVXVXkXkXkXpXpX0X0X0X9X9X7X7X2XY.q.w 6 j T r.L.3XkX0XkXpX0XpXpXpXpX0X0X7X(.f.;.,.e.t.k.l.v.v.M.M.M.M.T.P.P.b.P.N.n.^.P.P.I.(.;X^.^.^.(.(.(.(.;X;X;X;X;X;X(.(.;X;X(.(.P.;.c k.I.;X;X:X;X;X;X;X;X;X;X;X;X:X:X:X:X:X:X:X>X>X:X:X:X:X:X:X;X;X;X;X;X:X<X1XP.Y z z j #.<X5X7X7X7X1X<X<X1X:X:X:X>X>X1X1X1X1X1X1X1X1X1X1X1X1X>X>X1X1X1X1X1X1X1X1X1X1X1X1X1X1X3X3X3X3X1X1X1X1X1X1X1X1X1X1X1X1X1X1X1X1X1X1X1X1X1X1X1X1X1X1X1X3X3X3X1X1X1X1X1X3X1X1X1X3X1X1X1X1X1X1X1X1X1X1X1X1X1X1X1X1X1X1X1X1X1X1X1X1X1X1X1X:X:X1X1X1X1X1X1X1X1X1X1X1X1X1X1X1X1X1X1X1X1X1X1X1X1X1X1X1X>X1X>X>X:X:X:X:X:X:X>X>X:X:X:X:X>X>X>X>X>X,X,X;X:X:X:X:X;X^.^.^.I.M.x.x.^.;X1X1X1X1X1X1X1X1X1X1X:X:X:X:X:X:X:X:X:X:X:X:X:X:X:X:X:X:X:X:X(.;X^.N.;X:X(.P.,.I 8.I.^.^.(.^.^.^.^.^.^.^.^.^.^.^.^.^.^.^.^.(.I.^.I.N.v.n.I.n.M.M.M.M.b.v.l.k.g.t.t.f.e.,.,.I.3X7X7X7XpX9X8XpX0X0X0X3Xn.;.z ; 8 A z.(.2X5X7X7X7X9XqX8XT.c.I.9XpXpX0XpXkXkXsXiX2XU.G.G.G.J.K.b.s.A.A.F.Z.S. X&X$X}.}.uXcXlXzXiXiX5X<XU.'.'.'.].[.[._.R.",
"6X5X6X6X2X2X2X<X(.(.(.2X6X9XcXlXlXjXXX~.#X#X@X X^ 6.6.9.p.k.k.k.z.z.z.z.a.G.5XzXVXVXVXkXkXkXkXpX0X0X0X0X9X9X7X8X1X5X;X9.i 6 B Y #.N.:X9X0XfX0X0X0XkXkX0X7X7X3X:Xb.8.7.e.f.k.l.v.M.M.M.M.T.T.L.M.M.(.^.P.I.P.I.^.;X;X^.^.(.(.(.(.;X;X;X;X;X;X(.(.;X;X;X;X:X).;.c f.:X;X;X;X;X;X;X;X;X;X;X;X:X:X;X:X:X:X>X>X>X>X:X:X:X:X:X;X;X;X;X:X>X1X1X8XI.#.T S k k.sXiX1X1X1X:X:X:X:X:X:X>X:X1X1X1X1X1X1X1X1X1X1X1X1X>X>X1X1X1X1X1X1X1X1X1X1X1X1X1X1X3X3X3X3X1X1X1X1X1X1X1X1X1X1X1X1X1X1X1X1X1X1X1X1X1X1X1X1X1X1X1X3X3X3X1X1X1X1X3X3X1X1X1X3X1X1X1X1X1X1X1X1X1X1X1X1X1X1X1X1X1X1X1X1X1X1X1X1X1X1X1X:X:X1X1X1X1X1X1X1X1X1X1X1X1X1X1X1X1X1X1X1X1X1X1X1X1X1X1X1X1X1X>X>X:X:X>X>X:X:X>X>X:X:X:X:X>X>X>X>X>X>X;X;X:X:X:X:X:X).:.I $.g.-X1X1X1X1X1X1X1X1X1X1X1X1X1X:X:X:X:X:X:X:X:X:X:X:X:X;X:X:X:X;X;X;X;X;X;X(.I.;X:X^.7.I e.N.:X^.^.^.^.^.^.(.(.(.^.^.^.^.^.^.^.^.^.^.^.^.I.T.T.v.g.l.M.M.M.V.v.v.x.k.f.t.t.f.y.8.,.I.1X8X7X7X7XpX0X0X0XkX0X;Xv.,.C - , A z.:X1X7X7X7X7X7X8X1X;X1X8XpXVXpXpXpXfXkXpX8X<XU.G.G.U.E.G.G.K.K.A.d.Z.S. X|.XXs.K.tXzXkXzXpXiX5X<XY.P.U.`.'.'.4X.X.X.X",
"6X2X<X:X'.'.<X<X:X(.(.(.<X6X9XcXcXlXuXoX~.~. X X' Z.i.9.9.p.k.z.z.z.z.z.a.z.b.5XkXVXkXkXkXkXpX0X0X0X0X0XpXpX9X9X8X7X1XY.j.a 8 B B ;.v.>X9X0X0X0X0XpXkXpX8X7X5X7X2Xl.7.7.t.f.k.l.v.v.v.M.M.N.L.P.M.;X:XN.^.P.P.^.(.;X(.^.^.-X(.(.;X;X;X;X;X(.(.(.;X;X(.(.(.).).8.z e.^.(.;X;X;X;X;X;X;X;X;X;X;X;X;X;X,X,X>X>X>X>X:X:X:X:X:X:X:X:X<X<X3X3X1X3X).=.n.7.@.x.1X7X:X1X>X,X>X1X:X<X<X<X1X1X1X1X1X1X1X1X1X1X1X1X>X1X1X1X1X1X1X1X>X1X>X>X1X1X1X1X1X1X3X3X1X1X1X1X1X1X1X1X1X1X1X1X1X1X1X1X1X1X1X1X1X1X1X1X1X1X1X1X3X1X1X1X1X1X3X3X1X1X1X1X1X1X1X1X1X1X1X1X1X1X1X1X1X1X1X1X1X1X1X1X1X1X1X1X1X1X:X;X:X1X1X1X1X1X1X1X1X1X1X1X1X1X1X1X1X1X1X1X1X1X1X1X1X1X1X1X1X1X1X>X>X>X>X>X:X:X:X:X:X:X:X:X>X>X>X>X:X>X>X:X:X:X:X:X:Xk.P O.7.x.-X;X1X1X1X1X1X1X<X<X<X<X<X<X:X:X:X:X:X:X:X:X:X:X:X:X;X;X;X;X;X;X;X;X^.^.I.^.:XI.>.o.t.N.N.^.^.^.^.^.^.^.;X:X;X;X;X(.(.^.^.^.^.^.^.^.I.I.P.N.(.k.8.k.N.M.v.v.l.z.j.y.t.t.e.7.7.I.1X1X5X7X7X8X0XpXpX0X8X;Xg.$.v 0 , S z.'.3X1X7X8X7X8X7X7X1X^.9XfXpXpXpXpXfXfXpX8X;XL.n.G.E.E.J.K.K.K.F.u.u.S.OX~.!.D.`.tXsXpXpXzXpX5X;X(.P.P.U./.'.`.].`.R.R.",
"<X(.(.I./.(.<X<X:X:X(.(.(.<X6X9XzXzXaXtX{.~.' |.%XZ.^ u.5.i.a.z.z.a.z.z.z.a.a.b.0XkXkXkXkXkXpX0X0X0X0XpXpXpXpX9XqX0X7X5X;Xx.N t r N A g.;X9XqX0XpXpXpXiXsX8X3X7X5X;Xk.,.8.t.f.k.l.v.v.v.M.N.M.L.N.^.;XI.P.I.P.I.^.;X;X^.-X(.(.(.(.(.;X;X;X(.(.(.;X;X(.(.^.(.).P.e.x =.^.:X;X;X;X;X;X;X;X;X;X:X:X;X;X:X:X>X>X:X:X:X:X:X:X:X:X<X<X2X3X3X3X7X5X3XM.(.'.#.C c.1X3X:X>X,X:X:X<X<X<X<X1X1X1X1X1X1X1X1X1X1X1X1X>X1X1X1X>X>X>X>X>X>X>X>X1X1X1X1X1X1X1X1X1X1X1X1X1X1X1X1X1X1X1X1X1X1X1X1X1X1X1X1X1X1X1X1X1X1X1X1X1X1X1X1X1X1X1X1X1X1X1X1X1X1X1X1X1X1X1X1X1X1X1X1X1X1X1X1X>X1X1X1X1X1X1X1X1X1X:X^.:X1X1X1X1X1X1X1X1X1X1X1X1X1X1X1X1X1X1X1X1X1X1X1X1X1X1X1X1X1X>X>X>X>X>X>X:X:X:X:X:X:X:X:X>X>X>X>X:X:X>X:X:X:X:X:XP.7.=.t.(.<X1X1X1X1X1X1X1X1X<X<X<X<X<X<X:X:X:X:X:X:X:X:X:X:X:X:X;X;X;X;X(.(.(.(.I.N.P.^.j.P o.k.I.^.^.^.^.^.^.^.^.^.:X:X;X;X;X;X^.^.^.^.^.^.^.^.I.I.P.N.(.v.t.k.M.v.v.v.k.j.y.t.e.8.,.&.I.<X<X3X3X5X8X8X0XsXsX0XI.f.O.v 0 , O.v.(.2X1X3X7X8X8X8X7X7X1X;X1X9XpXpXpXfXfXpX0X<XT.k.b.G.G.G.G.K.K.K.F.F.!.=X|.~.F.[.lXiXpXpXkXzXiX<XI.I.U.P.U.U.(.(.2XJ.A.A.",
"z.L.(.<X2X2X<X<X:X:X(.(.^.(.3XiXiXsXsXrXtX{.}.}.vXvX' ~ ~ u.i.z.a.s.a.z.z.z.a.a.v.iXkXpXiXpXpXiXpXpXpXpXpXpXpXpXqXqX9X7X1X:Xj.Y ; r j k l.1X0X0XpXkXpXpX8X8X8X0X5X:Xv.7.;.8.t.k.l.v.v.v.v.M.M.T.N.P.(.^.P.P.P.I.^.;X(.-X^.^.^.^.-X(.(.(.(.(.;X;X;X;X(.(.(.(.(.(.P.t.x v f.N.I.I.U./.(.U.U.U.U.Y.Y.Y.Y.Y.(.(.;X(.(.(.'.'.'./.U.P.G.P.(.;X(.;X<X1X;X(.f.o.Z c.wX7X:X:X:X;X:X:X<X<X1X1X1X1X1X1X1X1X1X1X1X1X1X1X1X1X1X>X1X1X1X1X>X>X1X1X1X1X1X1X1X1X1X1X1X1X1X1X1X1X>X>X1X1X1X1X>X>X>X>X1X1X>X>X>X>X1X1X1X1X1X1X1X1X1X1X1X1X1X1X1X1X1X1X1X1X1X1X1X1X1X1X1X1X1X1X1X1X1X1X1X1X1X1X1X1X1X1X:X:X:X>X1X1X1X1X1X1X1X1X1X1X1X1X1X1X1X1X1X1X>X>X1X1X1X1X>X>X:X:X:X:X:X:X:X:X:X:X:X:X:X:X:X:X>X>X>X>X:X>X:X:X;X:X<X^.7.=.,.8.v.^.>X1X:X:X<X<X1X1X1X1X1X1X<X1X1X1X1X1X<X<X<X:X<X<X:X;X;X:X<X<X<X<X'.'.(.z.9.A h #.v.^.^.^.^.^.(.(.(.(.I.v.N.;X;X;X(.^.^.^.^.^.^.^.^.I.I.I.P.N.^.v.l.v.n.v.v.v.g.y.t.8.8.,.Z t.:X1X1X1X7X8XiXiXpXpX7X-Xf.Z c 6 5 +.M.:X1X1X3X7X8X8X8X8X1XpXpX9X3X7X9XpXVXVXVXsX3XI.v.n.b.b.b.G.G.K.A.Z.Z.!.=X=XXXD.].rXlXaXpXfXkX9X:X^.Y.Y.Y.U././.^.^.'.'.`.E.",
"n.U.<X2X2X2X<X<X:X<X(.(.(.(.:X3X5XiXsX9XiX9X4X/.[.NXMX~.^ ~ u.i.s.s.s.a.z.a.a.a.e.M.zXzXiXiXpXpXpXpXpXpXpXpXpXpXqXqXqX8X1X1XT.T.A ; r h I l.3X0XpXsXsXpXpXpXpXiX<X^.M.k.,.7.e.f.l.x.v.v.v.M.M.M.N.P.^.(.I.P.P.I.;X(.(.-X^.^.^.^.^.^.(.(.(.(.;X;X;X;X(.(.(.(.(.(.:X^.k.+.z I O.#.T T T T Y Y Y Y Y o.o.P #.#.&.#.#.#.%.%.%.#.T Y -.;.,.q.f.f.k.k.k.0.j.f.$.UXh.;X>X:X:X;X;X:X:X:X1X1X1X1X1X1X1X1X:X:X:X>X1X1X1X1X:X:X>X>X1X1X>X1X1X1X1X1X1X1X1X1X1X1X1X1X1X1X1X1X>X>X1X1X1X1X>X>X>X>X>X1X>X>X>X>X1X1X1X1X1X1X1X1X1X1X1X1X1X1X1X1X1X1X1X1X1X1X1X1X1X1X1X1X1X1X1X1X1X1X1X1X1X1X1X1X:X:X:X:X>X>X>X>X1X1X1X1X1X1X1X1X1X1X1X1X1X1X1X1X>X>X1X1X1X1X>X>X:X:X:X:X:X:X:X:X:X:X:X:X:X:X:X:X;X;X;X;X;X;X;X;X^.;X:X=.x Z P ;.t.f.k.k.g.t.e.8.7.8.8.8.8.8.8.8.8.8.8.8.8.8.8.7.,.,.;.;.;.,.7.9.;.3.3.3.%.A Y #.;.z.^.(.^.^.^.^.(.(.(.(.I.n.P.;X^.I.I.^.^.^.^.^.^.^.^.I.I.T.P.N.I.n.l.v.n.v.v.v.f.t.8.7.;.@.#.M.:X1X1X1X7X0XiXpXzX8XN.c.@.z 6 p $.l.-X7X1X3X7X7X8X8X8X8X1XpXzXpX7X8XiXpXsXzXsX5XI.n.b.n.n.b.b.K.K.A.F.Z.!.XX%X=XK.oXyXaXaXcXpX0X0X<X^.I.Y.Y.Y.Y.Y.I.I.I.(.(.U.G.",
"U.:X2X2X2X2X<X<X<X<X(.).(.).).(.2X6X9X9X0X0X9X2XH.{.NXMX~.' ^ ^ d.s.s.a.a.p.y.y.t.t.m.5XiXaXsXsXkX9X7X9XpXpXpXpX0XqXqX8X7X>X,XQ.I l 8 w g @.M.3XiXpXpXpXpXzXsX7X<X(.I.N.t.7.8.f.k.l.v.v.v.v.M.M.N.N.P.(.I.P.P.I.(.(.-X-X^.(.^.^.^.^.(.(.(.(.;X;X;X;X(.(.(.(.(.(.^.;X:X(.I.I.I.P.H.H.L.L.L.L.L.L.N.N.N.M.M.N.N.N.N.N.P.L.M.m.m.m.).).^.I.I.I.^.(.<XI.T.T.M.<.UX8.T.:X:X:X:X;X:X:X1X1X1X1X1X1X1X1X:X:X:X:X1X1X1X1X:X:X>X>X1X1X<X<X1X1X1X1X1X1X1X1X1X1X1X1X1X1X1X1X>X1X1X1X1X>X>X>X>X>X1X1X1X1X1X1X1X1X1X1X1X1X1X1X1X1X1X1X1X1X1X1X1X1X1X1X1X1X1X1X1X1X>X1X>X1X1X1X1X1X1X1X1X1X>X1X:X:X:X:X>X>X>X>X1X1X1X1X>X1X>X>X1X1X1X1X1X1X1X1X>X>X1X1X1X>X>X>X:X:X:X:X:X:X:X:X:X:X:X:X:X:X:X:X;X;X;X;X;X;X;X;X:X;Xt.z o.k.n.(.:X^.N.M.n.v.v.v.v.n.n.v.v.v.v.v.l.l.k.k.k.k.g.f.y.t.t.e.7.8.r.e.7.7.7.7.0.p.b.G.Y.;X(.^.^.^.^.^.(.(.(.(.I.N.^.(.;XI.I.I.I.I.I.I.I.I.^.I.T.N.N.M.L.M.v.v.v.v.l.l.f.t.7.&.@.7.k.I.;X:X1X3X8XiXiXsXpX(.f.$.B e t o.>.g.,X7X7X7X7X7X9X8X9X9X7X0XpXpX7XpXpXpXiX8X2X(.x.x.x.x.n.b.b.K.A.F.u.~.!.MXNXA.`.aXaXaXsXzXpX3X3X(.^.I.Y.Y.Y.(.(.-X-X-XI.T.L.x.",
"(.<X<X;X2X2X<X'.<X<X(./.).).(.^./.2X6X5X8XiXiX8X:Xb.{.MX&X X' ' ~.F.d.i.p.y.y.y.y.y.7.e.<XiXaXsXVX7X1X9XpXpXpXpX0XqXqXqX8X>XQ.8.,.j.h , t k &.P.1X0XiXpX0XsXiX1X1X<X;XI.n.7.7.y.f.z.x.v.v.v.M.M.M.N.P.^.I.P.P.I.(.(.-X^.^.^.^.^.^.^.^.^.(.(.-X-X;X;X(.(.(.(.(.(.(.;X(.<X2X<X<X<X<X<X<X<X<X<X2X<X1X1X1X<X:X3X3X>X>X1X1X3X6X6X5X5X5X5X3X3X7X7X7X5X8X1X1X1X;XT.<.Z 7.T.<X:X;X;X:X:X>X1X1X1X1X1X1X1X:X:X:X:X:X:X:X:X:X:X>X>X1X1X<X<X<X<X>X>X1X1X1X1X1X1X1X1X1X1X1X1X>X>X1X1X1X>X>X>X>X>X1X1X1X1X1X1X1X1X1X1X1X1X1X1X1X1X1X1X1X1X1X1X1X1X1X1X1X1X1X1X1X1X>X>X>X>X>X>X>X>X>X1X1X1X>X>X:X:X:X:X>X>X>X>X1X1X>X>X>X>X>X>X>X>X>X>X>X>X>X>X>X>X1X1X1X:X:X:X:X:X:X:X:X:X:X:X:X:X:X:X:X:X:X:X;X;X;X;X;X;X-X-X:Xg.Z ,.M.^.(.3X<X;X:X3X1X<X<X<X:X:X:X:X<X<X<X<X<X:X:X:X:X:X;X;X(.(.(.(.I.(.(.(.(.(.(.(.(.(.;X;X(.;X(.^.^.^.^.^.(.(.(.(.I.P.(.(.;XN.v.v.I.I.I.I.I.I.I.I.T.N.N.M.M.M.n.v.v.l.l.k.f.8.,.@.&.x.L.^.;X:X1X7X9XiXsXsX;Xj.,.c 6 e c >.&.$.V.>X7X8X9X7X9X8X9X9X8X7X3X3X7XpXpXiX(.l.y.x.z.x.k.k.b.b.A.A.S.' ~.%X=XjXb./.aXtXsXaXiXkX0X<X;X^.^.I.I.Y.'.;X<X1X>X1X,X>XQ.T.",
"^.:X>X>X<X5X(.G.b././.`.`.).(.(.(.<X2X5XiXsXsXsX2X/.z.jX*X&X| ..| { u.i.t.e.0.0.7.7.7.7.t.(.iXzXiXsXpXpX0X0X0X0X0X0X9X7X8XI.C.g.:X(.0.g ; t B ;.P.1X8XkXiX5X1X1X1X1X:X(.P.g.,.8.y.j.l.l.v.v.v.M.M.N.N.N.P.N.P.I.^.(.^.^.^.^.^.^.^.^.^.^.^.^.-X-X-X-X(.(.(.(.(.;X(.;X;X:X:X;X(.;X;X;X;X;X;X;X;X;X;X;X;X;X;X;X;X;X:X:X:X:X:X:X:X:X:X:X:X:X1X1X1X1X1X1X1X1X1X1XI.7.N 3.P.(.;X:X:X:X:X:X:X:X:X:X:X:X:X:X:X:X:X:X:X:X>X>X>X>X:X:X:X:X1X>X>X>X1X1X1X1X1X1X1X1X:X:X:X:X>X>X>X>X>X>X>X>X>X>X:X:X:X:X<X<X1X1X1X1X1X1X>X>X1X1X>X>X1X1X1X1X1X1X>X>X1X1X1X1X1X1X1X>X>X>X>X>X1X1X1X1X1X1X>X>X>X>X>X>X>X>X>X>X>X>X>X>X>X>X:X:X:X:X:X:X:X:X:X:X1X1X1X:X:X:X:X:X>X>X>X>X;X;X;X:X>X>X>X>X1X>X;X^.I.I.-X;X;X;X;X;X8.Z 7.I.(.^.^.(.:X:X:X:X:X;X;X;X;X;X:X:X:X:X:X:X:X:X;X;X;X(.(.(.(.(.(.(.;X;X;X;X;X;X;X;X(.(.(.-X(.(.^.^.^.^.^.^.I.N.n.M.b.I.(.I.P.v.v.M.I.I.I.I.I.^.P.n.M.v.N.v.b.b.b.b.l.l.k.j.e.,.#.#.j.b.I.(.;X;X1X3X9XiX8X(.j.q.C 9 9 $.;.g.I.e.$.M.1X1X3X9X9X0X9X9X9X9X9X9X0XpX9X^.8.#.T -.r.p.k.j.l.K.~.' [ { &XMXMXd.).zX8XiXiXiXsX8X1X;XI.I.I.I.(.;X<X;X).L.;X-XQ.;X,XQ.",
"(.1X3X:XI.n.%.w < N r.H./././.(.(.(.<X2X5XiXiXsXsX9XN.H.=X&X#XX...{ ^ u.e.C.8.7.q.q.q.,.=.t./.6XiXaXpXpX0X0X0X0X0X3X0X7XB.8.N.>X1X1XT.>.t ; t S &.P.7X3X7X1X1X1X2X<X:X(.I.v.e.,.t.f.k.l.v.v.v.n.n.M.N.P.P.N.P.I.I.^.^.^.^.^.^.^.^.^.^.^.^.^.^.^.(.-X(.(.(.(.;X;X(.(.;X;X(.(.;X(.;X;X;X;X;X;X;X;X;X;X;X;X;X;X;X;X;X;X;X;X;X;X;X;X;X;X;X;X;X;X;X;X<X<X;X;X-X1X>XY.p.A z x.:X;X;X>X:X:X:X:X:X:X:X:X:X:X:X:X:X:X:X:X:X>X>X>X:X:X:X:X:X:X>X:X>X>X>X>X1X1X1X1X:X:X:X:X>X>X>X>X>X>X>X>X>X>X:X:X:X:X1X1X1X1X1X1X1X1X>X>X1X>X>X>X1X1X1X1X1X1X>X>X1X1X1X1X1X>X1X>X>X>X>X>X>X>X>X>X1X1X1X1X>X>X>X>X>X>X>X>X>X>X>X>X>X>X:X:X:X:X:X:X:X:X:X:X:X:X:X:X:X:X:X:X>X>X:X:X;X;X;X;X;X;X;X>X>X;X;X-X^.-X-X;X:X;XY.t.c f.;X;X1X:X;X:X:X:X:X:X:X;X;X;X;X;X;X;X;X;X;X;X;X;X;X;X;X^.^.;X(.(.(.(.;X;X;X;X;X;X;X;X-X-X-X-X^.(.^.^.^.^.^.^.n.k.t.7.v.I.(.I.I.N.M.N.I.I.I.I.I.I.N.v.g.g.M.v.b.b.b.b.l.k.k.f.7.;.P 8.l.M.I.^.;X;X;X1X9X8X;Xl.q.o.9 0 +.l.V.I.;X^.f.8.I.3X7X1X9X0X9X9X9X9X9X9XpX8X^.f.=.T P Y :.r.j.k.z.s.' [ ( ..&XMX}.'.iX9X9XiXiXpX7X1X;XI.I.I.I.I.(.;Xx.#.u u l %.z.P.;X;X",
"K.b.5.R T B u $ X $ u :.m.`.`./.(.(.(.<X5X5XiXiX5XiX5X).}.=X X..X...' ^ r.8.8.7.q.,.,.,.=.;.t.P.5XaXpXpX0X0X0X0X0X9X1XM.f.;X1X1X7XwX1XT.;.0 ; g z 7.;X1X1X1X1X2X<X<X:X;X^.n.e.=.8.y.k.l.l.v.v.n.n.M.N.^.P.N.P.I.P.^.^.^.^.^.^.^.^.^.^.^.^.^.^.^.(.(.(.(.(.(.;X;X(.(.(.;X;X(.(.(.;X-X-X;X;X;X;X;X;X;X;X;X;X;X;X:X;X;X;X;X;X;X;X;X;X;X;X;X;X;X-X-X;X;X;X-X-X;X:X:X'.j.q g P.;X:X;X:X:X:X:X:X:X:X:X:X:X:X:X:X:X:X:X:X:X>X>X:X:X:X:X>X>X>X>X>X>X>X>X>X1X1X1X:X:X:X:X>X>X>X>X>X>X>X>X>X>X:X:X:X:X1X1X1X1X1X1X1X>X>X>X1X1X>X>X1X1X1X1X1X1X1X>X>X>X>X>X>X>X>X>X>X>X>X>X>X>X>X>X1X1X1X>X>X>X>X>X>X>X>X>X>X>X>X>X>X>X:X:X:X:X:X:X:X:X:X:X:X:X:X:X:X:X:X:X>X>X>X:X;X;X;X;X;X;X;X;X;X;X;X-X-X-X;X;X:X^.8.c l.:X;X:X:X(.^.;X:X:X:X:X:X;X;X;X;X;X;X;X;X;X;X;X;X;X;X;X;XI.I.;X;X;X;X;X;X;X;X;X;X;X;X;X-X-X-X-X^.^.^.^.^.^.^.^.I.I.I.M.I.(.(.P.P.N.P.I.I.I.I.I.I.I.N.v.t.t.M.v.v.v.b.b.l.k.j.8.&.o.@.f.l.L.^.N.^.-X;X;X5XY.l.>.Z r , c g.N.I.;X;X3X>XN.f.N.1X7X9X9X0X0X9X9X9X9X5XI.t.&.#.T P P =.8.f.f.a.u.' ` X...@X=X].tX5X3XiXiXiX9X<X;XI.I.I.I.I.I.P.p.j = = , 1 3 d 5.].yX",
"D M f f ! R.K.A < = $ 6 #.b././.'.(.(.(.2X5X5XiX5X5X8X5X4X}.~.#X} X.{ ' i.7.7.q.>.,.,.,.7.3.3.y.^.5XiX0X0X0X0X0X0X>Xl.M.1X7X7X7X7XwX7X1XP.P , 6 j B f.;X:X1X1X<X:X:X:X;X^.M.y.:.,.t.f.k.l.v.b.v.v.n.N.^.P.N.P.I.P.I.^.(.^.^.^.^.^.^.^.^.^.^.^.^.(.(.(.(.(.(.-X-X(.(.(.(.(.(.(.(.;X;X-X;X;X;X-X-X;X;X;X;X;X;X;X:X;X;X;X;X;X;X(.;X;X;X;X;X;X-X-X-X-X;X-X-X<X;X;X;X2XY.9.g N M.:X;X:X:X:X:X:X:X:X:X:X:X:X:X:X:X:X:X:X:X:X:X:X:X:X:X:X>X>X>X>X:X>X>X>X1X>X>X:X:X:X:X>X>X>X>X>X>X>X>X>X>X:X:X:X>X1X1X:X:X:X:X>X>X>X>X1X1X>X1X>X>X>X>X1X1X1X>X>X>X>X,X:X:X>X>X>X>X>X>X>X>X>X>X>X>X1X>X>X>X>X>X>X>X>X>X>X,X>X>X>X>X:X:X:X:X:X:X:X:X:X:X:X:X:X:X:X:X:X:X>X>X:X:X;X;X;X;X;X;X;X;X;X;X;X;X;X;X;X:X;X8.z j.:X:X^.;X^.^.;X1X:X:X:X:X:X;X;X;X;X;X;X;X;X;X;X;X;X;X;X;X(.N.P.;X;X;X;X;X;X;X;X;X-X-X-X-X-X-X-X-X^.^.^.^.^.^.^.^.^.(.(.I.(.(.L.k.N.N.N.I.I.I.I.I.P.I.N.v.t.f.M.v.v.v.v.b.k.k.y.;.#.A A x.b.I.^.N.^.^.;X;XT.f.>.P g ; g t.N.^.;X:X1X:X1X1XN.f.c.-X7X9X0X0X9X9X9X9XP.t.&.P P #.#.#.:.8.t.y.d.^ ` ` ..| ~.oXlX2X3X0XiXiX9X1X^.^.I.I.I.I.I.U.k.a ; , 1 f ^ !.F.~ W u.",
"~ ~ ~ M M ^ +XR.E r , = , %.U./.(.(.(.Y.(.<X2X5X5X5X9XiX6X{.XX&X#X....[ ^ 2.q.1.>.>.;.;.;.;.;.4.a.I.3X0XpXpX0X9X-Xg.T.7X7X9X9X9X8X7X3X1X<XM.C ; r a o.M.;X:X<X1X<X<X:X;XP.M.N.t.,.8.f.f.k.c.l.z.v.n.v.l.g.P.N.M.N.P.^.(.^.I.I.^.I.I.I.I.^.^.^.^.^.^.^.^.(.(.(.-X(.(.(.(.(.(.(.(.;X;X;X;X;X;X;X-X;X;X;X;X;X;X;X;X;X;X;X;XN.I.-X-X-X-X-X-X;X;X;X;X;X;X;X;X;X;X;X;X;X:XY.0.r z I.<X;X:X:X:X:X:X:X:X:X:X:X:X:X:X:X:X:X:X:X:X:X:X:X:X>X>X>X,X>XB.N.I.>X>X1X>X:X:X:X:X>X>X>X>X>X>X>X>X>X>X:X:X:X:X:X:X>X>X>X:X>X>X>X>X>X>X>X>X>X>X>X>X1X1X1X>X>X>X>X>X;X;X>X>X>X>X>X>X>X>X>X>X>X>X>X>X>X>X>X>X>X:X;X^.-X;X>X>X>X>X:X:X:X:X:X:X:X:X:X:X:X:X:X:X:X:X:X:X>X,X;X;X;X;X;X;X;X;X;X;X;X;X;X;X;X-X-X(.8.g 8.;X(.(.(.(.(.(.-X-X(.(.;X;X;X;X;X;X;X;X;X;X;X(.(.(.(.(.(.(.^.N.N.;X(.(.(.-X;X;X;X;X-X-X-X-X-X-X-X-XI.I.I.N.I.I.I.I.^.^.I.P.I.M.l.f.M.N.P.I.P.N.P.P.P.P.N.v.e.g.M.v.l.l.l.l.k.e.#.#.&.k #.M.P.I.I.N.^.:X:X;Xf.&.o.h ; 9 8.N.^.-X:X1X3X1X1X>X1XI.f.g.-X7X9X9X7X9X1XT.e.>.@.P #.#.#.=.=.8.r.u.^ / ` ` }  X+XeXrX5X5X5XiX9X3X;XI.I.I.I.P.I.U.k.a : < 1 3 ~ ' ' K n 4 3 ",
"_.XX!.S.^ K ~ Z.u.R y ; = u 9.(.(./.(.(.I.(.<X2X6X6X9X9XiXrXoX%X&X#X} [ ' ! *.q.&.&.;.;.=.;.;.;.7.a.P.3XpXpX1XI.g.;X7X7X9X9X0X9X8X7X7X1X1X;Xj.h , t t 7.;X;X:X:X:X<X<X:XI.M.P.n.7.8.t.f.f.k.l.z.v.n.v.k.8.n.N.M.N.N.^.(.^.I.I.^.I.I.I.I.^.^.^.^.^.^.^.^.^.^.^.^.(.(.(.(.(.(.(.(.;X;X;X;X;X;X-X-X-X-X;X;X(.;X;X;X;X;X;X;XI.I.^.-X-X-X-X-X;X;X;X;X;X;X;X;X-X;X(.N.l.(.;XY.7.r z (.;X-X1X:X;X:X:X:X:X:X:X:X:X:X:X:X:X:X:X:X:X:X:X:X:X:X,X;X;XV.v.M.:X:X:X:X:X:X:X:X>X>X>X>X>X>X>X>X>X>X:X:X:X:X:X:X:X:X:X:X>X>X>X:X:X:X>X>X>X>X>X>X:X:X>X>X>X>X>X>X>X>X>X>X>X>X>X>X:X:X>X>X>X>X>X>X>X>X>X>X>X;X;X;X;X;X>X>X>X>X:X:X:X:X:X:X:X:X:X:X:X:X:X:X:X:X:X:X,X;X;X;X;X;X;X;X;X;X;X;X;X-X-X;X;X^.<Xt.g ,.;X;X(.(.(.(.(.(.-X-X(.(.;X;X;X;X(.(.;X;X;X;X(.(.(.(.(.(.(.(.^.N.N.;X(.(.(.-X(.(.(.(.-X-X-X-X^.^.-X-X^.^.I.M.l.n.I.^.I.I.I.I.L.M.n.v.M.N.N.P.N.N.N.N.N.P.M.k.8.f.v.g.l.l.k.k.f.,.@.#.P h 8.v.M.P.N.M.-X:X:X(.0.P k 6 0 &.M.^.^.;X:X1X7X1X1X1X;X1X;Xx.M.;X7X9X7X1XB.g.&.o.o.o.@.#.#.#.,.4.u.^ / _ [ ` '  X.X5X5X7X9X9X9X3X;X(.I.I.I.I.P.L.G.j 1 w y y F ' ' ' { ~.S.S.",
"dXvXvX%X%X XQ F M ^ w.y < 8 z f.I.(.(.(.Y.I.(.<X4XtX9XiXaXaX5X{.=X&X .} [ ' u.-.#.$.&.&.=.=.;.;.,.7.f.I.3X1XI.v.1X0X7X9X9X9X9X9X9X7X7XwX1X1XI.t.r , , Z N.I.;X:X1X1X:X:XP.M.P.N.f.8.t.f.t.k.k.z.v.m.v.k.o.f.N.M.M.N.I.^.^.I.P.I.I.I.I.I.^.^.^.^.^.^.^.^.^.^.^.^.(.(.(.(.(.(.(.(.;X;X;X;X^.^.-X-X^.^.^.(.(.^.(.;X;X;X;X(.^.^.-X;X;X;X;X;X;X;X;X;X;X;X;X;X-X:X(.N.T.<X;X;X(.7.t P ^.;X;X;X;X;X;X:X:X:X:X:X:X:X:X:X:X:X:X:X:X:X:X:X:X;X;X;X>XB.B.^.;X:X:X:X:X:X:X:X:X:X:X:X:X:X>X>X>X>X:X:X:X:X:X:X:X:X:X:X;X;X:X:X;X;X:X:X>X>X>X>X:X:X:X:X:X>X:X:X;X;X:X:X>X>X>X>X:X:X;X:X>X>X:X:X:X:X:X:X>X:X;X;X>X>X>X>X>X:X:X:X:X:X:X:X:X:X:X:X:X:X:X:X:X:X:X;X,X;X;X-X;X;X;X;X-X;X-X-X;X-X^.;X:X(.t.z e.^.^.^.(.(.(.^.^.(.(.-X(.(.;X;X;X(.(.(.;X;X;X;X-X(.-X-X(.^.^.^.^.N.N.;X^.^.^.^.^.^.^.^.-X-X-X-X^.^.^.^.^.^.I.M.k.M.I.I.I.I.I.I.P.L.N.M.M.M.N.N.N.N.N.N.N.N.v.f.8.g.k.f.k.k.k.k.k.7.=.P Z o.t.v.M.P.N.v.^.:X;XP.7.c 7 ; C l.P.(.;X:X1X3X3X3X7X7X1X;X1X:XI.I.>X7X1XT.f.<.o.P P P P T #.T 2.u.^ ' _ ' ] / ' _.4X6X9X0XiXiX3X:X(.^.I.I.I.I.(.z.l < w d M M Q _ ' '  X@XOXOX",
"vXvXvX%X!.' Q ' ' n S.^ w w s Y j.I.(.(.(.Y.U.(.2X6X9XiXiXiX9X6X{.XX#X .} ` OXXX2.T %.%.%.=.=.:.;.:.,.f.P.^.:X7X0XpX9X9X9X9X9X9X9X8X7X7X7X1X<X;Xq.7 - p l.M.;X3X3X1X(.I.v.P.P.N.M.e.8.t.t.f.k.k.k.v.v.g.v 8.N.M.n.N.P.^.^.I.P.I.I.I.I.I.^.^.^.^.^.^.^.^.^.^.^.^.(.(.(.(.(.(.(.(.;X;X;X^.^.^.^.;X^.^.^.^.^.^.(.;X;X-X-X-X;X;X;X;X;X;X;X;X;X;X;X;X;X;X;X;X;X;X;X;X;X;X;X;X(.Y.q.a #.^.;X;X;X;X;X;X;X;X;X;X;X;X;X;X:X:X:X:X:X:X:X:X;X;X;X;X;X;X:X;X;X;X:X:X:X:X:X:X:X:X:X:X:X:X>X>X>X>X:X:X:X:X:X:X:X:X:X:X;X;X;X;X:X:X:X:X>X>X>X:X:X:X:X:X:X:X:X:X;X;X:X:X>X>X>X>X:X:X;X;X;X;X;X;X;X;X;X;X:X>X>X>X>X;X>X;X;X;X:X:X:X:X:X:X:X:X:X:X:X:X:X:X:X:X:X;X;X;X;X-X;X;X;X;X-X-X-X;X;X-X(.(.^.8.A j.I.^.B.;X(.(.(.^.^.(.(.(.(.(.;X;X;X;X(.(.;X;X;X;X-X-X-X-X-X^.^.^.^.N.N.;X^.^.^.^.^.^.^.^.-X-X-X-X^.^.^.^.I.^.I.P.N.^.I.N.I.I.I.I.P.I.P.M.M.M.N.N.N.N.N.N.N.N.v.t.8.l.k.f.k.k.k.k.t.7.=.I @.8.l.I.I.^.^.I.B.;XI.l.;.k , t k.P.I.;X:X:X3X7X1X7X9X9X7X1X:X1X1X;XI.;XI.k.>.$.$.o.I I P Y T R ! Z.^ ' ' ' ~.^ R.4XtX9X0X0XiXyX(.(.(.^.I.I.Y.U.b.N , < M M D D._ H H / '  X~.|.",
"$X$X|.' ' ~.OX_ | ] ' OX~ 3 M D P t.N.(.;XI.M.n.'.6X9XiXiXiXiX8X5X{.|.|  .} | &X$X~ D E #.=.#.=.:.:.:.:.r.).9XcXiX0X0X0X9X9X9X9X7X7X7X1X3X1X1X1XQ.@.- 7 7.N.^.3X9X8X;XM.I.I.P.P.N.t.,.8.t.t.j.k.z.v.v.k.C #.N.n.n.M.N.I.^.I.I.I.I.I.I.I.I.I.^.^.^.^.^.^.^.^.^.^.^.^.^.^.^.^.-X-X-X-X;X;X(.(.^.^.^.;X(.^.^.(.(.(.;X;X;X;X;X;X-X-X;X;X;X;X;X;X;X;X(.(.;X;X;X;X-X-X;X;X;X;X(.(.I.0.h $.T.;X;X:X;X;X;X;X;X;X;X;X;X;X;X;X;X;X;X;X;X;X;X;X;X;X;X;X;X;X:X:X,X;X;X;X;X;X:X:X>X>X>X>X>X>X:X:X:X:X:X:X:X:X:X:X,X>X;X;X;X;X:X:X:X:X:X:X:X:X(.;X;X(.:X:X:X:X:X:X:X:X:X:X:X:X:X:X:X;X:X:X;X;X;X:X:X;X;X:X:X:X:X:X;X;X:X:X:X:X:X:X:X:X:X:X:X:X:X:X:X:X:X;X;X;X;X;X;X;X;X;X;X-X;X;X;X-X-XI.^.(.8.A j.(.(.^.^.^.^.^.^.^.^.(.(.(.(.(.(.(.(.(.(.;X;X;X;X(.(.^.^.^.^.^.^.^.^.N.I.^.^.^.^.^.^.^.^.^.^.^.^.^.^.^.^.^.I.^.^.^.^.^.I.N.I.P.P.T.T.N.I.M.M.v.P.N.M.M.M.M.M.M.t.y.t.k.f.f.k.j.f.y.t.;.o.#.y.b.I.;X^.-X;X;X;X1X(.f.#.t 6 7.P.I.^.;X:X1X1X1X1XwX8X7X9X7X1X:X9X5XY.j.e.e.>.$.$.+.I I T W W ~ ~ Q n n Q Z.!.[.4X5X9XiXpXiX5X2X/./.U.I.P.Y.'.J.A 6 y M M K XX%X] _ { |.~.|.|.~.",
"~.~.~.|.$XMXMX X( |  X$XXXK 4 ~ M l 4.L.(.(.I.G./.2X6X8X0X0XiX9X8X4X+X|. .#X ...#X|.K M R =.#.:.=.=.:.:.,.a./.6XiX0X0X0X0X9X9X9X7X7X7X7X3X1X1X>X1Xx.t , o.l.^.9X8X8X1X;X^.I.P.P.N.f.,.8.e.t.y.k.z.l.l.l.o.@.v.L.n.n.N.P.^.I.I.I.I.I.I.I.I.I.I.I.^.^.^.^.I.^.^.^.^.^.^.^.^.^.^.^.^.^.^.^.^.(.^.^.^.-X^.L.^.(.(.(.;X(.(.(.-X;X;X-X-X-X-X^.;X;X;X;X(.(.;X;X;X;X-X-X;X;X;X;X(.;X:XI.0.N $.T.;X-X-X;X;X;X;X;X;X;X;X;X;X;X;X;X;X;X;X;X;X;X;X;X;X;X;X;X:X:X,X;X;X;X;X;X:X:X>X>X>X>X;X;X:X:X:X:X:X:X:X:X:X:X:X:X;X;X;X;X:X:X:X:X:X:X:X:XI.(.:X;X:X:X:X:X:X:X:X:X;X:X:X:X:X:X:X;X:X:X:X;X;X:X;X^.(.;X:X:X:X;X;X;X;X;X;X;X;X;X;X;X;X;X;X;X;X;X;X;X;X;X;X;X;X;X;X-X;X;X;X-X;X;X;X-X^.(.Y.t.B l.I.I.(.^.I.N.I.^.I.^.^.^.(.(.(.(.(.(.(.(.(.;X;X(.(.^.^.^.(.^.^.^.^.^.I.N.I.^.^.^.^.^.^.^.^.^.^.^.^.^.^.^.^.^.^.^.(.^.^.I.P.P.T.P.P.P.N.M.f.v.M.v.M.P.M.M.M.M.N.v.8.f.t.k.f.f.j.f.y.t.8.#.O.,.k.M.I.;X^.-X;X;X;X1X^.t.A 7 I L.I.I.(.;X:X1X1X1X1XwX8X8X9XpX7X(.L.(.x.A P =.>.$.$.o.L U W K ~ Q n J ' Q !._.{.4X5X9XiXiXiX5X(./.P.P.U.P.I.P.E.E y d V D ! !.$X@X[  X*XMX*X=XXXXX",
"!.XXMXMXNXNXNX*X) ( &X%X%X!.n n ^ M f -.n.(.(./.H.(.2X8X0X0XiXiX9X8XeXoX~.#X#X| ..#X$X~ M R -.=.=.=.=.=.:.-.5.`.9X8X9X9X9X9X9X7X1X1X7X7X3X1X1X>X,X;X@.- g 8.I.5X7X5X1X1X(.(.I.I.P.v.,.7.8.t.t.j.k.l.l.l.7.o.f.L.n.n.M.N.^.I.I.I.I.I.I.I.I.I.I.I.I.I.I.I.I.I.^.^.^.^.^.^.^.^.^.^.^.^.^.^.^.^.(.(.-X;XP.z.L.^.(.(.(.I.T.I.-X-X-X;X;X;X^.^.;X;X;X;X(.(.;X;X;X;X-X-X-X-X;X;X;X(.:X;X(.j.C @.T.1X;X-X;X;X;X;X;X;X;X;X;X;X;X;X;X;X;X;X;X;X;X;X;X;X;X;X;X;X,X;X;X;X;X;X;X;X;X;X;X;X;X;X;X;X:X:X:X:X:X:X;X;X;X;X;X;X;X;X;X;X;X;X;X;X;X;XI.;X:X:X;X;X;X;X:X:X:X:X;X;X;X:X:X:X;X;X;X;X;X;X:X:X^.P.I.(.;X:X;X;X;X;X;X;X;X;X;X;X;X;X;X;X;X;X;X;X;X;X;X;X;X;X;X;X-X-X-X-X^.^.(.(.-X-X;XI.p.z a.(.I.^.(.P.v.g.k.v.N.^.^.^.^.(.-X-X(.(.(.(.(.(.(.(.^.I.I.^.(.^.^.^.^.^.P.N.^.^.^.^.^.^.^.^.^.^.^.^.^.I.I.I.I.I.^.^.(.^.P.P.I.P.P.P.P.P.P.M.g.e.k.M.N.N.M.M.M.M.P.v.7.k.t.k.f.f.f.y.t.t.,.#.o.e.b.P.I.(.^.-X;X;X;X:Xn.:.i r z.I.I.^.;X:X:X1X1X>X1XwX8X8X7XpX0X2X;.P A B I &.1.$.#.U W W K ^ / 4 / |.' F.oX{.].5X9XpXiXiX5X(.P.H.P.P.P.P.(.a.U y M D D s.oXMX@X| | &XMXNXNXNXMXjX",
"%XMXNXNXGXNXMX$X) m  X*XMX*X' 2 Q ' 3 y %.b.`.[.H.G.(.7X9X0XiXiX9XrXiXrX+X|. X#X .| &X&X/ M R :.$.$.$.=.T A V b.9X9X9X9X9X9X9X7X1X>X1X1X3X1X1X>X>X,Xv.8 7 $.v.:X7X1X<X<X(.(.^.I.P.n.7.7.8.e.t.y.k.l.l.l.t.Z 8.n.M.n.n.N.^.I.I.I.I.I.I.I.I.I.I.I.I.I.I.I.I.I.I.^.^.^.^.^.^.^.^.^.^.I.I.I.I.I.^.^.^.;XL.y.z.L.(.(.I.M.v.P.I.I.-X-X^.^.^.^.-X;X;X;X;X(.;X;X;X;X-X-X;X-X-X-X;X;X(.(.;XY.k.S Z x.;X^.;X;X;X;X;X;X;X;X;X;X;X;X;X;X;X;X;X;X;X;X;X;X;X;X;X;X;X;X;X;X;X;X;X;X;X;X;X;X;X;X;X;X;X;X:X:X:X:X;X;X;X;X;X;X;X;X;X;X;X;X;X;X;X;X(.;X;X(.;X;X;X:X:X:X:X:X;X;X;X;X:X;X;X(.I.I.^.^.;X;X^.N.P.I.(.;X;X;X;X;X;X;X;X;X;X;X;X;X;X;X;X;X;X;X;X;X;X;X;X;X;X;X-X-X-X-X^.^.^.^.^.(.I.0.S i.U.^.^.^.I.I.N.M.M.v.M.I.^.^.^.^.-X-X(.(.(.(.-X-X(.^.I.I.N.I.(.I.^.^.^.I.N.I.-X^.^.^.^.^.^.^.^.^.^.^.^.^.I.I.I.I.I.^.^.^.N.N.P.P.I.P.P.P.N.M.M.g.8.M.P.M.M.M.M.M.N.l.8.l.t.k.f.y.y.t.t.e.,.@.#.k.M.I.I.I.^.-X;X;X;X^.f.L 8 B L.(.^.^.;X:X1X1X>X1X1XwX8X8X7X7X9XiX'.P B P P $.$.@.T W K K { / 4 / $X!.F.}.].<X6X8XiXpXiXiX(.L.n.b.H.H.J.H.i.V 3 M D D A.GXMX*X| ` [ &XMXNXNXNXbXbX",
"NXNXNXNXvXXX~.] [ ) H #X*XMX*X/ m F 3 : s ;.G.`.U.H.n.^.1X7X8X8XiX8X8X8X6X{.|.|.&X#X#X&X .m M ! #.+.&.&.S 5 w -.I.7X0X7X9X9X7X7X1X7X7XwX3X1X1X1X>X>X(.C , x t.I.<X1X<X(.(.(.I.I.T.M.f.,.7.8.e.y.f.k.l.l.k.o.@.n.M.n.v.v.N.I.P.P.T.P.I.I.I.I.I.I.I.I.I.I.I.I.I.I.^.^.^.^.^.^.^.^.I.I.I.I.^.^.^.^.^.(.L.j.t.L.(.(.I.I.I.T.I.I.^.^.^.^.^.^.^.^.^.^.^.^.^.^.^.^.-X-X-X-X-X-X-X(.(.(.(.^.Y.L.A Z c.-X-X^.^.;X;X;X;X;X;X;X;X;X;X;X;X;X;X;X;X;X;X;X;X;X;X;X;X;X;X;X;X;X;X;X;X;X;X;X;X;X:X;X;X;X:X:X;X;X;X;X;X;X;X;X;X;X;X;X;X;X(.;X;X;XB.B.;X;X;X;X;X;X:X;X;X(.^.(.;X;X;X;X;X-X(.(.(.(.(.I.I.N.I.^.(.;X-X;X;X;X;X;X;X;X;X;X;X;X;X;X;X;X;X;X;X;X-X^.^.^.-X-X-X-X-X-X^.^.N.^.P.I.7.B x.Y.;X(.^.^.I.I.I.I.I.I.I.I.I.-X-X^.^.^.(.(.^.^.^.^.^.^.I.I.I.I.I.I.I.I.I.I.N.I.^.I.^.I.N.I.I.I.I.I.I.I.I.I.I.I.I.N.N.P.I.P.N.N.N.N.P.P.P.P.N.N.M.M.M.M.M.M.M.M.M.n.v.k.7.8.l.f.t.y.y.t.8.7.;.O.;.l.N.N.I.I.^.-X;X;X;XN.8.i < %.L.^.(.:X:X1X:X:X>X1X1X1X1X1X1X1X1X5XI.#.I o.@.+.@.T W K K  X{ 2 H @X!.d.}.].6X5X9X9XpXpX7X;XL.n.m.M.L.E.E.R < * y ~ F ^ GXNX*X| ( ) { |.XX=XNXbXbXvX",
"NXNXNXvXXXOX|. X| } J J @XMXMX$Xn 2 > 1 < j %.i.H.G.v.n.I.1X7X8X8X8XqX8X7X6X{.!.$X&X#X| J J K W 2.@.#.Y B h s h e.:X7X9X7X7X7X7X7X7X7X7X3X1X1X1X>X1X-X;., i =.N.;X<X<X;X(.(.I.I.I.N.f.,.7.8.e.t.y.f.k.l.l.&.I y.n.m.v.v.N.P.I.P.N.N.N.P.I.I.I.I.I.I.P.I.I.I.I.I.I.I.I.I.^.^.^.^.I.I.I.I.^.^.^.^.^.^.I.b.t.n.^.^.I.I.I.I.Y.^.^.^.^.^.^.^.^.^.^.^.^.^.^.^.^.^.-X-XI.I.-X-X^.(.(.(.^.^.^.Y.n.@.A k.^.;X-X;X-X-X-X;X;X;X;X;X(.(.(.(.-X;X;X;X;X;X;X;X;X;X;X;X;X;X;X;X;X;X;X;X-X;X;X;X;X-X-X-X;X;X;X;X;X;X;X-X;X;X;X;X(.(.(.;X;X;X;X(.x.M.^.;X;X;X;X;X;X;X;X^.I.^.(.;X;X-X-X^.(.(.(.(.(.^.I.N.I.^.;X;X-X-X;X;X^.^.^.^.(.(.(.(.(.(.(.(.^.^.^.^.^.^.^.^.^.-X-X-XI.I.I.^.^.).N.-.S b.'.<X(.^.^.I.I.I.I.I.I.I.I.I.I.I.-X-X^.^.^.^.^.^.^.^.I.I.I.I.I.I.I.I.I.I.I.N.N.I.I.I.I.8.$.f.T.P.P.P.I.I.I.I.N.N.N.M.M.N.N.N.N.N.N.N.N.N.N.N.M.M.M.M.M.M.M.M.M.v.n.n.b.f.&.8.k.f.t.t.f.t.8.7.=.O.7.l.M.N.P.I.I.^.-X;XI.l.#., 7 7.L.^.;X:X:X:X:X:X1X1X1X1X1X1X1X5X5X<X=.C Z O.+.o.T W K Q  X| m J  X|.F.R.4X6X6X5X9X8XpX8X;XL.n.n.M.H.U.G.w.< + * M F M _.NXMX| ) )  .&X*XOXXXoX=XvXMX",
"%X%X%X%X%X%X$X$X@X#X[ m ) &XMXMXQ 2 3 M 3 w u j 9.b.n.l.V.I.1X7X9X8X8XqX8X7X4X[.d.$X@XH J ( | ' W A U A L A B z Z v.1X9X7X7X7X7X7X7X3X3X3X1X1X1X>X>X>Xl.5 7 P k.-X;X<X;X(.(.I.I.P.P.k.,.,.8.8.e.t.f.f.k.g.>.v ,.l.v.v.v.v.P.^.P.P.N.N.N.P.P.I.I.I.I.I.I.I.I.I.I.I.I.I.I.I.I.^.^.I.I.^.^.I.I.^.^.^.I.^.L.k.M.P.P.I.I.I.I.^.^.^.^.^.^.^.^.^.^.^.^.^.^.^.^.^.^.^.^.^.-X-X-XI.^.^.^.^.^.^.^.;Xv.@.A t.I.^.^.;X;X;X;X;X;X;X;X^.^.^.^.-X-X-X-X;X;X;X;X;X;X;X;X-X-X-X-X-X-X-X-X-X-X-X-X^.^.^.^.^.^.-X-X;X;X-X-X-X-X;X;X(.(.(.(.^.I.T.B.l.v.^.;X^.^.^.^.;X(.^.I.I.I.^.(.-X^.^.^.^.^.^.^.^.^.^.^.I.^.^.^.;X;X;X^.^.^.^.^.^.^.^.^.^.^.^.^.^.^.^.^.^.^.^.^.^.^.-XI.I.I.I.I.^.m.T L U.Y.(.;X^.^.I.I.I.I.I.I.I.I.I.I.I.I.I.^.^.^.^.^.I.I.I.I.I.I.I.I.I.I.I.I.I.I.P.N.N.I.I.I.P.8.O.8.N.N.N.N.N.N.P.P.M.M.M.M.N.N.M.M.M.M.M.M.M.M.M.M.M.M.v.v.M.M.M.M.v.v.n.n.k.e.7.l.t.t.t.t.t.t.8.,.&.O.t.v.M.M.N.N.I.I.Q.-XM.8.z - h z.P.(.;X:X:X:X:X:X1X1X1X1X1X1X1X5X1Xt.I I +.O.+.P W ~ H {  Xn Q |.~.F.A.].6X5X5X5X7X0X0X<XP.n.n.M.M.H.U.i.w * : 3 F M M %XMX| ) J ` @X$X=XvXvX%XXXXX%X",
"%X%X%X%X%X*X%X$X$X$X@X_ m ` *XMX' > M D 3 3 < 6 l t.L.v.l.v.^.1X7X8X8X7X8X7X5X6Xb.~ ' ` J ..#X@XK M V V B L C C z &.^.5X7X7X7X7X7X3X3X3X3X1X1X1X;X;X>XM.g 5 z 7.I.;X;X;X(.(.I.I.P.P.k.>.,.7.8.e.e.t.y.g.k.8.C O.k.k.v.v.v.N.P.I.P.P.N.N.N.N.P.P.P.P.I.I.I.I.I.I.I.I.I.I.I.I.I.I.I.I.^.I.I.P.I.I.I.I.I.P.P.P.N.N.B.I.I.I.I.I.I.I.I.I.^.^.I.I.I.I.I.I.I.I.I.I.I.I.I.I.I.I.^.^.^.^.^.^.^.P.I.P.k.A C e.N.^.;X;X-X-X;X;X;X;XI.^.^.-X-X-X-X-X;X;X;X;X;X;X;X;X^.^.^.^.-X-X-X-X-X-X-X-X^.^.^.^.^.^.-X-X^.^.-X-X-X-X-X;X(.(.(.(.I.N.M.x.M.M.^.^.^.^.^.^.(.^.^.I.I.I.^.^.^.^.^.^.^.^.^.^.^.^.^.-XI.^.^.^.^.^.;X-X^.^.^.^.^.^.^.^.^.^.^.^.^.^.^.^.^.^.^.^.^.^.-X-XI.I.I.I.l.I T H.).^.^.^.^.I.I.I.I.I.I.I.I.I.I.I.I.I.I.I.^.^.^.^.I.I.I.I.I.I.I.I.I.I.I.I.I.P.N.N.N.I.I.N.P.N.l.l.N.N.N.N.N.N.N.N.N.N.N.N.M.N.M.M.M.M.M.M.M.M.M.M.M.v.v.v.v.M.v.v.v.v.n.n.t.,.t.k.8.t.t.t.t.8.7.,.&.O.f.v.n.M.N.N.I.I.I.^.l.,.e - A n.I.(.:X:X:X:X:X:X>X1X1X1X1X1X1X<Xn.Y v I +.o.o.L K / ( J m ' *XXX^ ^ `.4X2X9X5X5X8X0X<XP.n.b.M.H.H.H.U.V * : < M ~ F S.%X XJ m ) #X&X=XoX%XvXMX%XOXOX",
"vXvXvXvXvXvX%X%X=X=X$X@XH G | MX*X~ K !.W 3 3 w w S y.v.z.k.v.;X5X8X7X7X7X7X3X3X(.5.K ~./ | #X#XH K f V B C v C C B 8.:X7X7X7X7X3X3X3X3X1X1X1X>X:X:X:X<Xz - u ;.M.I.^.;X^.P.N.I.M.P.l.,.#.,.8.8.8.e.t.t.y.k.&.C 8.v.v.v.v.l.v.M.N.N.N.N.N.N.P.P.N.N.I.T.B.T.T.I.N.M.M.N.I.T.P.P.M.v.l.l.v.N.P.P.P.P.P.P.N.P.N.N.N.N.P.N.N.N.I.I.I.I.I.I.I.I.I.I.I.I.I.I.I.I.I.M.M.P.I.I.I.I.I.I.I.I.P.L.M.x.x.z.#.I 9.n.N.I.IXB.B.B.I.I.I.I.-X-X-X-X^.I.;XI.I.I.I.^.-X-X-XI.I.-X^.^.I.I.I.I.I.I.I.I.B.B.B.B.B.I.^.^.^.^.^.^.I.N.I.I.P.N.v.l.k.l.I.I.I.I.N.N.B.I.I.I.I.I.I.I.I.I.B.B.B.B.^.^.I.I.^.I.I.I.B.N.v.f.y.M.M.B.V.v.N.N.N.P.I.^.N.T.I.I.I.T.T.T.I.I.I.I.I.I.I.I.N.N.P.f.C :.P./.I.I.B.B.I.I.I.I.I.I.I.I.I.I.I.I.I.I.I.I.I.I.I.I.I.I.I.I.I.I.T.T.T.I.I.I.N.N.N.N.N.N.N.N.P.P.P.P.M.M.M.M.M.M.M.M.M.M.M.M.M.M.M.M.n.M.M.v.n.n.n.n.v.v.l.l.l.l.v.v.x.v.v.l.8.=.t.t.,.e.e.e.e.8.,.;.P #.f.l.n.n.N.L.P.I.I.N.g.P 0 0 =.M.I.(.;X;X;X;X:X>X>X>X1X1X1X1X1XN.;.I I I I o.o.V K { ` m / *X%Xu.W b.<X2X5X5X5X5X5X3XM.N.b.z.b.J.H.z.3.= * 3 D ~ ~ S.OX X_ J _ @X*X$X=X=X%X%X%X%X%X%X",
"vXvXvXvXvXvXvX%X=X=X%X$X} G m @XMXMX!.MXvX! 3 3 w a P a.v.f.j.P.2X1X5X5X3X1X3X1X>X(.R ~ ' { #XX.J / 4 d C C C C L B #.z.1X5X7X5X1X1X1X1X1X1X>X>X:X:X:X<X%.; q P z.P.^.;X^.P.N.I.M.T.v.8.#.;.7.7.8.8.8.e.8.t.,.c P y.b.k.l.k.k.v.v.v.M.v.v.v.v.v.v.v.v.v.v.v.v.v.l.g.l.M.N.N.N.N.v.t.8.e.v.M.N.N.N.N.N.N.N.N.N.N.N.N.N.N.N.N.N.P.I.I.I.I.T.T.T.T.T.T.T.T.I.N.v.g.k.M.I.I.I.I.I.^.I.I.P.L.L.M.M.G.G.%.z #.l.I.B.B.B.B.B.B.V.V.M.B.I.I.N.N.N.n.n.N.N.P.P.P.T.M.M.P.P.I.I.I.I.I.I.I.I.I.I.I.B.N.N.N.N.B.v.g.l.M.N.v.v.v.b.v.k.k.v.n.N.N.N.N.M.M.M.M.M.M.M.M.M.n.M.M.M.M.M.M.N.N.M.M.M.N.M.V.v.v.l.e.=.e.=.o.<.y.v.l.x.v.v.M.M.M.M.N.x.v.v.v.M.M.M.M.N.N.M.v.M.N.8.z :.b./.I.P.B.B.B.N.N.N.P.P.T.T.T.P.P.T.T.T.T.I.I.I.I.I.I.I.I.I.I.N.M.v.l.l.l.l.l.l.k.g.v.M.M.M.M.M.M.M.M.N.N.N.N.M.M.M.M.M.M.M.M.M.M.v.v.v.v.v.v.b.b.b.b.l.k.k.k.k.l.l.b.x.v.x.j.;.7.f.8.,.8.e.8.8.7.;.=.o.;.j.l.n.n.N.N.P.I.P.n.g.c % 9 8.N.(.^.;X;X;X;X:X>X>X>X>X1X1X1X;X8.P A I I +.o.P D J .. ...&X$Xu.W 4.(.<X1X3X5X3X7X3X;Xv.b.k.z.G.b.T r ; + 3 K Z.S.' OXOXQ m ) #X*X$X=X=X=X%XjXjXvXvXvX",
"vXvXvXvXvXvXvXvX=X%X%XOX] H m _ MXMXXX%XNX+XK M y y s #.t.f.j.x.Y.1X1X1X3X3X1X1X>X>X^.W K {  .) J ..K M S Z C C L B B ;.I.3X3X3X1X1X1X1X1X>X>X>X:X;X:X<Xy.5 8 B 8.n.I.(.^.P.N.I.M.M.M.g.=.;.,.7.7.7.8.8.,.8.8.C a ;.k.y.f.k.k.g.k.l.l.x.v.v.v.v.v.v.v.v.x.l.l.l.l.l.v.M.M.M.M.M.n.l.k.v.M.M.M.N.N.N.N.N.N.N.N.N.N.N.N.N.N.N.N.N.P.P.P.P.N.N.N.N.N.N.N.N.N.N.M.v.l.v.M.N.P.P.P.I.I.I.P.L.P.P.L.G.H.P.4.j z &.8.8.<.<.=.=.O.O.$.$.&.&.$.#.I C v v C A P #.#.#.T #.-.#.T I I I I I @.@.o.o.Z P o.@.;.@.C g P =.;.@.&.&.=.;.,.7.7.,.,.,.,.,.=.=.=.=.O.O.O.O.O.O.O.#.#.#.#.#.=.=.#.#.@.@.@.O.+.O.+.I v I c i x v #.O.I I Z Z P P +.+.P Z P P P P P P +.o.+.Z =.I p 7.m.P.M.N.N.B.N.N.N.N.N.N.N.N.N.N.N.N.N.N.N.N.N.N.N.N.N.N.N.N.N.N.N.M.M.x.l.g.f.f.t.e.f.l.M.M.M.M.M.M.M.M.M.M.M.M.M.M.M.M.n.M.M.M.v.v.b.b.v.v.v.l.l.l.l.k.k.k.g.g.f.g.k.l.x.l.j.0.#.e.e.,.8.8.8.,.,.;.=.@.O.7.j.k.v.n.n.M.P.P.M.l.e.p & x l.N.^.^.;X;X;X;X:X:X>X>X>X>X<X<Xk.#.A I I Z UX+.U M J X.#X#X@X^ W R ).3X<X1X3X5X3X7X<XN.z.z.t.p.G.Y , # # < M ' S.+XOX%X' n m [  X X X$X=X=XjXvXvXvXNXNX",
"vXvXvXjXvXvXvXvX%X%XXXS.' [ ` H @X*X' |.MX%XS.~ M y u l P 0.k.i.n.<X1X1X3X3X1X1X>X>X1Xy.M K ` ( ) ../ f A S C C B A B L y.:X1X1X1X1X1X1X>X>X;X;X;X;X:X<XL.r , a ;.v.I.^.^.P.P.I.M.M.M.k.,.;.,.,.7.7.7.7.7.8.8.o.t S q.j.y.f.g.g.g.g.l.l.l.l.v.v.v.v.v.l.x.l.l.l.v.v.v.v.v.v.v.v.v.M.M.v.n.v.v.M.M.M.M.M.M.M.M.M.M.M.M.N.M.N.N.N.N.N.N.N.N.N.N.N.N.N.N.N.N.N.N.v.n.M.M.M.M.N.N.N.P.P.P.L.M.P.L.n.L.U.G.x.#.k g h k x z c c c v v C I P O.I C C I L A A A I A A L Y P A A P P P P P P P P C S A P C Z c g z Z A k h h k k k B A S A A A A I I I I Z Z Z I C C C C C C C C C C v c z c z z k c c z h z C c c v o.O.Z Z v c c v Z Z Z Z Z Z C C C C h 0 ; 5 9 9 &.N.n.n.n.M.M.M.M.M.B.B.N.N.N.N.N.N.N.N.N.M.M.M.M.M.M.M.M.M.N.N.M.M.M.M.M.M.M.v.l.k.g.l.v.v.v.v.v.v.v.v.M.M.b.v.v.b.v.v.v.v.v.v.v.v.b.b.v.v.v.l.l.l.k.k.k.k.k.k.g.f.f.f.k.k.k.j.e.;.#.t.7.,.8.8.8.;.;.=.#.O.#.8.k.k.v.n.n.n.P.L.v.g.>.5 $ I l.P.^.^.;X;X;X;X;X;X:X:X:X:X:X:X;.I C I Z Z +.P M K {  .#X| / K W a.<X3X1X1X3X5X3X7X:Xl.b.k.9.i.4.8 # = < D S.' ^ %X%XS.OXOX] ] ' { ~.|.%X%XvXvXvXMXnXGX",
"MXMXvXvXMXvX=X%X%X!.' !.$X%X$X@X' _ ] %XMX%XS.S.^ M f d a A 0.9.t.v.1X8X3X3X1X>X:X:X,X^.R f K ` J } #Xf V S A C A A C S #.L.8X3X1X1X>X1X>X:X;X;X;X;X;X(.Y.S , q I t.M.I.^.I.P.N.v.v.v.l.7.=.=.;.,.,.,.,.8.8.8.,.a t %.t.j.j.f.f.g.g.k.k.l.l.v.l.v.v.l.l.l.l.l.l.l.l.l.l.l.l.l.l.l.v.v.v.v.v.v.v.v.v.v.v.M.v.M.M.n.v.n.n.n.n.n.n.M.M.M.M.M.M.M.M.M.M.M.M.M.M.M.M.M.M.M.M.N.N.N.N.N.N.M.M.M.M.v.v.n.b.b.b.v.v.l.y.t.l.v.v.z.z.z.v.v.v.k.k.k.g.k.v.L.b.j.t.j.k.z.z.k.k.z.z.b.b.G.L.L.G.x.x.x.x.x.x.k.k.l.l.k.z.x.l.v.b.x.x.l.l.z.z.z.z.z.z.k.k.k.z.v.v.n.n.k.k.k.k.a.k.#.#.8.8.e.e.8.e.e.t.f.t.e.t.y.8.0.0.8.8.e.e.t.t.f.f.f.f.k.f.j.j.j.j.f.j.j.j.8.@.P Z Z ,.k.b.n.n.M.M.n.V.M.M.M.M.M.M.M.M.M.M.v.M.M.l.x.l.v.v.v.v.v.n.v.n.n.v.v.v.v.v.l.l.v.l.k.l.v.v.v.l.l.l.l.l.l.l.v.k.j.8.k.k.k.k.l.l.l.l.k.k.k.k.k.k.k.k.k.k.j.j.j.k.k.l.f.f.f.f.t.y.7.I #.,.=.,.8.,.,.;.;.=.@.o.O.8.j.l.z.b.b.n.N.v.v.t.O.% % O.v.N.I.^.-X-X;X;X;X;X;X;X1X>X<Xf.+.I I I Z Z +.L f ' *X*X*X/ W W r.(.5X<X1X3X3X5X9X1XI.c.b.a.&.#.u + = 3 ! !.S.' !.OX%XD.|.MXMXvXOX~.]  X X$XMXvXbXNXnXNX",
"vXvXNXNXvXvXMX=X~.' XXvXNXNXMX%X XQ ~.OX%XMX' |.%X~ f f w s T 3.;.7.N.<X5X3X>X>X>X>X>X>XN.L f / ` } #XK f P S C A A C S I t.;X1X1X>X>X>X>X:X;X;X:X;X;X-X(.#.< , h >.v.N.^.I.P.M.v.v.l.l.8.&.=.=.,.,.;.;.,.7.7.7.P t z q.t.f.f.f.f.f.g.k.k.k.k.k.l.l.l.l.g.f.k.l.v.l.l.l.l.l.l.l.l.l.l.l.l.l.x.x.v.v.v.v.v.v.v.v.v.v.v.v.v.v.v.v.v.v.v.v.v.v.l.v.v.v.v.v.v.v.v.v.v.v.n.n.M.M.M.M.M.M.M.n.n.n.v.v.v.b.v.v.v.l.z.j.;.e.k.f.f.f.f.f.g.f.t.t.e.e.e.t.k.y.0.7.y.k.k.k.f.y.f.f.k.k.x.x.x.x.x.x.x.x.x.l.l.l.v.b.k.k.k.k.l.l.k.k.k.k.k.k.j.j.j.j.k.k.k.k.l.l.v.v.l.k.l.l.v.8.h z I P O.o.$.=.&.;.t.k.k.e.7.q.7.7.,.7.8.t.t.f.f.f.t.t.f.f.f.f.f.f.f.f.j.f.f.8.@.o.7.l.v.v.b.b.v.v.v.v.v.v.v.v.v.v.v.v.v.v.v.v.l.f.g.c.l.v.v.v.l.v.k.v.v.l.l.l.l.l.l.v.v.v.l.l.l.v.l.l.l.l.c.k.k.k.k.f.f.8.f.f.f.f.f.f.f.f.f.f.f.f.f.j.f.f.f.f.f.f.j.j.k.k.t.t.y.y.t.,.I z #.;.;.,.8.>.=.=.#.#.o.I &.t.k.b.k.z.b.n.M.b.k.8.c & 5 $.v.M.I.^.-X-X;X;X;X;X;X;X;X1XI.=.A I I A Z Z o.A M $XMXMXXX~ W T ).3X5X2X1X3X3X3X3X:XP.k.z.t.P N < * 1 W !.' / W.%X%XNXvX~.XXNXNXNX%X X' { |.*XMXNXNXNXNX",
"NXNXNXNXvX%XOX^ !.=XMXNXnXNXMX*X X{ ] !.OXMXS.' vXD.M f 3 w u T #.;.l.;X5X3X1X1X:X<X<X<X:Xk.L W ' [ #X' 3 V C A A A C S z @.P.1X1X>X>X>X>X>X;X;X:X;X;X-XL.A 6 ; e o.g.v.I.I.N.M.v.l.l.k.8.#.O.&.;.;.=.=.;.,.,.,.;.C r P 7.e.e.e.t.e.f.f.f.f.f.f.f.f.f.f.f.t.f.k.k.g.g.k.f.f.k.k.k.l.l.l.l.l.l.l.l.l.l.l.l.l.l.l.l.l.l.l.l.l.l.v.l.l.l.l.l.k.k.k.k.k.k.k.l.l.v.l.v.v.v.v.l.l.v.v.v.v.v.v.v.v.v.v.v.v.l.l.l.c.k.l.7.f.k.g.k.k.k.k.f.f.f.f.e.8.8.t.t.t.t.t.8.t.f.t.t.e.t.t.t.t.f.j.j.c.l.l.l.l.l.l.v.v.l.l.g.g.g.k.l.k.k.g.f.f.f.f.f.f.f.f.y.t.t.y.y.y.f.f.g.g.g.g.k.8.g x c k k k g g p k 8.c.g.,.O.;.,.,.;.,.e.t.t.t.t.t.t.f.f.f.f.k.g.g.g.f.f.f.f.o.p z t.k.c.v.z.z.k.k.g.g.k.k.g.g.k.k.k.k.k.k.l.g.f.f.f.f.f.f.t.e.=.#.f.l.l.k.k.l.l.l.l.l.k.k.k.g.f.f.g.g.f.f.f.f.f.f.t.0.t.7.e.e.e.e.e.t.e.t.e.e.e.e.e.e.e.e.t.t.t.t.t.t.t.t.t.t.t.t.0.#.i I ;.#.=.=.=.$.#.#.O.P I C ;.t.k.l.z.z.v.m.n.v.t.#.e & g =.l.M.B.^.-X-X;X;X;X;X;X;X>X-Xe.P A C A A I I A d K $XMXvXd.! L z.2X1X2X<X1X1X3X1X1X:XP.l.k.3.g 5 $ 1 f ' ' Q ' %XNXmXNXNX!.}.NXNXGXNXNXOX' '  X&XMXNXNXGX",
"NXNXNXNX%X~.^ S.vXNXNXNXnXNXbXvX$X~. X%X$XOX~.~ +X%X~ D 3 < w N #.;.b.<X5X3X1X1X<X<X2X<X3X;Xe.E ^ ` #X X4 f Y I A A C C z C t.;X>X>X>X>X>X>X;X;X:X;X;X-X7.z r ; , k ,.N.I.I.N.v.l.l.k.k.e.#.o.&.;.=.=.=.;.;.;.;.=.Z h A =.;.;.>.,.,.,.8.8.8.8.8.e.e.e.e.t.8.8.t.e.8.8.8.8.8.e.t.f.f.g.k.l.g.c.g.g.g.g.f.f.f.g.g.f.f.g.g.f.f.f.g.g.g.g.f.f.f.f.f.f.f.f.f.f.f.g.g.k.k.k.k.g.g.g.g.g.l.l.v.v.v.l.l.l.l.l.l.l.k.k.v.t.k.k.f.t.t.t.t.8.8.8.8.8.,.,.8.8.8.e.e.8.e.f.e.e.e.t.t.t.t.f.f.j.j.k.c.l.l.l.l.l.l.g.f.f.g.k.l.l.k.k.f.y.f.y.y.t.f.f.f.e.e.e.e.t.t.t.t.t.e.f.f.f.8.k x b g 7 9 t 9 9 g I &.$.I I ;.8.>.=.,.e.y.t.t.t.t.8.8.8.8.f.f.f.f.f.f.f.f.8.Z k @.t.f.g.k.j.j.f.f.f.f.f.f.f.f.f.f.f.f.f.f.,.>.,.8.e.8.,.>.$.h 5 p >.g.k.f.k.k.g.k.g.f.f.e.t.t.e.e.e.e.e.e.t.t.t.0.7.7.8.,.7.7.7.8.8.8.,.8.8.8.8.8.8.8.r.8.8.8.8.8.8.7.,.,.e.e.t.t.7.Z h B z c O.O.o.o.o.O.I A C c &.t.y.j.z.k.z.b.n.l.e.P - - z =.f.n.B.I.I.-X-X;X;X;X;X;X-XM.=.C C C A Z I A l 3 ^ =XoXA.6.R 4.(.1X<X;X:X>X1X1X3X3X1X(.v.f.#.6 X * 3 K ' / ' $XMXmXGXNXMXXXMXNXnXNXGXGXNX$X' '  XMXMXNXGX",
"BXNXNX%X' ' |.vXMXnXnXnXNXbXMX%X|.~.*X*X%X|.$X' Z.vX!.F.f 3 < r $.q.Y.5X5X4X5X;X<X<X<X:X;X:XB.:.! '  X&XQ 1 l I B C C C B z @.M.1X<X:X:X:X:X:X:X;X;XI.;.c t r ; ; t &.l.I.I.N.x.x.l.f.e.O.o.O.P O.O.O.O.@.@.@.@.I P O.#.#.#.#.#.$.$.$.$.&.#.#.#.;.;.;.;.;.;.,.,.;.$.$.;.7.7.7.7.8.8.f.f.f.f.f.f.f.g.f.f.8.8.e.t.g.f.f.g.g.f.t.e.f.f.f.f.e.e.e.e.e.e.e.e.t.t.f.f.f.8.7.7.8.,.>.,.,.8.e.g.f.g.k.l.l.c.c.j.f.f.j.k.7.,.8.7.,.,.,.,.,.,.,.,.>.>.>.>.,.<.<.<.<.<.<.<.8.8.8.8.8.8.8.8.8.e.e.7.7.8.8.e.8.e.e.t.7.7.7.7.8.8.8.7.,.,.;.;.;.;.;.;.;.=.&.&.;.;.;.&.@.&.;.=.=.=.v v Z 9 0 9 p p e p i h k z I o.O.+.O.:.>.;.=.=.=.$.#.#.O.O.>.8.8.,.8.7.,.,.>.>.>.>.,.7.8.8.t.8.8.8.e.e.e.e.e.e.e.e.e.e.8.8.+.o.$.=.=.=.=.=.O.I Z P 7.t.g.k.k.k.k.k.t.f.e.e.e.8.8.e.e.e.e.e.8.8.8.8.8.8.,.$.P #.;.;.;.;.;.;.;.;.=.=.;.;.;.;.;.;.;.;.;.;.=.&.;.7.t.8.;.P o.Z c C Z I I I I I Z C z h O.8.y.j.j.j.z.z.j.t.=.p & , z z L y.I.B.I.I.^.(.;X;X;X;X;Xt.P I C C A C v L q 3 D.oX/.r.:.;.G.<X:X;X;X;X>X:X1X7X3X<X(.l.f.&.; O : K ' ' Q  XMXvXNXNXNX=X%XMXMXNXGXGXGXBXNX*X X' |.*XMXNX",
"NXMX!.^ ' $X*XMXNXnXnXbXmXvXOXXX|.$X*XMX*X%X$X!.Z.%X*X%XF 1 < t 1.8.(.5X'.U.Y.I.1X1X;X;X;X;X-Xf.4.u.~.$X~.> 3 L L C C C c z I e.:X:X:X:X:X:X:X;X;X;XN.C Z g a 7 - 0 h 7.M.P.N.x.g.g.e.;.O.8.l.g.f.f.j.k.k.k.k.k.g.k.v.m.k.k.k.k.k.k.k.k.k.j.j.j.k.k.k.k.k.k.l.l.l.l.l.x.v.v.v.v.v.v.l.g.l.l.v.v.M.N.P.N.N.I.M.k.N.T.M.l.g.v.P.I.I.I.I.I.N.P.P.P.I.I.I.I.I.I.I.I.I.N.M.M.M.v.l.v.l.l.v.v.l.l.v.v.M.N.M.M.v.n.N.T.v.z.n.b.v.v.v.v.v.v.n.n.M.M.M.M.M.M.M.M.M.M.N.N.N.N.N.N.N.N.N.N.I.N.v.g.g.k.l.l.v.v.M.M.M.M.M.M.v.v.l.l.l.c.k.k.k.k.k.k.v.v.l.l.M.M.n.l.v.M.N.M.M.N.v.v.v.<.=.e.f.t.t.t.y.y.f.j.f.f.g.g.f.f.g.f.f.f.g.l.h.g.g.g.f.f.g.k.l.l.l.l.v.v.v.v.M.M.M.M.M.M.M.N.I.I.P.P.I.I.I.I.^.^.^.I.I.I.I.P.N.N.N.I.^.^.I.P.M.N.N.N.N.N.N.N.M.v.v.P.P.N.M.M.N.N.N.N.N.N.N.N.I.N.M.v.e.e.f.v.n.n.n.n.v.v.v.v.v.v.v.v.v.v.v.v.v.l.k.k.f.8.f.y.z.k.x.l.v.v.l.l.k.g.g.f.t.e.7.,.C #.y.e.y.f.j.j.f.;.x , O 0 a w w P M.N.T.I.I.^.-X(.(.(.N.#.I I C C C C A l < W [.[.b.0.;.p.(.:X;X:X;X;X;XI.-X3X1X1X;Xl.8.@.; o f F.OX X' OXMXnXNXNXvX' XX*X%XvXNXNXGXnXNXNXMX|.^ ' *XMX",
"*X{ ^ ~.*X%XjXBXNXnXbXMXvXXX X|.OX*XMXvXMXMX%XXX!.oX%XMXu.3 3 r $.8.;X5X/.P.I.I.1X1X1X1X;X;X;XM.,.5.F.OX@Xn * L T I B C B z c #.P.:X:X:X:X:X;X;X:XN.8.&.#.C h 8 # # , c f.N.N.x.g.8.;.=.t.v.v.l.l.v.M.N.P.L.L.L.P.P.P.P.^.^.I.I.I.I.I.I.P.P.P.P.P.P.I.I.I.I.I.I.(.I.I.(.I.I.I.I.I.I.N.l.l.v.M.M.N.I.^.I.I.^.P.l.V.N.M.g.=.M.3X1X:X:X:X:X:X:X:X:X1X1X1X1X1X1X1X1X1X:X:X1X1X1X1X5X3X;X1X:X;X:X:X:X<X;X<X1X<X<X1X1X1X<X3X1X3X3X3X3X3X3X3X3X3X3X3X3X1X1X1X1X1X1X1X1X3X3X3X3X3X3X3X3X1X:X;X;X:X;X;X;X:X:X:X1X1X1X3X3X1X;X;X>X:X>X1X1X1X1X1X1X1X1X1X1X;X;X(.P.P.I.(.(.I.^.(.;X<X(.(.<X<X;X;X;X;X;X;X;X;X;X:X1X<XI.M.N.v.v.N.-X-X-X-X^.M.v.M.(.:X:X<X1X1X1X1X1X:X;X;X;X;X:X1X1X3X3X3X3X5X5X5X5X3X3X3X5X7X7X3X1X;X^.;X1X3X7X7X1X1X:X:X>X:X:X:X:X<X;X^.v.M.I.^.;X^.^.^.^.^.^.^.^.;X;X(.I.(.M.M.I.P.P.P.P.I.^.(.(.(.(.(.(.^.^.^.^.^.I.P.N.v.8.8.8.y.n.M.n.M.n.v.l.v.v.l.k.v.l.k.f.,.Z #.7.8.e.y.f.8.v , X & - 7 r U Y k.M.N.I.I.^.^.^.^.^.f.C I I C C A C C q w K.[.U.j.7.3.G.2X:X;X:X:X:X^.N.I.1X1X1XY.f.e.#., @ f !.$X|.OXMXNXNXNXNXXXF.~.OXOXXXvXNXNXNXNXNXNXMX%X' Q @X",
"' ' ~.&XMXvXjXBXbXbXNXMX=X!. X&X%XMXNXNXMX*X$XXX=X+X+XvXu.3 w w $.8.:X4X'.'.<X-X1X1X1X1X>X>X>X-Xf.:.u.~.$X^ * f T A B L z C v Z f.(.:X:X:X;X;X(.v.f.f.,.@.C 9 & O O & 6 $.x.M.x.8.#.;.g.N.M.k.M.v.M.P.I.^.I.I.).^.^.^.^.^.I.I.I.^.I.^.^.^.^.).^.^.Y.(.(.(.(.(.-X-X(.(.-X(.(.(.(.;X:X^.M.f.g.l.l.M.M.M.l.M.N.P.I.B.^.^.B.I.:X1X<X;X;X;X;X1X1X1X1X1X1X1X1X1X1X1X1X<X:X:X1X<X:X1X5X:XM.(.:X;X;X:X:X;X<X1X1X<X<X1X1X1X<X3X1X3X3X3X1X1X1X1X1X3X3X3X3X1X1X1X1X1X1X1X1X1X1X1X1X1X1X1X1X3X:X;X:X3X1X1X<X;X;X;X:X<X<X<X:X>XI.I.;X;X:X1X1X1X1X1X1X1X1X1X<X-XY.P.v.M.P.I.P.I.I.(.;X:X:X<X:X<X1X;X;X;X<X1X1X:X;X;X1X;Xv.f.k.f.t.c.T.I.I.T.B.l.f.l.I.;X:X<X1X1X1X1X1X<X:X;X;X^.;X:X1X:X:X:X:X1X1X1X1X1X3X3X7X7X7X7X7X;X^.-X3X7X7X7X3X1X:X:X3X1X1X1X1X<X1X;X,.>.g.I.;X;X;X;X;X;X;X;X;X;X;X;X;X(.I.I.^.P.P.P.P.P.P.I.(.(.(.(.(.(.(.(.(.^.^.I.P.M.l.t.;.f.M.M.N.N.M.M.M.N.n.v.k.b.v.l.k.l.7.A #.;.q.8.t.P 5 X O O # ; 7 N a >.x.N.T.I.I.^.^.^.^.#.I C C C C A C l , E `.J.x.q.>.j.(.(.<X<X:X:X:X^.^.^.<X;X1XT.8.f.=.< + f !.$X%XMXMXMXNXNXvXoX*X*X|.|.$X%XvXvXbXNXGXNXNXNXMX|.Q ",
"' |.*XMXvXvXBXNXNXMXvX%XXX$X@X~.*XMXMXMXMXMX%X$X|.XX%X+Xu.y 6 w $.8.(.<X2XaX7X:X1X1X1X1X>X1X:XI.V.,.5.A.|.|.4 1 P I C L B c C Z &.I.<X(.;X;XI.v.j.k.e.#.C 7 & . X X X & k c.l.8.=.=.k.N.N.M.v.v.P.M.P.I.(.I.I.I.I.I.I.I.I.I.I.I.I.I.^.^.^.^.).).^.-X-X-X-X-X-X-X(.^.^.-X;X;X(.;XI.^.I.I.l.N.(.;X:X:X:X:X<X<X1X1X3X1X1X:X3X1X:X;X;X;X:X1X:X:X:X:X<X<X1X1X1X1X1X1X:X:X:X:X:X:X:X:X;X;X;X;X:X;X:X1X1X1X1X1X>X>X1X1X1X1X1X1X1X1X1X1X1X1X1X1X1X1X1X1XwXwXwXwX1X1X1X1X1X1X1X1X3X3X3X3X3X3X3X3X1X1X1X1X1X(.^.:X3X3X3X3X3X;X;X3X1X3X7X7X1X1X1X1X1X>X1XN.8.1X1X1X1X1X1X1X3X3X>X;X;X;X>X1X1X1X1X1X1X1X>X1X-X;X>X1X;X<.I O.$.+.<.l.M.v.f.,.>.g.f.f.^.;X;X^.;X;X<X1X:X:X:X:X-XB.;XI.^.:X3X3X1X1X1X1X>X>X>X:X1X:X;X^.B.^.-X:X:X:X^.^.I.^.^.-X(.-X-X-X:X;X-X^.^.^.(.:X;X;X;X;X;X;X;X;X<X:X:X:X;X^.^.;XI.I.I.(.I.I.I.I.(.(.^.I.^.^.^.^.^.I.N.M.n.N.N.N.I.I.I.I.I.N.N.M.n.n.v.f.j.l.n.v.b.v.7.B o.,.8.>.6     & O & - 0 q q $.C.e.v.P.P.I.I.^.M.C C C C C c C I 8 w s.J.b.0.;.,.L.(.(.(.;X;X;X;X^.:X0X8X1X;XM.8.f.8.8 + y F.=XXX%X%XMXvXMX+XXX%X%X!.%XMX*X=X=X%XNXGXGXNXNXNXvXOX",
"=XMXMXvXvXnXNXbXNXvX%X%X%X*X*X~.XXMXNXMXMX$X|.~.!.%X+XD.W w r t >.f.;X<X2XzX9X:X1X1X1X1X;X;X;X^.B.f.4.d.XXXXW * a I c l z C A I o.M.(.(.-XI.v.k.x.j.=.x 7 &   .     X X 7 8.f.$.$.l.P.I.M.M.n.n.v.v.v.n.M.n.n.M.M.M.M.M.M.M.M.M.M.M.M.M.N.N.N.N.I.I.I.I.I.I.I.I.^.I.I.^.I.I.B.M.P.^.;X(.N.^.:X:X:X:X:X:X<X<X<X<X>X>X:X:X:X;X^.^.I.B.I.^.^.^.^.^.;X;X;X;X;X;X;X;X(.I.I.N.M.M.M.N.^.^.^.^.;XI.;X:X:X:X;X;X;X;X:X:X1X1X1X1X,X;X;X;X:X,X,X;X:X:X:X:X1X1X1X1X>X>X>X:X>X:X:X;X;X;X;X;X:X:X:X:X1X1X1X1X1X;X:X1X1X1X1X1X:XI.B.I.B.B.^.^.I.I.I.I.I.M.V.8.8.I.;X1X>X:X>X1X>X;XI.V.l.h.V.B.;X;X;X;X;X;X;X;X-X-X;X>XI.g.8.8.f.g.l.V.N.M.g.8.e.l.f.f.M.N.N.M.N.I.;X:X:X:X:X:X:XN.V.;XI.^.^.;X;X;X;X;X;X;X;X;X;X;X^.I.N.N.^.^.I.B.N.M.N.N.I.I.I.^.^.^.-X;X1X1X0X7X1X;X;X;X;X;X;X;X;X;X;X:X;X^.^.N.N.n.v.N.I.I.L.L.L.P.P.L.M.M.N.N.N.N.N.M.v.v.v.N.I.I.N.N.N.N.M.v.v.v.v.v.l.f.@.&.M.M.v.n.l.;.$.7.0.I &   O & O X $ 0 t Z $.>.=.f.v.N.I.I.P.8.C C C C C v c s + B J.K.y.;.#.f.(.'.(.(.;X;X;X;X^.1XkXpX5X1XT.0.f.7.q $ 3 u.+X=X!.^ ^ XX=XXXvX+X_.vXMXvXMX=XOXXXvXNXGXGXGXNXMXMX",
"NXNXvXNXNXNXbXvXvXvXvXMXvXvXMX%X' *XMX*X~.' ' XXvXvX_.! M w w r 8.M.<X<X5XxXiX<X1X1X1X1X;X-X-X-X:Xv.,.4.!.XXD.1 , C z z c C I I v t.;X;XI.M.x.k.j.-.l , & X O & & X X & 5 +.o.@.v.).I.-XN.M.v.l.t.k.n.M.^.I.I.I.(.(.^.^.(.(.-X-X-X-X^.^.;X;X;X;X;X;X;X;X;X;X;X:X:X:X:X:X:X:X^.^.1X3X1X;X;X1X3X3X1X1X1X1X1X1X3X3X1X1X3X1X1X1X1X<X3X1X1X1X1X1X1X1X3X3X3X3X1X1X1X1X7X3X1X:X<X<X<X1X:X:X:X:X1X:X^.1X1X1X1X1X1X1X1X1X1X1X1X1X1X1X1X1X1X1X1X1X1X1X1X1X1X1X1X1X1X1X3X3X3X3X5X5X3X3X3X3X3X3X3X3X3X3X3X7X7X7X7X7X7X7X7X7X7X3X>X>X:X>X>X>X>X>X>X>X:X:X:X-X-X;X;X:X:X:X:X:X>X1X>X^.M.V.B.;X1X1X1X1X1X1X1X1X3X3X7X7X7X3X3X3X3X3X3X1X:X3X1X:X1X<X;X;X:X1X1X:X1X1X1X<X1X1X1X1X1X;XI.3X9X1X:X>X1X1X1X1X1X1X1X1X1X1X1X<X:X:X:X:X:X:X;X;X1X1X>X>X>X>X>X>X1X1X1X1X1X;X1X<X3X3X3X3X3X3X3X3X:X1X:X;X^.;X:X:X^.(.(.(.(.(.(.(.(.I.I.I.I.I.I.I.I.I.N.I.I.I.^.^.I.I.I.I.M.v.M.M.N.N.v.k.b.@.;.v.P.P.L.x.8.>.t.h   & O         & % 9 UX>.&.,.g.M.N.P.l.I C C C C A C z < ; 5.G.k.8.o.=.v.(.'.(.(.;X;X-X-X-X>XpXVXpX<XI.M.j.7.i = < R R.oX%X!.' ^ ' !.OX+XvXbXNXbXNXvX%X%X%XvXNXNXNXNXNXNX",
"NXNXNXNXNXNXbXjXvXMXvXvXvXNXNXMX|. X$X~.S.|.%XMXvXeXd.V f w e C v.I.1X<XiXAXiX1X1X1X1X1X-XI.I.;X>XN.e.:.d.}.XXM + s C A C C A I z =.(.(.v.c.c.j.=.a - O   & $ $ $ & O & t o.@.k.I.L.M.v.l.f.8.:.m.I.(.(.(.(.^.(.;X;X;X;X;X;X<X<X>X>X<X<X<X<X>X:X:X>X:X:X;X;X;X>X:X:X:X:X1X1X1X1X3X1X:X^.1X7X0X8X7X7X7X7X7X7X7X7X3X3X7X7X7X7X7X7X0X7X3X7X7X7X7X7X7X7X7X8X8X7X7X7X7X7X7X7X7X7X7X7X1X1X1X1X1X^.f.1X9X9X0X0X0X0X0X0X9X9X9X9X9X9X9X9X0X0X9X9X9X9X0X0X9X9X9X9X9X9X9X9X0X0X0X0XpXpXpXiX7X7X7X7X7X7X7X7X7X7X8X8X8X8X8X8X8X8X8X8X7X8X8X8X8X8X8X8X8X8X7X8X0X9X9X8X7X7X7X7X7X9X9X7X9X9X9X9X9X9X9X9X7X7X7X7X9X9X8X8X0X0X0X8X0X8X7X8X7X0X0X7X0X9X0X8X7X0X0X7X5X5X5X7X7X7X7X7X3X3XN.,.^.1X1X1X7X7X7X3X3X1X1X3X3X3X5X5X7X7X7X7X7X7X7X8X9X9X7X7X7X7X7X7XwX1X1X1X1XT.<X7X5X5X5X5X5X5X5X5X;X1X1X;X;X>X>X:X;X;X;X;X:X:X<X<X<X<X;X;X:X:X:X:X;X;X;X;X:X^.^.;X^.^.^.^.N.N.I.^.I.I.N.v.j.8.C 8.I.I.P.L.g.8.&.g # # O   .           0 Z >.,.8.l.v.v.8.v C C C C A B j # N z.n.f.=.I e.^.(.(.(.(.(.;X;X;X-XI.7XCXCX;XT.;Xx.;.i 5 < V u._.oXMXMX%X' ~ ' vXNXNXNXnXnXNXMXMX%X%XvXNXNXBXNXNX",
"NXNXNXNXvXvXvXvXvXvXvXmXNXNXNXMX$X' ' |.%XvXvXjXeX/.r.l 7 9 I f.(.1X1XiXAXkX7X1X;X;X<X;XI.-X;X1X<X-Xf.O.7.K._.F.1 w Y P A C c v x Z I.v.f.l.l.>.e & O O & # $ $ & X O 0 O.f.v.M.P.L.P.b.z.,.7.L.P.I.^.^.;X;X:X:X:X:X:X;X<X<X<X<X3X3X3X3X<X<X<X<X1X1X>X1X;X;X:X:X:X:X:X:X:X1X3X3X3XI.M.P.3X3X3X3X7X7X8X8X8X8X5X1X5X7X8X8X9X9X8X8X7X7X7X7X7X7X7X7X7X7X7X7X7X7X7X7X9X9X9X9X9X9X9X9X9X7X7X7X>Xg.B.7X9X9X0X0X0X0X0X0X7X7X7X9X9X9X9X9X7X7X7X7X7X9X9X9X9X9X9X9X9X9X9X9X0X0X0X0X0X9X9X9X9X9X9X9X7X9X7X1X7X7X9X9X0X0X0X0X0X0X8X8X9X7X8X0X0X0X0X0X0X8X7X8X8X8X0X0X0X8X9X7X9X0X0X0X0X0X0X0X0X0X0X0X0X0X0X0X9X9X8X8X8X0X0X0X0X0X0X0X0X0X0X0X0X0X0X0X0X0X0X0X7X7X7X7X7X7X7X7X7X9XB.Z 8.N.3X7X9X9X9X9X9X9X7X9X7X7X7X7X9X9X9X9X9X9X7X7X7X7X7X7X7X7X7X7X7X7X7X1X1X1X3X3X3X3X3X3X5X5X5X3X:X;X1X1X<X<X<X1X1X;X;X;X<X<X<X1X1X1X1X1X:X:X:X:X:X;X;X;X:X:X:X:X;X;X;X;X^.^.^.I.I.I.I.I.M.k.y.Z 7.b.v.N.M.t.;.,.x % & O             O - Z >.e.f.l.j.O.z C C C C I I 5 - 9.z.b.,.P o.n.;X(.<X(.;X;X;X;X;X;X;X1XkXAX0XI.T.:Xb.O.x i j T b.K.oXMXvX%X~ K |.MXMXNXNXNXNXMXMXvXjXjXvXMXNXNXNX",
"NXNXNXMXjXjXvXvXNXNXNXNXNXGXNX*XS.' |.%XvXvXhX2Xz.8.=.C z O.l.^.^.5XFXAXkX7X1X1X<X<X<X(.-X-X<X1X1X:XV.$.&.p.R.R.W : P #.B c v I Z k v.c.g.j.>.r $ X X # $ % $ # # $ 9 ;.l.P.I.L.L.G.L.b.4.e.P.).(.(.(.(.:X:X:X:X:X:X:X:X<X<X1X1X1X1X1X1X<X<X1X1X1X1X1X1X1X1X1X1X1X1X3X3X3X3X3X3X;XI.P.:X5X5X7X7X7X7X8X8X8X7X1X1X5X7X8X7X8X9X8X8X7X7X7X7X7X7X7X7X7X7X7X7X9X9X9X9X9X9X9X9X9X9X9X9X0X0X0X9X^.I.1X9X9X0X0X0X0X0X0X0X9X7X9X9X9X9X9X9X8X8X8X9X9X9X9X9X9X9X9X9X9X9X0X0X0X0X0X0X0X0X0X0X9X9X9X9XpX9X1X-X9X9X0X0X0X0X0X0X0X0X8X8X9X7X8X0X0X0X0X0X0X0X8X0X0X0X0X0X0X0X0X9X9X0X0X0X0X0X0X0X0X0X0X0X0X0X0X0X0X0X0X0X0X0X9X0X0X0X0X0X0X0X0X0X0X0X0X0X0X0X0X9X9X9X9X9X9X9X9X9X7X9X;Xv.6X4X5X0X9X9X9X9X9X9X9X9X9X9X9X9X9X9X9X9X9X7X7X7X7X7X7X7X7X7X7X7X9X7X7X7X3X3X3X3X3X3X3X3X5X5X5X5X7X;XI.1X<X<X1X1X1X:X;X<X1X1X1X1X1X1X1X1X:X:X:X:X:X:X:X:X:X:X:X:X;X;X;X;X;X(.(.^.^.^.^.^.I.I.v.t.v 8.M.v.I.N.t.,.e.Z 0 & & & & # % &     % Z e.g.k.7.z j C C C C I j + u y.j.f.&.c 8.(.(.(.;X(.;X;X;X;X;X;X;X:X8XkXzX<XM.L.:X;X,.C j I -.K.A._.%XvXMX' ~ XXMXNXNXNXNXNXNXNXvXjXjXvXvXMXNX",
"NXNXvXjXvXvXNXNXNXGXGXGXNXNX%X' S.OX=X%XjX4X/.l.,.=.#.:.8.n.^.N.9XFXAXkX7X1X1X<X1X1X<X(.;X;X;X>X1X1XI.>.#.4.A.K.K.y j I k z v v v h ;.f.c.8.g & X & & $ % $ # $ 7 Z 7.M.I.(.I.I.P.L.b.&.;.n.(.(.;X;X;X;X:X:X:X:X<X<X<X<X1X1X1X1X1X1X1X1X1X1X1X1X1X1X1X1X5X5X5X5X7X7X7X7X3X3X3X3XI.P.(.7X7X7X7X7X7X8X8X8X5X1X<X1X7X9X7X7X7X7X7X9X9X9X9X9X9X9X9X9X9X9X9X9X0X0X0X0X0X0X0X0X0X0X0X0X0XpXpX7X-X1X0X0X0X0X0X0X0X0X0X0X0X0X0X0X0X0X0X0X0X0X0X0X0X0X0X0X0X0X0X0X0X0X0X0X0X0X0X0X0X0X0X0XpXpXpXpXpXpXpX9X0X0XpXpX0X0X0X0X0X0X0X0X0X9X9X0X0X0X0X0X0X0X0X0X0X0X0X0X0X0X0X9X9X0X0X0X0X0X0X0X0X0X0X0X0X0X0X0X0X0X0X0X0X0X0X0X0X0X0X0X0X0X0X0X0X0X0X0X0X0X0X0X0X0X0X0X0X0X0X0X0X0X7Xv.5X5X5X0X0X0X0X9X9X9X9X9X0X0X0X0X9X9X9X9X9X7X7X7X7X7X7X7X7X7X7X7X7X7X9X7X5X7X7X5X7X7X7X7X5X5X5X5X7X5XM.^.<X1X1X1X3X:X:X<X1X1X1X1X1X1X1X1X1X1X1X1X1X1X>X>X:X:X:X:X;X;X;X;X;X;X;X;X;X(.(.(.(.;XN.M.t.h 7.P.N.N.M.t.>.e.&.9 % # $ $ % $ O   . ; I 8.e.O.a z C C C C C q = B 7.e.e.P I v.<X(.(.^.P.(.;X;X;X;X:X;X;X1X5XCXzX0XN.N.1X;Xt.C c Y 4.A.A.A.+XMXMX!.^ XXMXNXNXNXNXBXNXNXvXjXjXvXvXvX",
"NXbXjXjXNXNXNXNXGXGXGXGXNX%X' ~.%XvXoXoX/.z.8.,.;.:.,.8.P.P.).8XHXLXpX7X1X1X<X:X1X<X;X(.1X,X>X<X;X1X-Xf.O.#.i.s.K.i.w N h x x h z z i f.8.g $ O & # $ $ $ # 0 h ;.x.x.M.L.P.Y.(.P.b.#.#.P.;X1X;X:X:X:X:X:X:X<X<X<X<X<X<X1X1X1X1X<X<X:X:X3X3X3X3X3X3X3X3X3X3X5X5X3X3X7X7X7X3X3X1XI.I.<X0X7X7X7X7X7X7X7X7X1X1X1X1X7X9X7X7X7X7X7X7X9X9X9X9X9X9X9X9X0X0X0X0X0X0X0X0X0X0X0X0X0X0X0X0X9XpX0X7X1X7X9XpX0X0X0X0X0X0X0X0X0X0X0X0X0X0X0X0XpXpX0X0X0X0X0X0X0X0X0X0X0X0X0X0X0X0X0X0X0X0XpXpXpXpXpXpXpXpXpX9XpXpXpXpX0X0X0X0X0X0X0X0X0X9X9X0X0X0X0X0X0X0X0X0X0X0X0X0X0X0X0X9X9X0X0X0X0X0X0X0X0X0X0X0X0X0X0X0X0X0X0X0X0X0X0X0X0X0X0X0X0X0X0X0X0X0X0X0X0X0X0X0X0X0X0X0X0X0X0X0X9XpX7X^.).9X0X8X0X0X0X9X9X9X0X0X0X0XpX0X9X9X9X9X0X0X9X7X7X7X7X7X7X7X7X7X7X7X9X9X7X7X7X7X7X7X7X7X7X7X5X3X3X5X(.v.1X1X1X3X3X<X:X1X3X3X3X3X1X1X1X1X1X1X1X1X1X1X1X1X:X:X:X:X;X;X;X;X;X;X;X;X;X;X;X;X(.I.P.P.b.I t t.P.v.M.v.f.8.8.>.g 0 ; % % $ &       % Z 8.P i z C C C C z s B ;.#.,.;.C ,.^.(.(.(.I.N.;X;X;X;X;X:X;X;X:X<X0XkXAXzXN.f.P.<Xg.I B Y 2.s.s.F._.%XMXXX' !.MXNXNXNXBXNXNXNXvXvXvXjXvX",
"bXvXvXvXNXnXnXGXGXGXGXNXOX' ~.%XNXjX].U.r.;.#.O.&.;.g.P.P.M.aXGXFXpX5X1X<X<X<X<X<X<X<X<X<X;X;X;X(.(.;XN.$.@.q.9.i.s.Y q h g p p P i $ o.t # X X $ % $ # & 0 C t.v.P.x.v.n.L.P.Y.n.=.=.N.I.-X;X;X>X>X>X>X1X1X1X1X1X1X3X3X3X1X1X1X3X3X3X3X3X3X3X3X3X3X3X3X1X1X1X3X3X7X7X7X3X3X3X3X;X1X7X9X7X7X7X7X7X7X7X7X7X1X:X5X0X9X0X0X7X7X7X7X9X9X9X9X9X9X9X9X0X0X0X0X0X0X0X0X0X0X0X0X0X0X0X0X0XpX9X1X9X9X0X0X0X0X0X0X0X0X0X0X0X0X0X0X0X0X0X0XpXpX0X0X0X0X0X0X0X0X0X0X0X0X0X0X0X0XpXpXpXpXpXpXpXpXpXpXpXpXpXpX0X0X0X0XpX0X0X0XpXpXpXpX0X0X0X0X0X0X0X0X0X0X0X0XpXpXpX0X0XpXpXpXpX0X0X0XpX0X0X0X0X0X0X0X0X0X0X0X0X0X0X0X0X0X0X0X0X0X0X0X0X0X0X0X0X0X0X0X0X0X0X0X0X0X0X0X0X0X0X0X0X0X0X0XM.(.0X7X0X9X9X9X0X9X9X9X9X9X9X9X9X9X9X9X0X0X0X0X9X9X9X9X9X9X9X9X9X9X7X7X7X7X7X7X7X7X7X7X7X5X3X3X7X7X:XM.I.1X7X3X3X<X:X1X3X3X3X3X3X3X3X3X3X1X1X1X1X1X1X1X<X<X<X<X:X;X;X:X;X;X;X;X;X;X;X;X;X;X^.I.N.l.+.k f.v.k.t.8.t.f.f.f.$.g 6 0 % # X X .   $ Z I j v z j C I z , R 4.7.,.P I v.I.;X(.^.N.P.;X;X;X;X;X;X;X;X;X:X<X3XiXAXCXP.y.n.).y.L A U 2.6.u.u.R.vXNXXX^ Z.XXNXNXBXNXBXvXjXMXvXvXvX",
"bXbXnXnXNXnXNXGXNXNXNX_.^ XXvXvXhX`.a.9.;.I P P I e.(.M.b.zXHXxXsX5X1X<X<X<X<X<X<X<X<X<X<X;X;X(.(.-X;X;X8.$.&.7.r.i.r.u q 8 - 0 z $ X ; # X     % % & $ 6 P k.I.^.M.y.t.y.;.k.Y.n.l.P.;X;X:X1X>X>X>X1X1X1X1X1X1X1X1X3X3X3X3X3X3X3X3X3X3X5X5X5X5X5X5X5X5X3X3X3X3X3X3X3X7X7X7X7X7X1X9X9X7X8X8X8X8X7X7X7X7X7X1X1X7X0X8X0X9X8X7X8X8X9X9X9X9X9X9X9X9X0X0X0X0X0X0X0X0X0X0X0X0X0X0X0X0X0X0X7X1X0X0X0X0X0X0X0X0X0X0X0X0X0X0X0X0X0X0X0X0XpXpX0X0X0X0X0X0X0X0X0X0X0X0X0X0X0X0XpXpXpXpXpXpXpXpXpXpXpXpXpXpXpXpXpXpXpX0X0X0XpXpXpXpXpXpXpXpXpXpXpXpXpXpXpXpXpXpXpX0X0XpXpXpXpXpX0X0XpX0X0X0XpXpX0X0X0X0X0X0X0X0X0X0X0X0X0X0X0X0X0X0X0X0X0X0X0X0X0X0X0X0X0X0X0X0X0X0X0X0X0X0X0X0X0X0X).^.7X9X9X9X9X0X0X0X0X0XpXpXpXiX9X9X9X9X0X0X0X0X0X0X0X0X0X0X0X0X0X9X9X9X8X8X8X7X8X8X7X7X7X7X5X3X5X7X7X1X1X8X8X5X7X1X1X3X3X3X3X3X3X3X3X3X3X3X1X1X1X1X1X1X1X1X1X1X;X^.^.;X;X;X;X;X;X;X;X;X;X;X;X;XI.I.N.8.O.k.N.P.v.g.f.g.g.g.7.c 7 , - # O   . X & 7 z z h e k O.u - T 4.7.&.P &.v.I.(.(.;X^.^.(.;X;X;X;X;X;X;X;X:X:X:X<X3XkX9X;Xf.k.N.b.%.V A R 2.2.5.K.jXNX%X^ ~ !.MXNXNXNXNXvXvXNXMXNX",
"NXNXNXNXbXNXNXNXNX%X' ' =XMXvXuX/.p.-.T T U Y P f.^.N.N.FXHXlXiX5X1X<X:X<X<X<X<X<X<X<X<X<X;X;X;X(.(.;X;Xl.$.o.8.9.3.3.T e 5 ; q t O X   X X X   & & % g ;.M.(.(.(.(.M.8.O.o.j.I.-X;X>X1X1X1X:X>X1X1X1X1X1X1X1X1X1X3X3X3X3X5X5X5X5X5X7X7X7X7X7X7X7X7X7X7X7X8X7X7X7X7X7X7X7X7X7X7X8X9X7X5X9X9X0X0X8X8X8X8X7X3X7XpX0X0X0X0X0X0X0X0XiXpX9X9XpXpXpXpXpX0X0X0X0X0X0X0X0X0X0X0X0X0X0X0XpX9X1X7X0X0XpXpXpXpXpXpXpXpXpXpXpXpXpXpXpXpXpXpXpXpXpXpXpXpXpXpX0XpXpXpXpXpXpXpXpXpXpXpXpXpXpXpXpXpXpXpXpXpXpXpXpXpXpXpXpXpXpXpXpXpXpXpXpXpXpXpXpXpXpXpXpXpXpXpXpXpXpXpXpXpXpXpXpXpXpX0X9X0XpXpXpXpXpXpX0X0XpXpXpXpXpXpXpXpXpXpXpXpXpXpXpXpXpXpXpXpXpXpXpXpXpXpXpXpXpXpXpXpXpXpXpXpXpXpX<X).3X0X0X0X0X0X0X0X0X0XpXpXpXpX9X9X9X9X0X0X0X0X0X0X0X0X0X0X0X0X0X0X0X9X0X0X0X0X0X0XiXiX9X8X7X7X3X0XpXpX0XiX7X7X7X3X1X3X3X3X3X3X3X3X3X5X5X5X3X1X1X1X1X1X1X1X1X1X:X;X;X:X:X:X:X:X:X:X:X:X:X;X;X;X;X^.(.I.f.,.v.n.v.e.,.;.>.f.x.l.S t , % # O X   . % z z h 7 r c 5 l :.:.7.o.I f.L.I.(.(.^.^.^.;X;X;X;X;X;X;X:X:X:X:X:X:X:X<X9XAXkXl.a.N.H.4.L A -.4.9.i.R.jXMX=X^ K ' %XNXNXNXNXnXnXNXNX",
"NXGXGXGXnXGXNXMX!.' S.%X%XuX[.J.z.9.-.T U L L z.:XI.(.KXHXaX5X6X1X2X<X:X<X<X<X<X<X<X<X<X<X;X;X;X;X(.;X;XP.,.$.,.7.9.-.-.e 7 t z j ; X X & & X O X $ Z l.P.^.;X1X<X;X:XM.t.^.3X(.;X>X;X>X1X1X1X1X1X1X1X1X1X1X1X1X3X3X3X3X5X5X5X5X5X7X7X7X7X7X7X7X8X8X8X8X8X8X9X0X0X0X7X7X7X7X8X7X8X7X5X3X9X9X0X9X9X0X0X0X8X5X8XiX0X0X0X0X0X0X0X0X0XpXpXpXpXpXpX0X0X0X0X0X0X0X0X0X0X0X0X0X0X0X0X0X0X7X1X9X0XpXpXpXpXpXpXpXpXpXpXpXpXpXpXpXpXpXpXpXpXpXpXpXpXpXpXpXpXpXpXpXpXpXpXpXpXpXpXpXpXpXpXpXpXpXpXpXpXpXpXpXpXpXpXpXpXpXpXpXpXpXpXpXpXpXpXpXpXpXpXpXpXpXpXpXpXpXpXpXpXpXpXpXkXpXpXpX7X0XpXpXpXpXpXpXpXpXpXpXpXpXpXpXpXpXpXpXpXpXpXpXpXpXpXpXpXpXpXpXpXpXpXpXpXpXpXpXpXpXpXpXpXpXpXpX5X(.1X9X0X0X0X0XpXpXpXpXpXpXpXpX9X9X9X9X0X0X0X0X0X0X0X0X0X0X0X0X0X0X0X0XiXiXiXiXiXiXpXpXiX0X7X7X7X0XpX0X7X8X7X0X7X1X1X1X3X3X3X3X3X3X3X3X7X5X3X3X3X3X3X3X1X1X1X1X1X:X:X1X>X>X>X>X:X:X<X:X:X:X:X;X;X;X;X;XI.f.$.8.t.g.g.f.g.M.T.Y.n.Z 6 % ; $ & X . , c z i 8 9 h h -.:.;.=.P =.n.I.I.I.(.M.I.(.;X;X;X;X;X;X;X:X:X:X:X:X:X1X:X<XkXLXzX).p./.`.a.R Y R 3.r.i.K.oXvXvX~.~ ^ =XNXGXHXHXGXGXGX",
"GXGXLXGXHXGXMX~./ |.*XvX{./.b.a.i.6.-.T T =.M.1XP.3XGXGXaX5X6X1X1X1X1X1X1X1X1X<X<X<X<X<X:X:X;X;X;X:X;X;X;Xf.O.&.;.q.=.@.7 7 t k N e O   O & & X & C k.P.^.^.^.^.^.;X:X:X;X<Xm.f.<X1X1X1X1X1X1X1X1X1X1X1X1X1X3X3X7X7X7X7X7X7X5X5X7X7X7X7X9X9X9X9X9X9X9X9X9X9XiXpX0X0X0X9X7X9X9X0XpX9X7X9X9X9X9X9X0X0X0X9X7X7X0X0X0X0X0X0X0X0X0X0X0X0XpXpX0X0XpXpX0X0X0X0X0X0X0X0XpXpXpXpXpXpXpXpX0X7X0X0XpXpXpXkXpXpXpXpXpXpXpXpXpXpXpXpXpXpXkXkXkXkX0X0XpXpXpXpXpXpXpXpXpXpXpXpXpXpXpXpXkXkXkXkXkXkXkXkXkXkXkXkXkXkXkXkXkXkXkXkXkXkXkXkXkXkXkXkXfXfXfXfXfXfXfXfXpXpXkXkXkXkXpXkXfXfXfXpXfX0XpXfXpXpXpXpXpXpXpXpXpXpXpXpXpXpXpXpXpXpXpXpXpXpXpXpXpXpXpXpXpXpXpXpXpXpXpXpXpXpXpXpXpXpXpXpX0X;XB.7X0X0X0X0XpXpXpXpXpXpX0X0X0X0X0X0X0X0X0X0X0X0X0X0X0X0X0X0X0X0X0X0X0X0X0X0X0X0X0X0X9XpX0X7X7X0X9XpX0X0X0X0X7X7X7X7X5X5X5X5X7X7X7X5X5X5X5X5X3X3X3X3X1X1X1X1X1X1X1X1X1X1X1X1X1X1X1X<X<X<X<X<X:X:X;X;X^.B.N.I.^.^.^.^.M.M.(.I.I.P.Z 0 0 0 %     6 k g 9 5 9 t A &.;.=.#.I t.P.I.I.(.I.b.^.(.(.;X;X;X;X;X;X;X;X;X;X,X>X:X:X:X3X0XkXAX1XP.'.4XK.%.T 9.4.5.i.K.`.vXvXXX^ ' %XGXHXHXHXHXHX",
"nXHXHXHXHXNXXX!.$X%X=X{.J.b.i.r.2.2.-.T ,.:X>X:XiXHXFXiX5X1X1X2X1X1X1X1X1X1X1X:X<X:X:X<X:X:X;X;X;X:X(.(.;XM.;.@.=.q.&.P e e t h z h 0 & & & X X g k.P.I.^.I.v.,.f.^.3X1X:XP.r.P.<X1X1X1X1X1X1X1X1X1X1X1X3X3X7X7X7X7X7X7X7X7X5X5X7X7X7X7X9X9X9X9X9X9X9X9X7X1X1X9X0X0X0X0X0X0X0X0X0X9X7X0X9X9X9X9X0X0X0X9X0X0X0X0X0X0X0X0X0X0X0X0XpX0XpXpX0X0XpXpXpXpXpXpXpXpXpXpXpXpXpXpXpXpXpXpX0X7X0XpXpXpXpXpXkXkXpXpXpXpXpXpXpXpXpXpXkXkXkXkXkXkXkXkXkXkXkXkXkXkXkXkXkXkXkXkXkXkXkXkXkXkXkXkXkXkXkXkXkXkXkXkXkXkXkXkXkXkXkXkXkXkXkXkXkXkXkXkXVXVXVXVXVXVXfXfXkXkXkXkXkXkXkXkXVXVXVXfXfXfXVXVXkXpXpXpXkXkXkXkXkXkXkXkXpXpXpXpXpXpXpXkXpXpXpXpXpXpXpXpXpXpXpXpXpXpXpXpXpXpXpXpXpXpXpXpXpX7XI.7X0X0XpXpXpXpXpXpXpXpXpXpXpXpXpXpXpXpXpXpX0X0X0X0X0X0X0X0X0X0X0X0X0X0X0X0X0X0X0X0X0XpX0X7X1X9X0XpX0X0X0X0X9X9X9X9X7X7X7X7X7X7X7X7X7X7X7X7X7X7X7X7X7X7X7X7X3X3X3X7X1X1X1X1X1X1X1X1X1X1X1X1X1X:X:X:X;X;X:X^.:X:X:X:X^.M.N.I.^.(.I.C 0 ; 0 #   6 x g 6 5 8 e S #.=.#.I #.k.L.I.^.(.^.^.(.(.;X;X;X;X;X;X;X;X;X:X;X,X>X:X:X:X:X<X3XkXFXsXY.U.'.H.4.T ;.4.9.i.a.R..XvXoXD.A.vXHXHXHXHXHX",
"{.GXHXGXdXA.!.%XvXoX}.s.a.i.r.5.5.4.T e.<X1X-XCXHXFXiX3X3X1X1X1X1X1X1X1X1X1X1X:X<X:X:X:X:X:X;X:X:X;X(.(.;X(.e.P @.&.#.z 6 q q p z z g ; & & & i 8.I.I.(.(.(.M.k.;X1X1X:XL.t.3X1X1X1X1X1X3X7X3X3X7X7X7X7X7X7X7X7X7X7X7X7X7X7X7X7X7X7X9X9X0X9X9X9X9X9X9X9X7X1X5XiX0X0X0X0X0X0X0X0X9X9X9X0X0X0X0X0X0X0X0X0X0X0X0X0X0X0X0X0XpXpXpXpXpXpXpXpXpXpXpXpXpXpXpXpXpXpXpXpXpXpXpXpXpXpXpXpX0X9XpXpXpXpXkXkXkXkXkXkXkXkXkXVXVXVXkXkXkXkXkXkXkXkXkXkXkXkXkXkXkXkXkXkXkXkXkXkXkXkXkXkXkXkXVXVXVXVXVXVXVXVXVXVXVXVXVXVXVXVXVXVXVXVXVXVXVXVXVXkXVXVXVXVXVXVXVXVXVXVXVXVXVXVXVXVXVXVXVXVXVXVXVXVXVXVXVXVXVXVXkXkXVXVXVXkXkXpXpXpXpXpXkXkXkXpXpXpXkXkXkXkXkXkXkXkXkXkXkXkXkXkXkXkXkXkXkXkXkXpX>X9XpXpXpXpXpXpXpXpXpXpXpXpXpXpXpXpXpXpXpXpXpXpXpXpXpXpXpXpXpXpXpXpXpX0X0X0X0X0X0X9X9X0X0X0X1X3X0X0X0X0X0X0X0X0X0X0X0X0X0X0X8X9X9X9X9X9X9X8X7X7X7X7X7X7X7X7X7X7X7X7X7X7X3X3X1X1X1X1X1X1X1X1X1X1X1X:X:X:X1X:X:X:X:X:X:XI.v.M.^.(.(.P.Z ; 0 ; # 9 h 9 ; 6 0 6 z o.#.#.C ;.M.N.I.^.(.(.(.;X(.;X:X;X;X;X;X;X;X;X:X:X>X>X:X:X:X:X>X5X7XpXFXpX(.U.).H.3.T 3.9.5.5.9.s.[.hXvX.XA.oXNXHXGXNX",
"}.GXNX_.u.+X=X%XoX}.a.i.9.5.6.4.-.-.b.(.;X<XFXKXkXiX3X1X1X1X1X1X1X1X1X1X1X1X1X:X<X:X:X:X:X:X;X:X:X;X(.(.:XI.v.o.P P P g , 7 7 t g h z e # ; P v.N.(.^.(.(.I.I.<X1X5X3X:Xb.I.<X1X1X1X7X7X3X7X7X7X7X7X7X7X7X7X7X7X7X7X7X7X7X7X7X7X7X7X9X9X0X0X9X9X9X9X9X9X9XiXpXpX0X0X0X0X0X0XpXpX9X7X9XpX0X0X0X0X0X0X0X0XpXpXpXpX0X0XpXpXpXpXpXpXpXpXpXpXpXpXpXpXpXpXpXpXpXpXpXpXpXpXpXpXpXpXkXpXpX9XpXkXkXkXkXkXkXkXkXkXkXkXkXVXVXVXkXkXkXkXkXkXVXVXkXkXkXkXkXkXkXkXkXkXkXkXkXkXkXkXkXkXkXkXVXVXVXVXVXVXVXVXVXVXVXVXVXVXVXVXVXVXVXVXVXVXVXVXVXkXVXVXVXVXVXVXVXVXVXVXVXVXVXVXVXVXVXVXVXVXVXVXVXVXVXVXVXVXVXVXVXkXVXVXVXkXkXpXpXpX0XpXpXkXkXkXkXkXkXkXkXkXkXkXkXkXkXkXkXkXkXkXkXkXkXkXkXkXkXVX0X9XkXkXkXpXpXpXpXpXpXpXkXkXkXkXkXkXfXfXfXfXpXpXpXpXpXpXpXpXpXpXpXpXpXpXpX0X0X0X0X7X1X7X0XpX0X>X7X0X0X0X0X0X0X0X0X0X0X0X0X0X0X0X0X0X9X9X9X9X9X8X8X8X7X7X7X7X7X7X7X7X7X7X7X7X1X1X1X1X1X1X1X1X1X1X1X1X1X1X:X:X:X:X:X:X:X;Xl.k.N.I.(.:XM.I 6 , 8 9 9 6 $ 8 , 0 z P #.P A 8.M.M.P.^.(.^.^.(.(.:X;X;X;X;X;X;X;X;X:X:X,X,X:X:X:X:X1X3X1X7X0XFXCX2XL./.b.4.-.3.4.3.4.9.p./.uXvX.XD.+XNXNXhX",
"}.u.^ Z.%X%XoX[.J.a.r.i.9.6.5.2.%.n.2X<XiXFXFXkX0X7X3X3X1X1X1X1X1X1X1X1X1X1X1X:X:X:X:X:X:X:X;X;X:X;X(.(.^.I.P.>.v Z I 9 ; 0 0 e h h h 6 t 7.M.^.I.(.(.;XM.L.(.1X5X3X<X(.(.2X1X1X3X7X7X7X7X7X7X7X7X7X7X7X7X7X7X7X7X7X7X7X8X8X8X8X9X9X9X9X0X0X0X0XpXpXpXiXpXpXpXpX0X0X0X0XpXzXpX0X9X0XpXpX9X1X7X7X7X7X7X9X8X8X0X0X0X0XpXpXpXpXpXpXpXpXpXpXpXpXpX0XpXpXpXpXpXpXpXpX0X0X0X0X0X0XkXkXpX7X0XkXVXVXVXVXkXkXkXkXkXkXkXkXVXVXkXkXkXkXkXkXVXkXkXVXkXkXVXVXVXVXVXVXVXVXkXkXVXVXVXVXkXkXVXVXVXVXVXVXVXVXVXVXVXVXVXVXVXVXVXVXVXVXVXVXVXVXVXVXVXVXVXVXVXVXVXVXVXVXVXVXVXVXVXVXVXVXVXVXVXVXVXVXVXVXVXVXVXVXkXkXVXVXVXVXVXkXkXpXpXpXkXkXkXVXVXVXkXkXkXkXkXkXkXkXkXkXkXkXkXkXkXkXkXkXkXkXkXpXpX1XkXVXkXpX9X7X0X7X9X9X9X9X0X0XpXkXpX9X9XpXpXpXpXpX0X0X0X0X9X9XpXpXpX0X7X7X9X7X1X;X:X;X-X;X>X1X7X7X0XpXpXpXpX0X0X0XiXiX0X0X0X0XiXiX9X9X9X9X9X9X9X9X9X7X7X7X7X7X7X7X7X7XwXwX7XwX3X1X1X1X1X1X1X1X1X1X1X1X1X>X:X:X:X:X;X;X;XI.P.^.;X^.^.N.8.c c k 9 ; ; 0 ; 8 k C P A I j.P.n.P.P.I.^.(.(.(.(.;X;X;X;X>X>X>X,X:X:X:X>X:X:X:X:X1X1X>X>X>X0XSXSX7X^.(.L.y.#.;.;.3.7.t.j.'.eXdXoXD.A.jXnX",
"vXu.F.vXvXdX`.G.a.r.9.9.9.4.R r.I.;X<XpXHXFX0X3X3X1X1X1X1X1X1X1X1X1X1X1X1X1X:X:X:X:X:X:X:X:X;X;X(.(.^.^.^.I.I.t.x x v 9 - 0 0 9 i e t z f.l.n.^.I.I.P.M.n.P.(.1X6X4X2X<X2X5X5X3X7X7X7X7X7X7X7X7X7X7X7X7X7X7X7X9X8X8X8X8X0X0X0X0X0X0X0X0X0X0X0X0XpXpXpXpXpXpXpXpX0X0X0X0XpXpX0X9X0XpXpXpX;X>X1X:X:X:X:X:X:X:X:X:X1X1X1X1X1X1X1X1X1X1X1X1X1X1X1X1X1X1X3X3X3X3X3X3X1X1X1X1X;X1X0XkX7X-X9XkXVXVXVXVXVXVXkXkXVXVXkXkXkXkXkXkXkXkXkXkXVXVXkXkXVXVXVXVXVXVXVXVXVXVXkXkXVXVXVXVXkXkXVXVXVXVXVXVXVXVXVXVXVXVXVXVXVXVXVXVXVXVXVXVXVXVXVXVXVXVXVXVXVXVXVXVXVXVXVXVXVXVXVXVXVXVXVXVXVXVXVXVXVXVXkXkXVXVXkXVXVXVXVXVXVXVXVXkXkXVXVXkXkXkXkXkXkXkXkXkXkXkXkXkXkXkXkXkXkXkXkXkXkXkXkXkXkXkXkX1X9XkX7XB.v.V.-X:X>X>X>X>X;X>X1X3X1X;X;X>X1X1X>X>X>X>X>X:X;X;X>X1X1X>X>X>X1X3X7X7X9X7X1X1X:X7X9X7X9X0XpXpXpXpXpX0XiXiX0X0XiXiXiXiX9X9X9X9X9X9X9X9X9X9X9X7X7X7X7X7X7X8X7X7X7XwX5X5X1X3X3X3X1X1X1X1X1X>X1X1X1X:X:X:X:X:X;X;XI.N.I.^.(.T.v.g.>.I t - # , 0 8 i z I x =.z.N.M.P.P.I.^.(.(.(.^.M.(.;X;X,X>X;X,X:X:X:X:X:X:X:X:X1X1X>X>X;XwXPXZXFX9X^.:X(.l.4.#.-.3.9.t.j.J..XoXvXD.s.oX",
"jXNXvXdXdX_.K.i.r.5.r.5.9.-.y.I.I.7XCXKXFX0X1X3X1X1X1X1X1X1X1X1X1X1X1X1X1X<X:X:X:X<X:X:X:X:X;X;X;X(.^.^.I.I.P.v.I k x t ; , ; 6 e p I t.M.v.n.n.k.k.k.l.^.:X1X<X4X4X3X1X5X7X5X3X7X7X7X7X7X7X7X7X7X7X7X7X9X9X8X9X8X8X8X8X0X0X0X0X0X0X0X0X0X0X0X0XpXpXpXpXpXpXpXpXpX0X0X0XpX0X9X0X0XpXpX9X9XpX0X0X8X8X8X8X8X7X8X0X0X0XpXpXpXpXpXpXpXpXpXpXpXpXpXpXpXpXkXkXkXkXpXpXpXpXpXpX7X9XkXVX1X;XkXCXVXVXVXVXVXVXVXVXVXVXVXVXVXVXVXVXVXVXVXVXVXVXVXVXVXVXkXkXVXVXVXVXVXVXVXVXVXVXVXVXVXVXVXVXVXVXVXVXVXVXVXVXVXVXVXVXVXVXVXVXVXVXVXVXVXVXVXVXVXVXVXVXVXVXVXVXVXVXVXVXVXVXVXVXVXVXVXVXVXVXVXVXVXVXVXVXVXVXVXVXVXVXVXVXVXVXVXVXVXVXVXVXkXpXpX0XpXVXkXkXkXkXkXkXkXkXkXkXkXkXkXkXkXkXkXkXVXVXVX7X1XpXVX0X:X;X7XpXpXpXpXpXpXpXpXpXpXpXpXpXpXpXpXpX0X0X0X0X0X0X0X0XpXpXpXkXkXkXkXpXpXkXVXkX7XpXkXpX7X7X0XpXpXpXpXpXpXiXiXiXiXpXpXiXpXpX9X9X9X9X9X9X9X9X9X9X9X9X9X9X9X8X8X8X7X7X7X5X7X7X7X7X7X3X1X1X1X1X1X1X1X1X1X:X:X:X:X:X(.I.M.M.N.N.M.x.f.<.+.t # % 0 0 p x C z 8.l.M.P.P.P.I.^.(.(.(.P.k.^.;X;X;X;X;X;X:X:X:X:X:X:X:X:X1X1X1X1X:X,XwXqXDXFXqX-X:X(.l.r.-.2.w.9.9.p.G.`.uXvX{.s.",
"mXNXmXoX`.K.i.9.5.r.r.5.4.G.(.^.5XAXKXkX7X1X<X1X1X1X1X1X1X1X1X1X1X1X1X2X<X<X<X<X:X:X:X:X:X:X;X;X(.^.^.I.P.P.N.N.,.x k g , % # , h =.8.k.l.k.n.j.8.t.n.;X<X1X1X1X4X4X1X3X7X7X3X3X7X7X7X7X7X7X7X8X9X9X7X7X9X9X8X8X8X8X8X8X0X0X0X0X0X0X0X0X0X0X0X0XpXpXpXpXpXpXpXpXpX0X0X0XpX9X7X0X9XqX9X1X0X7X:X1XpXpXpXpXpXpXpXpXkXkXkXkXkXkXkXkXkXkXkXkXkXpXkXkXkXkXVXVXVXVXkXkXkXkXpXpXpXpXVXpXI.1XVXVXkXVXVXVXVXVXVXkXVXVXVXVXVXVXVXVXVXVXVXVXVXVXVXVXkXkXkXkXVXVXVXVXVXVXVXVXVXVXVXVXVXVXVXVXVXVXVXVXVXVXVXVXVXVXVXVXVXVXVXVXVXVXVXVXVXVXVXVXVXVXVXVXVXVXVXVXVXVXVXVXVXVXVXVXVXVXVXVXVXVXVXVXVXVXVXVXVXVXVXVXVXVXVXVXVXVXVXVXVXVXVXVXkXkX0X9X0XkXVXVXkXkXkXkXkXkXkXVXkXkXkXkXkXkXkXkXCXCXVX7XI.7XVXpX;X^.7XkXkXkXkXkXkXkXVXVXkXVXVXVXkXkXkXkXkXkXkXkXkXpXpXpXkXkXkXpXpX0X0XpXpXkXpX9X7X0XpXkX7X7X9XpXpXpXpXpXpXiXiXiXpXpXpXiXpXpX9X9X9X9X9X9X9X9X9X9X9X9X9X9X9X9X8X8X9X9X7X7X7X7X7X7X7X7X7X3X3X1X1X1X1X1X1X1X1X1X1X<X<X:XN.k.v.N.M.x.g.g.8.I , $ 0 9 p h z I t.k.n.P.P.P.I.^.^.(.^.L.l.(.^.;X;X;X;X;X;X:X:X:X:X:X:X:X1X1X1X1X3X>X>XwXqXVXSX7X>X<X(.J.5.6.w.4.9.e.y.s.K.].yX].",
"hXuX[./.a.r.9.9.p.i.4.7.:X<X;X9XFXFXsX8X5X1X1X1X1X1X1X1X1X1X1X1X<X<X<X<X:X>X1X1X>X:X:X:X:X;X;X;X;X(.I.T.I.L.n.b.e.I c h 6 8 p k =.7.e.l.M.v.g.e.v.I.<X3X3X3X3X3X3X3X7X7X7X7X7X7X7X7X7X7X7X7X7X7X7X7X7X9X9X9X9X9X0X0X0X0XiXpXpXpX0X0X0X0X0X0X0X0XpXpXpXpXpXpXpXpXpXkXpX0X7X:X0XpX9X8X8XpXVX:X-X0XpXpXpXkXkXkXkXkXkXkXkXkXVXkXVXVXVXVXVXVXkXkXkXkXVXVXVXVXkX1XB.:XfXfXfXfXVX0XfXqXM.0XCXCXVXVXVXVXVXVXVXVXVXVXVXVXVXVXVXVXVXVXVXVXVXVXVXVXVXVXVXVXVXVXVXVXVXVXVXVXVXVXVXVXVXVXVXVXVXVXVXVXVXVXVXVXVXVXVXVXVXVXVXVXVXVXVXVXVXVXVXVXVXVXVXVXVXVXVXVXVXVXVXVXVXVXVXVXVXVXVXVXVXVXVXVXVXVXVXVXVXVXVXVXVXVXVXVXVXVXVXVXVXVXVXVXVXVXVXVXVXVXVXVXVXVXVXVXVXVXkXkXVXVXVXVXVXVXVXVXCXCXCXVXB.M.0X0X:X^.0XzXkXkXkXkXVXVXkXkXVXVXVXkXkXpXpXpXpXpXpXpXpXpXpXpXpXpXpXpXpXiX1X9XpXiX7X1X5X1X3X7XpX8X1X8XVXkXpXpXpXpXsXpXsXsXpXpXpXpX0X0X0X0X0X0X0X9X9X9X9X9X9X9X9X9X7X7X7X7X7X7X9X9X7X7X7X7X7X7X7X3X1X1X1X1X1X1X1X3X3X:X;X;X^.M.g.M.N.v.l.l.k.t.x $ 8 g i k z ;.y.b.v.M.P.P.P.I.I.^.I.P.I.^.^.;X;X;X;X;X;X:X:X:X:X:X:X:X<X<X<X<X1X1X1X1X1X7X0XSX0X1X;X(.G.G.p.%.;.4.9.9.s.a.E.eX",
"J.K.a.p.r.9.9.9.9.3.t.2X;X;XVXKXCXsX5X3X1X1X1X1X1X1X1X1X1X<X<X<X<X<X<X<X>X:X>X>X:X;X;X;X;X;X-X-X;X(.I.P.N.M.b.k.e.O.Z c v >.8.;.>.e.g.M.M.l.f.g.I.<X3X5X3X3X3X3X3X7X7X7X7X7X7X9X7X7X7X7X7X7X9X9X7X7X7X7X0X0X0X0XiXiXiXiXpXpXpXpX0X0X0XpX0X0XpXpXpXpXpXpXpXpXpXpXpXkXpX9X-X>XpXpX9X8X7XpX5X(.7XpXpXpXkXkXkXkXkXkXkXkXkXkXVXkXVXVXVXVXVXVXkXkXkXkXVXVXVXVX0X9X>X7XVXVXVXVXVXpX0X,X-XkXCXVXVXVXVXVXVXVXVXVXVXVXVXVXVXVXVXVXVXVXVXVXVXVXVXVXVXVXVXVXVXVXVXVXVXVXVXVXVXVXVXVXVXVXVXVXVXVXVXVXVXVXVXVXVXVXVXVXVXVXVXVXVXVXVXVXVXVXVXVXVXVXVXVXVXVXVXVXVXVXVXVXVXVXVXVXVXVXVXVXVXVXVXVXVXVXVXVXVXVXVXVXVXVXVXVXVXVXVXVXVXVXVXVXVXVXVXVXVXVXVXVXVXVXVXVXVXVXkXkXVXVXVXVXVXVXVXVXVXVXCXCX>XV.1X0X1X:XiXzXkXkXVXVXVXVXVXVXVXVXVXVXVXVXVXVXVXVXVXVXzXkXkXkXkXkXzXzXpXpX9X1X0X0X8X5X7X7X3X:X7XpX7X;XpXpXpXpXpXpXsXpXsXsXpXpXpXpXpX0X0X0X0X0X0X0X0X9X9X9X9X9X9X9X9X9X9X9X9X9X7X7X7X7X7X7X7X7X7X7X7X3X1X1X1X1X:X1X1X1X;XI.I.(.I.l.k.N.M.N.v.l.e.O.P =.&.v Z ,.t.l.b.v.M.P.I.I.I.I.I.I.I.^.^.(.;X;X;X;X;X:X:X:X:X:X:X:X<X<X<X<X1X1X1X1X1X1X3X7XCX0X>XI.(.2XP.4.T %.3.9.r.9.w.9.",
"r.r.9.4.9.9.9.9.;.e.2X<X<XVXFXzX8X5X1X1X1X1X1X1X1X1X1X1X1X>X:X:X<X<X<X<X>X:X;X;X;X;X;X;X;X;X(.^.-XI.T.P.v.b.k.f.8.@.P o.,.f.8.,.8.g.v.N.l.f.l.I.<X3X3X3X3X3X3X3X7X7X8X7X7X8X0X0X7X9X9X7X7X9X9X0X9X0X0X0X0X0X0X0XpXpXpXpXpXpXpXpXpXpXpXpXpXpXpXpXpXpXpXpXkXpXpXpXpXpX0X1X-X7XkX0X0X9X9X3XI.(.0XpXpXkXkXkXkXkXkXkXkXkXkXkXkXkXVXVXVXVXVXVXVXVXkXVXkXkXVXkXkXVXkXVXVXVXVXVXVX0X8XI.7XCXCXVXVXVXVXVXVXVXVXVXVXVXVXVXVXVXVXVXVXVXVXVXVXVXVXVXVXVXVXVXVXVXVXVXVXVXVXVXVXVXVXVXVXVXVXVXVXVXVXVXVXVXVXVXVXVXVXVXCXCXCXCXVXVXCXCXVXVXVXVXVXVXVXVXVXVXVXVXVXVXVXVXVXVXVXVXVXVXVXVXCXCXVXVXVXVXVXVXVXVXVXVXVXVXVXVXVXVXVXVXVXVXVXVXVXVXVXVXVXVXVXVXVXVXVXVXVXVXVXkXVXVXVXVXVXVXVXVXVXVXVXCXkXB.B.0X5X3XzXzXVXVXVXVXVXkXkXkXkXkXVXVXVXVXVXVXVXVXVXVXVXVXVXVXVXVXVXVXVXVXpX1X3X7X0X7X0X8X3X;X:XpXpX1X7XpXpXVXzXpXpXpXpXpXpXpXpXpXpXpXpXpXpXpX0X0X0X0X0X0X0X0X0X9X9X9X9X9X9X9X9X9X7X7X9X9X7X7X7X7X7X7X7X3X1X1X5X1X1X1X1X^.(.<X:XI.M.l.N.N.v.l.v.b.j.t.f.P @.8.t.k.l.b.v.M.P.I.I.I.I.I.I.^.^.(.;X;X;X;X;X:X:X:X:X:X:X:X1X1X<X<X1X1X1X1X<X1X1X3X7XfX0X3XI.U.P.G.4.%.%.3.w.3.2.R ",
":.:.-.-.9.9.9.9.G.1X1X5XFXFXsX7X5X5X5X1X1X1X1X1X1X1X1X1X1X:X:X:X<X<X<X<X>X;X-X;X;X;X;X;X;X-X^.^.(.I.P.N.v.k.f.t.7.P C =.l.;.C ;.f.l.v.v.f.l.I.1X3X5X3X3X3X3X3X5X7X8X7X7X7X9X0X0X7X9X9X7X7X9X9X0X9X0X0X0XpXpXpXpXpXpXpXpXpXpXpXpXpXpXpXpXpXpXpXpXpXpXpXpXpXpXpXpXpXkX9X>X7XkXpX7X9X0X9X:X:X7XpXkXkXkXkXkXVXVXVXVXkXkXkXkXkXkXVXVXVXVXVXVXVXVXVXVXVXVXVXVXVXkXCXCXVXVXVXVX0X0X>X-XpXCXCXCXVXVXVXVXVXVXVXVXVXVXVXVXVXVXVXVXVXVXVXVXVXVXVXVXVXVXVXVXVXVXVXVXVXVXVXVXVXVXVXVXVXVXVXVXVXVXVXVXVXVXVXVXVXVXVXVXCXCXCXCXVXVXCXCXVXVXVXVXVXVXVXVXVXVXVXVXVXVXVXVXVXVXVXVXVXVXVXVXCXCXVXVXVXVXVXVXVXVXVXVXVXVXVXVXVXVXVXVXVXVXVXVXVXVXVXVXVXVXVXVXVXVXVXVXVXVXVXVXVXVXVXkXVXVXVXVXVXVXVXVXVX3XB.7X8X9XAXCXCXCXCXVXVXVXVXVXkXkXVXVXVXVXVXVXVXVXVXVXVXVXVXVXkXkXkXkXVXpXpX9X:X7X0X0X0X3X1X1X;X3XpXpX1XpXkXVXCXpXpXpXpXpXpXpXpXpXpXpXpX0X0X0X0X0X0X0X0X0X0X0X0X0X0X9X9X9X9X9X9X9X7X7X7X9X9X7X7X7X7X7X7X7X7X7X5X;XI.I.<X1X<X1X;X:X;XM.M.M.v.g.&.y.k.t.8.O.o.>.8.k.l.v.b.v.M.P.P.I.I.I.I.^.^.(.;X;X;X;X;X:X:X:X:X:X:X:X1X1X<X<X1X1X1X<X<X<X1X1X>X7XkXzXiX(.b.P.P.t.%.%.*.-.2.Y ",
":.:.-.-.9.3.9.Y.1X1X7XCXFXkX8X2X1X1X1X1X1X1X1X1X1X1X1X1X1X>X>X>X<X<X<X<X:X-X-X-X;X;X;X;X;X(.^.I.I.P.M.n.l.k.f.t.;.o.=.k.N.e.I ,.l.v.l.f.l.I.<X3X3X3X3X3X7X7X8X8X8X8X8X9X0X0X0X9X0X9X9X9X0X0X0X0X0XiXiXpXpXpXpXpXpXpXpXpXpXpXpXpXpXpXpXpXpX0XpXpXpXpXpXpXpXpXpXpXpXpX7X7XVXVXkX7X7X3X:XI.7XpXCXkXVXkXkXkXVXVXVXVXVXVXVXVXVXVXVXVXVXVXVXVXVXVXVXVXVXVXVXVXVXVXVXCXVXVXVXVX0X8X,X9XkXVXVXVXCXCXCXCXVXVXVXVXVXVXVXVXVXVXVXVXVXVXVXVXVXVXVXVXVXVXVXVXVXVXVXVXVXVXVXVXVXVXVXVXVXVXVXVXVXVXVXVXCXCXCXCXVXVXVXVXVXVXVXVXVXVXCXCXVXVXVXVXCXCXCXCXVXVXVXCXCXCXCXVXCXCXCXCXVXVXVXVXVXVXVXVXVXVXVXVXVXVXVXVXVXVXVXVXVXVXVXVXVXVXVXVXVXVXVXVXVXVXVXVXVXVXVXVXCXCXVXVXVXVXkXpXVXVXCXCXCXCXVXVXVXkX^.;X7X7XiXkXkXkXVXVXVXkXkXkXkXkXkXkXVXVXVXVXVXVXVXVXkXkXkXkXkXkXkXkXVXpXkXpX3X^.3X3X1X-X:X:X;X1X0XkX0X7X9XpXpXpXpXpXpXpXpXpXpXpXpXpXpX0X0X7X9X0X0X0X0X0X0X0X0X0X0X0X0X9X9X9X9X9X9X7X7X7X7X7X7X7X7X7X7X7X7X7X5X<XI.M.^.:X1X1X<X<X<X<XI.v.V.v.=.,.l.j.e.=.@.,.8.8.f.v.b.b.v.M.N.I.I.I.I.^.(.(.(.;X;X;X;X;X:X:X:X:X:X:X:X:X:X:X<X<X1X1X<X1X1X1X1X1X1X7XLXAX2Xz.L.U.z.q.%.A Y *.",
"#.%.3.3.%.9.rX2X:X9XAXSXsX9X6X1X1X1X1X1X1X1X1X1X1X1X1X1X1X1X>X>X<X<X<X<X;X-X-X;X;X;X;X;X(.^.I.I.P.N.v.b.k.k.t.,.&.t.v.M.P.P.v.k.M.l.e.8.I.<X3X3X3X3X3X3X7X7X8X8X8X7X9X8X0X0X9X9X0X9X9X9X0X0X0X0X0X0XiXpXpXpXpXpXpXpXpXpXpXpXpXpXpXpXpXpXpX0XpXpXpXpXpXpXpXpXpXpXpX0X7X9XVXVXkX7X:X^.P.I.0XpXCXkXVXkXkXkXkXkXkXkXVXVXVXVXVXVXVXVXVXVXVXVXVXVXVXVXVXVXVXVXVXVXVXVXVXVXVX0X1X>X,XVXkXVXVXVXCXCXCXCXVXVXVXVXVXVXVXVXVXVXVXVXVXVXVXVXVXVXVXVXVXVXVXVXVXVXVXVXVXVXVXVXVXVXVXVXVXVXVXVXVXVXVXVXCXCXCXCXVXVXVXVXVXVXVXVXVXVXCXCXVXVXVXVXCXCXCXCXVXVXVXCXCXCXCXVXCXCXVXCXVXVXVXVXVXVXVXVXVXVXVXVXVXVXVXVXVXVXVXVXVXVXVXVXVXVXVXVXVXVXVXVXVXVXVXVXVXVXVXVXCXCXVXVXVXVXVXVXVXVXCXCXCXCXVXVXVXVX>XB.3X1X3XkXpXkXpXpXpXpXpXpXkXkXkXkXkXkXkXkXkXkXkXkXkXkXkXkXkXkXkXkXVXVXpXpX9X1X3X3X-XI.I.^.;X1XpXVXVX7X1X0XpXzXVXpXpXpXpXpXpXpXpXpXpXpX0X0X0X0X0X0XpXpXpXpX0X0X0X0X0X0X0X9X9X9X9X9X9X9X7X7X7X7X7X7X7X7X7X7X7X7X7X1X1X1X1X1X:X:X:X:X:XI.8.l.P.I.N.n.n.v.8.&.8.t.k.l.v.b.b.n.N.N.I.I.I.I.^.^.^.(.;X;X;X;X:X:X:X:X:X:X:X:X:X:X<X<X1X1X1X1X1X1X1X1X1X1X9XAXFX9Xx.k.Y.L.0.*.A A ",
"3.9.4.%.j.sXiX;X0XAXAX0X3X3X3X3X6X1X1X1X1X1X1X1X1X1X1X1X1X1X1X1X<X<X<X<X;X-X;X;X;X;X;X(.^.I.I.I.P.M.b.l.k.e.,.=.k.N.^.^.(.(.(.I.N.k.k.^.<X3X3X3X3X3X5X3X7X7X8X8X8X8X8X8X9X9X0X0X0X0X0X0X0X0X0X0X0X0XiX0XpXpXpXpXpXpXpXpXpXpXpXpXpXpXpXpXkXkXkXkXpXzXzXzXkXkXkXkX0X9X9XkXVXVXkX7X;XI.I.(.0XVXCXVXVXVXVXVXkXkXkXkXVXVXkXkXpXpXpXpX0X0X0X0X0X0X0X0XpXpXpXpXpXpXpXpXqX0X0X>X-X-X9XpXkXkXVXCXCXCXCXCXVXVXVXVXVXVXVXVXVXVXVXVXVXVXCXCXCXCXVXVXVXVXCXCXCXCXVXVXVXVXCXCXCXVXVXVXCXCXCXCXCXCXCXCXZXZXZXZXAXAXAXAXCXCXCXCXZXZXZXZXCXCXCXCXCXAXAXAXVXVXVXVXCXCXVXVXVXVXVXVXAXAXAXAXCXCXCXVXCXCXVXVXVXVXVXVXCXCXAXCXAXAXAXAXCXAXCXVXVXVXVXVXVXVXVXCXVXVXVXCXVXCXVXVXCXVXVXVXCXCXCXCXCXCXVXVXVXCXqXM.1X7X5XkXkXkXVXVXVXVXVXkXpX0X0X0XpXpXpXpXpXpXpXpX0X0XpXpXkXkXkXVXVXkXkXpXkX0X7X3X7X3X^.N.1X8XVXkXVX0X7X1X0XkXVXVXkXkXpXpXpXpXpXpXpXpXpXpXpXpXpXpXpXpXpXpXpXpX0X0X0X0X0X0X0X9X9X9X9X9X9X9X9X7X7X7X9X9X9X7X5X5X7X7X3X3X1X1X<X<X<X<X:X:X;Xe.v.;X;XI.P.(.L.j.;.,.t.k.l.v.b.v.M.N.N.I.I.I.I.^.^.^.(.;X;X;X:X:X:X:X:X:X:X:X:X:X<X<X1X1X1X1X1X1X1X1X<X1X:X7XAXKXaXL.G.Y.Y.p.*.A ",
"r.i.-.y.iXiX1XVXFXAX0X3X5X5X3X6X1X1X1X1X1X1X1X1X1X1X1X1X1X1X>X1X<X<X<X<X:X;X;X:X;X;X;X(.^.I.I.I.M.v.l.z.j.,.8.z.N.^.;X:X<X2X<X<XI.;X1X1X3X3X3X3X3X3X5X3X7X7X5X8X8X8X8X8X9X9X0X0X0X0X0X0X0X0X0X0X0X0X0X0XpXpXpXpXpXpXpXpXpXpXpXsXpXpXpXpXkXkXkXkXkXzXzXzXkXkXkXkX7X0XkXkXVXVXkX7X1X:X:X1XpXVXVXVXkXkXkXkXkXkXkXkXkXkXkXkXpXpXpXpXkXkXkXkXkXkXkXkXkXkXkXkXkXkXpXkXpXVXVXwX-X1XVXVXkXVXVXCXCXCXCXCXVXVXVXVXVXVXVXVXVXVXVXVXVXVXCXCXCXCXVXVXVXVXVXCXCXCXVXVXVXVXCXCXCXVXVXVXCXCXCXCXZXCXZXZXZXZXZXZXAXAXAXAXAXCXCXCXZXZXZXZXCXCXCXCXCXAXAXAXVXVXVXVXVXCXVXVXVXVXVXVXAXAXAXAXCXCXCXCXCXCXCXCXVXVXVXVXCXCXAXAXAXAXAXAXCXCXVXVXVXVXVXVXVXVXVXCXVXVXVXCXCXCXVXVXVXCXVXVXCXCXCXCXCXCXVXVXCXVXkX>X:XsXkXVXCXVXVXVXVXVXVXVXVXVXVXVXCXCXCXCXVXVXVXVXVXVXVXVXkXkXkXkXVXkXkXkXCXAX8X>X7XkX0XkX0XVXVXkX0XVX0X>X7X0XVXCXkXkXpXpXpXpXpXpXpXpXpXpXpXpXpXpXpXpXpXpXpXpX0X0XpX0X0X0X0X0X9X9X9X9X9X9X9X9X9X7X9X9X9X7X7X7X7X7X7X7X3X3X1X1X1X1X5X1X7X1Xv.(.<X2X:X(.(.;XP.t.8.e.f.l.v.v.M.N.N.N.I.I.I.I.I.^.^.;X;X;X:X:X:X:X:X:X:X:X:X:X<X<X1X1X1X1X1X1X1X1X<X1X:X3X3XkXHXFXT.c.Y.Y.z.9.",
"b.p.I.iX5X9XZXFXCXpX7X5X3X3X3X3X3X3X3X1X1X1X1X1X1X1X1X1X:X:X:X:X:X:X:X<X:X:X:X;X;X;X(.^.I.I.B.N.l.v.l.t.,.8.N.P.:X;X:X1X3X3X2XI.1X7X8X5X5X7X7X3X3X5X5X5X7X7X0X0X0X7X9X9X0X0X0X0XiXiXiXiXpXpXpXpXpXpXpXpXpXpXpXpXsXpXpXpXsXpXpXpXiXiX9X7XkXkXkXkXVXkXkXkXkXCXCX0X0XpXVXCXkXVXVXVXkXkXkXzXpXpXpXpXkXkXkXkXkXkXkXkXkXkXkXkXkXkXkXkXkXkXkXkXpXpXkXkXfXfXVXVXVXVXVXVXCXAXSX:X>X0XVXVXVXVXVXVXVXVXVXVXVXVXCXCXVXVXVXVXVXVXVXVXZXZXCXCXCXCXCXCXCXCXCXCXCXCXAXAXAXCXCXCXVXVXVXVXVXDXDXDXVXVXVXVXDXDXDXDXCXCXCXZXZXZXZXZXZXZXZXZXZXZXZXZXCXCXCXCXCXCXCXCXCXCXCXZXZXZXCXCXVXVXVXAXAXAXDXDXCXCXCXZXZXZXZXZXCXCXCXCXCXCXCXCXCXCXVXVXVXVXVXVXVXVXVXVXCXCXAXAXCXCXCXCXCXCXAXAXVXVXVXVXVXVXVXVXVXVXVX8X^.0XVXVXVXVXVXVXVXVXVXVXVXVXVXVXVXVXVXVXVXVXVXVXVXVXVXVXVXVXVXVXVXVXVXVXVXVXkXkXkXVXVXVXVXVXCXkXkXkXpX9X7X8X0XkXVXVXkXkXpXpXpXpX7XpXzXpXpXpXpXpXpXpX0X0XpXpXpXpXpXpXpXpX0X0X0X0X0X0X9X9X9X0X0X9X8X8X8X8X7X7X7X7X7X7X3X3X3X3X1X1X1X1X1X3X3XN.^.:X<X:X:X:X:X^.l.;.8.k.l.l.v.M.N.N.N.I.I.I.I.I.^.-X;X;X;X;X:X:X:X:X:X:X:X:X1X1X1X1X<X<X<X<X<X<X<X1X1X1X>X:X0XKXFX:Xn.Y.'.G.",
"M.6XaX5X0XFXFXpX7X3X3X3X3X3X3X3X3X3X3X1X1X1X1X1X1X1X1X1X:X:X:X:X:X:X:X:X:X:X;X;X;X(.^.I.I.N.N.V.v.l.f.7.,.M.^.:X<X1X3X7X3X:XP.I.8X8X8X7X5X7X5X1X3X5X5X7X8X8X0X0X0X0X0X0X0X0X0X0XpXpXpXpXpXpXpXpXpXpXpXpXkXkXkXkXzXsXpXpXpXpXiXpXiXiX0X0XkXkXkXkXVXkXkXkXVXkXkXkXVXCXCXVXkXkXpXpXVXVXCXCXVXVXVXVXVXVXVXVXVXVXVXVXVXVXVXVXVXVXVXVXVXVXVXVXVXVXVXVXVXVXVXVXVXVXVXVXCXSXCX>X7XpXVXVXVXZXVXVXVXVXCXCXVXVXVXVXVXVXVXVXVXCXZXVXZXZXCXCXCXCXCXCXCXCXCXCXCXCXCXCXCXCXCXCXVXVXVXVXDXDXDXDXVXVXVXVXDXDXDXDXCXCXCXCXZXZXZXZXZXZXZXZXZXZXZXZXCXCXCXCXCXCXCXCXCXCXZXZXZXZXCXCXVXVXVXAXAXDXDXDXCXCXCXCXZXZXZXZXCXCXCXCXCXCXCXCXCXCXAXAXCXCXCXCXCXCXCXVXAXCXAXAXCXCXCXCXCXCXAXCXVXVXVXVXVXVXVXVXZXZXCXVX:X1XkXkXVXCXVXVXVXVXVXVXVXVXVXVXVXVXVXVXVXVXVXVXVXVXVXVXVXVXVXVXVXVXVXVXVXVXVXkXVXVXVXVXVXVXVXkXkXkXpX0XpX0X8X8X0XpXpX0XpXpXpXpX9XpXpXpXpXpXzXzXpXpXpXpXpXpXpXpXpXpXpXpX0X0XpXpXpX0X0X9X9X0X0X0X8X8X8X8X9X7X9X7X7X7X7X7X7X5X1X1X<X1X1X1X3X;Xv.;X5X5X1X<X<X5X:Xv.,.8.f.g.c.x.M.N.N.N.I.I.I.I.^.^.;X;X;X;X:X:X:X:X:X:X:X:X1X1X1X1X<X<X<X<X<X<X<X1X1X1X<X:X^.qXKXKX8XP.I.:X",
"sXVX9XpXFXFX0X1X3X3X3X3X3X3X3X3X3X3X3X1X1X1X1X1X1X:X:X:X:X:X:X:X:X:X:X:X:X;X;X;X(.^.I.I.B.N.M.x.l.f.e.t.N.^.:X3X3X3X5X5X3XN.I.1X8X8X8X8X7X3X:X^.(.3X9X8X0X9X0X0X0X0X0X0X0X0X0X0XpXpXpXpXpXpXpXpXpXpXpXpXkXkXzXzXkXkXkXpXkXkXzXzXzXpXiXiXkXkXkXkXVXVXkXkXpX7X:X;X1X7X7X7X9X0XVXCXCXCXCXCXCXCXCXCXVXVXVXVXVXVXVXVXVXVXVXVXVXVXCXCXCXCXAXAXCXCXCXCXCXCXCXCXZXZXZXZXCXAX0X3XpXCXCXCXZXZXCXCXCXZXZXZXZXCXCXZXVXVXVXVXCXCXCXCXZXZXZXZXCXCXCXCXCXCXCXCXCXCXCXCXCXCXCXCXDXDXDXDXSXSXSXSXAXAXAXAXDXDXDXDXCXCXCXZXZXZXZXZXZXZXZXZXSXSXSXSXAXAXAXAXCXCXCXCXCXCXCXCXZXZXZXCXAXAXAXAXDXDXDXDXCXCXCXCXCXCXZXZXAXAXAXAXAXAXAXAXAXAXAXAXAXAXAXAXCXCXCXCXCXCXAXAXCXCXCXCXCXCXCXCXVXVXVXVXZXZXZXVXZXSXSXAX8X;XpXCXVXCXCXCXVXVXVXVXCXCXCXCXVXVXVXVXVXVXCXCXVXVXVXVXVXVXVXVXCXCXCXCXVXVXVXVXVXVXVXVXVXVXkXkXkXkXpX7X7XpXVX0X8X0XpXkXpXpXkXkX0X0XpXkXkXkXzXzXpXpXpXpXpXpXpXpXpXpXpXpX0X0XpXpXpX0X0X9X0X0X0XiX9X0X0X0X9X9X7X7X7X7X7X7X7X3X:X(.;X1X3X1X3X3X;XM.;X1X1X1X1X1X1X1Xl.,.,.e.f.l.v.M.N.N.N.I.I.I.I.^.(.;X;X;X;X:X:X:X:X:X:X:X1X1X1X1X<X<X<X<X1X1X<X1X1X1X<X>XI.^.8XFXKXpX;XI.",
"VXpXVXKXCX8X3X3X3X3X3X3X3X3X3X3X3X3X3X1X1X1X1X1X1X:X:X:X1X:X:X:X:X:X:X:X;X;X;X;X^.I.I.I.N.M.x.l.f.8.t.N.(.1X1X1X5X8X7X1XN.:X7X8X8X8X8X7X7X7X3X1X3X7XiX8X9X9X0X0X0X0X0X0X0X0X0X0XpXpXpXpXpXpXpXpXpXpXpXpXkXkXzXzXkXkXkXkXkXkXzXzXzXzXiXpXkXkXkXkXVXVXkXkXN.:X1X1X7X0XpXpXpXkXCXCXCXCXCXCXCXCXCXCXCXCXCXCXCXCXCXCXCXCXCXCXCXCXAXAXAXAXAXAXAXAXAXAXZXZXZXZXZXZXZXZXSXVX>X0XVXCXCXAXZXZXCXCXCXZXZXZXCXCXZXZXVXVXVXVXCXCXCXCXZXZXZXZXCXCXCXCXCXCXCXCXCXCXCXCXCXCXCXCXDXDXDXDXSXSXSXSXAXAXAXAXDXDXDXDXCXCXZXZXZXZXZXZXZXZXZXZXSXSXSXSXAXAXAXAXCXCXCXCXCXCXCXCXZXZXZXCXAXAXAXAXDXDXDXDXCXCXCXCXCXCXZXZXAXAXAXAXAXAXAXAXAXAXAXAXCXCXCXCXCXCXCXCXCXCXAXCXCXCXCXCXCXCXCXCXVXVXZXZXZXZXSXCXVXVXCXVXCX:X7XVXCXCXAXAXCXCXCXCXAXAXAXAXAXAXAXAXSXSXSXSXZXZXZXZXCXCXCXCXAXAXAXAXVXVXVXVXVXVXVXVXVXVXkXkXkXVXCXCXVXSXFXSXpX0XkXVXkXkXkXkXpX8X0XkXkXkXkXzXpXkXpXpXpXpXpXpXkXpXpXpX0X0XpXpX0X0X9X9X8X0X0XiX9X0X0X0X9X9X0X7X9X9X9X7X7X5X5X3X1X5X3X1X3X1X3X:Xl.N.;X<X3X1X1X1X1Xl.>.>.e.f.l.v.M.N.N.N.I.I.I.^.^.;X;X;X;X:X:X:X:X:X:X:X1X1X1X1X<X<X<X<X<X<X<X1X<X1X<X<XL.P.(.7XCXKXCX1X",
"7XVXKXZX9X3X3X3X3X3X3X3X3X3X3X3X1X1X1X1X3X1X1X1X:X:X:X:X1X>X:X:X:X:X;X;X;X;X;X^.I.I.P.N.v.l.l.f.8.t.P.(.:X1X7X0X7X7X;XI.1X1X7X7X8X8X7X7X7X7X7X7X8X9X9X0X0X0XpXpX0X0X0X0XpXpXpXpXpXpXpXpXsXsXsXsXkXkXkXkXkXkXkXkXkXkXzXzXVXVXzXzXxXsXiXsXkXkXkXkXVXkXpX3X7XkXCXkXVXCXCXCXCXCXCXCXCXCXCXCXCXCXCXCXVXVXCXCXAXAXCXCXAXAXAXAXAXAXAXAXAXAXAXAXCXCXCXCXCXCXZXZXZXZXCXCXAXpX:XpXCXCXAXAXCXCXCXCXZXCXCXCXZXZXZXZXZXZXZXZXZXZXZXZXZXZXZXZXAXAXAXAXAXAXAXAXAXAXAXAXAXAXAXAXSXSXSXSXSXSXSXSXSXSXAXAXAXAXAXAXSXSXSXSXSXSXSXSXSXSXSXSXZXZXZXZXAXAXAXAXAXAXAXAXZXZXZXZXZXZXZXZXSXSXAXAXAXAXAXAXZXZXZXZXZXZXZXZXAXAXAXAXAXAXAXAXAXAXAXAXAXAXAXAXAXAXAXAXAXAXAXAXAXAXAXAXCXCXCXCXZXZXZXZXZXZXZXZXVXVXCXZXVX7X^.kXCXCXAXAXAXAXAXAXVXCXAXAXAXAXAXAXAXAXAXAXAXAXAXAXCXCXCXCXVXVXVXCXVXVXVXVXVXVXVXVXVXVXVXkXVXCXCXCX8X7X3X>X8X9X0XVXkXpXpXpXpXpX0X0XpXkXzXpXzXzXkXkXkXkXkXkXkXkXkXpXpXpXpXpX0X0X0X8X0X0XiXiXiX0X0X0X0X0X8X8X9X9X9X7X8X0X7X7X7X7X5X5X3X3X3X3X:Xv.;X7X7X5X3X3X3X:Xv.8.>.8.g.l.v.M.N.N.P.I.I.I.^.(.;X;X;X;X:X:X:X:X:X:X>X:X>X1X<X<X:X:X:X<X1X1X<X<X<X;XI.Y.;X:X9XVXFXSX",
"CXFXZX9X1X1X6X3X3X3X3X3X3X3X3X3X1X1X1X1X3X1X1X1X:X:X:X:X1X:X:X:X;X;X;X(.;X;X^.I.I.T.N.v.l.g.e.,.8.^.<X:X:X1X7X7X7X:X-X5X7X7X9X9X8X8X7X8X7X8X8X8X0X0X0X0X0X0XpXiX0X0X0X0XpXpXpXpXpXpXpXpXsXsXsXsXkXkXkXzXkXkXkXCXzXkXzXzXVXVXkXkXaXaXzXCXkXkXkXkXVXVX7X7XpXCXAXCXVXCXCXCXCXCXCXCXCXCXCXCXCXCXCXCXVXVXCXCXAXAXCXCXAXAXAXAXAXAXAXAXAXAXAXAXCXCXCXCXCXCXZXZXCXZXCXCXSXpX7XVXCXAXAXAXCXCXCXCXZXCXCXCXZXZXZXZXZXZXZXZXZXZXZXZXZXZXZXZXAXAXAXAXAXAXAXAXAXAXAXAXAXAXAXAXSXSXSXSXSXSXSXSXSXSXAXAXAXAXAXAXSXSXSXSXSXSXSXSXSXSXSXSXZXZXZXZXAXAXAXAXAXAXAXAXZXZXZXZXZXZXZXZXSXSXAXAXAXAXAXAXZXZXZXZXZXZXZXZXAXAXAXAXAXAXAXAXAXAXAXAXAXAXAXAXAXAXAXAXAXAXAXAXAXAXAXAXCXCXCXCXZXZXZXZXZXZXCXCXCXCXZXZXVXpX;X7XVXCXCXAXAXAXAXAXCXVXVXCXCXCXCXCXVXVXVXVXCXCXCXCXCXCXAXAXVXVXVXVXVXVXVXVXVXVXVXVXVXVXVXVXVXCXCXVX7X7X3X3X0XkX3X0XkXkXpXpXpXpX0X0X0XpXpXzXzXzXkXkXkXkXkXkXkXkXkXpXpXpXpXpXpXpX0X0XiXiXpXiXiX0X0X0X0X0X8X8X8X9X9X7X5X5X7X7X7X7X7X7X5X5X3X3X3X:XP.1X3X3X3X3X5X3X:Xv.e.,.8.l.l.v.M.N.N.P.I.I.^.(.;X;X;X;X;X:X:X:X:X:X>X>X>X1X<X<X:X;X:X<X1X1X<X<X<X;XI.Y.;X:X;X1XpXCX",
"KXVX7X7X3X5X5X5X3X3X3X3X3X3X3X3X1X1X1X1X3X1X1X1X:X:X:X:X:X:X;X;X;X;X^.^.;X^.I.I.T.N.M.l.g.e.8.8.L.:X<X3X<X7X0X9X-XN.1X7X9X9X9X9X8X8X8X8X8X0X0X0X0X9X9X0X0X0X0XiX0X0X0X0XpXpXpXiXiXiXkXkXkXkXkXkXkXkXkXzXkX3X1X7XzXzXzXzXzXkXsXpX9XiXkXCXkXkXkXkXVX0X7XpXVXCXCXCXVXVXCXCXCXCXCXCXCXCXCXCXCXCXCXCXVXCXCXVXAXCXAXCXAXAXAXAXAXAXAXAXAXAXAXAXCXCXCXCXCXZXZXZXCXCXCXCXCX0XkXCXCXAXAXCXZXCXZXZXZXZXCXCXZXZXZXZXCXZXZXZXZXZXZXZXZXZXZXZXAXAXAXAXAXAXAXAXAXAXAXAXAXAXAXAXSXSXSXSXSXSXSXSXSXAXAXAXAXAXAXAXSXSXSXSXSXSXSXSXSXSXSXSXZXZXZXZXAXAXAXAXAXAXAXAXZXZXZXZXZXZXZXZXAXAXAXAXAXAXAXAXZXZXZXZXZXZXZXZXAXAXAXAXAXAXAXAXAXAXAXAXAXAXAXAXAXAXAXAXAXAXAXAXAXAXAXAXCXCXCXCXZXZXCXZXCXCXCXCXCXCXCXCXAXCX1X:XpXCXVXAXAXAXAXAXAXCXCXVXCXCXCXCXVXCXVXVXCXCXCXCXCXAXAXAXVXVXVXVXVXVXCXCXVXVXVXVXVXVXVXVXVXVXVXVXVXVXVXVXVXkX0X7X0XkXkXpXkXkXpX0X0XpXpXzXsXpXpXpXzXkXkXkXkXkXpXpXpXpXpXpXpXpXpX0XpXpXpXiXiXiXiX0X0X0X0X8X8X8X9X7X:Xl.;X7X7X7X7X7X7X7X7X5X1X<X^.P.;X1X3X5X7X5X3X:XN.e.,.e.g.l.v.M.N.N.P.I.I.^.^.(.;X;X;X;X:X:X:X:X>X>X>X1X<X<X:X;X:X:X<X1X<X<X:X(.I.(.<X1X1X>X:X1X",
"0X7X3X5X3X6X5X5X1X3X3X3X3X3X3X3X1X1X1X1X3X1X1X1X:X:X:X:X:X;X;X;X;X(.^.I.^.I.I.T.N.M.x.l.e.8.f.N.3X3X3X1X3X7X3X;XP.3X7X7X9X9X9X9X8X8X9X8X0X0X0X9X9X9X9X0X0X9X0X0XiX0X0X0XpXpXpXiXiXiXiXpXkXkXkXkXkXkXkXkXkXpX0XpXzXzXzXCXzXkXiXiX9XzXzXkXVXkXkXkXkX3X0XCXCXkXVXVXVXVXCXCXCXCXCXCXCXCXCXCXCXCXCXCXVXVXVXVXAXAXAXCXAXAXAXAXAXAXAXAXAXAXAXAXCXCXCXCXCXZXZXZXCXCXCXCXkX7XCXCXAXAXAXCXZXZXZXZXZXZXCXCXZXZXZXZXCXZXZXZXZXZXZXZXZXZXZXZXAXAXAXAXAXAXAXAXAXAXAXAXAXAXAXAXSXSXSXSXSXSXSXSXAXAXAXAXAXAXAXAXSXSXSXSXSXSXSXSXSXSXSXSXZXZXZXZXAXAXAXAXAXAXAXAXZXZXZXZXZXZXZXZXAXAXAXAXAXAXAXAXZXZXZXZXZXZXZXZXAXAXAXAXAXAXAXAXAXAXAXAXAXAXAXAXAXAXAXAXAXAXAXAXAXAXAXAXCXCXCXCXZXZXCXCXCXCXCXCXCXCXCXCXAXVXpX^.7XVXVXCXAXAXAXAXAXCXCXCXCXCXCXCXVXVXVXCXCXCXCXCXAXAXAXAXVXVXVXVXVXVXCXCXVXVXVXVXVXVXVXVXVXVXVXVXVXVXVXVXCXVXVX9X7X0XkXkXkXkXpXpX0X0XpXzXkXkXkXpXkXkXkXkXkXkXpXpXpXpXpXpXpXpXpXpXpXpXpXiXiXiXiX0X0X0X0X0X8X8X8X7X8X<X5X0X8X8X7X7X7X7X7X7X1X5X1X;XI.:X5X7X7X7X5X3X:XN.f.,.f.g.l.v.M.N.N.P.I.I.I.^.^.;X;X;X;X:X:X:X;X;X;X>X:X:X;X;X:X:X:X<X<X<X>X;XI.-X:X1X1X1X;X:X",
"7X1X1X1X1X1X1X1X3X3X1X1X1X1X1X1X1X1X1X1X>X:X:X:X>X>X>X:X;X;X;X-X^.I.I.I.I.I.N.M.v.x.l.8.7.j.(.<X<X6X9X9X8X7X;X-X1X7X7X9X9X9X9X9X0X0X0X0X0X0X9X9XsXsXiXiXiXiXiXiXiXiXpXpXpXpXpXiXiXiXiXiXkXkXkXkXVXVXVXzXVXVXVXVXkXVXkXkXzXiX9X0XzXkXkXVXkXkXkXkX7X9XCXCXCXCXCXCXVXVXCXCXCXCXCXCXVXVXVXVXVXVXVXCXCXCXCXCXCXCXCXCXAXAXAXAXAXAXAXAXAXAXAXAXAXAXAXAXAXAXAXAXAXVXVXCX0X0XVXCXAXAXAXCXCXCXCXCXCXCXCXCXCXCXCXCXCXAXAXCXAXAXAXAXAXAXAXAXAXAXAXAXAXAXAXAXAXAXAXAXAXAXAXAXAXAXAXAXDXDXDXDXSXSXSXSXSXSXSXSXAXAXAXAXAXAXSXAXSXSXSXSXZXZXZXZXSXSXSXSXSXZXZXZXZXZXZXZXZXZXZXZXAXAXAXAXAXAXAXAXAXAXAXAXAXAXAXAXAXAXAXAXAXAXAXAXZXZXZXZXZXZXZXZXSXSXSXSXSXSXSXSXDXDXDXDXSXSXSXSXAXAXAXAXAXAXAXCXVXVXVXVXCXAXCX3X1XCXCXVXAXAXCXCXAXAXAXAXCXCXCXCXCXCXCXCXAXAXCXCXCXCXCXCXCXCXCXCXVXCXCXCXVXVXCXCXVXVXVXVXVXVXVXVXCXCXCXCXCXCXCXCX9X9XkXVXkXkXkXpXpX0XiXsXkXkXkXkXkXkXkXkXkXkXkXkXkXkXzXsXsXsXkXkXpXpXpXpXpX0XpX0XpXpXpXpXiX9X9X9X8X8X8X0X0X8X7X7X7X7X7X7X7X7X3X1X;Xv.I.3X0X7X3X5X1X:XP.g.,.8.f.l.v.M.N.N.N.P.I.^.(.(.;X;X;X;X:X:X:X:X:X:X:X:X;X:X:X:X:X<X1X<X:X;X^.^.:X1X:X:X:X:X",
"1X1X3X1X1X1X1X1X3X3X1X1X1X1X1X1X1X1X1X1X:X:X:X:X>X>X:X;X;X;X-X-XI.I.I.T.I.N.M.v.l.k.8.8.l.(.2X6X5X7X9XiX7X;X-X1X7X7X9X9X9X9X9X9X0X0X9X9X0X0X9X9XsXsXiXiXpXiXiXiXiXpXpXpXpXsXzXpXiXiXpXzXzXkXkXkXVXVXVXzXVXVXVXpXkXpXpXkXzX0X9XkXzXzXVXVXkXkXkX0X7XpXCXCXCXCXCXCXCXCXCXCXCXCXCXCXVXVXVXVXVXVXCXCXCXCXCXCXCXCXCXCXAXAXAXAXAXAXAXAXAXAXAXAXAXAXAXAXAXAXAXAXAXVXVXVX1XpXAXVXAXAXCXCXCXCXCXCXAXAXCXCXCXCXCXCXCXCXCXCXAXAXAXAXAXAXAXAXAXAXAXAXAXAXAXAXAXAXAXAXAXAXAXAXAXAXAXAXDXDXDXDXSXSXSXSXSXSXSXSXAXAXAXAXAXAXAXAXSXSXZXZXCXCXZXZXZXZXSXSXZXZXZXZXZXZXZXZXZXZXZXZXAXAXAXAXAXAXAXAXAXAXAXAXAXAXAXAXAXAXAXAXAXAXAXAXZXZXZXZXZXZXZXZXSXSXSXSXSXSXSXSXDXDXDXDXSXSXSXSXAXAXAXAXAXAXAXAXVXVXVXVXCXAXCX0X^.9XCXVXVXAXAXCXAXAXAXAXCXCXCXCXCXCXCXCXAXAXCXCXCXCXCXCXCXCXCXCXVXVXCXCXVXVXCXCXVXVXVXVXVXVXVXVXCXCXCXCXCXCXCXCXkX3XpXkXkXkXzXzXkXpX0XpXsXzXkXkXkXkXzXkXkXkXkXkXkXkXzXsXsXsXkXkXpXpXpXpXpXpXpX0XpXpXpXpXpXpXiX9X8X8X9X8X8X8X7X7X9X7X7X7X7X7X7X7X3X1XN.^.3X7X7X7X5X1X;XI.f.7.8.f.k.v.M.N.N.N.I.^.^.^.(.;X;X;X;X;X:X:X:X:X:X:X:X:X:X:X:X<X<X:X;X^.^.^.:X1X:X:X:X:X",
"3X3X1X1X1X1X1X1X1X1X1X1X1X1X1X1X1X1X1X1X:X:X:X:X>X:X;X;X;X-X-X-XI.I.P.N.N.M.v.l.k.7.,.M.:X1X5X5X5X9X0X0X1X-X1X7X7X9X9X9X9X9X9X9X9X9X9XiX0X0X0X0XpXpXsXsXpXiXaXaXkXpXpXpXsXsXsXiXiXiXzXzXkXkXkXkXkXkXkXkXVXVXVXpXkXpXpXkXiX9XpXzXzXzXVXkXkXzXpX7XpXVXCXCXCXCXCXCXCXCXCXCXCXCXCXCXCXVXVXVXVXVXVXVXCXAXCXCXCXCXCXCXAXAXAXAXAXAXAXAXAXAXAXAXAXAXAXAXAXAXAXAXCXCXCX1X3XVXAXVXAXAXCXCXCXAXCXCXAXAXAXAXCXCXCXCXCXCXCXCXAXAXAXAXAXAXAXAXAXAXAXAXAXAXAXAXAXAXAXAXDXDXAXAXAXAXAXAXDXDXDXDXSXSXSXSXSXSXSXSXAXAXAXAXAXAXAXAXZXZXZXZXCXCXCXCXVXVXVXVXZXZXZXSXZXZXZXZXZXZXZXZXAXAXAXAXAXAXAXAXAXAXAXAXAXAXAXAXAXAXAXAXAXAXAXAXZXZXZXZXZXZXZXZXDXDXSXSXSXSXSXSXSXSXDXDXSXSXSXSXAXAXAXAXCXCXCXCXVXVXVXVXVXAXCXCX;XI.kXAXCXAXCXCXAXAXAXAXCXCXCXVXCXVXCXCXAXAXCXCXCXCXCXCXCXCXCXCXVXVXCXCXVXVXVXVXVXVXVXVXVXVXVXVXCXCXCXCXCXCXCXCXCXpX7XpXkXkXkXkXkXzXpX0XiXpXsXsXkXkXkXkXkXpXkXkXkXkXkXkXsXsXsXkXpXpXpXpXpXpXpXpXpXpXpXpXpXpXpXpXiX0X0X0X9X9X9X9X9X9X7X7X7X7X7X7X3X7X1X;X;X1X7X7X7X3X:X;XP.k.8.8.f.k.v.M.M.N.P.I.^.^.^.(.(.;X;X;X;X;X:X:X;X:X:X-X:X:X:X<X<X<X(.N.^.^.:X1X>X>X>X1X",
"3X1X1X1X1X1X1X1X1X1X1X1X1X1X1X1X1X1X1X:X:X:X:X:X;X;X;X-X-X-X-XI.I.P.N.N.M.v.l.l.,.,.v.<X1X3X5X5X9XkX7X(.;X1X7X7X9X9X9X9X9X9X9X9X0X9X9XiX0X0X0X0XpXpXsXsXsXaXsXsXsXpXpXpXzXsXpXpXpXzXzXkXkXkXkXkXkXkXkXkXVXVXVXzXkXkXzXzXiX0XkXCXzXkXkXVXkXpX0X7XCXCXCXCXCXCXCXCXCXCXCXCXCXCXCXCXCXVXVXVXVXVXVXVXAXAXCXCXCXCXCXCXAXAXAXAXAXAXAXAXAXAXAXAXAXAXAXAXAXAXAXAXSXkX;X^.kXVXCXAXAXCXCXCXCXCXCXCXAXAXAXCXCXCXCXCXCXCXCXCXAXAXAXAXAXAXAXAXAXAXAXAXAXAXAXAXAXAXAXAXDXAXAXAXAXAXAXAXAXAXAXAXSXSXSXSXSXSXSXSXAXAXAXAXAXAXAXAXZXZXZXZXCXCXCXCXVXVXVXVXVXVXZXSXZXZXZXZXZXZXZXZXAXAXAXAXAXAXAXAXAXAXAXAXAXAXAXAXAXAXAXAXAXAXAXAXZXZXZXZXZXZXZXZXDXDXSXSXSXSXSXSXSXSXSXDXSXZXZXZXAXAXAXAXCXCXCXAXCXVXVXVXVXVXCXAX0XM.7XVXCXCXAXAXAXAXAXAXCXCXVXVXCXCXCXCXAXAXCXCXCXCXCXCXCXCXCXCXVXCXCXCXVXVXVXVXVXVXVXVXVXVXVXVXCXCXCXCXCXCXCXCXCXVX9X7XkXkXkXkXkXkXkXpX0X0XpXsXkXkXkXkXkXpXpXpXkXkXkXkXsXsXsXzXpXpXpXpXpXpXpXpXpXpXpXpXpXpXpXpXiX0X0X0X9X9X9X9X9X9X9X8X7X7X7X7X7X1X3X3X(.:X3X7X8X7X1X;X;XP.k.7.e.f.k.v.v.M.N.P.I.^.^.^.(.(.(.(.;X;X;X;X;X;X;XN.:X:X:X:X:X<X^.n.^.^.:X1X>X>X1X1X",
"3X1X1X1X1X1X1X1X1X1X1X1X1X1X1X1X1X>X:X:X:X:X:X:X;X;X;X;X-X^.I.I.I.N.M.v.v.l.f.8.7.M.2X1X1X8XiX8X0X1XN.N.1X7X8X9X9X9X9X9XpX9X9X9X9X9X9X9XiXiXiX0XpXpXpXpXpXpXsXsXpXpXsXsXsXpXpX0XpXkXkXpXpXzXkXkXkXzXzXzXkXkXkXkXkXkXkXkXpX0XkXVXzXkXkXkXpX0X5XkXAXAXCXCXCXCXCXCXCXCXCXCXCXCXCXCXCXCXVXVXVXVXCXVXAXCXCXCXAXAXAXAXAXAXAXAXAXAXAXAXAXAXAXAXCXCXCXCXAXAXAXAXSX7XV.0XCXAXAXAXAXCXCXCXVXCXAXAXAXAXCXCXCXCXCXCXCXCXCXCXCXCXCXCXCXCXCXCXCXCXCXCXAXAXAXAXAXAXAXAXCXCXCXCXCXCXCXCXAXAXAXAXSXSXSXZXZXZXSXSXSXSXSXSXSXAXAXAXSXSXSXSXSXSXZXZXSXVXVXSXSXSXSXSXZXZXZXZXCXCXZXZXAXAXAXAXAXAXAXAXAXAXAXAXAXCXCXCXCXCXCXCXCXCXCXCXZXZXZXZXCXCXZXZXDXDXSXSXSXSXSXSXSXSXZXZXZXCXCXZXCXCXCXCXVXVXVXVXVXVXVXVXCXVXCXCXCXI.M.VXAXAXCXCXCXCXCXCXVXVXVXVXCXCXAXAXCXCXCXCXAXAXAXAXAXCXCXCXVXVXCXVXVXVXVXVXCXCXCXCXCXCXCXCXCXCXCXCXCXCXCXCXVXCXkX0X9XpXVXkXzXkXkXkX8X8XkXkXpXpXkXkXkXkXkXkXsXsXsXsXpXpXpXpXpXpXpXpXsXsXsXsXpXpXpXpXpXpXpXpXiXiX0X0X9X9X9X9X9X9X9X9X9X7X7X1X7X7X7X7X1X<X;X7X7XiX3X:X<X;XI.v.>.,.t.v.v.v.M.L.P.P.I.^.^.^.(.(.;X;X;X;X;X;X;X;X;X;X>X:X:X;X:Xl.^.;X:X:X:X:X>X>X",
"3X1X1X1X1X1X1X1X1X1X1X1X1X1X1X1X>X:X:X;X;X:X:X;X;X;X;X^.^.I.I.I.N.M.M.l.g.t.7.7.M.;X1X1X6X8XsXsX3XP.(.3X7X7X9X9X9X9X9X9X9X7X7X9X9X9XiX9XiXiXiXiXpXpXpXpXpXpXsXsXpXsXsXpXpXiX9X0XpXkXkXpXpXsXsXsXsXsXsXsXzXkXzXzXkXzXzXzXkXkXVXVXCXCXVXpX0X0X0XzXAXCXCXVXzXzXkXzXCXCXCXCXVXCXCXCXVXVXVXVXkXVXVXCXVXCXCXCXCXCXAXAXAXAXAXAXAXAXAXAXAXAXAXAXCXCXAXAXCXCXCXCXCXN.-XCXCXAXAXCXCXVXVXVXCXCXVXVXVXAXCXAXCXCXCXCXCXCXCXCXCXCXCXVXVXVXVXVXVXVXVXVXCXCXCXCXCXCXCXCXAXAXAXAXCXCXAXAXAXAXAXAXZXCXZXZXZXZXZXZXAXAXAXAXCXVXVXVXZXZXZXZXSXFXFXZXZXSXSXSXZXZXZXZXZXZXZXZXCXCXCXCXCXCXCXCXCXCXCXAXAXAXAXAXCXCXCXCXCXCXCXCXCXCXAXAXZXZXSXSXZXZXCXCXVXVXVXVXVXVXZXZXZXSXZXCXCXSXSXCXCXAXAXCXCXVXVXVXVXVXVXVXVXVXCXCXVXiX7.<XCXFXSXAXAXAXFXFXAXAXAXAXCXCXCXCXCXCXCXVXCXCXCXCXCXVXVXVXVXVXVXVXVXVXVXVXVXVXVXVXVXVXVXVXVXVXVXVXVXVXVXkXkXVXVXkX0XpXpXpXpXpXsXsXsX8XpXkXkXkXzXzXkXkXkXkXsXzXsXsXsXsXpXkXzXzXpXpXpXpXpXpXpXpXpXpXpXpXpXpXiXiX0X0X9X9X8X8X9X9X9X9X9X7X7X7X7X7X7X7X7X3X(.P.3X7X7X3X<X<X;XI.f.,.,.f.l.v.v.M.N.P.P.I.^.^.(.(.(.(.;X;X;X;X;X;X;X;X;X;X;X:X:XM.^.:X:X:X:X:X>X>X",
"3X1X1X1X1X1X1X1X1X1X1X1X<X<X<X1X:X:X;X;X:X:X;X;X(.(.^.^.^.I.I.N.N.M.v.k.e.,.8.v.2X2X1X5X7X9X9X7X^.:X0X8X7X9X9X9X9X9X9X9X9X7X7X9X9XiXpXpXiXiXpXpXpXpXpXpXpXpXsXsXsXsXiXiXiXiX9X9X0XpX0X0X0XpXsXsXiXiXiXaXsXiXiXiXkXzXzXzXzX0X5X<X7XiX9X7X7X0XzXCXCXCXzXkXkXkXpXpXpXkXkXkXkXkXkXkXVXVXVXkXpXpXpXkXpXzXzXVXVXVXCXCXVXVXCXCXCXCXCXCXCXCXCXCXCXCXCXCXCXCXVXVXpXf.7XCXzXCXCXCXVXVXVXkXkXkXVXVXCXCXCXCXCXCXCXCXCXCXCXCXCXCXCXCXVXVXVXVXVXVXVXVXVXVXVXVXCXCXAXAXCXCXCXCXCXCXCXCXAXAXAXCXCXCXCXCXSXSXZXCXCXCXCXCXAXAXAXAXSXSXAXAXAX>X-XI.B.I.B.wXCXCXCXCXCXCXCXCXVXVXCXCXVXVXVXVXVXVXVXCXAXAXVXVXVXCXCXCXVXVXVXVXVXVXVXVXCXCXAXAXCXCXZXZXVXVXVX0XfXVXVXVXVXVXqX>X7X0XVXVXVXVXCXCXAXAXAXAXAXAXAXAXAXVXCXCXAXFXx.#.<XVXCXAXFXFXFXFXFXCXCXCXCXCXCXCXCXCXCXCXCXCXCXCXCXVXCXCXVXVXVXVXVXVXVXVXVXVXVXVXVXVXVXVXkXkXkXkXVXVXVXCXCXVXkXVXkX0X9X9X7X7X7X7X8X7X7XsXzXzXzXzXkXkXkXkXkXkXkXsXsXpXzXVXVXzXVXzXzXpXpXpXpXpXsXsXpXpXpXpXpXiXiXpXiXiXiXiXiXiXiX9X9X9X7X7X7X7X7X7X7X7X5X;Xf.1X7X7X1X<X<X;X(.l.,.;.t.l.v.v.n.N.P.P.I.I.^.^.(.(.;X;X;X;X;X;X;X;X;X;X;X:X:X^.;X:X:X:X:X:X:X:X",
"3X1X1X1X1X1X1X1X1X1X1X1X<X<X<X<X:X;X;X;X:X;X;X;X(.^.^.^.I.P.N.N.M.v.l.f.,.8.v.;X1X3X5X8X8X8X1X;X1X0X8X9X9X9X9X9X9X9X9X9XpX9X9XpXpXpXpXpXpXpXpXpXpXpXpXpXpXpXsXsXsXiXiXiXiX9X9X9X9X9X9X3X1X1X<X<X<X<X<X<X<X;X(.(.(.:X<X<XM.l.f.e.v.;X;X-X;X7XCXAXCXCXkXkXsXpXpXiX0X9X9X9X1X1X1X3X7X7X7X7X3X3X3X3X7X7X7X7X7X7X7X7X7X9X9X9X9X9X9X9X9X9X9X9X9X7X7X8X8X8X8X8XY.o.P.;X;X<X<X:X<X:X:X:X:X1X7X0X8X8X8X8X9X9X9X9X9X9X9X9X9X9X0X0X0X0X0X0X0X9X9X9X7X7X7X7X7X7X7X7X7X7X7X7X7X9X9X9X7X7X7X7X7X7X7X9X9X9X7X1X9X9X0X0X0X8X0X0X0XpXpXpX0X>.Z +.+.Z k f.pXpXpXpXpXpXpXpXpXpXpX0X0X0X0X9X9X9X9X9X9X9X7X3X3X7X7X7X7X7X7X7X7X7X7X7X7X7X9X9X9X9X9X9X7X7X1X1X1X1X1X1X1X1X;XN.I.>XwX1X7X7X7X7X7X7X7X7X7X7X7X7X7X1X1X3X1X8X>.b k.1X7X1X5X5X5X5X5X1X3X3X1X1X1X3X1X1X1X1X3X3X3X3X3X3X7X7X7X7X7X7X7X7X7X3X3X3X3X3X3X3X3X3X3X3X5X3X3X3X7X7X8X3X:X1X1X;XI.I.:X:X:X:X;X;XP.P.P.P.P.^.(.:X:X:X;X;X;X;X(.;X<X<X1X8XiXsXzXzXzXzXsXsXsXsXpXpXpXpXpXiXiXiXiXiXiXiXiXiX9X9X9X9X9X9X7X7X7X7X8X7X9X3X:XM.<X3X1X1X1X<X;X(.n.8.7.t.l.v.v.n.N.P.P.P.I.I.^.^.(.(.;X;X;X;X;X;X;X:X;X:X:X;X:X:X:X:X:X:X:X:X",
"3X1X1X1X1X1X1X1X1X1X1X1X:X:X:X:X:X;X;X;X:X;X;X(.(.(.^.).P.N.N.M.v.k.t.,.e.N.3X7X3X9XiX9X7X:X;X1X7X9XpXpXpX9XiXiX9X9X9X9X9X9XpXpXpXpXpXpXpXpXpXpXpXpXpXpXpXpXsXiXiX(.b.k.t.8.8.8.e.,.#.P k v &.,.;.;.;.;.;.;.;.;.;.;.=.=.;.;.,.,.>.8.7.8.;.#.@.Z Z #.@.&.,.=.&.;.,.$.@.@.@.&.>.,.$.,.>.$.$.;.;.&.;.&.&.;.&.$.&.$.>.>.>.>.>.>.,.,.,.,.7.,.q.q.q.q.7.7.q.&.@.u B ,.q.q.,.>.>.;.;.;.>.@.@.7.,.q.8.8.8.8.8.8.8.8.8.<.,.8.<.$.>.8.f.e.8.8.8.8.8.8.8.8.8.8.8.8.8.7.8.8.8.8.8.8.8.8.8.8.8.8.8.8.8.,.$.>.f.f.e.e.8.8.8.8.8.8.7.,.7.I z c v b b S 8.8.8.0.8.8.0.0.g.h.f.f.f.x.8.e.8.f.g.f.g.f.8.>.,.,.,.,.,.,.,.,.<.<.7.7.7.7.8.8.7.7.,.,.7.7.,.,.;.;.;.;.;.=.=.=.=.>.>.>.>.>.>.=.+.$.8.8.<.<.<.<.>.>.=.$.$.+.b c >.,.7.8.8.8.7.,.,.,.,.,.,.,.,.,.;.;.;.;.;.;.;.;.;.=.=.=.>.,.8.8.8.8.,.,.=.&.#.@.@.&.#.@.#.o.o.o.+.+.o.O.#.#.#.#.@.#.;.,.;.>.,.,.8.8.,.Z C O.=.#.;.7.7.,.8.e.,.@.@.#.&.;.,.7.8.8.f.l.(.6XxXaXzXzXpXpXaXaXsXsXsXpXpXiXiXiX0X0X0XpXiXiX0X0X8X8X7X7X7X5X7X7X8X:X^.;X5X8X1X5X<X<X(.I.8.,.t.n.v.M.M.N.P.I.I.I.I.(.(.(.(.(.;X;X;X;X:X:X;X;X;X;X;X:X>X>X>X>X>X>X",
"3X1X1X1X1X1X1X1X1X1X1X1X:X:X:X:X:X:X;X;X;X;X;X(.(.).I.P.P.N.M.v.l.f.8.t.P.3X7X7X9X9X5X3X;X:X3X8XiXpXpX9XpX9XiXpXiXiXiXpXpXpXpXpXpXpXpXpXpXpXsXsXsXsXpXpXpXsXsX5X(.;.P #.C v c c v v v z i h A I o.o.o.o.o.o.o.o.#.O.O.P P o.@.@.$.$.>.$.@.S z i h C C v C C C A #.A z k c B S A C I I C Z P P Z o.P P o.@.o.P P A A I I I I P P P P P P P A P P @.@.P A A e h @.@.@.o.o.o.P P P @.k r B S A Z Z Z Z Z Z Z Z Z Z S +.Z c Z Z +.+.Z Z Z Z Z Z Z Z Z Z I I Z Z Z Z +.+.+.+.+.+.o.o.I I I I C Z C Z +.+.I I P Z A A Z Z Z C Z C Z Z P Z Z P P P P P +.+.P P o.o.+.I $.$.Z I o.$.&.$.$.;.$.O.o.o.o.o.o.o.o.o.+.+.o.o.o.o.o.o.P o.o.o.P P P P I I I I P P P P o.o.o.o.o.P Z Z z k c Z Z Z Z I P P P Z P Z g c o.o.O.@.O.Y P P P P P P P P P P o.P P P P P P P I I I I I I P P P I I P I I I I I I I I P P A C v v v Z A C A C C A I P C z z I c Z P B z C A A A P @.P #.#.A z c C S Z Z Z P P z C #.,.b.6XsXkXpXsXpXaXsXsXsXpXpXiXiXiXiX0X0XpXiXiXiXiXiXiX0X8X7X7X7X7X0X5X:X^.;X1X5X5X3X1X<X<XI.y.8.y.x.v.v.M.N.N.I.I.I.I.(.(.(.;X;X;X;X;X;X;X;X;X;X;X;X:X>X>X>X>X>X>X",
"3X1X1X1X1X1X1X1X:X:X:X>X:X:X:X:X:X:X;X;X;X;X(.^.^.I.P.P.N.M.v.l.f.e.f.P.5X5X3X5XiX7X1X<X;X5X0X9XpX9X9X9XpXpXpXpXpXpXpXpXpXpXpXpXpXpXsXsXiXpXiXiXsXsXiXiXsXsX2XG.&.I I P Z C S C I L C C h h C A P P P I P P P P P P o.o.+.+.O.o.@.$.$.o.+.C z i z P Z c C I o.#.;.Y S C N N N z z C v z C A A C I C C I o.@.P P L L I I I I P P P P Y P P P P P P @.o.P S r g I S Z Z Z Z Z Z Z P g t C C S Z Z P P P P P P P P Z o.P S Z S Z P P P P P P P P I P P I I I I I I Z Z Z Z Z Z Z Z v v v v Z v z Z I Z Z C C Z Z I I I A C A A A A I I I I v v C C C C C C C C v v C C g c Z Z Z I Z +.P Z Z Z Z Z S Z Z P C C C C Z Z Z A A A A A A A A A I I I A A C C C C C S B B z z k k g k z C C C C A A A I C B i B @.@.@.o.P P P I I I I I P I I I P I I I P I I I C C C A A z z C C C S A I P P P P P Y Y #.&.#.P I I Z A L C L A S S A A L z h C N z A S z B B z z B z k z j h h j z B B S S C C z z I T #.4.I.pXzXpXsXsXsXsXsXsXsXpXsXiXpXiXpXpXiXiXiXiXiXiXiXiX8X8X0X0X7X7X5X:XT.1X1X5X1X1X6X1X1XI.f.7.f.l.l.v.M.N.T.I.I.I.^.(.^.;X;X;X;X;X;X;X;X;X;X;X;X:X>X>X>X>X>X>X",
"3X1X1X1X1X1X1X1X:X:X:X:X:X:X:X:X:X:X;X;X;X;X(.^.I.P.P.N.M.v.l.f.e.f.).6X5X3X3X9X8X1X<X3XiX0X7X7X9X9X9X9XiXpXpXpXpXpXpXpXpXpXpXpXpXpXsXsXiXiXiXiXiXiXiXiXiX3Xz.@.C I C C C c c z A C B N h j S C z z z z z z z z z c C C C Z I I Z Z Z c c z z i g z c C C P &.=.P A N N z z h a h h h h x z z x z k k z S S C B C B C C C C A A S S A S S C C C c C C B B r p C z c c C C c c c Z g 9 k k k z c c c c c c c c c z S S z C z z C B B B B B B c c c c c c c c z z z z x z z z z z z z z z Z g 9 g x k h h z z z v z z x j z j j z z z z z z c c z z z z z z z x k k z i v c z c Z c c z k z z z z k z c C z z b b k k k k h h k h h h x x x x z z z k k k g g h h g g i i i r g h l l l l h l z z h h 7 z A Z C C A A C B z z z z z z z z c z z z c c B B l l l z z h i h z z z N z N C S A A A A P #.#.P S C B z N l N z l j l l C h i i i r h z B z k k k h i q 7 q r u h h z z N N z k j z c I Y Y =.n.zXpXsXsXsXsXsXsXsXpXpXsXiXiXpXpX0X0XiXiXiXiXiXiX0X0XiXiX8X7X0X7X<Xv.1X5X1X1X1X1X3X3X^.y.8.f.l.l.v.M.N.P.I.I.I.I.^.(.;X;X;X;X;X;X;X;X;X;X;X:X>X>X>X>X>X>X",
"1X1X1X1X1X<X<X<X:X:X:X:X:X:X:X:X:X;X;X;X;X(.^.I.I.P.N.M.v.l.f.=.;.:X9X7X7X8XiX9X5X:X<X7XiXiXiXiXpXpXpXiXpXpXpXpXpXpXpXpXpXiX0XiXiXiXiXiX9XiX3X).<XaXaXaX5Xy.A v B Z z k z z z c N N N z h i B z i i g k z z z x c z c c c c c c c c c c c +.P I I I C C v C z z k h k B B S S z c v z h k k z x c c k k c c C c c c c c c c z z c c c c c c c c c c z z h e g g h k x z z x x x x p t g k k k k k k k b c c c c z c C e p k z k k k k z z z k k x x k h k k k k h h h h h h h h k x x x x 9 7 p g p g h k h x h p p i p i p p i g g h k x x x x x x k x x g k g g t g c c x x c v x x c x k g g h h i p g C h i g g g g p p g p i i g i g g g h h k k k k k k h h h i p 0 8 I x i i a a i g g g g g e h h k z z z z z z z z z z x x x x h k z v c c z z z z z z C c z x C C C S N N N B N z h i i h z c B S z z Y C C A A C B l A h i p t t i k B B B B z z z h e k z z z z z z z k k b h k z z z C C I z.aXzXiXpXpXsXsXsXsXsXsXsXsXpXpXpXpXpXiXpXpXiXiX0X0X0X0X0X0X7X7X8X;Xv.<X5X5X3X5X5X5X5X(.g.f.g.k.v.M.N.P.T.I.I.I.I.I.^.(.;X;X;X;X;X;X;X;X;X;X;X:X:X>X:X>X",
"1X1X1X1X<X<X<X<X:X:X:X:X:X:X:X:X;X;X;X;X(.^.I.I.N.N.M.v.l.g.;.O.).<X1X5X5X7X7X3X(.3X0X7XiXiXpXpXpXpXpXpXpXpXpXiX9XpXpXpX8X8X7X8X8X8X8X8X3X6X<X^.9XaXaX5Xz.z h C h k P =.f.y.y.t.8.8.7.q.,.&.7.>.;.q.0.t.8.8.t.f.f.f.h.f.f.f.f.f.c.x.V.M.v.8.=.#.#.o.v x x e , 6 v $.7.f.f.l.M.M.v.v.l.g.h.c.x.x.V.x.l.l.h.h.h.h.g.g.h.h.h.f.f.f.h.h.f.f.h.f.f.f.8.e.f.f.8.8.l.v.f.f.y.y.y.e.e.e.8.8.f.g.g.g.h.h.c.c.c.c.c.c.c.c.g.f.t.o.>.8.e.8.f.f.f.f.f.f.e.e.h.f.f.f.f.f.f.f.f.f.f.f.f.f.f.f.f.f.g.g.h.f.f.g.8.8.8.8.,.>.>.>.;.;.;.;.&.#.#.$.=.=.>.>.,.,.,.,.8.8.8.f.f.e.8.f.8.<.8.g.l.g.g.l.v.g.f.l.f.f.e.8.f.t.e.8.e.l.g.l.l.c.l.l.g.g.h.h.e.e.f.t.f.f.f.f.f.f.g.h.h.h.h.l.l.c.g.f.8.8.g.e.8.e.t.f.t.t.t.t.e.8.,.f.8.e.f.f.t.t.t.t.t.t.f.f.t.t.t.t.e.f.f.g.f.f.f.f.g.f.g.k.x.v.M.N.M.M.M.M.M.b.f.t.;.I c C 7 6 e p i z B C ,.j.P.^.I.^.^.P.k.8.8.v.N.v.l.l.M.M.M.M.M.M.T.v.@.8.n.n.L.n.l.j.t.7.&.A g g k Z k i g z Y n.8X1X8X8X7X5XiXiXiXiXiXiX9X9XiXpXpXkXsXpXpXpXiX0X0X0X0X0X8X8X8X5XI.v.1X5X5X3X:X(.<X2XI.f.8.f.k.l.v.M.T.P.I.I.I.I.I.^.(.(.;X;X;X;X;X;X;X;X;X;X;X;X;X;X",
"2X<X>X>X<X<X1X>X:X:X:X:X:X:X:X;X;X;X;X(.^.I.B.N.N.M.v.l.l.e.8.M.P.n.P.<X0X5X<Xf.n.1XpX0XiXiXiXiXpXpXpXpX7X7X1X1X1X1X1X1X1X1X1X1X1X1X1X1X<X2X4X4XcXtX6Xb.S h z C C k.(.2X5X5X1X<X1X5X7X8X8X7X9X9XpXVXzXpX9X0XpXkXkXkXkXkXkXkXzXkXVXCXZXSX1Xg.,.=.P v x k v x x ,.;X3X7XkX0XpXkXpXVXfXpXfXVXVXVXCXCXCXVXVXfXfXfXfXVXVXVXVXVXpX0X0XpXpXpXpXCXCXVXVXpXkXVXCXVXVXFXAXSXSXSXAXAXCXCXCXAXSXSXAXAXAXAXAXAXAXCXCXCXCXCXCXCXCXVX0XpXkXVXkXCXCXCXSXSXSXCXVXSXSXAXAXSXSXSXSXAXCXAXAXAXAXAXAXSXSXSXSXSXFXSXVXAXSX7X;X9XpXpXkXVXVXVXVXVXkXpXVXVXVXCXAXVXVXVXVXfXfXqXwX7X9X1X0XVXCXZXSXFXFXFXFXFXSXSXSXSXSXSXSXSXSXSXSXSXSXAXSXAXSXSXSXZXZXCXZXZXCXCXCXCXCXCXZXVXVXZXSXSXSXSXAXCXCXVXVXAXkX0X8XkXVXAXAXVXVXVXVXCXCXVXAXVXVXCXVXVXVXVXVXAXAXAXAXCXCXZXCXCXCXCXCXkXkXVXVXVXVXVXVXVXVXVXVXfXfXVXVXkXpXpX0XpX7X3X3X>.k x x k b g g Z v.9X0XpXkXVXkXkX0XkXVXkXVXVXkXkXkXkXkXpXkXCXpX7X8XkX0XVXVXkXkX0X9X7X,X;XI.Y.1XV.b e h I T j.5X9X8X5X1X:X:X;X<X:X:X;X;X;X:X:X<X1X1X7X7X7X7X7X7X7X8X8X8XiXiX8XY.t.I.5X5X(.b.v.;X1XI.f.8.t.g.l.v.M.P.P.I.I.I.I.I.^.^.(.(.;X-X;X;X;X;X;X;X;X;X;X;X",
"<X<X1X>X>X>X>X1X:X:X:X:X:X:X;X;X;X;X(.^.I.I.N.N.M.v.l.g.e.v.(.(.(.I.<X3X7X1Xg.f.1X0XpXpXiX0X0X0X9X9X9X7X1X1X7X9X7X7X7X7X7X7X8X8X9X9X8X8X9X5X5X6X8X2XG.&.k c c ,.8X8XsXsXsX0X5X1XT.Q.1X8XwX9XpXpXCXVXVXCXVXVXkXkXkXkXkXkXkXkXzXVXVXVXVXVX0X>X-XN.V.v.v.v.B.:X0XkXVXkXpXVX0XVXVXVXVXfXVXVXVXVXCXZXCXCXZXZXZXZXZXZXCXVXDXDXVXVXVXVXVXVXVXVXZXZXCXCXCXCXVXVXVXpXAXCXVXVXAXSXAXAXAXAXSXCXCXAXAXAXAXAXAXAXAXAXAXAXAXAXSXAXVXSXSXAXAXAXSXSXSXSXSXSXSXSXSXSXDXDXAXSXSXSXAXAXAXAXZXZXZXZXSXSXDXVXSXSXDXVX0XCXB.$.>XVXCXCXAXAXSXAXAXVXVXCXVXDXSXSXVXVXVXDXVXVX,Xf.f.B.B.qXSXSXSXSXDXSXSXDXVXVXVXVXZXZXZXSXAXAXAXSXSXSXSXVXSXSXSXSXZXZXZXZXSXSXSXSXSXSXSXSXDXDXSXSXDXSXDXDXCXZXZXZXVXVXVXVXAXSXSXDXSXVXVXVXVXVXAXVXVXAXVXDXSXSXDXDXSXSXSXSXZXZXZXZXZXDXVXVXVXVXVXVXVXVXVXVXVXVXVXVXVXVXDXVXZXVXVXVXVXkXVXCX8X-Xl.f.v.g.t.l.v.-X8X0XkXkXkX0XVXkXkXVXpXVXkX0X0X0X0X0XVXpXpX8X3X8X7X8X0X0X0XqX0XqXpXVXpXpXsXpXfXN.h i c Y Y <XzXsXiX8X8X8X8X8X8X8X7X7X7X7X5X3X3X1X1X<X1X3X3X3X3X7X8X8X5X1XiX5XI.v.I.2X<X(.P.I.1X3X^.f.e.e.f.l.l.M.P.P.P.T.I.I.I.I.^.^.-X-X;X;X;X;X;X;X;X;X;X;X",
"(.1X<X1X,X,X>X>X:X:X:X:X:X:X;X;X-X^.^.I.I.I.N.M.v.l.f.8.N.:X<X(.<X7X9X8X1X1X9XpXpX9X8X7XiX8X8XsXsX9X7X1X8X8X5X1X1X1X3X5X1X1X1X1X1X1X1X<X1X<X6XiX2Xk.&.A c c 8.0XsXsXiXiXsXsXzX1XN.;X7XpXpXkXVXCXkXVXVXzXkXkXkXVXVXkXVXVXkXkXkXkXVXVXVXkXCXCXCXCXCXAXAXAXCXVXkXkXkXkXkXkXVXVXVXVXVXVXVXVXpXkXCXAXVXVXVXCXCXCXCXCXVXVXVXVXVXVXVXfXVXVXVXCXAXAXAXAXAXCXVXVX0XkXAXAXCXAXAXAXSXAXAXAXSXSXZXZXZXSXSXAXSXSXSXSXAXAXAXAXSXSXSXSXCXCXAXAXSXSXSXSXSXSXSXSXSXSXSXSXAXAXAXAXSXSXSXSXSXSXSXSXAXAXAXAXAXAXAXAXVXqXB.h.3XVXAXVXVXVXVXVXVXVXDXDXDXDXZXSXSXSXSXSXVXVXVX,XB.IXwXVXSXSXSXSXSXSXSXSXZXZXSXZXDXZXZXDXDXDXDXSXSXSXDXDXZXZXZXZXZXZXZXZXZXZXZXZXSXSXSXSXSXSXZXCXCXSXZXZXZXZXZXZXCXZXZXZXZXZXZXZXZXZXSXSXDXDXSXDXDXDXDXDXDXDXDXDXVXVXSXSXSXSXSXDXDXDXDXDXAXAXAXCXCXCXCXCXCXCXZXSXVXVXCXCXVXCXVXVXCXAXCXCXVXVX0X0XVXVXSXSXAXVXkX0XpX0XfXVXkXkXkXkXkXkXkXkXVXVXkXkXpX0X0X0X7X7X7X7X5X3X7X8X0X0X0X0XpXpXpXpXpXpXf.i h C @.7.8X8X5X1X<X<X<X<X<X<X:X:X:X:X:X:X;X>X7X9X3X7X5X5X7X7X3X1X1X1X1X3X7X5X:X^.;X(.(.<X:X1X1XI.k.8.8.k.l.v.M.N.N.N.N.I.I.I.I.^.^.(.;X;X;X;X;X;X;X(.;X(.",
"(.2X<X1X,X,X,X;X:X:X:X:X;X;X(.(.^.^.I.P.N.N.M.v.l.e.f.N.:X1X<X;X8X9X9X7XwXwX9XsX7X7X7X5X5X9XsXsX7X1X1X1X8XI.l.T.;X;X:X:X<X<X1X1X1X1X1X1X3X9XiX8Xf.#.o.P z $.pXkXkXsXsXiXsXpXkXsXsXCXzXkXzXzXkXsX7XpXVXkXpXkXkXkXkXkXkXkXkXkXkXkXVXVXkXkXkXkXkXkXVXVXVXVXCXCXVXVXVXkXkXkXkXkXkXkXkXkXkXkXkXVXCXAXCXCXCXAXCXCXCXCXCXCXCXCXCXVXVXVXVXVXVXCXCXCXCXAXCXVXVXVXpXkXAXCXCXCXAXAXAXAXAXAXZXZXZXZXZXZXZXZXSXSXAXAXAXAXAXAXSXSXAXAXAXCXAXAXSXSXSXSXSXSXSXSXSXSXSXSXAXAXAXAXSXSXSXSXSXSXSXSXAXAXAXAXAXAXAXAXDXVX0XqXkXDXAXVXVXDXDXDXDXDXDXDXDXDXZXZXSXSXDXSXVXSXAXkXVXVXVXDXSXSXSXSXSXSXSXSXZXZXSXSXDXDXDXDXDXDXDXDXSXSXSXSXZXZXZXZXZXZXSXSXSXSXSXSXSXSXSXSXSXZXZXCXZXSXZXZXZXZXZXZXZXZXZXZXZXZXZXZXDXDXZXZXSXSXSXSXSXVXSXSXZXZXSXSXSXSXSXSXSXSXSXDXSXDXDXVXCXCXCXVXCXCXCXCXCXCXCXAXAXAXSXSXAXSXAXCXCXCXCXCXVXVXkX0XVXVXVXAXAXCXkXpXVXpXVXVXVXVXVXVXVXVXVXVXVXVXVXVXVXVXVXkXkXkXkXkX0X9X7X7X7X7X0X0XpXpXpXpXkXCX8X>.g z Z P y.<X<X(.1X1X1X1X1X1X1X1X1X1X1X1XI.N.I.1X:X3XzXzXpXpXiX8X7X7X7X7X7X7X0X7X;X(.;X2X:X;X1X1X(.c.8.8.f.l.v.M.N.N.N.B.I.I.I.I.I.^.(.;X;X;X;X;X;X;X;XI.",
"L.<X<X>X,X,X,X;X:X;X;X(.(.(.(.(.^.I.T.N.M.v.l.k.f.8.N.1X3X1X3X3X9X8XwXwX7X7X7X7X7X7X7X7XpXpX0X3X7X7X9XpX1Xx.1XsXpXpXsXkXkXzXVXVXVXVXVXCXCXAXaX(.@.C Z o.$.:XkXVXzXkXsXpXkX0X5X7X0XpX0X5X3X7X0XpX7X0XpXkXkXzXCXCXCXVXCXCXCXVXCXCXCXCXCXVXVXVXVXVXCXCXCXCXCXVXkXkXkXkXkXkXkXkXkXkXkXkXkXkXkXkXkXVXAXZXZXSXZXZXZXZXZXZXZXSXSXSXZXVXVXVXAXAXAXAXAXAXAXCXCXCXCXCXSXAXSXSXSXSXSXAXAXAXSXZXSXSXZXSXSXSXSXSXSXSXAXAXAXAXSXSXSXSXSXSXSXSXSXSXSXSXZXZXZXZXAXAXAXAXAXAXAXAXSXSXSXSXSXSXSXSXAXAXAXAXAXAXAXAXSXSXSXAXSXSXDXVXDXDXDXDXZXZXZXZXDXDXSXSXDXDXDXVXDXAXSXAXAXSXDXSXSXSXSXSXSXSXSXSXDXSXSXSXSXSXDXDXDXDXAXAXAXAXAXSXZXZXZXZXZXZXZXZXZXZXZXZXSXSXSXSXSXSXFXFXSXSXSXSXSXSXSXSXSXSXSXSXSXSXSXSXSXSXSXSXSXSXSXSXSXAXAXSXSXSXSXSXZXZXVXVXCXVXkXpXVXVXVXVXCXCXCXCXCXCXCXCXCXCXCXCXAXAXFXFXAXSXCXCXCXCXCXCXCXAXCXCXCXCXCXCXCXCXCXCXCXVXCXCXCXCXCXVXVXVXVXVXVXVXVXVXCXCXCXCXCXVXVXVXCXCXpX0X:X;X0XVXpXpXpXpXpX0XkX7XZ k c C A U.aXzXkXkXzXsXzXzXkXkXsXsXsXzXpX9XN.M.^.;XkXzXkXkXsXpXiX8X8X7X7X7X8X8X1X;X;X:X1X<X:X3X3X^.g.8.8.f.l.v.V.M.N.N.P.I.I.I.I.I.^.(.^.^.;X;X;X;X;XN.",
"n.<X<X;X,X,X;X:X;X;X(.(.(.(.^.^.I.T.N.N.v.l.g.f.8.I.1X3X1X1X7X9X7X1X1XwX9X9X9X9X7X9XiXiXpX8X7X0XVXCXsX1Xl.5XiXpXpXpXkXkXpXpXpXpXpXpXpXpXkXiX1X8.P c Z +.;XpXkX0XCXkXkXsXpX7XI.M.1XiXkXpXpXpXpXpX7X1X1X7X9X0X0X0X0X0X0X0X0X0X0X0X0X0X0X0X0X0X0X0X0XpXpXpXkXpXpX0XpXpXpXpXpXpXpXpXpXpXpXpX0X0X0X0X0X0X0X0X0X0X0X0X0X0X0X0XpX0X0X0X0X0XkXkX0X0X0X0XpXpX0X0XpXpXkXpXkXkXkXVXpXpXpXpXpX0X0X0XpXpXpXpXpXpXpXpXpXpXpXpXpXpXpXpXkXkXkXVXVXVXVXCXCXCXCXCXCXCXAXAXAXAXAXAXSXSXSXSXSXSXSXSXAXAXAXAXAXAXAXAXSXDXSXVXSXDXDXSXSXSXSXSXSXSXSXSXDXDXSXSXDXDXDXVXDXAXSXSXSXAXAXSXSXSXSXSXSXSXSXSXSXVXSXSXSXSXSXDXDXAXAXAXAXAXAXAXZXZXZXZXZXCXCXVXCXVXCXVXpXpXpXpX0X0X0XkXpX0X0X0X0X0X0X0X0X0X0X0X0X0X0X0XqXqX0X0X0X0X0X0X0X0X0X0X7X7X8X8X1X1X>X,X>X;X-XI.;X>X1X7X9X9X9X9X9X8X8X9X9X9X9X9X8X7X9X9X7X7X7X7X9X9X9X9X0X0X0X0XpX0X0X0X8X8X0X0X0X0XiXiX9X9X9X9X7X7X7X7X9X9X9X7X7X7X9X0XpXpXpXpXpXkXpX7X1X-X8XpXVXVXpXpX0XzXsXkX1Xc g z z 4.3XzXiXiXsXpXsXsXsXsXpXpXpXpXpXpX9XT.P.:X;XkXkXkXsXpXpX8X7X7X7X7X8X0X0X1X(.I.:X3X1X1X1X1X^.l.e.8.g.l.l.v.v.M.N.P.I.I.I.I.^.^.^.^.(.;X;X;X;XM.",
"p.'.:X;X;X;X;X;X;X;X(.(.(.^.I.I.I.M.v.v.k.t.8.8.I.1X1X1X7X1X7X1X1X1X7X9X7X7X9X7X7X9XiXiX8X3XpXCXCXkX:Xx.1XpXpXpXkXkXzXzXsXsXpXpXVXkXpXpXpX3Xk.;.C k P T.kXkXkXkXkXkXkXVXpX:X^.:X0XI.;XI.N.v.k.l.N.N.N.N.N.N.N.N.B.N.B.B.I.I.I.I.B.B.B.N.B.B.B.B.I.I.I.I.I.I.I.I.B.B.B.B.B.N.V.v.M.N.B.I.B.B.M.V.M.M.M.M.M.M.M.M.B.B.B.B.B.M.M.M.V.V.V.V.v.v.v.v.M.M.M.M.B.B.B.B.B.B.B.B.T.B.B.B.B.B.B.N.M.M.M.M.M.M.M.M.N.T.T.T.N.M.M.M.B.B.B.B.-X;X7X0XCXCXCXCXCXCXCXCXVXVXVXVXVXVXVXVXVXVXVXVXVXVXVXVXVXVXVXVXVXVXVXVXDXDXAXAXSXSXDXDXVXVXVXVXDXVXAXDXDXAXAXAXDXSXSXSXSXVXVXSXDXDXDXDXVXVXVXVXSXVXVX0XqX0XVXVXAXAXAXAXAXAXAXAXCXCXCXCXZXVXVXVXM.M.M.M.B.B.B.B.B.M.M.B.M.M.M.B.B.B.B.M.M.M.M.M.M.M.M.M.M.M.M.M.M.M.M.N.N.N.N.N.x.x.x.x.c.c.c.c.g.g.g.g.M.g.8.v.-X-X;X;X;X-X-X;X-X-X-XT.N.M.x.v.M.M.M.M.N.B.N.N.N.N.M.M.M.N.N.N.I.P.P.N.N.M.M.M.M.M.M.M.N.N.N.N.N.N.N.N.B.B.B.B.M.I.I.I.;X;X-XT.7X8X-XpXzXzXCXsXkXkXkXzXVXB.x i N A 8.:X0XpXpXsXpXpXpXkXsXsXsXsXpXpXpXpXI.P.:X<XzXCXCXsXpX0X7X7X7X7X0X0X0X8X3X;Xf.B.:X3X3X3X1X;Xv.8.8.f.l.v.v.M.M.N.P.I.l.l.^.I.I.I.^.(.(.;X;Xk.",
";./.(.(.-X;X;X;X;X;X(.^.^.^.P.P.N.M.v.l.t.8.8.N.1X3X1X1X1X7X1X1X7X7X9X9X9X9X9X9X7XpXpX8X1XCXAXCXkXI.g.1X0XpXpXpXkXkXzXkXsXsXpXpXpXpXpXpX5Xk.,.@.C Z P.iXkXkXkXkXkXpXkXkX7X;X<XpXv.7.;X1X1X1X1X1X3X7X0XpXpXpXpXpXpXpXpXpXpXpXpXpXpX0X0X0X0X0X0X0XpXpXpXpXpXpXpXpXpXpXpXpXpX0X9X7X0XpXpXpXkXkXpXpX0X0X0XpX0X0X0X0XVXVXVXVXfXpXfXfXkXkXkXkXkXpXpXpX0XpXpXkX0X0X0X0X0X0X0X0XpXpXpXpXpXpX0X0XpXpXpXpXsXsXpXpXpXpXpXpXpXpXpXpX0X0X0X0X9X,X>X0XCXCXCXCXCXCXCXAXCXCXCXCXVXVXVXVXVXVXVXVXVXVXVXVXVXVXVXVXVXVXDXDXDXAXAXDXSXSXDXDXVXVXVXVXAXAXAXDXDXAXAXAXSXSXSXSXSXVXVXSXDXDXDXDXDXDXVXVXSXVXVXVXVXVXVXSXAXAXAXAXAXAXAXAXCXCXCXCXZXVXVXVX0XpXpXpXpXpXpXpXkXkXkXkXkXkXkXkXkXkX0X0X0X0X0X0X0X0X0X0XpXpXpXpX0X0X0X0XpXpXVXCXgXgXgXgXVXVXVXVXpXVXkXkXVXpXpXpXpXpXpXkXVXVXVXVXCXpX9XI.3XCXpXpXVXzXpXpXpXVXpXkXkXkXpXpXpXpXkXkXCXCXCXCXCXkXzXkXkXkXkXkX0X0X0X0XpXpXpXpX0X0X0X0X0X0X7X5X1X1XN.8.-X9X5X;XpXCXpXpXkXkXkXkXVX0XM.x u N @.e.:XsXkXpXsXpXpXkXsXsXsXsXpXpXpXpXiXI.I.^.1XiXzXCXpXiX8X7X7X7X8X0X0X8X7X5X:XN.:X1X3X3X3X3X:XM.f.e.f.l.v.v.M.M.N.P.M.v.I.^.^.^.I.^.^.;X^.e.",
"A z.;X(.;X;X;X;X;X(.^.^.^.I.P.N.M.v.l.f.8.8.N.1X1X1X1X5X1X1X;X8X9X9X9X9XpXpXpXpXpXpX8X3XkXSXCXVXI.g.1XpXpXpXpXkXkXkXkXkXkXkXpXpXpXpXpX7Xv.7.;.P o.I.iXsXkXkXkXkXsXsXkX8XP.;X7XN.&.3XsXsXsXCXCXCXpXzXCXCXCXCXCXCXAXCXAXAXCXCXCXCXCXVXCXVXCXCXCXCXCXCXCXCXCXCXCXCXCXCXCXCXCXCXCXCXAXAXCXCXSXFXSXSXSXSXSXSXAXAXAXAXAXAXAXAXZXVXZXZXAXAXSXSXAXAXAXAXCXCXAXAXSXSXSXSXSXSXAXAXAXCXCXCXZXZXVXVXSXSXSXSXAXAXAXAXAXAXAXAXAXAXAXAXSXSXSXSXSXCXVXVXVXZXZXZXAXAXAXAXAXAXAXAXZXZXZXZXZXZXZXZXCXCXCXCXAXAXAXAXDXDXDXDXAXAXAXAXAXAXAXAXAXAXAXAXAXAXDXDXAXAXAXSXSXSXSXSXSXSXVXSXAXAXDXAXSXSXAXAXAXAXDXDXDXDXAXAXAXAXDXDXAXDXAXAXCXCXCXCXCXCXAXSXAXAXAXAXSXSXSXSXSXAXAXSXSXSXSXSXAXAXAXVXVXCXAXAXCXCXCXCXAXAXCXCXCXCXCXCXpXkXCXAXCXCXCXCXCXCXCXCXVXCXCXCXkXkXAXkXkXVXCXCXCXCXCXAXAXSXVXM.V.kXSXAXAXAXCXCXCXCXCXVXVXVXVXVXVXVXVXVXAXAXCXCXSXCXCXAXCXCXCXCXCXCXVXCXVXVXzXzXzXzXzXCXCXCXzXkXpXkX8X^.7.Y.sX7X<XpXVXsXkXkXkXkXCXkXVXI.x h A *.p.2XzXkXkXzXkXkXkXkXzXsXpXpXpXpXzX0XP.P.I.;X8XCXsXpX0X7X9X9X9X9X9X7X7X7X7X8X1X3X3X3X7X7X7X:XM.f.e.f.g.l.v.M.M.N.N.N.I.I.^.I.I.^.^.(.N.=.",
"B 3.U.(.(.^.^.^.(.^.^.^.^.I.N.N.N.v.g.8.8.P.:X<X1X1X1X5X7X1X5X9XiXiX9X9XiXpXpXpXiX3X5XkXSXVX9XI.c.1X0XpXpXpXVXVXkXkXkXkXkXkXpXpXpXpXpX^.7.;.o.P P.aXsXzXkXkXkXkXsXsXsX;XI.iX;X8.1XpXzXkXpXCXCXkXVXVXVXVXVXVXVXVXCXVXCXCXCXCXCXCXCXVXCXVXCXCXCXCXVXCXCXCXVXCXCXCXCXCXCXCXCXCXCXAXSXAXCXCXCXAXSXSXAXAXAXAXCXCXCXAXAXAXSXSXZXZXZXZXAXAXAXAXCXCXCXCXSXSXSXSXAXAXAXAXAXAXVXVXSXAXAXAXSXSXSXDXSXSXSXSXAXAXAXAXAXAXAXAXAXAXAXAXAXAXSXSXSXSXSXVXVXSXSXSXAXAXAXAXSXSXSXSXSXSXSXSXSXSXSXSXAXAXAXAXAXAXAXAXAXAXAXAXAXAXAXAXAXAXSXSXSXAXAXAXAXAXDXAXVXVXAXAXSXAXAXSXSXSXVXSXAXAXAXAXSXSXSXAXAXAXAXAXAXAXAXAXDXDXDXDXDXDXAXAXCXCXCXCXCXAXSXSXAXAXAXAXSXSXSXAXAXCXCXAXAXAXAXAXAXAXAXCXCXCXCXCXCXCXCXVXVXVXVXCXCXAXAXAXAXCXAXAXAXAXAXSXVXVXVXVXVXVXVXVXkXVXCXVXVXVXCXCXCXVXVXCXCXSXAXqXB.,XVXAXAXAXCXCXZXZXCXCXVXVXVXVXVXVXCXCXVXVXVXVXAXVXVXVXCXCXCXCXCXCXCXCXCXVXkXzXCXCXCXCXCXCXzXzXkXCXVXsX;X8.Y.iX;X;X9XVXkXkXkXkXkXCXCXpXB.Z h A Y l.7XVXzXzXkXkXkXkXzXzXpXpXpXpXpXzX7XI.I.M.(.8XzXpXiX8X9X9X9X9X9X7X7X3X7X8X1XN.:X3X7X7X1X3X:XM.f.e.f.g.l.v.M.M.P.I.I.I.^.I.I.^.^.^.n.o.",
"B P n.:X(.^.^.^.^.^.I.I.I.P.M.v.v.l.t.e.I.>X7X7X8X8X8X8X8X8X8XiXiXiXiXiXpXpXpXiX5X9XzXAXAX5XT.l.1XpXkXkXzXzXzXzXkXkXkXzXkXkXkXkXCXpX(.f.;.O.Z M.7XpXkXkXzXzXVXkXkXpX;XP.8X(.0.<XiXzXVXVXzXCXVXVXCXVXVXVXCXCXCXCXCXCXVXVXVXVXCXCXVXVXVXVXAXAXCXCXCXCXCXCXCXCXAXAXCXCXCXCXCXCXCXAXAXAXAXAXCXCXCXCXAXAXAXAXAXAXAXAXAXAXAXAXAXAXAXAXZXZXZXZXZXZXZXZXAXAXAXAXAXAXAXAXAXAXAXAXAXAXAXAXAXAXAXAXAXAXAXAXSXSXSXSXSXSXSXSXAXAXAXAXAXAXAXAXAXAXAXAXAXAXAXAXAXAXAXAXSXSXSXSXSXSXSXSXSXSXSXSXSXSXSXSXSXSXSXSXSXSXSXSXSXSXSXZXSXSXSXSXSXSXSXSXAXAXAXCXVXVXSXSXSXSXSXSXSXZXZXSXAXAXAXAXAXAXAXAXAXAXAXAXAXAXAXAXAXAXAXAXAXAXAXAXAXAXAXCXCXAXAXAXAXAXAXAXAXAXAXAXAXAXAXAXAXAXAXAXAXAXAXAXAXAXAXAXAXAXAXAXCXCXCXCXAXAXAXAXVXkX7X0XpX0X7X0X0X9X8X7X7X7X1X7X7XpXCXCXVXVXCXCXCXCXCXCXAXAXAXAX8XB.pXSXZXCXVXVXCXZXZXCXCXCXCXCXVXVXVXVXVXVXCXCXCXVXVXVXCXCXCXCXCXCXCXVXVXCXCXCXzXzXzXzXVXVXVXVXVXVXVXVXzX2Xj.:XsX;XT.sXpXVXVXpXpXpXkXkXVXI.S b @.;.v.0XzXiXiXzX0XiXzXkXpXpXpXpXVXkXpXsXI.I.P.l.1XzXzXiXpXpX0X9X9X7X7X7X7X7X7X1XM.1X7X5X3X1X:X^.N.g.e.f.f.l.M.N.N.N.I.I.^.^.^.^.^.(.t.I ",
"S A 9.(.(.^.^.^.^.I.I.P.P.N.v.v.l.t.t.P.:X1X1X7X7X8X8X8X8X8X8XiXiXiXpXiXpXpXpXiX0XzXFXkX;Xv.k.<XzXCXzXzXCXCXCXzXkXkXkXkXkXkXkXkXzX<Xk.7.&.P g.8XpXpXkXkXzXzXkXpXkX:XT.8X:X=.P.aXzXzXVXCXzXzXVXVXCXCXCXVXVXVXCXCXCXCXVXVXVXVXCXCXVXCXVXVXAXAXCXCXCXCXCXCXCXCXAXAXCXCXCXCXCXCXCXAXAXAXAXAXCXCXCXCXAXAXAXAXAXAXAXAXAXAXAXAXAXAXAXAXZXZXZXZXZXZXZXZXAXAXAXAXAXAXAXAXAXAXAXAXAXAXAXAXAXAXAXAXAXAXAXAXSXSXSXSXSXSXSXSXAXAXAXAXAXAXAXAXAXAXAXAXAXAXAXAXAXAXAXAXSXSXSXSXSXSXSXSXSXSXSXSXSXSXSXSXSXSXSXSXSXSXSXZXSXSXSXSXSXSXSXSXSXSXSXSXAXAXAXAXVXCXSXSXSXSXSXSXSXZXZXSXAXAXAXAXAXAXAXAXAXAXAXAXAXAXAXAXAXAXAXAXAXAXAXAXAXAXAXAXCXAXAXAXAXAXAXAXAXAXAXAXAXAXAXAXAXAXAXAXAXAXAXAXAXAXAXAXAXAXAXAXCXCXCXCXAXAXAXAXCX0XM.3XpX8X7X0X9X9X9X8X7X7X7X1X7X0X7XkXVXVXCXCXCXCXCXCXAXAXAXAXVX-X,XSXZXCXVXVXCXCXZXCXCXCXCXCXVXVXVXVXVXVXCXCXVXVXVXVXCXCXCXCXCXCXCXCXVXCXCXCXzXzXzXzXVXVXVXVXzXzXVXVXCXsX2Xj.;XsX;XN.pXVXpXpXpXpXkXkXpXVXI.C z P ;.P.8XzXkXzXpXpXzXkXpXpXpXpXpXzXVXCX9XP.M.v.v.1XsXsXpXpXpX9X9X9X7X7X7X7X7X7X7XI.5X7X7X1X:X<X^.N.l.e.f.k.v.M.N.B.N.I.I.^.^.^.^.P.,.C ",
"S B #.I.(.^.^.^.I.I.P.N.M.v.l.k.y.f.P.1X1X1X1X3X8X8X8X8X8X8XiXiX0XiXpXpXpXpXpXpX0XzXiX;Xl.j.I.pXkXkXzXkXsXsXsXpXpXsXkXkXkXkXkXsX<Xl.8.=.I 8.7XCXpXVXkXkXzXkXkXiX:XI.0X8Xf.T.aXzXzXkXCXCXzXzXVXVXCXCXCXCXCXCXCXCXCXCXCXVXCXCXCXCXCXCXCXCXAXAXAXAXCXCXCXCXCXCXCXCXCXCXCXCXCXCXCXAXAXAXAXAXCXCXCXCXAXAXAXAXAXAXAXAXAXAXAXAXAXAXAXAXZXZXZXZXZXZXZXZXAXAXAXAXAXAXAXAXAXAXAXAXAXAXAXAXAXAXAXAXAXAXAXAXSXSXSXSXSXSXSXSXAXAXAXAXAXAXAXAXAXAXAXAXAXAXAXAXAXAXAXAXSXSXSXSXSXSXSXSXSXSXSXSXSXSXSXSXSXSXSXSXSXSXSXSXSXSXSXSXSXSXSXSXSXSXSXSXSXSXSXSXSXSXSXSXSXSXSXSXSXSXSXSXAXAXAXAXAXAXAXAXAXAXAXAXAXAXVXVXCXAXAXAXAXAXAXAXAXAXAXAXAXAXAXAXAXAXAXAXAXAXAXAXAXAXAXAXAXAXAXAXAXAXAXAXAXAXAXAXAXAXAXAXCXCXCXCXAXAXAXAXCXpXv.0XCXkXpXVXVXVXVXCXVXVX0X1X1XpX1X9XCXCXCXCXCXCXCXCXAXAXAXAXCX9X-X7XSXZXCXCXVXCXAXAXAXAXCXCXCXCXCXCXCXCXCXCXCXCXCXCXCXCXCXCXCXCXCXCXCXCXzXzXzXzXzXzXVXVXVXVXkXkXkXkXCXkXFX2Xj.2XpXT.-X8XVXpXpXkXkXkXkXkXkXv.c Z @.,.P.8XzXkXsXsXiXiXpXpXiXpXsXsXzXzXFX1Xv.P.N.M.8XkXpXpXiXiX9X9X7X7X7X7X7X7X5X1XP.1X8X1X:X:X:X;XB.l.f.f.l.v.M.N.N.N.I.I.^.^.(.v.P C ",
"S S P b.(.^.^.^.I.P.N.N.v.v.k.f.t.I.3X5X1X1X1X5X8X7X7X8X8X8XiX0X0XiXpXpXpXpXpXpXsXAX<XN.M.-XpXpXiX0X0XiX8X7X7X7X0XiXpXsXkXkXkX8Xk.,.&.o.>.1XCXpXpXVXkXkXkXkXiX1XI.0X8Xl.M.sXsXzXzXCXCXVXzXzXzXVXCXCXCXCXCXCXCXCXCXCXCXVXCXCXCXCXCXCXCXCXAXAXAXAXCXCXCXCXCXCXCXCXCXCXCXCXCXCXCXAXAXAXAXAXCXCXCXCXAXAXAXAXAXAXAXAXAXAXAXAXAXAXAXAXZXZXZXZXZXZXZXZXAXAXAXAXAXAXAXAXAXAXAXAXAXAXAXAXAXAXAXAXAXAXAXAXSXSXSXSXSXSXSXSXAXAXAXAXAXAXAXAXAXAXAXAXAXAXAXAXAXAXAXAXAXAXAXAXSXSXSXSXSXSXSXSXSXSXSXSXSXSXSXSXSXSXSXSXSXSXSXSXSXSXSXSXSXSXSXSXSXSXSXSXSXSXSXSXSXSXSXSXSXSXSXSXAXAXAXAXAXAXAXAXAXAXAXAXAXAXVXVXVXAXAXAXAXAXAXAXAXAXAXAXAXAXAXAXAXAXAXAXAXAXAXAXAXAXAXAXAXAXAXAXAXAXAXAXAXAXAXAXAXAXAXAXCXCXCXCXAXAXAXAXCXVXv.;XCXkXpXkXfXVXCXCXVXZXVX0X3XVX7X1XCXCXCXCXCXCXCXCXAXAXAXAXAXCX>X;XVXZXZXCXCXCXCXAXAXAXAXCXCXCXCXCXAXAXCXCXCXCXCXCXCXCXCXCXCXCXCXVXCXCXzXzXzXzXzXzXCXVXVXVXkXkXkXkXkXzXzXzX;Xj.8XsXM.;XpXpXpXpXkXkXpXpXkXpXv.c C o.,.P.5XiX<X:X;X(.;X;X;X:X<X<X:X(.aXCX1Xb.P.M.v.1XpXkXpXiX9X9X7X7X7X7X7X7X<X7X7X^.(.<X1X3X3X:X;X^.l.f.g.l.v.M.N.N.N.I.I.^.;Xk.v C ",
"U A z e.^.(.I.N.P.N.N.M.n.k.f.f.;X1X7X3X5X5X5X9X8X8X7X8XiXiX0XiXpXpXpXpXpXsX8X9X9XQ.T.M.I.9XpXpXkXsXsXpX9X9X8X8X1X:X9XzXCXCX<Xk.=.;.$.=.1XVXCXzXVXkXzXCXpXCX(.;X7XkXv.g.CXCXCXCXVXVXVXVXzXzXVXVXCXCXCXCXCXCXCXCXCXCXCXCXCXCXCXCXVXVXVXCXAXAXAXAXCXVXVXCXCXCXCXCXCXCXCXCXCXCXAXAXCXCXCXCXCXCXCXCXAXAXAXAXAXAXVXVXAXAXAXCXCXAXAXAXZXZXZXZXZXZXZXZXAXAXAXAXAXAXAXAXAXAXAXAXAXAXAXAXAXAXAXAXAXAXAXAXSXSXSXSXSXSXSXSXAXAXAXAXAXAXAXAXAXAXAXAXAXVXVXAXAXAXAXAXAXAXAXAXSXSXSXSXSXSXSXSXSXSXSXSXSXSXSXSXSXSXSXSXSXSXSXSXSXSXSXSXSXSXSXSXSXSXSXSXSXSXSXSXSXSXSXZXSXSXSXSXAXAXAXAXAXAXAXAXAXAXAXAXAXAXCXVXVXAXAXAXAXAXAXAXAXAXAXAXAXAXAXAXAXAXAXAXAXAXAXAXAXAXAXAXAXAXAXAXAXAXAXAXAXAXAXAXAXAXAXAXAXAXAXAXAXAXAXAXCXkX:Xv.8XkXpX0XpXfXVXVXCXpX1X>X1X7XpX:X0XCXCXCXCXCXCXCXCXCXCXCXCXAXkX-X1XCXCXCXCXCXCXAXCXCXCXCXCXCXCXCXCXAXCXCXCXCXCXCXCXCXCXCXCXCXCXCXCXCXzXzXzXzXCXCXCXCXVXVXVXVXzXzXkXkXzXVXCX;Xj.rXiXM.;XpXfXfXpXpXkXpXkXkXCXg.z C O.;.^.iX5X:X2X1X5X5X5X5X5X5X5X5XsXzXsX8Xn.I.M.k.2XaXiXiX0X8X7X7X8X8X7X7X3X3X7X8X(.I.3X7X3X:X>X^.^.l.e.7.k.M.M.N.N.N.I.I.I.8.x I ",
"U A z %.P.^.I.B.P.N.M.v.f.t.v.(.3X3X5X3X7X0XiX9X8X8X7X9X0X0X0X0XiXpXpXiXpX0XsXpXQ.V.T.T.1XpXpX0XsXsXkXpXpXsXsXsXpX0XzXCXzX5Xv.,.=.=.@.T.VXCXVXVXkXkXCXkXpX:X;X0XiXM.g.8XVXVXVXVXVXVXVXVXzXzXVXVXCXCXCXCXVXCXCXCXCXCXCXCXCXCXCXCXVXVXVXVXAXAXAXAXCXVXVXCXCXCXCXCXCXCXCXCXCXCXAXAXCXCXCXCXCXCXCXCXAXAXAXAXCXkX3X3XpXVXAXCXAXAXAXAXZXZXZXZXZXZXZXZXAXAXAXAXAXAXAXAXAXAXAXAXAXAXAXAXAXAXAXAXAXAXAXAXSXSXSXSXSXSXSXSXAXAXAXAXAXAXAXAXAXAXVXVXVXVXVXAXSXSXSXSXSXSXSXSXSXSXSXSXSXSXSXSXSXSXSXSXSXSXSXZXSXSXSXSXSXSXSXSXSXSXSXSXSXSXSXSXSXSXSXSXSXSXSXSXSXSXSXZXSXSXSXSXAXAXAXAXAXAXAXAXAXAXAXAXAXAXAXAXAXAXAXAXAXAXAXAXAXAXAXAXAXAXAXAXAXAXAXAXAXAXAXAXAXAXAXAXAXAXAXAXAXAXAXAXAXAXAXAXAXAXAXAXAXAXAXAXAXAXAXAXCXCXkXv.:XCXkXVXpXfXVXVXVX0X9XpX0X1XpX7X7XpXCXCXCXCXAXAXCXCXCXCXCXCXAX7XI.pXzXCXAXCXCXCXCXCXAXzXzXCXCXkXkXCXAXCXCXCXCXCXCXCXCXCXCXCXCXCXCXCXzXzXzXzXCXCXCXCXVXVXVXVXzXzXkXkXkXVXVXpXY.x.iX8XM.;X9XpXpXkXkXkXPXkXVXpX8.z v P ;.;XzXsXiXaXsXsXsXsXsXsXsXsXsXzXzXsX9X(.P.x.l.5XiXiX0X9X9X7X8X8X7X5X3X5X7X7X8X8X7X7X3X>X;X:X-X^.l.8.8.k.v.M.M.N.P.I.n.P h I ",
"T A N B b.^.I.B.N.v.k.f.8.t.N.:X1X1X3X7X0X1Xb.<X9X9X0X0X0X0X0X0X0XsXsX0X3XpXpX;XV.M.,X1X0XVXpXpXsXsXpXpXVXVXzXzXCXVXAXzX8XN.8.;.;.O.v.pXSXCXVXkXzXCXkXpX:XI.5XpXI.k.9XpXVXVXVXVXVXVXVXVXVXCXCXVXCXCXCXCXVXVXCXCXCXCXCXCXCXCXCXCXVXVXVXVXCXCXAXAXCXCXCXCXCXCXCXCXCXAXAXCXCXCXCXAXCXCXCXCXAXAXCXCXAXAXAXCXVXkX8X0XpXVXAXCXAXAXAXAXZXZXZXZXZXZXZXZXAXAXAXAXAXAXAXAXAXAXAXAXAXAXAXAXAXAXAXAXAXAXAXAXSXSXSXSXSXSXSXSXAXAXAXAXAXAXAXAXAXAXVXkXkX0X0XkXVXVXVXVXVXVXVXCXVXVXVXSXVXSXSXDXZXZXSXSXZXZXSXSXSXSXSXSXSXSXSXSXSXSXSXSXSXSXSXSXSXSXSXSXSXSXSXSXSXSXSXSXSXSXSXSXAXAXAXAXAXAXAXAXAXAXAXAXAXAXAXAXAXAXAXAXAXAXAXAXAXAXAXAXAXAXAXAXAXAXAXAXAXAXAXAXAXAXAXAXAXAXAXAXAXAXCXCXAXAXAXAXAXAXAXAXAXAXAXAXAXAXAXAXAXCXAX:Xv.kXVXVXpXfXVXVXkX0XpXCXVX9X0XkX1X0XCXCXCXCXAXAXCXCXCXCXCXCXFXCX:X9XzXzXpXkXCXAXAXAXAXAXCXAXzX0XkXCXCXCXCXCXCXCXCXCXCXCXCXCXCXCXCXCXzXzXzXCXCXCXzXzXzXzXVXVXVXVXkXkXVXVXkXCXsXM.x.pX8XM.-X7X0XPXPXkXkXkXkXkX0X7.z C I 8.5XzXzXVXpXpXpXpXkXkXkXkXkXsXkXVXzXaX<XI.l.v.3X9X0X0X9X9X9X9X8X7X7X7X5X3X1X5XI.3X1X>X:X:X>X1X^.k.,.7.k.v.M.N.N.P.f.x h Y ",
"Y L N l e.P.N.M.l.g.t.8.y.N.1X;X>X1X7XpX:Xt.I.3X9X9X0X0X0X0X0X0X8XsXsX8X3X0X;Xx.M.,X8XfX0XkXpXpXkXsXpXpXzXzXpXpXCXCXCX0X(.f.,.;.#.k.0XVXCXCXCXkXCXkXpX7X;X8XpXP.f.iXzXVXzXVXVXVXVXVXVXVXVXVXCXCXCXCXCXCXVXVXCXCXCXCXCXCXCXCXCXCXVXVXVXVXCXCXAXAXAXCXCXAXCXCXCXCXCXCXAXCXCXCXCXAXCXCXCXAXAXCXCXCXAXAXAXCXVXVXVXCXAXAXAXCXCXAXAXAXZXZXZXZXZXZXZXZXAXAXAXAXAXAXAXAXAXAXAXAXAXAXAXAXAXAXAXAXAXAXAXAXSXSXSXSXSXSXZXSXAXAXAXAXAXAXAXSXAXCXVXVXVXVXVXVXCXCXCXCXAXAXAXAXSXSXSXSXDXSXDXDXZXZXSXSXZXZXSXSXSXSXSXSXSXSXSXSXSXSXSXSXSXSXSXSXSXSXSXSXSXSXSXSXSXSXSXSXSXSXSXSXAXAXAXAXAXAXAXAXAXAXAXAXAXAXAXAXAXAXAXAXAXSXSXAXAXAXAXAXAXAXAXAXAXAXAXAXAXAXAXAXAXAXAXAXAXAXAXAXCXCXCXCXCXCXAXAXAXAXAXAXAXAXAXAXAXAXAXAXkXCXCXCXl.:XkXpXpXpXVXVXVXpX0XpXkXCX9XCX7X7XpXCXCXCXCXAXCXCXCXCXCXCXAXAX0X1XCXzX<X9XzXFXAXCXAXCXCXCXCXCXCXCXCXVXCXCXCXCXCXCXCXCXCXCXCXCXCXCXzXzXzXCXCXCXzXzXzXzXVXVXVXVXkXkXVXkXVXCXpXsXx.n.sX7XN.-X9XVXkXkXkXkXkXkXCX7X;.k C P f.5XzXzXpXfXVXVXzXkXzXzXCXsXpXzXsXzXaX5X(.j.v.3X0X0X9X9X8X9X8X7X8X7X3X3X1X5X;X=.v.7X>X:X3X3X:XI.e.,.8.k.v.M.N.N.;.h z O.",
"Y L N l P N.n.k.f.t.y.b.;X:X(.(.1XpXpX7X:X1X5X9X5X9X0X0X9X9X0X0XpXsXpX5XiX;Xl.M.1XpXVXpXpXpXkXzXzXzXzXzXCXzXCXpXVXkX0XI.f.e.;.#.n.0XCXCXCXCXkXkXkX0XI.1XiXpXI.e.pXpXCXAXVXVXVXCXVXVXVXVXzXzXzXzXCXCXCXCXCXCXCXCXCXCXCXCXCXCXCXCXCXCXCXCXVXVXVXAXAXAXAXAXAXVXCXCXCXCXCXCXCXCXCXCXCXAXCXCXAXAXAXAXAXAXAXAXCXCXCXCXAXAXAXAXAXAXAXAXAXAXAXAXAXAXAXAXAXAXAXAXAXAXAXAXAXAXAXAXAXAXAXAXAXAXAXAXAXAXAXAXAXAXAXAXAXAXAXAXAXAXAXAXAXAXAXAXAXAXVXVXDXAXAXAXSXSXSXSXSXSXSXSXAXAXSXAXAXAXAXAXSXSXSXSXSXSXSXSXAXAXAXAXAXAXAXAXSXSXSXSXSXSXSXSXSXSXSXSXSXSXSXSXAXAXAXAXAXAXAXAXAXAXAXAXAXAXAXAXSXSXSXSXSXSXSXSXAXAXSXAXAXAXSXAXAXAXAXAXAXAXAXAXAXAXAXAXAXAXAXAXAXAXAXAXDXDXDXAXAXAXAXAXAXAXAXAXAXAXAXAXAXAXAXAXAXAXAXAXCXCXCXCX-Xf.kXkXkXpXVXCXVXkX9X9XkXpXpXpXfX;X0XCXCXCXCXCXAXAXCXCXAXCXCXCXkX:X:XkXkXsXkXCXCXCXCXAXCXCXCXCXCXCXCXCXCXCXCXCXCXCXCXCXCXCXCXCXCXCXVXVXzXzXzXzXCXCXCXCXVXVXzXzXzXzXVXVXVXzXzXzXiXn.N.sX;XM.1XsXzXkXkXkXkXsXsXzX8X$.c P o.x.sXsXzXpXVXpXaXaXaXaXiXiXpXsXiXpXzXsX8X(.v.M.;X5X0XiX0X7X7X7X5X5X5X1X1X1X<X<Xl.7X3X<X1X(.I.I.I.t.;.t.g.x.M.k.A h S #.",
"Y A z j h a.m.e.t.j.M.Y.P.y.,.M.1X1X7X-X1X3X7X0X7X9X0X0XiXiXiXiXiXpXpX7X(.f.t.l.M.I.I.T.-X-X(.(.<X<X<X<X;X1X5X7X7X-XN.v.e.,.;.M.0XzXCXCXVXCXAXCXpX;X3XpXpX^.e.3XpXkXCXCXVXVXVXzXCXVXVXVXVXzXzXzXCXCXCXCXCXCXCXCXCXCXCXCXCXCXCXCXCXCXCXCXVXVXVXVXAXAXAXAXVXCXCXCXCXCXCXAXCXCXCXCXAXAXCXCXAXAXAXAXAXAXAXAXCXCXCXCXAXAXAXAXAXAXAXAXAXAXAXAXAXAXAXAXAXAXAXAXAXAXAXAXAXAXAXAXAXAXAXAXAXAXAXAXAXAXAXAXAXAXAXAXAXAXAXAXAXAXAXAXAXAXAXAXAXAXDXDXAXAXAXAXSXSXSXSXSXSXSXSXSXSXSXAXAXAXAXAXSXSXSXSXSXSXSXSXAXAXAXAXAXAXAXAXSXSXSXSXSXSXSXSXSXSXSXSXSXSXSXSXAXAXAXAXAXAXAXAXAXAXAXAXAXAXAXAXSXSXSXSXSXSXSXSXAXAXAXAXAXCXAXAXAXAXAXAXAXAXAXAXAXAXAXAXAXAXAXAXAXAXAXAXDXDXDXAXAXAXAXAXAXAXAXAXAXAXAXAXAXAXAXAXAXAXAXAXCXCXCXCX9Xf.;XCXkXpXpXVXkXkX9X9XpXpXpX0XVX7X>XCXCXCXCXCXAXAXCXCXCXCXCXCXCX7XM.3XCXzXkXzXzXCXCXAXCXCXCXCXCXCXCXCXCXCXCXCXCXCXCXCXCXCXCXCXCXCXVXVXzXzXzXzXCXCXCXCXVXVXzXzXzXzXVXVXzXzXzXzXzX1XM.M.FX5Xc.2XzXzXzXkXsXsXsXsXVX1X>.Z Z &.f.;X9X8X1X5X<X<X<X<X(.^.(.(.I.P.P.M.v.g.8.;.v.<X0X0XpXpXpXiXiX8X8X8X1X1X<X<X<X2X8X1X;Xf.;.t.n.N.t.=.f.f.l.y.k h C @.",
"P C z h e #.f.;.y.I.(.n.O.C t.<Xf.g.-X1X7X7X9X0X9X0XpXpXpXiX8X7X8XsXsX8X<X1X<X<X1X1X1X1X;X;X;X(.(.(.(.(.P.M.N.N.8.<.,.8.8.#.v.5XkX0XVXVXkXAXCXpX^.7XkXkX:Xe.1XpXkXkXkXkXVXzXzXzXCXCXVXVXVXVXzXzXCXCXVXCXCXCXCXCXCXCXCXCXCXCXCXCXCXCXCXCXVXVXVXVXCXCXAXAXVXVXCXCXCXCXAXAXCXCXCXCXCXCXCXCXAXAXAXAXAXAXAXAXCXCXCXCXAXAXAXAXAXAXAXAXAXAXAXAXAXAXAXAXAXAXAXAXAXAXAXAXAXAXAXAXAXAXAXAXAXAXAXAXAXAXAXAXAXAXAXAXAXAXAXAXAXAXAXAXAXAXAXAXAXAXAXAXAXAXAXAXSXSXSXSXSXSXSXSXAXAXAXAXAXAXAXAXSXSXSXSXSXSXSXSXAXAXAXAXAXAXAXAXSXSXSXSXSXSXSXSXSXSXSXSXSXSXSXSXAXAXAXAXAXAXAXAXAXAXAXAXAXAXAXAXSXSXSXSXSXSXSXSXAXAXAXAXCXVXCXCXAXAXAXAXAXAXAXAXAXAXAXAXAXAXAXAXAXAXAXAXDXDXAXAXAXAXAXAXAXAXAXAXAXAXAXAXAXAXAXAXAXAXAXAXCXCXCXCXCXM.h.pXkXpX0XpXVXpX1X1XpXVXkX0XpXpX-X0XCXCXCXCXAXAXAXAXCXCXCXCXCXkX3X3XCXCXzXkXzXCXCXAXCXCXCXCXCXCXCXCXCXCXCXCXCXCXCXCXCXCXCXCXCXCXVXVXzXCXzXzXCXCXCXVXVXVXVXzXzXVXVXVXkXzXzXzXpXkX1Xk.<XFXU.0.1XpXkXCXzXpXsXsXzXzX;X$.Z @.#.0.M.P.Y.(.<X<X<X<X:X;X:X<X;X<X1X1X7X8X8X5X7XiXpXpXiXiXsXsXaXiXiXiX8X8X5X5X1X1X;Xv.v.f.,.#.t.k.k.f.8.f.g.#.e h C Z ",
"A S z h 8 h #.8.P.:X1X2XN.L.;X;Xc.I.7X9X8X0X0X0XiXiXpXpXiX8X3X1X8XiXsX9XCXpXzXzXVXkXCXCXzXzXsXsXsXsXsXsXiX7XiXv.O.8.>.$.=.v.iX1X1XpXkXCXzXCXpX1X3XkXCX:Xe.:XpXpXkXkXkXkXkXkXzXzXCXCXVXVXVXVXzXzXCXCXVXVXCXCXCXCXCXCXCXCXCXCXCXCXCXCXCXCXVXVXVXVXCXCXAXAXVXVXCXCXCXCXCXCXCXCXAXAXCXCXCXCXAXAXAXAXAXAXAXCXCXCXCXCXAXAXAXAXAXAXAXAXAXAXAXAXAXAXAXAXAXAXAXAXAXAXAXAXAXAXAXAXAXAXAXAXAXAXAXAXAXAXAXAXAXAXAXAXAXAXAXAXAXAXAXAXAXAXAXAXAXAXAXAXAXAXAXAXSXSXSXSXSXSXVXVXAXAXAXAXAXAXAXAXSXSXSXSXSXSXSXSXAXAXAXAXAXAXAXAXSXSXSXSXSXSXSXSXSXZXSXSXSXSXSXSXAXAXAXAXAXAXAXAXAXAXAXAXAXAXAXAXSXSXSXSXSXSXSXSXAXAXAXAXAXCXAXAXAXAXAXAXAXAXAXAXAXAXAXAXAXAXAXAXAXAXAXAXDXDXAXAXAXAXAXAXAXAXAXAXAXAXAXAXAXAXAXAXAXAXAXAXCXCXCXCXSX1X8.1XkXpX0X0XVX0X;XI.3XpXkX9X7XVX1X1XVXCXCXCXAXAXAXAXCXCXCXCXCXCXpX7XpXCXCXzXzXCXCXAXCXCXCXCXAXCXCXCXCXCXCXCXCXCXCXCXCXCXCXCXCXCXVXVXVXCXzXzXCXCXCXCXVXVXVXVXVXVXVXVXkXzXzXkXkXVXkX:XM.T.rXsXk.1XpXCXVXzXzXsXsXiX5XM.,.o.@.&.P 8.5XsXsXsXsXsXiXiXaXaXsXsXzXpXkXCXzXiX8X0X0XpXiX0X8X8XaXiXiX9XiXiX8X8X8X7X1XT.t.N.v.&.c v O.^.V.8.7.c e g c A ",
"S k g r 6 9 &.v.;X<X2X<X<X1X:X<X1X5X9XpXiXiX0XiXiXiX0X9X0X0X7X7X8X8X8X7X8X8X8X8XpXiXiXiXsXsXpXiXiXiXsXsXiXsX<X;.O.;.O.O.f.5XpX7X3X1X3X0XkXkX;X:XzXCX3Xy.^.pXCXkXVXkXVXVXzXzXCXCXCXCXCXCXCXCXCXCXCXCXCXCXCXCXCXCXCXCXCXCXCXCXCXCXAXAXCXCXVXVXVXVXCXCXCXCXVXVXVXCXCXCXCXAXCXCXCXAXCXCXCXCXAXAXAXAXAXAXCXCXCXCXCXCXAXAXAXAXAXAXAXAXAXAXAXAXAXAXAXAXAXAXAXAXAXAXAXAXAXAXAXAXAXAXAXAXAXAXAXAXAXAXAXAXAXAXAXAXAXAXAXAXAXAXAXAXAXAXAXAXDXDXDXAXAXAXAXAXSXSXSXSXSXSXVXVXkX0XkXVXAXAXAXAXSXSXSXSXSXSXSXSXAXAXAXAXAXAXAXAXSXSXSXSXSXSXSXSXSXSXSXSXSXSXSXSXAXAXAXAXAXAXAXAXAXAXAXAXAXAXAXAXSXSXSXSXSXSXSXSXAXAXAXAXAXAXAXAXAXAXAXAXAXAXAXAXAXAXAXAXAXAXAXAXAXAXAXAXAXAXAXAXAXAXAXAXAXAXAXCXAXAXAXAXAXAXAXAXAXAXAXAXCXCXCXCXFXkXg.M.VXpX>X1X0X7X1X;X:X7X7X1X;X7XpXN.pXCXSXCXVXVXVXVXCXCXCXCXCXAXVX7X8XzXVXCXCXCXCXCXCXCXVXCXAXAXCXVXCXCXCXCXCXCXCXCXCXCXVXCXCXCXCXCXCXCXCXVXzXzXzXzXVXzXzXVXVXVXVXVXVXVXVXVXkXkXkXiX1X7.L.FXzXM.I.sXsXpXkXsXsXsXiX1XP.;.C P P o.(.iXiX8X8X8XiXiX8X8XiXiXiXiXiXiXiXiXiXiXiXiXiX8X5X5XiXiX8X8X9X9X9X9X8X8X7X5X;Xf.v.-X-XT.N.-X;Xx.f.P i t k S ",
"B g t 7 p o.l.;X1X5X5X2X1X5X1X;X7X7X9XiX0XiXiXiXiXiXiXiXzXpXpX0X8X8X7X5X5X5X5X5X8X8X8X7X8X8X8X8X8X8X9X8XiX<Xq.o.&.#.P 8.5XpXkXCX0X7X7X5X3X;X1XkXCX3Xg.(.pXCXCXkXkXVXVXVXzXzXCXCXCXCXCXCXCXCXCXCXCXCXCXCXCXCXCXCXCXCXCXCXCXCXCXCXAXAXCXCXVXVXVXVXCXCXCXCXVXVXVXVXCXCXAXAXCXCXCXAXCXCXCXCXAXAXAXAXAXAXCXVXCXCXCXCXAXAXAXAXAXAXAXAXAXAXAXAXAXAXAXAXAXAXAXAXAXAXAXAXAXAXAXAXAXAXAXAXAXAXAXAXAXAXAXAXAXAXAXAXAXAXAXAXAXAXAXAXAXAXAXAXDXDXAXAXAXAXAXAXSXSXSXSXSXSXVXVX0X0X0XkXAXAXAXAXSXSXSXSXSXSXSXSXAXAXAXAXAXAXAXAXSXSXSXSXSXSXSXSXSXSXSXSXSXSXSXSXAXAXAXAXAXAXAXAXAXAXAXAXAXAXAXAXSXSXSXSXSXSXSXSXAXAXAXAXAXAXAXAXAXAXAXAXAXAXAXAXAXAXAXAXAXAXAXAXAXAXAXAXAXAXAXAXAXAXAXAXAXAXCXVXCXAXAXAXAXAXAXAXAXAXAXAXCXCXCXCXCXSX-Xf.0XVX7X>X1X>X;X-XB.B.B.I.^.:X7X:X;XVXCXCXVXVXVXVXCXCXCXCXCXAXCX0X:XzXCXCXCXCXCXCXCXCXVXCXAXCXCXCXCXCXCXCXCXCXCXCXCXVXVXCXCXCXCXCXCXzXkXkXkXzXzXzXCXCXVXVXVXVXVXVXVXVXVXVXkXkXkXzX8X;Xf.<XFXzXN.M.5XkXpXkXzXpXsXiX1Xv.@.k A #.#.(.sXsXsXiX8X8X8X8X7X7X7X7X7X7X8X8X8X5X8X8XiX8X8X8XiXiX9X9X9X9X9X9X0X8X8X8X7Xl.>.>XpX7X1X1X1X-XI.t.z p h b ",
"h g 9 b f.P.:X7X7X7X5X<X5X^.x.:X9X9X9X0XpXpXiXiXiXpXsXkXCXVXkXpXsXiX9X8X8X8X8X8XiX0X0X0X0X0X0X0X9X0XpX8X:X7.Z @.o.v 7.9XpX0XkXVXkXkXPX0X^.:XCXpX5Xv.I.0XCXCXCXCXVXVXzXzXzXzXCXCXCXCXCXCXCXCXCXCXCXCXCXCXCXCXCXCXCXCXCXCXCXCXCXCXAXAXAXAXVXVXVXVXCXCXCXCXVXVXVXVXCXCXCXCXCXCXCXCXCXCXCXCXAXAXAXAXAXAXCXCXCXCXCXCXAXAXAXAXAXAXAXAXAXAXAXAXAXAXAXAXAXAXAXAXAXAXAXAXAXAXAXAXAXAXAXAXAXAXAXAXAXAXAXAXAXAXAXAXAXAXAXAXAXAXAXAXAXAXAXAXDXDXAXAXAXAXAXAXSXSXSXSXSXSXSXVXCXCXVXCXAXAXAXAXSXSXSXSXSXSXSXSXAXAXAXAXAXAXAXAXSXSXSXSXSXSXSXSXSXSXSXSXSXSXSXSXAXAXAXAXAXAXAXAXAXAXAXAXAXAXAXAXSXSXSXSXSXSXSXSXAXAXAXAXAXAXAXAXAXAXAXAXAXAXAXAXAXAXAXAXAXAXAXAXAXAXAXAXDXAXDXDXAXAXAXAXAXCXVXVXVXCXAXAXAXAXAXAXAXAXAXAXCXCXCXCXAXAX0Xf.I.pX7X3X1X1X>X;X-X^.:X3X3X3X0XpXN.pXCXCXCXCXCXCXCXCXCXCXCXCXCXCX:X7XCXCXCXCXCXCXCXCXVXVXCXCXCXCXCXCXCXCXCXCXCXCXCXCXCXCXCXCXCXCXCXzXkXkXkXVXzXzXCXCXzXzXCXCXVXVXzXzXzXzXkXkXkXkXsX0X1Xv.;XCXCX(.v.:XkXpXkXkXpXpXpX7XM.o.j P T =.:XiXsXsX9XsXiXiX8X8X8X8X0X0X0X0X9X9XiXiXaXaXaXaXiXiXiXiXiX0X0X0X0X0X0X7XpX1X8.8.9X7X1X>X,X1X1X-Xt.C k b ",
"z t Z x.;X5X7X5X7X7X1X;X>.8.<X7X0X0X9X0XpXpXiXiXiXzXsXkXkXkXkXkXzXzXsXsXsXsXsXsXsXsXsXsXpXpXkXkXpXsXsX7Xf.P o.o.C ,.5XsXpXVXVXVXkXkXVXVX8XpXpX7XN.;XpX0XkXkXCXCXVXVXVXzXzXzXCXCXCXCXCXCXCXCXCXCXCXCXCXCXCXCXCXCXCXCXCXCXCXCXCXCXAXAXAXAXCXVXVXVXCXCXCXCXVXVXVXVXCXCXCXCXCXCXCXCXCXCXCXCXAXAXAXAXAXAXCXCXCXCXCXCXAXAXAXAXAXAXAXAXAXAXAXAXAXAXAXAXAXAXAXAXAXAXAXAXAXAXAXAXAXAXAXAXAXAXAXAXAXAXAXAXAXAXAXAXAXAXAXAXAXAXAXAXAXAXAXAXDXDXAXAXAXAXAXAXSXSXSXSXSXSXSXSXSXAXAXAXAXAXAXAXSXSXSXSXSXSXSXSXAXAXAXAXAXAXAXAXSXSXSXSXSXSXSXSXZXSXSXSXSXSXSXSXAXAXAXAXAXAXAXAXAXAXAXAXAXAXAXAXSXSXSXSXSXSXSXSXAXAXAXAXAXAXAXAXAXAXAXAXAXAXAXAXAXAXAXAXAXAXAXAXAXAXAXAXDXDXDXDXAXAXAXAXAXCXVXVXVXVXCXAXAXAXAXAXAXAXAXAXCXCXCXCXAXCXAXI.f.;X3X0XAXAXCXCXCXVXkXkXVXkXVXAX3X3XkXCXCXCXCXCXAXAXCXCXCXCXCXAX8XI.sXCXCXCXCXCXCXCXVXVXCXCXCXCXCXCXCXCXCXCXCXCXCXCXCXCXCXCXCXCXCXCXCXzXVXVXVXzXCXCXzXzXCXCXVXVXzXzXzXzXkXkXkXkXkXpXpX8Xv.^.sXCXpXv.5XsXkXkXkXsXpXkX7Xv.z l I P 7.2XaXaXsXsXzXsXpXpXpXpXpXpXpXpXaXaXzXzXaXzXzXaXaXaXaXiXiX0X0X0X0X0X0X0X0X9X;X>.c.1X1X1X1X1X1X3X2Xb.A k ",
"i $.Q.1X1X7X7X7X8XiX5XY.f.1X5XiXiXiX9XpXpXiXiXiXsXiXiXsXsXsXzXzXsXsXkXkXkXkXzXzXzXzXzXzXkXkXzXzXzXCX7Xv.@.P @.S 7.5XCXpXpXkXkXkXVXkXkXkX0X7X1XP.7XpXVXCXCXCXzXzXzXCXCXCXCXCXCXCXCXCXCXCXCXCXCXCXCXCXCXCXCXCXCXCXCXCXCXCXAXAXCXCXCXCXCXCXCXAXAXAXCXCXCXCXCXCXCXCXCXCXCXCXCXCXCXCXCXCXCXAXAXAXAXAXAXAXAXCXAXAXAXAXAXAXAXAXAXAXAXAXAXAXAXAXAXAXAXAXAXAXAXAXAXAXAXAXAXAXAXAXAXAXAXAXAXAXAXAXAXAXAXAXSXSXSXSXSXSXSXSXAXAXAXAXAXAXAXAXSXSXSXSXSXSXSXSXAXAXAXAXAXAXAXAXSXSXSXSXSXSXSXSXSXSXSXSXSXSXSXSXSXSXSXSXSXSXSXSXSXSXSXSXSXSXSXSXZXZXSXSXSXSXSXSXSXSXSXSXSXSXSXSXSXSXSXSXZXZXZXZXSXSXSXSXSXSXSXSXAXAXAXAXAXAXAXAXAXAXAXAXAXAXAXAXSXSXSXSXSXSXSXSXAXAXAXAXAXAXAXAXAXAXAXAXAXAXAXAXVXVXVXVXAXAXAXAXSXSXSXSXZXZXZXAXAXAXAXpXv.v.M.1X7X7X7X7X7X3X3X3X7X7X3X7X>X>XAXCXCXCXCXCXCXCXCXCXCXCXCXAXCX>X1XVXCXCXCXCXCXCXCXCXCXCXCXCXCXVXVXVXCXCXCXCXCXCXCXCXCXCXCXCXCXCXCXCXCXCXzXzXCXCXCXCXCXCXVXVXVXVXVXVXkXkXkXkXkXkXkXkX9X:XI.7X9X7X0XVXkXkXkXpXsXsXsXpXb.c h P @.j.8XaXzXsXzXsXpXpXpXpXpXpXpXsXsXsXzXzXaXaXsXiXaXaXiXiXpX0XpXiX9X9X9X0XpXpX0X(.e.N.7X3X1X1X3X3X2X6XP.P ",
">.<X1X1X1X7X7X7X5X8X<X1X9XiXiXaXpXpXpXpXpXiXiXiXsXsXiXiXiXaXsXsXsXsXkXpXkXkXzXzXzXzXzXzXkXkXzXzXzX7Xv.=.o.@.Z &.5XsXiXkXpXpXkXkXkXkXPX0XCXiX^.5XpXCXCXCXCXCXCXzXzXCXVXVXCXCXCXCXCXCXCXCXCXCXCXCXCXCXCXCXCXCXCXCXCXCXCXCXAXAXCXCXCXCXCXCXCXAXCXAXCXCXCXCXCXCXCXCXCXCXCXCXCXCXCXCXCXCXAXAXAXAXAXAXAXAXAXCXAXAXAXAXAXAXAXAXAXAXAXAXAXAXAXAXAXAXAXAXAXAXAXAXAXAXAXAXAXAXAXAXAXAXAXAXAXAXAXAXAXAXAXAXSXSXSXSXSXSXSXSXAXAXAXAXSXSXSXSXSXSXSXSXSXSXSXSXAXAXAXAXAXAXAXAXSXSXSXSXSXSXSXSXSXSXSXSXSXSXSXSXSXSXSXSXSXSXSXSXSXSXSXSXSXSXSXSXSXSXSXSXSXSXSXSXSXSXSXSXSXSXSXSXSXSXSXSXZXZXZXZXSXSXSXSXSXSXSXSXAXAXAXAXAXAXAXAXAXAXAXAXAXAXAXAXSXSXSXSXSXSXSXSXAXAXAXAXAXAXAXAXAXAXAXAXAXAXAXAXAXCXVXVXAXAXAXAXSXSXSXSXZXZXZXAXAXAXAXAX7X7X7X1X1X:X;X;X;X;X^.^.;X;XI.I.V.1XVXCXCXCXCXCXCXCXCXCXCXCXAXAXCXpX;XpXCXCXCXCXCXCXCXCXVXVXCXCXVXVXVXVXCXCXCXCXCXCXCXCXCXCXCXCXCXCXCXCXCXCXzXzXCXCXCXCXCXCXVXVXVXVXVXVXkXkXkXkXkXkXkXkXpX9X9X3X9XpXpXCXVXkXkXpXsXsXsXpXiXf.z z I @.j.5XCXaXpXsXsXsXpXpXkXkXpXpXsXsXzXzXaXaXsXsXaXaXaXiXiX0XpXpXiXiXiXiXpXpXiX8X5X1XI.3X7X7X3X1X6X8X8XM.",
"1X8X7X7X7X7X7X5X5XY.<X8X7X8XsX9XiXpXpXpXiXiXiXiXiXiXiXiXiXiXaXsXsXsXsXpXsXsXkXkXzXzXzXzXzXzXkXkX7Xn.;.o.@.B o.1XzXzXpXpXpXpXkXkXkXkXpX0XkX3X7XCXVXVXVXzXCXCXCXCXVXVXVXVXCXCXCXCXCXCXCXCXCXCXCXCXCXCXCXCXCXCXCXCXVXCXVXVXAXCXCXCXCXCXCXCXCXCXCXCXAXAXCXCXCXCXAXCXCXCXAXAXAXAXCXCXCXAXAXAXAXAXAXAXAXAXAXAXAXAXAXAXAXAXAXAXAXAXAXAXAXAXAXAXAXAXAXAXAXAXAXAXAXAXAXAXAXAXAXAXAXAXAXAXAXAXAXAXAXAXAXAXSXSXSXSXSXSXSXSXAXAXAXAXAXAXAXAXSXSXSXSXSXSXSXSXAXAXAXAXAXAXAXAXSXSXSXSXSXSXSXSXSXSXSXSXSXSXSXSXSXSXSXSXSXSXSXSXSXSXSXSXSXSXSXSXSXSXSXSXSXSXSXSXSXSXSXSXSXSXSXSXSXSXSXSXSXSXSXSXSXSXSXSXSXSXSXSXAXAXAXAXAXAXAXAXAXAXAXAXAXAXAXAXSXSXSXSXSXSXSXSXAXAXAXAXAXAXAXAXAXAXAXAXAXAXAXAXAXAXAXAXAXAXAXAXSXSXSXSXZXZXAXAXAXAXAXAXCXCXAXkXkXkX0X8X0X0X0X0X0X0XpXkXpXVXVXVXCXCXCXCXCXCXCXCXCXCXCXCXCXCX1X<XzXCXCXCXCXVXCXVXVXVXVXVXVXVXVXVXCXCXCXCXCXCXCXCXCXCXCXCXCXCXCXCXCXCXzXzXCXCXCXCXzXCXzXVXVXVXVXVXkXkXkXkXkXkXkXkXVXpX0X7X0XpXkXVXVXkXkXpXzXzXsXzXVX7X8.z z P =.v.8XzXsXsXpXkXpXpXkXkXpXpXsXsXzXzXzXzXiXiX5X9X9X9X0X0XiXiXiXiXiXiXiX9X9X8X7X7X(.l.;X8X7X3X5X5X8X8X",
"iX8X7X8X7X7X7X1XI.2X5X8X7X8X9X8X8X8X8X9X9X5X5X5X1X3X7XiXiXaXsXsXsXsXpXpXsXsXkXkXzXzXzXzXkXzXsX0XM.,.#.o.C Z 1XsXpXsXpXzXpXpXkXkXkX0X0X0X1X0XCXpXVXVXVXzXzXCXCXCXVXVXVXVXCXCXCXCXCXCXCXCXCXCXCXCXCXCXCXCXCXCXCXCXVXVXVXVXAXCXCXCXCXCXCXCXCXCXCXCXAXAXAXCXCXCXAXCXCXCXAXAXCXAXCXCXAXAXAXAXAXAXAXAXAXAXAXAXAXAXAXAXAXAXAXAXCXAXAXAXAXAXAXAXAXAXAXAXAXAXAXAXAXAXAXAXAXAXAXAXAXAXAXAXAXAXAXAXAXAXAXAXSXSXSXSXSXSXSXSXAXAXAXAXVXVXVXVXSXSXSXSXSXSXSXSXAXAXAXAXAXAXAXAXSXSXSXSXSXSXSXSXSXSXSXSXSXSXSXSXSXSXSXSXSXSXSXSXSXSXSXSXSXSXSXSXSXSXSXSXSXSXSXSXSXSXSXSXSXSXSXSXSXSXSXSXSXSXSXSXSXSXSXSXSXSXSXSXAXAXAXAXAXAXAXAXAXAXAXAXAXAXAXAXSXSXSXSXSXSXSXSXAXAXAXAXAXAXAXAXAXAXAXAXAXAXAXAXAXAXAXAXAXAXAXAXSXSXSXSXZXZXAXAXAXAXAXAXCXCXCXCXVXVXCXCXAXCXCXCXAXAXVXVXAXVXVXAXCXCXCXCXCXCXCXCXCXCXCXCXCXCXpX-XiXCXCXCXCXVXVXVXVXVXVXVXVXVXVXVXCXCXCXCXCXCXCXCXCXCXCXCXCXCXCXCXCXCXCXCXCXCXCXCXzXzXkXVXVXVXVXVXkXkXkXkXkXkXkXkXVXVXpXpX7X0XkXVXVXkXkXpXkXzXzXzXpXpX3X;.k I &.,.v.iXzXzXkXkXpXpXkXkXpXpXsXsXzXzXaX5X1X:X:X<X3X3X5X5X9X9X9X9X9X9X9X9X7X5X5X7X7X:Xv.;X8X7X5X5X1X8X",
"6X6X7X7X7X3X<Xn.1X8X8X8X9XiXiXiX8X9XiXiXiXsXsXsXzXzXzXsXsXsXzXzXsXsXkXkXkXkXkXkXkXkXkXzXCXzXiXM.;.O.I C +.(.pXpXsXsXVXCXCXVXpXpX0X0X0X7XkXkXkXkXCXzXzXCXCXCXCXCXCXCXCXCXCXCXCXCXCXCXCXCXCXCXCXCXCXCXCXCXCXCXCXCXVXVXVXVXCXCXCXCXAXAXAXAXCXCXCXCXCXCXCXCXCXCXAXCXAXAXAXAXAXCXCXCXAXAXAXAXAXAXAXAXCXCXCXCXAXAXAXAXAXAXAXAXCXCXSXSXSXAXAXAXAXAXAXAXAXAXAXAXAXAXAXAXAXAXAXAXAXAXAXAXAXAXAXAXSXSXAXAXSXSXSXSXSXZXZXZXAXAXAXAXVXVXVXVXSXSXSXSXSXSXSXSXAXAXAXAXSXAXSXSXSXSXSXSXSXSXSXSXSXSXSXSXSXSXSXSXSXSXSXSXSXSXSXSXSXSXSXSXSXSXSXSXSXSXSXSXSXSXSXSXSXSXSXSXSXSXSXSXSXSXSXSXSXSXSXSXSXSXSXSXSXSXSXSXAXAXAXAXAXAXAXAXAXAXAXAXAXSXAXAXZXZXSXSXSXSXSXSXAXSXSXAXSXSXSXSXAXAXAXAXAXAXAXAXAXAXAXAXAXAXAXAXSXSXSXSXZXZXZXZXZXZXCXVXCXCXAXAXCXCXAXAXAXAXAXAXAXAXAXCXCXVXCXCXCXCXCXCXCXCXCXCXCXCXCXCXCXCXCX7X1XpXCXCXkXkXVXVXVXVXVXVXVXVXVXVXCXCXCXCXCXVXVXVXCXCXCXCXCXCXCXCXCXCXCXCXCXCXCXCXVXVXVXVXVXVXVXVXkXkXkXkXkXkXkXkXkXkXkXkXpX9X0XkX0XpXkXpXpXpXkXVXpXpXpX>X+.z O.@.,.N.iXzXkXpXkXkXkXkXkXpXsXzXzXzXaXaXiX5X5XiXiXiXiXiXiXiXiXiXiXiXiXiXiXiX0X8X8X8X;XI.;X5X8X7X8X5X",
"3X3X5X7X7X;Xv.<X8X8X8X8XiXiXpXiXiXiXaXzXzXzXsXsXzXzXzXzXsXzXzXzXsXsXkXkXkXkXkXkXkXkXkXkXzXsXP.;.#.#.I z M.sXpXiXsXsXzXCXVXVXpX7X7X5X7XpXkXkXkXkXzXzXCXCXCXCXCXCXCXCXCXCXCXCXCXCXCXCXCXCXCXCXCXCXCXCXCXCXCXCXCXCXCXVXVXVXCXCXCXCXAXAXCXAXCXCXAXCXCXCXCXCXCXCXCXCXAXAXAXAXCXCXCXCXAXAXAXAXAXAXAXAXCXCXCXCXAXAXAXAXAXAXAXCXCXCXAXAXAXSXSXAXCXAXAXAXAXSXAXAXAXAXAXSXAXAXAXAXAXAXAXAXAXAXAXAXAXCXAXAXZXZXZXZXZXZXZXZXAXAXAXAXVXVXVXVXVXVXSXSXSXSXSXSXAXAXAXAXSXSXSXSXSXSXSXSXSXSXSXSXSXSXSXSXSXSXSXSXSXSXSXSXSXSXSXSXSXSXSXSXSXSXSXSXSXSXSXSXSXSXSXSXSXSXSXSXSXSXSXSXSXSXSXSXSXSXSXSXSXSXSXSXSXSXSXSXAXAXAXAXAXAXAXAXAXAXAXAXAXSXAXAXZXZXZXZXZXZXZXZXAXAXAXAXCXCXCXCXCXCXCXCXAXAXAXAXAXAXAXAXAXAXAXAXSXSXSXSXSXZXZXZXZXCXVXVXZXAXAXAXAXAXAXAXAXAXAXAXAXAXAXAXCXCXCXCXCXCXAXAXCXCXCXCXCXCXCXCXCXCXCXsXI.7XCXCXVXVXCXVXDXVXVXVXCXVXVXVXVXVXVXVXVXVXVXVXCXCXCXCXCXCXCXCXCXCXCXVXCXCXCXCXVXVXVXVXVXVXVXVXkXkXkXkXkXkXkXkXkXkXkXVXpX0X3X>X1X1X3X8XkXkXpXpXpXpXkXpXB.Z I #.&.;.P.iXzXVXkXkXkXkXkXkXzXzXzXzXaXaXaXzXzXzXlXzXlXcXlXaXaXaXiXiXiXiXiXiX9X8X8X8X7X;XI.;X7X8X8X5X",
"<X<X3X3X<Xl.(.9X8X9X9X9XiXpXpXiXiXiXcXcXcXzXsXsXsXzXsXsXsXsXsXzXzXzXkXkXkXkXkXkXkXkXkXkXzX(.7.&.#.%.Z 8.8XsX8X0XsXsXzXVXpX1X;X1X3X3X0XzXCXVXVXVXzXVXCXCXCXCXCXCXCXCXCXCXCXCXCXCXCXCXCXCXCXCXCXCXCXCXCXCXCXCXCXCXCXCXCXCXCXCXCXCXCXCXCXCXCXCXCXCXCXCXAXCXCXCXCXCXCXCXCXCXCXCXCXCXAXAXAXAXAXAXAXAXCXCXCXCXAXAXAXAXAXAXAXAXCXVXVXVXAXSXVX0X0XCXFXAXSXSXSXSXAXAXAXAXAXAXAXAXAXAXAXAXAXAXAXAXAXCXCXCXZXCXCXCXZXZXZXZXAXAXAXAXAXCXAXAXZXZXZXZXSXSXSXSXAXAXAXAXAXAXSXSXSXSXSXSXSXSXSXSXSXSXSXSXSXSXSXSXSXSXSXSXSXSXSXSXSXSXSXSXSXSXSXSXSXSXSXSXSXSXSXSXSXSXSXSXSXSXSXSXSXSXSXSXSXSXSXSXSXSXSXSXSXSXSXSXAXAXAXAXAXAXAXAXAXAXAXAXAXAXAXAXZXZXZXZXCXCXCXCXCXAXAXAXVXVXVXVXVXVXVXVXCXCXAXAXAXAXAXAXAXAXAXAXDXDXSXSXSXSXAXSXCXCXCXCXCXCXCXCXCXCXCXCXCXCXCXCXCXCXCXCXCXCXCXCXCXCXCXCXAXAXCXCXCXCXCXCXCXCXCXCX1XM.1XkXVXCXCXCXCXCXCXCXCXVXVXVXVXVXVXVXVXVXVXVXCXCXCXCXCXCXCXCXCXCXzXzXCXCXCXCXCXCXzXzXCXzXCXCXkXkXkXkXkXkXkXkXkXkXkXkXCXkX3X(.B.^.:X1X8XpXkX0XpXfXpX0XpXl.Z O.@.@.;.I.pXCXVXpXkXkXpXsXsXsXzXzXaXsXaXiXaXaXaXiXiXiXiXiXaXaXiXiXiXiXiXiX0X8X8X8X8X7X;XI.:X3X9X7X",
"<X<X1X1Xl.;X3X9XiXiX9X9XpXpXpXpXiXsXzXzXcXcXzXsXsXsXsXsXsXsXsXsXzXzXkXkXkXkXkXkXkXkXkXkX<Xt.#.&.#.Y 7.7XpXpX7X0XsXkXzXCX1X1X8XpXzXCXFXAXCXVXVXCXCXCXCXCXCXCXCXCXCXCXCXCXCXCXCXCXCXCXCXCXCXCXCXCXCXCXCXCXCXCXCXCXCXCXCXCXCXCXCXCXCXCXCXCXCXCXCXCXCXCXCXCXCXCXCXCXCXCXCXCXCXCXCXCXAXAXAXAXAXAXAXAXCXCXCXCXAXAXAXAXAXAXAXAXCXCXVXkXpXpX7X-X:XpXAXCXSXSXSXSXAXAXAXAXAXAXAXAXAXAXAXAXAXAXAXAXCXCXCXCXCXCXCXCXCXCXZXZXAXAXAXAXAXAXAXAXZXZXZXZXSXSXSXSXAXAXAXAXAXAXSXSXSXSXSXSXSXSXSXSXSXSXSXSXSXSXSXSXSXSXSXSXSXSXSXSXSXSXSXSXSXSXSXSXSXSXSXSXSXSXSXSXSXSXSXSXSXSXSXSXSXSXSXSXSXSXSXSXSXSXSXSXSXSXSXSXAXAXAXAXAXAXAXAXAXAXAXAXAXAXAXAXZXZXZXCXCXCXCXCXVXVXVXVXVXVXVXVXVXCXCXCXCXCXCXCXCXCXCXCXVXVXVXVXVXVXCXCXCXCXAXAXCXCXCXCXfXfXVXkXVXVXVXVXCXCXCXCXCXCXCXCXCXCXCXCXCXCXCXAXAXCXCXCXCXCXCXCXCXCXCXCX0Xx.g.1XkXkXVXCXCXCXCXCXCXCXCXCXVXVXzXzXzXzXVXVXCXCXCXCXCXCXCXCXCXCXzXzXzXzXCXCXCXCXCXzXzXzXCXCXVXVXzXzXkXkXkXkXkXkXkXkXzXsXsXsXCXSXCX7X1X0XkXpXpXpXpX0X0X9X8.I @.@.o.,.;XpXVXkXkXkXpXpXkXsXzXzXsXsXaXaXzXzX6XI.P.3XiXiXiXiXiXiXiXiXiXiX0X8X8X8X8X8X7X;XM.:X8X9X",
"3X3X;Xv.<X7X5X5XiX0X9X0XiXiXiXiXiXpXkXzXkXkXiXiXiXcXcXcXiXiXzXzXzXzXkXkXkXkXkXzXzXzXiX^.t.,.%.#.@.0.<XpXpXpXpXpXpXkXCXT.M.;X;XI.I.N.N.M.N.M.V.v.v.v.n.n.n.n.M.M.M.v.l.l.l.l.l.l.l.l.v.b.b.x.b.b.b.v.v.l.l.z.l.l.l.l.v.v.v.v.v.v.v.v.v.v.M.M.M.M.I.I.(.(.;X;XT.T.M.M.V.V.V.v.v.v.v.l.v.v.x.x.v.v.x.x.x.x.x.x.x.x.x.x.x.x.l.l.l.l.k.f.t.8.7.8.f.g.g.g.k.k.c.l.l.l.x.x.x.x.v.v.v.x.x.x.v.v.v.v.v.v.x.x.x.x.g.g.g.g.c.c.c.c.c.c.c.l.h.h.l.l.l.l.l.l.l.l.l.x.l.l.c.c.c.l.l.l.g.h.h.h.l.l.l.l.V.V.V.V.x.x.x.x.c.c.h.k.l.l.l.l.h.h.h.h.g.g.g.g.g.g.c.c.k.c.M.N.l.c.c.c.l.k.k.j.j.j.j.j.c.c.c.c.x.x.x.x.v.v.x.x.x.x.x.l.l.c.c.c.l.l.l.l.x.x.x.x.v.v.v.x.l.l.l.l.l.l.l.l.l.l.l.x.x.x.l.c.x.x.v.M.M.v.v.v.v.n.n.n.l.l.l.l.g.g.g.g.f.f.f.f.f.f.f.f.f.f.f.f.g.g.g.g.g.g.g.g.g.g.g.g.f.f.g.g.g.g.g.g.l.l.l.l.v.l.g.g.f.j.c.l.v.v.v.v.L.M.n.v.M.v.M.P.P.P.L.L.L.M.n.v.n.v.v.b.x.l.l.l.l.l.l.l.l.l.v.v.v.v.v.M.M.M.M.M.M.n.n.n.M.M.M.M.M.M.M.N.T.B.-X7XT.1XpXpXpXpXpXpXpXpX1X,.+.@.@.@.8.5XzXkXkXkXkXkXpXsXaXsXsXsXsXsXsXaXiX:X/.6XiXaXiXiXiXiXiXiXiXiX9X8X9X8X7X7X7X7X>Xc.N.8X",
"7X<XP.1X7X0X0X9X9X9X0XiXiXiXiXiXiXiXiXkXpXkXiXiXkXkXcXcXiXiXzXzXzXzXkXkXkXkXzXzXzXaX:Xy.=.#.=.Y &.;XpXpXpXpXpXpXpXkXCX8XT.x.x.l.v.l.v.l.l.l.l.k.k.k.l.l.l.l.l.x.l.l.k.k.c.c.c.c.k.k.l.l.l.b.b.v.v.n.n.n.v.v.v.v.v.v.v.v.v.v.v.v.M.M.M.M.M.M.M.v.v.v.M.M.v.M.x.f.l.l.l.v.c.c.h.h.g.g.h.h.k.k.c.c.g.g.h.g.j.g.g.g.t.t.f.f.f.f.f.f.k.k.f.t.8.8.f.f.f.f.f.f.k.c.c.c.k.k.k.k.f.f.f.f.f.f.f.f.f.g.g.g.g.g.g.g.f.f.f.f.g.g.g.g.c.c.c.h.h.h.h.h.f.f.f.f.f.f.f.f.h.f.h.h.x.x.x.v.h.h.h.h.g.g.c.c.c.c.c.c.c.x.x.l.l.l.l.l.g.g.g.g.h.h.h.h.k.g.c.c.g.g.h.h.f.g.c.x.c.c.c.c.l.l.l.l.l.l.l.l.g.g.j.j.k.k.c.c.c.c.g.g.g.g.g.g.g.g.g.g.g.g.g.g.g.g.g.g.g.g.g.g.h.h.h.h.f.f.f.f.f.f.f.f.f.e.8.8.8.8.7.8.f.f.j.k.l.l.l.l.k.k.k.k.k.f.g.g.g.g.g.g.h.h.h.h.h.h.h.g.h.g.g.g.g.g.g.g.g.g.l.l.l.l.l.l.h.h.h.h.c.c.c.c.v.N.N.M.M.v.l.k.j.j.j.j.j.j.f.f.f.k.v.v.k.k.k.j.j.j.z.x.x.x.x.x.v.v.x.l.x.l.l.l.k.k.l.l.l.v.M.M.M.M.N.M.M.n.n.v.v.v.v.v.v.v.v.M.M.x.M.B.1X9XpXpXpXpXpXpX0X0XpX(.,.o.o.@.$.f.9XpXkXkXpXkXpXsXsXsXsXsXsXsXsXsXaX6X<X5XiXaXiXiXiXiXiXiXiXiXiX9X9X8X7X7X7X7X9X1Xv.M.",
"I.P.3X8X7X0X0X8X9X0XpXpXiXiXiXiXiXiXiXpXiXpXcXzXkXkXcXcXiXiXzXzXzXzXkXkXkXkXkXkXkX:Xf.;.&.#.@.&.L.sXsXpXpXpXpXpXpXpXCXCXpXpXVXpXkXpXkXkXVXCXCXCXCXCXCXCXCXCXAXAXFXFXAXAXAXAXFXAXAXAXAXAXAXCXCXCXCXCXCXCXAXAXAXCXCXCXCXCXCXCXCXCXAXAXAXAXAXAXAXAXzXzXkXpXpXpX8X>XpXpXkXVXCXCXCXCXSXSXSXSXSXFXFXFXSXSXSXSXAXCXCXCXSXSXSXSXAXAXAXAXAXAXCXCXCXSXFXFXSXAXAXAXFXFXSXSXSXSXSXSXFXFXFXFXSXSXFXFXSXSXSXSXSXSXSXSXSXSXSXSXSXSXSXSXFXFXFXFXFXFXFXFXFXFXFXFXSXSXSXSXSXSXSXSXSXSXSXSXSXSXSXSXSXSXSXSXFXFXFXFXSXFXFXSXSXSXSXSXSXSXSXSXSXSXSXSXSXSXAXAXFXFXFXFXSXAXSXSXCXCXAXAXAXAXSXSXSXSXSXAXSXSXSXSXSXFXFXSXSXSXAXCXAXAXAXAXSXFXSXSXFXFXFXSXSXSXSXSXSXSXSXSXSXSXSXSXAXAXAXAXAXAXAXAXSXSXAXAXSXSXAXCXCXCXCXzXAXAXSXSXAXAXSXSXSXSXSXSXAXAXSXSXFXFXFXFXFXFXFXFXSXSXSXSXAXAXAXAXCXCXAXAXAXAXAXCXCXCXCXCXCXCXCXCXCX8XT.7XVXCXCXCXCXCXCXCXVXzXpXsX3X8XiX0XpXzXCXsXpXsXCXAXAXAXFXAXAXAXAXCXCXCXCXCXCXCXCXCXCXCXCXVXCXCXCXCXzXzXCXCXCXCXCXCXCXCXCXCXCXkXpXpXpXpXzXpXsXsXpXpXiX0XpX9XI.$.o.o.@.&.f.7XkXkXzXzXpXsXaXaXcXcXsXsXaXsXsX8X5XiXiXiXiXiXiXiXiXiXiXiXiX9X9X8X8X8X8X7X7X8X1X-X",
"^.5X0X7X8X0X8X8X0X0XpXpXiXiXiXiXiXiXiXiXpXkXcXzXkXkXkXkXiXiXzXzXzXzXkXkXkXkXkXkX1Xf.;.;.&.o.#.v.sXpXpXpXpXpXpXpXpXpXpXkXCXCXpXCXkXkXCXCXpXkXVXCXCXVXCXCXCXCXCXCXCXzXzXzXCXCXCXCXCXCXCXCXzXCXzXzXVXVXVXVXVXVXVXVXCXCXCXCXCXCXVXVXVXVXVXVXCXCXCXCXCXVXkXpXVX0XV.V.0XpXkXCXCXCXCXCXVXVXCXCXCXCXAXAXCXCXCXCXCXCXCXCXCXCXCXCXCXCXCXAXCXCXCXCXCXCXCXAXCXAXAXCXSXCXZXZXVXVXAXAXAXAXSXSXSXSXSXCXAXCXCXAXVXVXVXVXAXAXAXAXSXSXSXSXCXCXAXAXAXCXCXCXCXCXCXCXZXDXDXVXVXVXDXSXCXCXVXVXSXSXSXSXSXSXSXSXSXSXSXSXAXAXAXAXAXAXSXAXSXSXSXSXCXCXZXDXAXAXAXAXAXAXAXAXAXAXCXCXAXAXAXAXAXAXAXAXAXAXAXAXSXSXSXSXAXAXAXAXCXCXVXVXCXCXAXAXAXAXSXSXSXSXAXAXAXAXAXAXAXAXAXAXAXAXAXAXCXCXCXCXVXVXVXVXSXAXAXAXZXZXVXVXVXCXCXCXAXZXZXZXZXZXZXCXAXCXCXCXCXCXCXCXCXCXCXCXCXCXCXCXCXCXCXCXVXVXVXVXCXCXCXCXzXVXCXCXCXVXCXCXCXCXCXCXCX3X$.x.zXzXzXzXCXCXCXCXCXCXVXkX7X1X1X1X0XVXCXkXpXpXkXVXVXVXVXVXVXVXVXzXCXCXCXVXCXCXCXVXCXkXkXkXkXkXkXkXkXzXkXkXpXpXpXpXpXpXpXkXpXpXpXpXpXzXzXpXpXpXpXpXzXiXiX9X0XN.@.o.o.@.&.k.sXpXzXzXpXsXaXaXcXaXsXsXaXsXsXiXiXaXiXiXiXiXiXiXiXiXiXiXiXiX9X9X8X8X8X7X1X1X7X7X",
"3X8X8X8X8X8X8X0X0X0XiXiXpXpXpXpXpXpXpXpXpXiXzXzXzXzXzXzXzXzXzXzXzXzXzXzXpXpXkX0Xk.8.;.&.&.P t.0XpXpXpXpXpXpXpXpXpXpXpXpXzXzXpXpXkXkXkXkXzXzXVXVXkXkXkXkXVXVXkXkXkXkXkXkXVXVXkXkXVXVXVXVXVXVXVXVXVXVXVXVXVXVXVXVXkXVXVXkXpXkXVXVXVXVXVXpXVXVXCXCXCXCXVXVXfX-XUX<.qX0XkXkXVXVXVXVXVXVXVXVXVXVXVXVXCXCXCXCXCXCXCXVXVXVXVXVXVXVXVXVXVXVXCXVXVXVXVXVXVXVXVXVXVXVXVXVXVXVXCXCXCXCXVXVXCXCXVXVXVXVXAXAXVXVXVXDXDXDXDXDXDXDXDXAXVXVXDXDXVXVXVXVXAXAXCXCXDXDXVXVXVXVXVXVXVXVXDXDXDXDXDXDXZXZXZXZXZXZXZXZXCXCXAXDXDXDXVXVXZXZXSXSXVXVXDXDXDXDXDXDXDXDXVXVXVXVXVXDXAXAXCXCXVXVXVXVXCXCXVXVXCXCXVXVXVXVXVXVXVXVXCXVXVXVXVXVXCXCXCXCXAXAXCXCXVXVXCXVXVXVXVXVXVXVXVXVXVXVXVXVXVXVXVXVXVXVXVXVXDXVXVXVXVXVXVXVXVXVXDXDXZXZXZXZXAXCXCXVXCXCXCXCXCXCXCXCXVXVXVXVXVXVXVXVXVXVXVXVXVXVXzXzXVXzXVXVXVXVXVXVXVXVXVXzXkX7XZ @.1XVXVXVXVXVXVXVXVXkXkXkX7X>X:X:X8XkXVXVX0X0XkXkXVXVXVXVXVXVXVXVXVXVXVXVXVXVXVXVXkXkXkXkXkXkXkXkXkXkXkXkXkXkXkXkXkXkXpXpXpXpXpXpXpXpXpXpXpXpXpXpXpXpXpXpX0X0XM.o.@.@.@.&.k.8XkXkXzXzXcXcXaXaXaXaXaXsXsXaXaXaXaXaXaXaXiXiXiXiXiXiXiXiX9X9X9X8X8X7X7X7X7X7X",
"8X8X8X8X8X8X0XiX0XiXiXiXpXpXpXpXpXpXpXpXpXpXzXzXzXzXzXzXzXzXzXzXzXzXzXzXkXsX0XM.,.;.=.%.P 7.0X0X0XpXpXpXkXpXpXpXpXpXpXpXpXzXpXpXkXkXkXkXkXkXkXkXkXkXkXkXVXVXkXkXkXkXkXkXVXVXkXkXVXVXVXVXVXVXVXVXVXVXVXVXVXVXVXVXVXVXVXVXVXVXVXkXVXVXVXVXfXVXVXVXVXVXVXVXVXB.C.-XqX0XkXkXVXVXVXVXCXCXCXCXVXVXVXVXCXCXCXCXCXCXVXVXVXVXVXVXVXVXVXVXVXVXVXVXVXVXVXVXVXVXVXVXVXVXVXVXVXVXCXCXCXCXVXVXVXVXCXCXVXVXVXVXVXVXVXVXVXDXAXAXSXAXAXDXVXVXDXAXVXVXVXVXCXCXAXAXDXDXVXVXVXVXVXVXCXCXAXAXVXVXDXVXZXZXCXCXZXZXCXCXVXVXVXVXVXVXVXVXDXDXVXVXVXVXDXDXVXVXVXVXDXDXVXDXVXCXCXCXAXAXCXCXCXCXVXVXCXCXVXCXAXCXCXCXVXVXVXVXVXVXVXVXVXVXVXVXVXCXCXVXDXDXVXVXVXVXVXVXVXVXVXVXVXVXVXVXVXVXVXVXVXVXVXVXVXVXVXVXVXVXVXfXfXkXkXVXVXVXVXVXVXVXZXVXVXVXVXVXCXCXCXCXCXCXCXCXVXVXVXVXVXVXVXVXVXVXVXVXVXVXVXVXzXzXVXVXVXVXVXVXVXVXVXVXCXsXe.P N.9XVXVXkXVXfXVXkXpXkXpX0X7X3X7X9XpXpXpXpXpXkXkXkXkXkXkXkXkXkXkXVXVXVXVXVXVXVXVXkXkXkXkXkXkXkXkXkXkXkXkXkXkXkXkXkXkXpXpXpXpXpXpXpXpXpXpXpXpXpXpXpXpXpXpXpXkX7Xk.@.@.@.&.>.l.zXkXzXzXcXcXaXaXsXaXaXsXzXaXiXaXaXaXsXaXiXiXiXiXiXiXiXiX9X9X9X8X8X8X7X7X7X3X",
"8X8X0X8X8X0XiXiXiXiXiXiXpXpXpXpXpXpXpXpXpXpXzXzXzXzXzXzXzXzXzXzXzXzXzXzXCX7XN.>.&.;.;.Y %.<XkX9X0X0X0XpXkXpXpXpXpXpXpXzXpXpXpXpXkXkXkXzXkXkXkXkXkXkXzXzXVXVXVXzXzXzXzXzXVXVXVXzXVXVXVXVXVXVXVXVXVXVXVXVXVXVXVXVXVXkX0X0X0X0X0X0X9X9X0X0XfXfXVXVXVXVXCXCXfXwXqX0X0XfXkXkXVXVXVXVXCXCXCXCXVXVXVXVXVXVXVXVXVXVXVXVXVXVXCXCXCXCXCXCXCXCXCXCXCXCXCXVXVXVXVXVXVXVXVXVXVXVXCXVXVXVXVXVXCXCXCXCXCXCXCXVXVXVXVXVXVXVXAXAXAXAXAXAXCXCXCXCXCXCXCXCXCXCXCXAXZXZXZXCXVXVXVXCXCXAXAXAXCXCXCXCXCXCXCXCXZXZXZXZXVXVXVXVXCXCXCXVXZXZXCXZXCXZXZXZXCXCXCXCXCXCXCXAXCXCXCXCXCXCXCXCXCXCXCXVXVXVXVXCXCXCXCXCXCXCXVXVXVXVXVXVXDXDXDXVXCXCXCXCXCXCXCXCXVXVXVXVXVXVXVXVXVXCXCXCXCXCXVXCXVXVXVXVXVXVXVXVXVXVXfXfXpXpXkXkXVXVXVXVXVXVXCXCXCXCXCXCXCXCXCXCXCXCXCXCXVXVXVXVXVXVXVXVXVXVXVXVXVXVXVXVXzXVXVXVXVXVXVXVXVXVXCXCXVXzX;X>.7.1XkXpXpXfXfXVXfXpXpXpX0X7X7X9XiXpXpXsXpXpXkXkXkXkXkXkXkXkXkXzXzXkXkXkXzXzXzXzXkXkXkXkXkXkXkXkXkXkXkXkXkXkXkXkXzXzXpXpXpXpXpXpXpXpXpXpXpXpXpXpXpXpXpXpX0XkXpX5Xq.P Y &.;.=.N.zXzXzXlXcXaXaXaXiXiXaXcXcXzXzXzXaXaXaXiXiXiXiXiXiXiXiX9X9X9X9X9X8X7X7X7X3X",
"8X0X8X8X9XiXiXiXiXiXiXiXpXpXpXpXpXpXpXpXpXpXzXzXzXzXzXzXzXzXzXzXzXzXzXzX0XI.$.+.&.;.Y z k.zX0X9X0X0X0XpXkXpXpXpXpXpXpXpXpXpXpXpXkXkXzXzXpXpXpXpXzXzXzXzXVXVXVXzXzXzXzXVXVXVXzXzXVXVXVXVXVXVXVXVXVXVXVXVXVXkX0X8X5X;XI.B.^.;X1X1X:X>X1X1X9X0XfXfXVXVXVXVXfXfXfXfXfXfXVXVXVXVXVXVXCXCXCXCXVXVXVXVXVXVXkXkXkXkXkXkXVXVXCXCXCXCXCXCXCXCXCXCXCXCXCXCXVXVXVXVXCXCXCXCXVXVXCXVXVXVXVXVXCXCXCXCXCXCXCXCXVXVXVXVXVXVXVXAXAXCXAXAXCXCXCXCXCXCXCXCXCXCXCXCXZXZXZXCXVXVXCXCXCXCXCXCXCXCXCXCXCXCXCXCXZXZXZXZXVXVXVXVXCXCXVXVXZXZXCXCXZXZXZXZXCXCXCXCXAXCXAXAXCXCXCXCXCXCXCXCXCXCXCXVXVXVXCXCXCXCXCXCXCXCXVXVXVXVXVXVXDXDXDXVXCXCXCXCXCXCXCXCXVXVXVXVXDXDXDXVXVXCXCXCXCXCXVXVXVXVXVXVXVXVXVXVXVXfXfXpXpXpXpXkXVXVXVXVXVXVXVXVXVXVXCXCXzXzXCXCXCXCXCXCXVXVXVXVXVXVXVXVXVXVXVXVXVXVXVXVXVXVXVXVXVXVXVXVXVXVXCXCXsXsX9XM.>.B.7X0XpXpXpXfXpXpXpXpXpXpXpXpXpXpXsXCXiXpXzXkXkXkXzXzXkXkXsXsXkXkXkXkXkXkXzXzXkXkXkXkXkXkXkXkXkXkXkXkXkXkXkXkXzXzXpXpXpXpXpXpXpXpXpXpXpXpXpXpXpXpXpXpX0XkXVXzXP.@.A *.;.=.=.7XzXzXcXcXaXaXaXaXiXaXzXzXzXzXzXzXaXaXsXpXiXiXiXiXiXiX9X9X9X9X9X8X7X7X7X3X"
};
